src/ffmpeg_scripts/luts/argb-bt2020.cube
TITLE "argb-bt2020"
LUT_3D_SIZE 5
# PQ (EOTF Only)/Adobe RGB -> PQ (EOTF Only)/Rec2020, CineEI Shift 0.00, Black Level 0.00% IRE, Input 109% -> Output 109% - Created with LUTCalc v4.01 by Ben Turley October 2020
0.06256172 0.06256172 0.06256172
0.24274956 0.14730308 0.10973600
0.48878227 0.31873468 0.23220747
0.73777393 0.53534801 0.41448341
0.91886608 0.78941543 0.65526857
0.14039982 0.24362899 0.12409081
0.24741843 0.24933209 0.13563320
0.48902160 0.33640647 0.23527755
0.73779084 0.53700128 0.41478687
0.91886608 0.78952675 0.65529113
0.30409382 0.49015245 0.26746110
0.32462908 0.49044635 0.26845768
0.49602621 0.49897401 0.29370389
0.73830411 0.57700910 0.42355942
0.91886608 0.79285359 0.65597573
0.51600029 0.73927341 0.46575667
0.51799913 0.73929415 0.46584783
0.56446517 0.73992350 0.46858089
0.74568203 0.74888650 0.50202803
0.91886608 0.83208328 0.66569026
0.76885596 0.91886608 0.71392334
0.76899285 0.91886608 0.71392979
0.77306719 0.91886608 0.71412602
0.81911777 0.91886608 0.71702111
0.91886608 0.91886608 0.75381042
0.12532338 0.09774451 0.24619716
0.24550982 0.15110216 0.24754269
0.48892185 0.31899727 0.27958380
0.73778379 0.53537018 0.42084514
0.91886608 0.78941691 0.65575712
0.15527826 0.24435459 0.24870218
0.25000000 0.25000000 0.25000000
0.48916082 0.33661702 0.28116197
0.73780069 0.53702306 0.42112747
0.91886608 0.78952823 0.65577957
0.30529414 0.49018854 0.29997751
0.32555441 0.49048233 0.30062241
0.49615523 0.49900681 0.31805706
0.73831391 0.57702333 0.42931934
0.91886608 0.79285502 0.65646065
0.51610427 0.73927595 0.46939941
0.51810089 0.73929669 0.46948699
0.56452710 0.73992603 0.47211438
0.74569108 0.74888880 0.50449625
0.91886608 0.83208421 0.66612793
0.76886301 0.91886608 0.71418586
0.76899990 0.91886608 0.71419230
0.77307393 0.91886608 0.71438798
0.81912185 0.91886608 0.71727512
0.91886608 0.91886608 0.75398180
0.27034354 0.19977426 0.49413854
0.30027258 0.21058669 0.49420538
0.49307392 0.32660274 0.49621800
0.73808335 0.53604271 0.52209394
0.91886608 0.78946198 0.66954011
0.27353220 0.26343966 0.49426401
0.30242325 0.26777997 0.49433076
0.49330235 0.34277999 0.49634067
0.73810020 0.53768384 0.52218672
0.91886608 0.78957325 0.66955951
0.33510749 0.49128096 0.49800506
0.34959689 0.49157128 0.49806916
0.50000000 0.50000000 0.50000000
0.73861178 0.57745537 0.52496844
0.91886608 0.79289844 0.67014846
0.51921589 0.73935338 0.54117982
0.52114743 0.73937411 0.54122011
0.56639355 0.74000292 0.54243847
0.74596632 0.74895864 0.55903405
0.91886608 0.83211243 0.67856794
0.76907754 0.91886608 0.72184726
0.76921410 0.91886608 0.72185319
0.77327891 0.91886608 0.72203354
0.81924593 0.91886608 0.72469772
0.91886608 0.91886608 0.75905456
0.46981371 0.36413088 0.74362588
0.47309263 0.36534936 0.74363058
0.53986839 0.39593421 0.74377346
0.74246482 0.54558947 0.74589075
0.91886608 0.79013541 0.77420224
0.47010813 0.37475479 0.74363470
0.47337666 0.37582976 0.74363939
0.54000643 0.40339553 0.74378227
0.74248090 0.54707263 0.74589936
0.91886608 0.79024586 0.77420858
0.47864643 0.50627943 0.74390279
0.48162777 0.50652623 0.74390747
0.54411513 0.51374297 0.74404993
0.74296907 0.58370880 0.74616102
0.91886608 0.79354721 0.77440150
0.55654294 0.74050712 0.74783404
0.55784286 0.74052759 0.74783853
0.59069103 0.74114870 0.74797510
0.75000000 0.75000000 0.75000000
0.91886608 0.83253472 0.77724780
0.77223690 0.91886608 0.79461960
0.77236888 0.91886608 0.79462231
0.77630013 0.91886608 0.79470467
0.82108696 0.91886608 0.79593122
0.91886608 0.91886608 0.81341298
0.71844708 0.59463966 0.91886608
0.71868209 0.59473581 0.91886608
0.72557000 0.59761786 0.91886608
0.79328555 0.63276789 0.91886608
0.91886608 0.80017436 0.91886608
0.71846786 0.59552316 0.91886608
0.71870282 0.59561842 0.91886608
0.72558926 0.59847406 0.91886608
0.79329483 0.63335912 0.91886608
0.91886608 0.80027337 0.91886608
0.71909849 0.61909977 0.91886608
0.71933188 0.61917401 0.91886608
0.72617388 0.62140721 0.91886608
0.79357704 0.64979282 0.91886608
0.91886608 0.80323802 0.91886608
0.72808106 0.75707236 0.91886608
0.72829313 0.75708949 0.91886608
0.73453068 0.75760963 0.91886608
0.79770888 0.76508052 0.91886608
0.91886608 0.83896160 0.91886608
0.81158971 0.91886608 0.91886608
0.81167570 0.91886608 0.91886608
0.81425598 0.91886608 0.91886608
0.84610042 0.91886608 0.91886608
0.91886608 0.91886608 0.91886608
