src/ffmpeg_scripts/luts/argb-bt2020.cube
TITLE "argb-bt2020"
LUT_3D_SIZE 9
# PQ (EOTF Only)/Adobe RGB -> PQ (EOTF Only)/Rec2020, CineEI Shift 0.00, Black Level 0.00% IRE, Input 109% -> Output 109% - Created with LUTCalc v4.01 by Ben Turley October 2020
0.06256172 0.06256172 0.06256172
0.12172692 0.08436258 0.07300157
0.24274956 0.14730308 0.10973600
0.36528860 0.22659530 0.16327515
0.48878227 0.31873468 0.23220747
0.61299001 0.42200866 0.31601301
0.73777393 0.53534801 0.41448341
0.86304357 0.65800407 0.52756009
0.91886608 0.78941543 0.65526857
0.08211407 0.12212086 0.07708189
0.12382803 0.12469609 0.08060186
0.24296479 0.15899542 0.11140196
0.36533190 0.22968496 0.16373206
0.48879296 0.31961243 0.23234749
0.61299284 0.42226616 0.31605710
0.73777469 0.53542238 0.41449696
0.86304376 0.65802433 0.52756399
0.91886608 0.78942039 0.65526957
0.14039982 0.24362899 0.12409081
0.15354654 0.24389379 0.12468590
0.24741843 0.24933209 0.13563320
0.36625390 0.27514651 0.17264697
0.48902160 0.33640647 0.23527755
0.61305353 0.42760869 0.31699567
0.73779084 0.53700128 0.41478687
0.86304787 0.65845717 0.52764757
0.91886608 0.78952675 0.65529113
0.21549023 0.36647138 0.18837986
0.21909206 0.36652460 0.18853230
0.26931452 0.36765654 0.19170286
0.37155254 0.37410914 0.20770097
0.49037367 0.39755208 0.25051277
0.61341468 0.45415760 0.32237306
0.73788711 0.54590226 0.41649645
0.86307232 0.66099857 0.52814457
0.91886608 0.79015857 0.65541962
0.30409382 0.49015245 0.26746110
0.30513476 0.49016558 0.26750585
0.32462908 0.49044635 0.26845768
0.39135870 0.49210347 0.27388852
0.49602621 0.49897401 0.29370389
0.61496758 0.52160772 0.34226511
0.73830411 0.57700910 0.42355942
0.86317847 0.67130698 0.53027310
0.91886608 0.79285359 0.65597573
0.40459904 0.61446026 0.36015572
0.40490801 0.61446374 0.36016934
0.41127584 0.61453823 0.36046052
0.44191420 0.61498133 0.36217652
0.51513938 0.61688223 0.36924687
0.62075257 0.62390409 0.39212687
0.73990189 0.64646175 0.44658944
0.86358841 0.70311176 0.53808741
0.91886608 0.80260289 0.65809927
0.51600029 0.73927341 0.46575667
0.51609038 0.73927434 0.46576074
0.51799913 0.73929415 0.46584783
0.52863577 0.73941225 0.46636559
0.56446517 0.73992350 0.46858089
0.63981846 0.74187765 0.47668578
0.74568203 0.74888650 0.50202803
0.86511475 0.77189484 0.56275199
0.91886608 0.83208328 0.66569026
0.63759459 0.86451230 0.58379134
0.63761932 0.86451253 0.58379248
0.63814758 0.86451756 0.58381694
0.64123860 0.86454755 0.58396268
0.65360329 0.86467771 0.58459311
0.69033225 0.86518003 0.58699588
0.76516420 0.86704579 0.59552845
0.87078216 0.87391283 0.62275188
0.91886608 0.89791140 0.69037051
0.76885596 0.91886608 0.71392334
0.76886207 0.91886608 0.71392362
0.76899285 0.91886608 0.71392979
0.76976910 0.91886608 0.71396654
0.77306719 0.91886608 0.71412602
0.78483315 0.91886608 0.71474116
0.81911777 0.91886608 0.71702111
0.89115973 0.91886608 0.72535034
0.91886608 0.91886608 0.75381042
0.07744793 0.06986949 0.12327613
0.12296623 0.08562884 0.12388428
0.24287510 0.14747944 0.13502782
0.36531384 0.22663734 0.17237269
0.48878850 0.31874642 0.23518174
0.61299166 0.42201209 0.31696450
0.73777437 0.53534900 0.41477720
0.86304368 0.65800434 0.52764478
0.91886608 0.78941549 0.65529041
0.08704388 0.12244653 0.12440992
0.12500000 0.12500000 0.12500000
0.24308993 0.15913305 0.13587153
0.36535713 0.22972506 0.17275565
0.48879919 0.31962403 0.23531561
0.61299450 0.42226958 0.31700806
0.73777513 0.53542337 0.41479071
0.86304388 0.65802460 0.52764868
0.91886608 0.78942046 0.65529142
0.14118030 0.24366152 0.14312881
0.15413142 0.24392619 0.14350254
0.24753567 0.24936202 0.15083933
0.36627885 0.27516732 0.18035925
0.48902781 0.33641588 0.23812029
0.61305518 0.42761191 0.31793542
0.73779128 0.53700225 0.41507965
0.86304798 0.65845744 0.52773219
0.91886608 0.78952681 0.65531297
0.21568081 0.36647790 0.19428369
0.21927206 0.36653112 0.19442121
0.26940045 0.36766298 0.19729136
0.37157597 0.37411511 0.21202211
0.49037979 0.39755662 0.25279444
0.61341633 0.45415999 0.32325135
0.73788755 0.54590315 0.41678360
0.86307243 0.66099883 0.52822874
0.91886608 0.79015863 0.65544144
0.30414776 0.49015406 0.26926245
0.30518797 0.49016719 0.26930609
0.32467058 0.49044796 0.27023460
0.39137727 0.49210505 0.27553877
0.49603197 0.49897548 0.29497154
0.61496920 0.52160887 0.34295183
0.73830455 0.57700974 0.42382450
0.86317858 0.67130722 0.53035537
0.91886608 0.79285366 0.65599741
0.40461498 0.61446069 0.36070893
0.40492389 0.61446417 0.36072246
0.41129060 0.61453866 0.36101172
0.44192464 0.61498175 0.36271654
0.51514406 0.61688265 0.36974335
0.62075409 0.62390448 0.39250662
0.73990232 0.64646205 0.44679420
0.86358852 0.70311193 0.53816308
0.91886608 0.80260295 0.65812047
0.51600493 0.73927352 0.46592230
0.51609501 0.73927445 0.46592637
0.51800367 0.73929426 0.46601330
0.52863982 0.73941236 0.46653012
0.56446793 0.73992362 0.46874146
0.63981970 0.74187776 0.47683269
0.74568243 0.74888660 0.50213954
0.86511486 0.77189492 0.56281015
0.91886608 0.83208332 0.66570983
0.63759586 0.86451233 0.58383787
0.63762060 0.86451256 0.58383901
0.63814884 0.86451759 0.58386345
0.64123982 0.86454758 0.58400912
0.65360436 0.86467774 0.58463924
0.69033297 0.86518006 0.58704085
0.76516452 0.86704582 0.59556953
0.87078226 0.87391286 0.62278268
0.91886608 0.89791142 0.69038558
0.76885628 0.91886608 0.71393506
0.76886239 0.91886608 0.71393535
0.76899317 0.91886608 0.71394151
0.76976941 0.91886608 0.71397826
0.77306749 0.91886608 0.71413772
0.78483342 0.91886608 0.71475278
0.81911796 0.91886608 0.71703245
0.89115981 0.91886608 0.72536072
0.91886608 0.91886608 0.75381808
0.12532338 0.09774451 0.24619716
0.14298403 0.10302381 0.24625774
0.24550982 0.15110216 0.24754269
0.36585264 0.22753143 0.25474626
0.48892185 0.31899727 0.27958380
0.61302704 0.42208547 0.33500649
0.73778379 0.53537018 0.42084514
0.86304607 0.65801011 0.52944067
0.91886608 0.78941691 0.65575712
0.12723685 0.12881733 0.24631087
0.14423910 0.13099015 0.24637135
0.24571650 0.16199180 0.24765419
0.36589565 0.23057805 0.25484675
0.48893253 0.31987212 0.27965492
0.61302987 0.42234275 0.33504124
0.73778454 0.53544453 0.42085775
0.86304627 0.65803036 0.52944449
0.91886608 0.78942187 0.65575812
0.15527826 0.24435459 0.24870218
0.16521260 0.24461659 0.24876060
0.25000000 0.25000000 0.25000000
0.36681150 0.27561164 0.25696521
0.48916082 0.33661702 0.28116197
0.61309053 0.42768079 0.33578180
0.73780069 0.53702306 0.42112747
0.86305037 0.65846318 0.52952641
0.91886608 0.78952823 0.65577957
0.21963000 0.36661763 0.26147232
0.22300995 0.36667076 0.26152098
0.27121674 0.36780075 0.26255532
0.37207622 0.37424273 0.26843160
0.49051086 0.39765368 0.28956642
0.61345155 0.45421119 0.34006358
0.73789695 0.54592207 0.42271933
0.86307482 0.66100441 0.53001351
0.91886608 0.79016003 0.65590740
0.30529414 0.49018854 0.29997751
0.30631913 0.49020167 0.30000639
0.32555441 0.49048233 0.30062241
0.39177404 0.49213881 0.30419743
0.49615523 0.49900681 0.31805706
0.61500385 0.52163341 0.35642889
0.73831391 0.57702333 0.42931934
0.86318097 0.67131223 0.53210028
0.91886608 0.79285502 0.65646065
0.40495559 0.61446983 0.37175658
0.40526330 0.61447330 0.37176844
0.41160618 0.61454779 0.37202207
0.44214805 0.61499084 0.37351922
0.51524432 0.61689155 0.37973152
0.62078668 0.62391275 0.40026334
0.73991152 0.64646857 0.45107152
0.86359089 0.70311550 0.53976922
0.91886608 0.80260417 0.65857345
0.51610427 0.73927595 0.46939941
0.51619425 0.73927688 0.46940332
0.51810089 0.73929669 0.46948699
0.52872654 0.73941479 0.46998448
0.56452710 0.73992603 0.47211438
0.63984635 0.74188013 0.47992405
0.74569108 0.74888880 0.50449625
0.86511720 0.77189663 0.56404746
0.91886608 0.83208421 0.66612793
0.63762314 0.86451294 0.58482887
0.63764787 0.86451318 0.58483000
0.63817596 0.86451821 0.58485419
0.64126607 0.86454820 0.58499834
0.65362739 0.86467835 0.58562190
0.69034858 0.86518067 0.58799894
0.76517154 0.86704642 0.59644525
0.87078445 0.87391341 0.62344012
0.91886608 0.89791185 0.69070763
0.76886301 0.91886608 0.71418586
0.76886912 0.91886608 0.71418615
0.76899990 0.91886608 0.71419230
0.76977608 0.91886608 0.71422895
0.77307393 0.91886608 0.71438798
0.78483909 0.91886608 0.71500141
0.81912185 0.91886608 0.71727512
0.89116155 0.91886608 0.72558277
0.91886608 0.91886608 0.75398180
0.19047658 0.14113040 0.36991768
0.19584844 0.14275597 0.36992980
0.25942416 0.16837921 0.37018901
0.36899644 0.23262393 0.37171875
0.48971327 0.32047717 0.37805961
0.61323779 0.42252191 0.39894982
0.73783992 0.53549641 0.45033454
0.86306033 0.65804450 0.53948900
0.91886608 0.78942534 0.65849401
0.19097180 0.15427636 0.36994044
0.19629983 0.15550002 0.36995256
0.25959337 0.17633809 0.37021170
0.36903787 0.23544823 0.37174102
0.48972385 0.32133588 0.37808028
0.61324062 0.42277792 0.39896602
0.73784068 0.53557066 0.45034360
0.86306052 0.65806475 0.53949244
0.91886608 0.78943031 0.65849498
0.20067324 0.24834844 0.37042641
0.20522197 0.24859561 0.37043846
0.26312375 0.25368783 0.37069611
0.36992028 0.27820724 0.37221676
0.48995019 0.33780651 0.37852178
0.61330114 0.42809054 0.39931233
0.73785681 0.53714707 0.45053742
0.86306462 0.65849741 0.53956600
0.91886608 0.78953665 0.65851582
0.23918706 0.36744625 0.37326830
0.24171194 0.36749886 0.37327995
0.28120015 0.36861783 0.37352908
0.37500000 0.37500000 0.37500000
0.49128876 0.39823035 0.38110861
0.61366135 0.45451595 0.40134967
0.73795301 0.54603483 0.45168491
0.86308907 0.66103774 0.54000356
0.91886608 0.79016840 0.65864001
0.31180041 0.49039397 0.38461333
0.31274356 0.49040706 0.38462352
0.33063209 0.49068710 0.38484157
0.39410340 0.49233993 0.38613073
0.49688704 0.49919349 0.39151568
0.61521024 0.52177966 0.40968381
0.73836972 0.57710433 0.45650628
0.86319520 0.67134211 0.54188077
0.91886608 0.79286315 0.65917754
0.40696001 0.61452432 0.41826044
0.40726074 0.61452780 0.41826735
0.41346526 0.61460224 0.41841539
0.44346916 0.61504503 0.41929325
0.51584009 0.61694467 0.42300802
0.62098085 0.62396207 0.43608349
0.73996639 0.64650743 0.47307789
0.86360506 0.70313682 0.54881574
0.91886608 0.80261148 0.66123112
0.51669456 0.73929045 0.48776811
0.51678397 0.73929137 0.48777131
0.51867866 0.73931119 0.48783976
0.52924215 0.73942926 0.48824694
0.56487921 0.73994042 0.48999495
0.64000511 0.74189422 0.49646803
0.74574265 0.74890187 0.51742861
0.86513112 0.77190683 0.57110746
0.91886608 0.83208949 0.66858403
0.63778568 0.86451662 0.59053297
0.63781036 0.86451686 0.59053403
0.63833756 0.86452188 0.59055680
0.64142247 0.86455188 0.59069250
0.65376465 0.86468202 0.59127967
0.69044163 0.86518433 0.59352003
0.76521335 0.86705000 0.60150640
0.87079752 0.87391672 0.62726936
0.91886608 0.89791436 0.69260601
0.76890320 0.91886608 0.71566803
0.76890930 0.91886608 0.71566831
0.76904002 0.91886608 0.71567436
0.76981587 0.91886608 0.71571044
0.77311233 0.91886608 0.71586698
0.78487288 0.91886608 0.71647084
0.81914509 0.91886608 0.71870963
0.89117192 0.91886608 0.72689640
0.91886608 0.91886608 0.75495242
0.27034354 0.19977426 0.49413854
0.27197130 0.20030040 0.49414152
0.30027258 0.21058669 0.49420538
0.38143709 0.25110903 0.49458538
0.49307392 0.32660274 0.49621800
0.61414779 0.42439299 0.50228187
0.73808335 0.53604271 0.52209394
0.86312223 0.65819375 0.57376546
0.91886608 0.78946198 0.66954011
0.27048880 0.20446110 0.49414414
0.27211333 0.20494772 0.49414712
0.30036981 0.21453467 0.49421098
0.38147286 0.25327010 0.49459096
0.49308412 0.32739807 0.49622348
0.61415059 0.42464365 0.50228700
0.73808410 0.53611653 0.52209808
0.86312242 0.65821397 0.57376784
0.91886608 0.78946695 0.66954098
0.27353220 0.26343966 0.49426401
0.27509083 0.26363898 0.49426698
0.30242325 0.26777997 0.49433076
0.38223534 0.28852990 0.49471024
0.49330235 0.34277999 0.49634067
0.61421054 0.42984869 0.50239674
0.73810020 0.53768384 0.52218672
0.86312652 0.65864595 0.57381891
0.91886608 0.78957325 0.66955951
0.28945613 0.37095358 0.49497576
0.29071581 0.37100404 0.49497871
0.31365263 0.37207768 0.49504200
0.38664702 0.37821293 0.49541857
0.49459334 0.40069159 0.49703661
0.61456731 0.45582790 0.50304862
0.73819615 0.54652308 0.52271365
0.86315095 0.66118234 0.57412291
0.91886608 0.79020474 0.66967001
0.33510749 0.49128096 0.49800506
0.33581192 0.49129393 0.49800792
0.34959689 0.49157128 0.49806916
0.40355049 0.49320843 0.49843358
0.50000000 0.50000000 0.50000000
0.61610155 0.52241228 0.50582797
0.73861178 0.57745537 0.52496844
0.86325701 0.67147178 0.57543212
0.91886608 0.79289844 0.67014846
0.41516932 0.61476066 0.50888089
0.41544316 0.61476412 0.50888343
0.42111268 0.61483838 0.50893787
0.44899189 0.61528007 0.50926193
0.51838441 0.61717504 0.51065649
0.62181964 0.62417598 0.51586815
0.74020434 0.64667603 0.53322032
0.86366659 0.70322938 0.58033792
0.91886608 0.80264321 0.67197907
0.51921589 0.73935338 0.54117982
0.51930291 0.73935431 0.54118162
0.52114743 0.73937411 0.54122011
0.53144923 0.73949210 0.54144932
0.56639355 0.74000292 0.54243847
0.64069166 0.74195543 0.54617392
0.74596632 0.74895864 0.55903405
0.86519160 0.77195114 0.59680671
0.91886608 0.83211243 0.67856794
0.63848847 0.86453260 0.61195255
0.63851297 0.86453283 0.61195340
0.63903627 0.86453786 0.61197155
0.64209885 0.86456785 0.61207974
0.65435854 0.86469797 0.61254827
0.69084474 0.86520018 0.61434138
0.76539477 0.86706553 0.62080154
0.87085426 0.87393109 0.64230871
0.91886608 0.89792530 0.70043462
0.76907754 0.91886608 0.72184726
0.76908363 0.91886608 0.72184753
0.76921410 0.91886608 0.72185319
0.76998850 0.91886608 0.72188697
0.77327891 0.91886608 0.72203354
0.78501954 0.91886608 0.72259907
0.81924593 0.91886608 0.72469772
0.89121695 0.91886608 0.73239748
0.91886608 0.91886608 0.75905456
0.36370200 0.27395613 0.61873222
0.36420018 0.27412842 0.61873301
0.37421712 0.27772445 0.61874991
0.41752706 0.29616619 0.61885062
0.50504330 0.34670652 0.61928686
0.61759201 0.43128837 0.62095774
0.73902025 0.53812902 0.62699511
0.86336157 0.65876961 0.64727526
0.91886608 0.78960374 0.70314981
0.36374613 0.27553063 0.61873370
0.36424404 0.27569925 0.61873449
0.37425606 0.27922082 0.61875139
0.41755064 0.29733827 0.61885210
0.50505226 0.34732758 0.61928833
0.61759471 0.43152029 0.62095919
0.73902099 0.53820121 0.62699647
0.86336176 0.65878970 0.64727635
0.91886608 0.78960870 0.70315042
0.36468565 0.30309776 0.61876542
0.36517803 0.30321459 0.61876621
0.37508582 0.30567539 0.61878310
0.41805421 0.31892658 0.61888378
0.50524396 0.35961672 0.61931987
0.61765252 0.43634789 0.62099017
0.73903693 0.53973422 0.62702554
0.86336585 0.65921907 0.64729981
0.91886608 0.78971484 0.70316340
0.37008096 0.38331158 0.61895441
0.37054279 0.38335521 0.61895520
0.37987318 0.38428425 0.61897205
0.42099947 0.38962544 0.61907254
0.50637918 0.40961638 0.61950775
0.61799656 0.46073679 0.62117477
0.73913192 0.54839049 0.62719874
0.86339022 0.66174033 0.64743963
0.91886608 0.79034537 0.70324077
0.39019463 0.49463791 0.61977094
0.39055946 0.49465042 0.61977172
0.39802420 0.49491785 0.61978844
0.43276308 0.49649704 0.61988805
0.51115467 0.50305890 0.62031954
0.61947660 0.52482274 0.62197244
0.73954341 0.57880282 0.62794739
0.86349599 0.67197233 0.64804454
0.91886608 0.79303500 0.70357611
0.44126154 0.61567050 0.62286863
0.44146565 0.61567393 0.62286939
0.44572935 0.61574748 0.62288556
0.46766564 0.61618496 0.62298197
0.52763006 0.61806206 0.62339961
0.62500000 0.62500000 0.62500000
0.74112028 0.64732622 0.63079242
0.86390447 0.70358701 0.65035163
0.91886608 0.80276600 0.70486377
0.52838322 0.73959674 0.63369599
0.52846207 0.73959766 0.63369667
0.53013530 0.73961741 0.63371109
0.53953668 0.73973510 0.63379708
0.57203907 0.74024459 0.63416969
0.64330475 0.74219210 0.63559918
0.74682761 0.74917819 0.64079423
0.86542544 0.77212254 0.65856360
0.91886608 0.83220123 0.70955840
0.64116226 0.86459446 0.66674850
0.64118608 0.86459469 0.66674898
0.64169484 0.86459972 0.66675915
0.64467387 0.86462968 0.66681978
0.65662421 0.86475972 0.66708271
0.69238998 0.86526158 0.66809423
0.76609412 0.86712565 0.67180746
0.87107366 0.87398674 0.68493189
0.91886608 0.89796766 0.72578006
0.76974970 0.91886608 0.74254115
0.76975575 0.91886608 0.74254137
0.76988528 0.91886608 0.74254591
0.77065410 0.91886608 0.74257297
0.77392132 0.91886608 0.74269046
0.78558538 0.91886608 0.74314412
0.81963547 0.91886608 0.74483222
0.89139114 0.91886608 0.75108670
0.91886608 0.91886608 0.77342323
0.46981371 0.36413088 0.74362588
0.46996251 0.36418561 0.74362609
0.47309263 0.36534936 0.74363058
0.48981748 0.37197437 0.74365733
0.53986839 0.39593421 0.74377346
0.62953643 0.45330843 0.74422189
0.74246482 0.54558947 0.74589075
0.86425675 0.66090630 0.75207681
0.91886608 0.79013541 0.77420224
0.46982686 0.36463452 0.74362627
0.46997564 0.36468892 0.74362648
0.47310532 0.36584574 0.74363097
0.48982805 0.37243325 0.74365773
0.53987456 0.39628108 0.74377385
0.62953881 0.45348983 0.74422228
0.74246554 0.54565613 0.74589114
0.86425694 0.66092594 0.75207717
0.91886608 0.79014033 0.77420252
0.47010813 0.37475479 0.74363470
0.47025645 0.37480303 0.74363491
0.47337666 0.37582976 0.74363939
0.49005414 0.38170853 0.74366615
0.54000643 0.40339553 0.74378227
0.62958976 0.45729014 0.74423065
0.74248090 0.54707263 0.74589936
0.86426099 0.66134573 0.75208486
0.91886608 0.79024586 0.77420858
0.47176800 0.41840117 0.74368493
0.47191364 0.41843029 0.74368514
0.47497855 0.41905151 0.74368962
0.49139120 0.42266857 0.74371636
0.54078918 0.43686219 0.74383241
0.62989308 0.47714600 0.74428056
0.74257245 0.55510388 0.74594838
0.86428511 0.66381162 0.75213073
0.91886608 0.79087277 0.77424471
0.47864643 0.50627943 0.74390279
0.47878151 0.50629045 0.74390300
0.48162777 0.50652623 0.74390747
0.49698344 0.50792024 0.74393415
0.54411513 0.51374297 0.74404993
0.63119943 0.53337477 0.74449704
0.74296907 0.58370880 0.74616102
0.86438982 0.67383306 0.75232972
0.91886608 0.79354721 0.77440150
0.50127356 0.61901886 0.74474183
0.50137916 0.61902218 0.74474204
0.50361257 0.61909317 0.74474647
0.51591863 0.61951548 0.74477291
0.55598613 0.62132825 0.74488766
0.63609548 0.62803890 0.74533077
0.74448952 0.64973434 0.74698006
0.86479423 0.70492112 0.75309644
0.91886608 0.80322672 0.77500626
0.55654294 0.74050712 0.74783404
0.55660131 0.74050803 0.74783424
0.55784286 0.74052759 0.74783853
0.56492571 0.74064414 0.74786410
0.59069103 0.74114870 0.74797510
0.65254021 0.74307761 0.74840380
0.75000000 0.75000000 0.75000000
0.86630018 0.77276486 0.75592707
0.91886608 0.83253472 0.77724780
0.65059909 0.86482693 0.75890919
0.65062065 0.86482716 0.75890937
0.65108123 0.86483217 0.75891318
0.65378280 0.86486206 0.75893588
0.66469639 0.86499175 0.75903443
0.69798917 0.86549231 0.75941513
0.76868016 0.86735159 0.76083432
0.87189471 0.87419587 0.76612672
0.91886608 0.89812690 0.78543695
0.77223690 0.91886608 0.79461960
0.77224279 0.91886608 0.79461972
0.77236888 0.91886608 0.79462231
0.77311740 0.91886608 0.79463772
0.77630013 0.91886608 0.79470467
0.78768461 0.91886608 0.79496349
0.82108696 0.91886608 0.79593122
0.89204373 0.91886608 0.79958023
0.91886608 0.91886608 0.81341298
0.58818119 0.47083300 0.86877182
0.58822290 0.47084922 0.86877187
0.58911195 0.47119588 0.86877301
0.59424763 0.47323661 0.86877979
0.61379117 0.48160651 0.86880925
0.66525192 0.50830273 0.86892324
0.75470203 0.56988418 0.86935103
0.86763609 0.66874232 0.87098617
0.91886608 0.79216292 0.87750408
0.58818488 0.47098252 0.86877192
0.58822659 0.47099872 0.86877197
0.58911560 0.47134481 0.86877311
0.59425109 0.47338225 0.86877989
0.61379398 0.48173940 0.86880935
0.66525355 0.50840219 0.86892334
0.75470265 0.56993565 0.86935113
0.86763628 0.66876040 0.87098627
0.91886608 0.79216774 0.87750417
0.58826377 0.47412761 0.86877406
0.58830545 0.47414325 0.86877411
0.58919373 0.47447763 0.86877525
0.59432508 0.47644699 0.86878203
0.61385416 0.48454043 0.86881148
0.66528847 0.51050724 0.86892548
0.75471612 0.57103131 0.86935325
0.86764017 0.66914686 0.87098835
0.91886608 0.79227096 0.87750611
0.58873301 0.49092512 0.86878679
0.58877448 0.49093814 0.86878684
0.58965837 0.49121656 0.86878798
0.59476520 0.49285998 0.86879476
0.61421227 0.49967635 0.86882421
0.66549653 0.52215827 0.86893819
0.75479640 0.57731429 0.86936590
0.86766339 0.67141963 0.87100077
0.91886608 0.79288424 0.87751765
0.59074454 0.54113566 0.86884208
0.59078513 0.54114324 0.86884214
0.59165048 0.54130542 0.86884327
0.59665347 0.54226701 0.86885005
0.61575224 0.54633277 0.86887948
0.66639497 0.56060048 0.86899339
0.75514430 0.60059148 0.86942084
0.86776420 0.68070211 0.87105470
0.91886608 0.79550152 0.87756775
0.59815461 0.63095511 0.86905592
0.59819214 0.63095803 0.86905598
0.59899248 0.63102060 0.86905711
0.60363038 0.63139299 0.86906387
0.62149085 0.63299368 0.86909323
0.66979634 0.63894984 0.86920686
0.75647961 0.65850918 0.86963329
0.86815357 0.70990906 0.87126328
0.91886608 0.80498683 0.87776154
0.62176931 0.74394633 0.86985625
0.62179855 0.74394721 0.86985630
0.62242264 0.74396605 0.86985743
0.62606196 0.74407839 0.86986413
0.64042242 0.74456475 0.86989322
0.68160183 0.74642493 0.87000584
0.76134042 0.75311141 0.87042844
0.86960407 0.77520762 0.87204401
0.91886608 0.83381289 0.87848718
0.68017866 0.86572022 0.87288493
0.68019442 0.86572045 0.87288498
0.68053142 0.86572541 0.87288607
0.68251690 0.86575500 0.87289254
0.69068651 0.86588340 0.87292066
0.71696055 0.86637897 0.87302949
0.77805085 0.86821998 0.87343795
0.87500000 0.87500000 0.87500000
0.91886608 0.89873998 0.88123848
0.78127029 0.91886608 0.88451522
0.78127564 0.91886608 0.88451527
0.78138998 0.91886608 0.88451622
0.78206905 0.91886608 0.88452189
0.78496193 0.91886608 0.88454654
0.79537917 0.91886608 0.88464195
0.82649111 0.91886608 0.88500014
0.89452256 0.91886608 0.88637175
0.91886608 0.91886608 0.89187724
0.71844708 0.59463966 0.91886608
0.71845757 0.59464395 0.91886608
0.71868209 0.59473581 0.91886608
0.72001019 0.59528188 0.91886608
0.72557000 0.59761786 0.91886608
0.74443827 0.60615681 0.91886608
0.79328555 0.63276789 0.91886608
0.88049852 0.69584358 0.91886608
0.91886608 0.80017436 0.91886608
0.71844800 0.59467924 0.91886608
0.71845850 0.59468353 0.91886608
0.71868301 0.59477536 0.91886608
0.72001110 0.59532120 0.91886608
0.72557086 0.59765621 0.91886608
0.74443897 0.60619185 0.91886608
0.79328597 0.63279434 0.91886608
0.88049867 0.69585715 0.91886608
0.91886608 0.80017878 0.91886608
0.71846786 0.59552316 0.91886608
0.71847835 0.59552741 0.91886608
0.71870282 0.59561842 0.91886608
0.72003063 0.59615943 0.91886608
0.72558926 0.59847406 0.91886608
0.74445400 0.60693934 0.91886608
0.79329483 0.63335912 0.91886608
0.88050204 0.69614724 0.91886608
0.91886608 0.80027337 0.91886608
0.71858620 0.60040597 0.91886608
0.71859668 0.60041001 0.91886608
0.71882086 0.60049644 0.91886608
0.72014701 0.60101029 0.91886608
0.72569895 0.60321042 0.91886608
0.74454364 0.61127912 0.91886608
0.79334771 0.63665954 0.91886608
0.88052212 0.69785920 0.91886608
0.91886608 0.80083553 0.91886608
0.71909849 0.61909977 0.91886608
0.71910892 0.61910308 0.91886608
0.71933188 0.61917401 0.91886608
0.72065087 0.61959596 0.91886608
0.72617388 0.62140721 0.91886608
0.74493198 0.62811245 0.91886608
0.79357704 0.64979282 0.91886608
0.88060930 0.70495371 0.91886608
0.91886608 0.80323802 0.91886608
0.72105670 0.66898810 0.91886608
0.72106691 0.66899006 0.91886608
0.72128527 0.66903192 0.91886608
0.72257724 0.66928120 0.91886608
0.72799098 0.67035641 0.91886608
0.74642099 0.67440908 0.91886608
0.79445989 0.68827100 0.91886608
0.88094614 0.72826956 0.91886608
0.91886608 0.81198911 0.91886608
0.72808106 0.75707236 0.91886608
0.72809053 0.75707312 0.91886608
0.72829313 0.75708949 0.91886608
0.72949251 0.75718705 0.91886608
0.73453068 0.75760963 0.91886608
0.75182153 0.75922845 0.91886608
0.79770888 0.76508052 0.91886608
0.88220264 0.78475996 0.91886608
0.91886608 0.83896160 0.91886608
0.75115127 0.86935546 0.91886608
0.75115867 0.86935569 0.91886608
0.75131692 0.86936045 0.91886608
0.75225529 0.86938885 0.91886608
0.75622473 0.86951210 0.91886608
0.77017215 0.86998788 0.91886608
0.80928818 0.87175622 0.91886608
0.88689958 0.87828025 0.91886608
0.91886608 0.90125395 0.91886608
0.81158971 0.91886608 0.91886608
0.81159355 0.91886608 0.91886608
0.81167570 0.91886608 0.91886608
0.81216416 0.91886608 0.91886608
0.81425598 0.91886608 0.91886608
0.82193226 0.91886608 0.91886608
0.84610042 0.91886608 0.91886608
0.90417261 0.91886608 0.91886608
0.91886608 0.91886608 0.91886608
