src/ffmpeg_scripts/luts/argb-bt2020.cube
TITLE "argb-bt2020"
LUT_3D_SIZE 33
# PQ (EOTF Only)/Adobe RGB -> PQ (EOTF Only)/Rec2020, CineEI Shift 0.00, Black Level 0.00% IRE, Input 109% -> Output 109% - Created with LUTCalc v4.01 by Ben Turley October 2020
0.06256172 0.06256172 0.06256172
0.06256172 0.06256172 0.06256172
0.06256172 0.06256172 0.06256172
0.09189990 0.07220575 0.06691493
0.12172692 0.08436258 0.07300157
0.15177576 0.09819962 0.08044560
0.18198265 0.11340951 0.08909960
0.21231422 0.12981647 0.09888091
0.24274956 0.14730308 0.10973600
0.27327419 0.16578383 0.12162742
0.30387745 0.18519295 0.13452759
0.33455110 0.20547786 0.14841560
0.36528860 0.22659530 0.16327515
0.39608461 0.24850888 0.17909341
0.42693465 0.27118745 0.19586011
0.45783495 0.29460397 0.21356700
0.48878227 0.31873468 0.23220747
0.51977377 0.34355849 0.25177615
0.55080699 0.36905651 0.27226877
0.58187972 0.39521172 0.29368195
0.61299001 0.42200866 0.31601301
0.64413609 0.44943321 0.33925994
0.67531638 0.47747243 0.36342126
0.70652944 0.50611438 0.38849596
0.73777393 0.53534801 0.41448341
0.76904867 0.56516306 0.44138336
0.80035252 0.59554995 0.46919586
0.83168448 0.62649975 0.49792125
0.86304357 0.65800407 0.52756009
0.89442893 0.69005502 0.55811317
0.91886608 0.72264518 0.58958147
0.91886608 0.75576752 0.62196617
0.91886608 0.78941543 0.65526857
0.06256172 0.06256172 0.06256172
0.06256172 0.06256172 0.06256172
0.06256172 0.06256172 0.06256172
0.09189990 0.07220575 0.06691493
0.12172692 0.08436258 0.07300157
0.15177576 0.09819962 0.08044560
0.18198265 0.11340951 0.08909960
0.21231422 0.12981647 0.09888091
0.24274956 0.14730308 0.10973600
0.27327419 0.16578383 0.12162742
0.30387745 0.18519295 0.13452759
0.33455110 0.20547786 0.14841560
0.36528860 0.22659530 0.16327515
0.39608461 0.24850888 0.17909341
0.42693465 0.27118745 0.19586011
0.45783495 0.29460397 0.21356700
0.48878227 0.31873468 0.23220747
0.51977377 0.34355849 0.25177615
0.55080699 0.36905651 0.27226877
0.58187972 0.39521172 0.29368195
0.61299001 0.42200866 0.31601301
0.64413609 0.44943321 0.33925994
0.67531638 0.47747243 0.36342126
0.70652944 0.50611438 0.38849596
0.73777393 0.53534801 0.41448341
0.76904867 0.56516306 0.44138336
0.80035252 0.59554995 0.46919586
0.83168448 0.62649975 0.49792125
0.86304357 0.65800407 0.52756009
0.89442893 0.69005502 0.55811317
0.91886608 0.72264518 0.58958147
0.91886608 0.75576752 0.62196617
0.91886608 0.78941543 0.65526857
0.06256172 0.06256172 0.06256172
0.06256172 0.06256172 0.06256172
0.06256172 0.06256172 0.06256172
0.09189990 0.07220575 0.06691493
0.12172692 0.08436258 0.07300157
0.15177576 0.09819962 0.08044560
0.18198265 0.11340951 0.08909960
0.21231422 0.12981647 0.09888091
0.24274956 0.14730308 0.10973600
0.27327419 0.16578383 0.12162742
0.30387745 0.18519295 0.13452759
0.33455110 0.20547786 0.14841560
0.36528860 0.22659530 0.16327515
0.39608461 0.24850888 0.17909341
0.42693465 0.27118745 0.19586011
0.45783495 0.29460397 0.21356700
0.48878227 0.31873468 0.23220747
0.51977377 0.34355849 0.25177615
0.55080699 0.36905651 0.27226877
0.58187972 0.39521172 0.29368195
0.61299001 0.42200866 0.31601301
0.64413609 0.44943321 0.33925994
0.67531638 0.47747243 0.36342126
0.70652944 0.50611438 0.38849596
0.73777393 0.53534801 0.41448341
0.76904867 0.56516306 0.44138336
0.80035252 0.59554995 0.46919586
0.83168448 0.62649975 0.49792125
0.86304357 0.65800407 0.52756009
0.89442893 0.69005502 0.55811317
0.91886608 0.72264518 0.58958147
0.91886608 0.75576752 0.62196617
0.91886608 0.78941543 0.65526857
0.07112457 0.09212166 0.06876290
0.07112457 0.09212166 0.06876290
0.07112457 0.09212166 0.06876290
0.09308558 0.09357750 0.07040611
0.12216650 0.09853438 0.07495537
0.15198967 0.10732901 0.08162216
0.18210088 0.11932681 0.08985321
0.21238465 0.13372753 0.09938510
0.24279363 0.14994377 0.11008388
0.27330275 0.16760102 0.12187286
0.30389643 0.18646345 0.13470366
0.33456397 0.20637767 0.14854349
0.36529746 0.22723920 0.16336893
0.39609077 0.24897345 0.17916267
0.42693898 0.27152480 0.19591154
0.45783802 0.29485015 0.21360535
0.48878445 0.31891498 0.23223613
0.51977534 0.34369088 0.25179761
0.55080811 0.36915387 0.27228485
0.58188053 0.39528337 0.29369399
0.61299059 0.42206138 0.31602203
0.64413651 0.44947197 0.33926668
0.67531668 0.47750088 0.36342629
0.70652965 0.50613522 0.38849970
0.73777409 0.53536323 0.41448618
0.76904878 0.56517413 0.44138540
0.80035260 0.59555797 0.46919737
0.83168453 0.62650553 0.49792235
0.86304361 0.65800821 0.52756088
0.89442896 0.69005797 0.55811374
0.91886608 0.72264726 0.58958189
0.91886608 0.75576899 0.62196646
0.91886608 0.78941644 0.65526877
0.08211407 0.12212086 0.07708189
0.08211407 0.12212086 0.07708189
0.08211407 0.12212086 0.07708189
0.09721027 0.12266231 0.07787312
0.12382803 0.12469609 0.08060186
0.15281261 0.12899268 0.08556557
0.18255842 0.13611128 0.09256226
0.21265785 0.14619081 0.10126121
0.24296479 0.15899542 0.11140196
0.27341371 0.17411784 0.12281223
0.30397022 0.19114993 0.13538148
0.33461400 0.20975648 0.14903758
0.36533190 0.22968496 0.16373206
0.39611476 0.25075137 0.17943125
0.42695585 0.27282232 0.19611117
0.45784996 0.29580021 0.21375426
0.48879296 0.31961243 0.23234749
0.51978142 0.34420382 0.25188102
0.55081247 0.36953152 0.27234737
0.58188366 0.39556151 0.29374084
0.61299284 0.42226616 0.31605710
0.64413813 0.44962258 0.33929291
0.67531785 0.47761147 0.36344585
0.70653049 0.50621622 0.38851425
0.73777469 0.53542238 0.41449696
0.76904921 0.56521717 0.44139337
0.80035291 0.59558916 0.46920322
0.83168475 0.62652801 0.49792662
0.86304376 0.65802433 0.52756399
0.89442906 0.69006945 0.55811598
0.91886608 0.72265537 0.58958349
0.91886608 0.75577468 0.62196760
0.91886608 0.78942039 0.65526957
0.09476813 0.15231571 0.08695221
0.09476813 0.15231571 0.08695221
0.09476813 0.15231571 0.08695221
0.10477442 0.15257923 0.08740033
0.12738809 0.15359046 0.08905622
0.15465104 0.15583569 0.09244034
0.18359576 0.15986588 0.09781596
0.21328118 0.16617823 0.10514771
0.24335650 0.17508278 0.11424212
0.27366808 0.18663323 0.12488460
0.30413954 0.20066296 0.13689844
0.33472887 0.21688416 0.15015333
0.36541099 0.23498231 0.16455676
0.39616986 0.25467231 0.18004352
0.42699459 0.27571939 0.19656739
0.45787740 0.29793965 0.21409516
0.48881250 0.32119233 0.23260272
0.51979539 0.34537058 0.25207233
0.55082249 0.37039305 0.27249083
0.58189086 0.39619735 0.29384839
0.61299802 0.42273498 0.31613765
0.64414186 0.44996776 0.33935314
0.67532053 0.47786510 0.36349079
0.70653241 0.50640211 0.38854767
0.73777607 0.53555819 0.41452175
0.76905019 0.56531602 0.44141166
0.80035361 0.59566079 0.46921666
0.83168524 0.62657966 0.49793645
0.86304411 0.65806135 0.52757113
0.89442931 0.69009581 0.55812113
0.91886608 0.72267402 0.58958718
0.91886608 0.75578775 0.62197022
0.91886608 0.78942948 0.65527141
0.10880086 0.18264983 0.09815435
0.10880086 0.18264983 0.09815435
0.10880086 0.18264983 0.09815435
0.11541536 0.18279545 0.09843157
0.13341424 0.18335825 0.09948304
0.15798780 0.18463039 0.10175448
0.18553117 0.18699016 0.10565296
0.21445861 0.19087497 0.11142079
0.24410096 0.19671995 0.11909460
0.27415311 0.20487151 0.12856414
0.30446300 0.21551242 0.13966099
0.33494856 0.22863770 0.15221926
0.36556237 0.24408953 0.16610059
0.39627536 0.26162333 0.18119807
0.42706879 0.28097050 0.19743191
0.45792995 0.30187952 0.21474332
0.48884993 0.32413489 0.23308912
0.51982216 0.34756125 0.25243751
0.55084170 0.37201997 0.27276499
0.58190467 0.39740301 0.29405408
0.61300795 0.42362658 0.31629180
0.64414900 0.45062561 0.33946844
0.67532567 0.47834923 0.36357684
0.70653610 0.50675733 0.38861170
0.73777871 0.53581793 0.41456922
0.76905208 0.56550518 0.44144672
0.80035495 0.59579793 0.46924242
0.83168620 0.62667856 0.49795528
0.86304479 0.65813226 0.52758480
0.89442978 0.69014632 0.55813100
0.91886608 0.72270973 0.58959424
0.91886608 0.75581279 0.62197523
0.91886608 0.78944688 0.65527494
0.12404808 0.21309375 0.11056202
0.12404808 0.21309375 0.11056202
0.12404808 0.21309375 0.11056202
0.12847891 0.21318045 0.11074301
0.14216294 0.21351658 0.11143745
0.16329976 0.21428224 0.11297900
0.18874756 0.21572387 0.11574621
0.21645617 0.21815629 0.12008513
0.24537743 0.22194947 0.12622599
0.27498959 0.22749155 0.13424377
0.30502270 0.23512978 0.14408204
0.33532946 0.24510632 0.15561101
0.36582515 0.25751599 0.16868049
0.39645866 0.27230478 0.18315115
0.42719777 0.28930538 0.19890673
0.45802135 0.30828863 0.21585551
0.48891503 0.32900988 0.23392714
0.51986873 0.35123961 0.25306849
0.55087511 0.37477860 0.27323965
0.58192868 0.39946196 0.29441072
0.61302523 0.42515710 0.31655933
0.64416144 0.45175912 0.33966872
0.67533461 0.47918568 0.36372638
0.70654252 0.50737228 0.38872302
0.73778331 0.53626822 0.41465178
0.76905536 0.56583347 0.44150769
0.80035729 0.59603611 0.46928723
0.83168785 0.62685044 0.49798803
0.86304595 0.65825555 0.52760860
0.89443060 0.69023416 0.55814817
0.91886608 0.72277185 0.58960653
0.91886608 0.75585636 0.62198396
0.91886608 0.78947716 0.65528108
0.14039982 0.24362899 0.12409081
0.14039982 0.24362899 0.12409081
0.14039982 0.24362899 0.12409081
0.14342033 0.24368322 0.12421328
0.15354654 0.24389379 0.12468590
0.17094574 0.24437524 0.12575005
0.19365234 0.24528854 0.12770981
0.21959747 0.24684938 0.13090063
0.24741843 0.24933209 0.13563320
0.27633962 0.25306251 0.14213064
0.30593098 0.25839404 0.15049148
0.33594963 0.26566517 0.16069648
0.36625390 0.27514651 0.17264697
0.39675812 0.28699503 0.18620904
0.42740867 0.30123397 0.20124606
0.45817087 0.31776540 0.21763600
0.48902160 0.33640647 0.23527755
0.51994498 0.35693239 0.25409000
0.55092982 0.37911239 0.27401065
0.58196801 0.40273288 0.29499140
0.61305353 0.42760869 0.31699567
0.64418180 0.45358584 0.33999577
0.67534925 0.48053971 0.36397080
0.70655303 0.50837099 0.38890508
0.73779084 0.53700128 0.41478687
0.76906074 0.56636884 0.44160749
0.80036112 0.59642502 0.46936060
0.83169057 0.62713134 0.49804167
0.86304787 0.65845717 0.52764757
0.89443194 0.69037789 0.55817629
0.91886608 0.72287354 0.58962667
0.91886608 0.75592770 0.62199826
0.91886608 0.78952675 0.65529113
0.15777586 0.27424277 0.13867942
0.15777586 0.27424277 0.13867942
0.15777586 0.27424277 0.13867942
0.15986979 0.27427790 0.13876441
0.16726506 0.27441439 0.13909343
0.18108048 0.27472710 0.13984009
0.20061001 0.27532269 0.14123577
0.22424108 0.27634776 0.14356256
0.25050878 0.27799673 0.14712822
0.27841265 0.28051617 0.15222158
0.30733744 0.28420129 0.15906175
0.33691494 0.28937957 0.16776358
0.36692343 0.29637903 0.17833498
0.39722674 0.30548436 0.19070239
0.42773917 0.31689262 0.20474712
0.45840541 0.33068405 0.22033692
0.48918885 0.34681894 0.23734627
0.52006470 0.36515978 0.25566605
0.55101575 0.38550744 0.27520632
0.58202979 0.40763785 0.29589526
0.61309799 0.43133026 0.31767669
0.64421380 0.45638445 0.34050720
0.67537226 0.48262836 0.36435356
0.70656955 0.50991938 0.38919047
0.73780268 0.53814205 0.41499879
0.76906920 0.56720425 0.44176414
0.80036714 0.59703312 0.46947581
0.83169483 0.62757121 0.49812592
0.86305087 0.65877324 0.52770880
0.89443404 0.69060338 0.55822048
0.91886608 0.72303315 0.58965831
0.91886608 0.75603973 0.62202072
0.91886608 0.78960464 0.65530693
0.17611444 0.30492568 0.15428088
0.17611444 0.30492568 0.15428088
0.17611444 0.30492568 0.15428088
0.17758721 0.30494903 0.15434097
0.18296334 0.30503978 0.15457400
0.19364680 0.30524793 0.15510523
0.20986883 0.30564529 0.15610711
0.23073698 0.30633199 0.15780233
0.25497221 0.30744398 0.16045769
0.28146659 0.30916027 0.16436260
0.30943496 0.31170754 0.16979201
0.33836567 0.31535881 0.17696330
0.36793461 0.32042207 0.18600369
0.39793675 0.32721568 0.19694200
0.42824097 0.33603164 0.20972519
0.45876202 0.34709412 0.22424819
0.48944341 0.36052603 0.24038367
0.52024704 0.37633550 0.25800395
0.55114669 0.39442637 0.27699341
0.58212397 0.41462663 0.29725369
0.61316578 0.43672328 0.31870434
0.64426259 0.46049331 0.34128123
0.67540735 0.48572552 0.36493409
0.70659475 0.51223264 0.38962401
0.73782073 0.53985586 0.41532109
0.76908210 0.56846452 0.44200258
0.80037632 0.59795328 0.46965128
0.83170133 0.62823830 0.49825430
0.86305546 0.65925336 0.52780212
0.89443726 0.69094631 0.55828784
0.91886608 0.72327611 0.58970656
0.91886608 0.75621035 0.62205499
0.91886608 0.78972333 0.65533103
0.19536613 0.33567048 0.17085787
0.19536613 0.33567048 0.17085787
0.19536613 0.33567048 0.17085787
0.19641450 0.33568630 0.17090095
0.20032315 0.33574782 0.17106817
0.20843963 0.33588902 0.17145046
0.22151617 0.33615895 0.17217541
0.23936971 0.33662656 0.17341364
0.26114150 0.33738685 0.17538153
0.28579968 0.33856770 0.17833525
0.31246200 0.34033656 0.18255196
0.34048239 0.34290540 0.18829792
0.36942055 0.34653081 0.19579049
0.39898505 0.35150603 0.20516709
0.42898419 0.35814137 0.21647342
0.45929131 0.36673300 0.22967346
0.48982179 0.37752448 0.24467410
0.52051834 0.39067155 0.26135286
0.55134164 0.40622164 0.27958055
0.58226426 0.42411510 0.29923587
0.61326679 0.44420621 0.32021266
0.64433531 0.46629493 0.34242221
0.67545966 0.49015899 0.36579256
0.70663233 0.51557912 0.39026660
0.73784765 0.54235509 0.41579962
0.76910133 0.57031344 0.44235704
0.80039001 0.59930929 0.46991236
0.83171104 0.62922463 0.49844544
0.86306230 0.65996497 0.52794115
0.89444205 0.69145549 0.55838823
0.91886608 0.72363732 0.58977848
0.91886608 0.75646427 0.62210607
0.91886608 0.78990008 0.65536697
0.21549023 0.36647138 0.18837986
0.21549023 0.36647138 0.18837986
0.21549023 0.36647138 0.18837986
0.21624379 0.36648226 0.18841107
0.21909206 0.36652460 0.18853230
0.22519095 0.36662181 0.18880993
0.23548365 0.36680781 0.18933823
0.25030821 0.36713052 0.19024608
0.26931452 0.36765654 0.19170286
0.29172923 0.36847678 0.19392051
0.31669780 0.36971281 0.19714797
0.34348911 0.37152332 0.20165440
0.37155254 0.37410914 0.20770097
0.40049923 0.37771455 0.21550643
0.43006258 0.38262162 0.22521725
0.46006167 0.38913445 0.23689322
0.49037367 0.39755208 0.25051277
0.52091463 0.40813288 0.26599317
0.55162671 0.42105868 0.28321633
0.58246954 0.43640952 0.30205182
0.61341468 0.45415760 0.32237306
0.64444182 0.47418154 0.34406650
0.67553630 0.49629457 0.36703537
0.70668738 0.52027664 0.39120001
0.73788711 0.54590226 0.41649645
0.76912952 0.57295988 0.44287415
0.80041007 0.60126261 0.47029375
0.83172526 0.63065220 0.49872494
0.86307232 0.66099857 0.52814457
0.89444907 0.69219699 0.55853520
0.91886608 0.72416434 0.58988382
0.91886608 0.75683525 0.62218090
0.91886608 0.79015857 0.65541962
0.23645251 0.39732367 0.20682138
0.23645251 0.39732367 0.20682138
0.23645251 0.39732367 0.20682138
0.23699838 0.39733125 0.20684417
0.23908034 0.39736073 0.20693274
0.24363410 0.39742844 0.20713582
0.25159270 0.39755807 0.20752312
0.26358389 0.39778319 0.20819133
0.27970725 0.39815075 0.20927049
0.29955702 0.39872537 0.21092931
0.32244691 0.39959464 0.21337686
0.34765085 0.40087522 0.21685736
0.37454378 0.40271897 0.22163513
0.40264350 0.40531827 0.22796892
0.43159947 0.40890811 0.23608010
0.46116439 0.41376228 0.24612354
0.49116604 0.42018041 0.25817133
0.52148482 0.42846412 0.27221431
0.55203747 0.43888392 0.28817873
0.58276565 0.45164315 0.30595028
0.61362817 0.46684937 0.32539714
0.64459566 0.48450244 0.34638761
0.67564703 0.50450290 0.36880092
0.70676694 0.52667654 0.39253235
0.73794414 0.55080601 0.41749460
0.76917027 0.57666050 0.44361680
0.80043909 0.60401815 0.47084255
0.83174582 0.63267954 0.49912768
0.86308682 0.66247375 0.52843800
0.89445923 0.69325920 0.55874736
0.91886608 0.72492136 0.59003595
0.91886608 0.75736919 0.62228902
0.91886608 0.79053114 0.65549573
0.25822365 0.42822342 0.22616077
0.25822365 0.42822342 0.22616077
0.25822365 0.42822342 0.22616077
0.25862149 0.42822874 0.22617752
0.26014802 0.42824947 0.22624262
0.26353636 0.42829707 0.22639199
0.26961246 0.42838822 0.22667730
0.27910458 0.42854664 0.22717084
0.29242072 0.42880556 0.22797138
0.30952732 0.42921103 0.22921016
0.33001128 0.42982601 0.23105575
0.35326201 0.43073543 0.23371561
0.37864853 0.43205200 0.23743130
0.40562289 0.43392233 0.24246468
0.43375364 0.43653235 0.24907420
0.46271945 0.44011013 0.25748492
0.49228822 0.44492348 0.26785990
0.52229476 0.45126919 0.28028225
0.55262220 0.45945179 0.29475367
0.58318780 0.46975241 0.31120819
0.61393284 0.48239286 0.32953444
0.64481538 0.49750435 0.34959895
0.67580527 0.51511082 0.37126477
0.70688069 0.53513220 0.39440387
0.73802570 0.55740548 0.41890361
0.76922857 0.58171564 0.44466898
0.80048059 0.60782680 0.47162220
0.83177524 0.63550725 0.49970099
0.86310756 0.66454558 0.52885632
0.89447377 0.69475876 0.55905014
0.91886608 0.72599418 0.59025324
0.91886608 0.75812800 0.62244355
0.91886608 0.79106171 0.65560453
0.28077821 0.45916730 0.24637942
0.28077821 0.45916730 0.24637942
0.28077821 0.45916730 0.24637942
0.28106951 0.45917107 0.24639178
0.28219183 0.45918574 0.24643985
0.28470852 0.45921944 0.24655017
0.28930647 0.45928400 0.24676112
0.29669367 0.45939625 0.24712669
0.30743483 0.45957984 0.24772142
0.32179011 0.45986766 0.24864596
0.33965321 0.46030497 0.25003282
0.36062358 0.46095333 0.25205098
0.38415349 0.46189549 0.25490735
0.40968371 0.46324104 0.25884247
0.43672406 0.46513253 0.26411767
0.46488160 0.46775103 0.27099285
0.49385769 0.47131959 0.27969782
0.52343227 0.47610195 0.29040376
0.55344583 0.48239362 0.30320402
0.58378369 0.49050266 0.31810996
0.61436356 0.50072013 0.33506220
0.64512633 0.51328428 0.35395158
0.67602939 0.52834710 0.37464238
0.70704188 0.54595360 0.39699213
0.73814132 0.56604053 0.42086537
0.76931123 0.58845440 0.44614137
0.80053946 0.61298153 0.47271736
0.83181697 0.63938060 0.50050857
0.86313699 0.66741006 0.52944680
0.89449440 0.69684676 0.55947818
0.91886608 0.72749592 0.59056077
0.91886608 0.75919437 0.62266241
0.91886608 0.79180946 0.65575873
0.30409382 0.49015245 0.26746110
0.30409382 0.49015245 0.26746110
0.30409382 0.49015245 0.26746110
0.30430784 0.49015513 0.26747026
0.30513476 0.49016558 0.26750585
0.30700226 0.49018958 0.26758759
0.31046026 0.49023555 0.26774398
0.31613503 0.49031551 0.26801533
0.32462908 0.49044635 0.26845768
0.33638274 0.49065164 0.26914757
0.35155804 0.49096392 0.27018741
0.37001025 0.49142774 0.27171112
0.39135870 0.49210347 0.27388852
0.41510702 0.49307209 0.27692695
0.44075124 0.49444075 0.28106729
0.46784536 0.49634888 0.28657197
0.49602621 0.49897401 0.29370389
0.52501294 0.50253570 0.30269851
0.55459504 0.50729532 0.31373541
0.58461757 0.51354852 0.32691758
0.61496758 0.52160772 0.34226511
0.64556306 0.53177377 0.35972421
0.67634451 0.54430011 0.37918701
0.70726870 0.55935739 0.40051491
0.73830411 0.57700910 0.42355942
0.76942767 0.59720641 0.44817731
0.80062241 0.61980330 0.47423955
0.83187579 0.64458603 0.50163542
0.86317847 0.67130698 0.53027310
0.89452347 0.69971438 0.56007844
0.91886608 0.72957331 0.59099270
0.91886608 0.76067748 0.62297016
0.91886608 0.79285359 0.65597573
0.32815062 0.52117638 0.28939155
0.32815062 0.52117638 0.28939155
0.32815062 0.52117638 0.28939155
0.32830824 0.52117830 0.28939835
0.32891841 0.52118577 0.28942476
0.33030333 0.52120293 0.28948544
0.33289253 0.52123581 0.28960158
0.33720913 0.52129299 0.28980328
0.34381892 0.52138661 0.29013255
0.35323610 0.52153357 0.29064723
0.36580867 0.52175730 0.29142564
0.38163390 0.52209001 0.29257192
0.40054822 0.52257561 0.29422151
0.42219257 0.52327348 0.29654555
0.44611253 0.52426317 0.29975262
0.47184731 0.52564992 0.30408515
0.49898525 0.52757086 0.30980809
0.52718645 0.53020103 0.31718866
0.55618411 0.53375786 0.32646901
0.58577529 0.53850181 0.33783740
0.61580862 0.54473005 0.35140620
0.64617244 0.55276035 0.36720344
0.67678488 0.56290358 0.38517997
0.70758603 0.57542770 0.40522828
0.73853204 0.59052043 0.42720611
0.76959079 0.60826161 0.45095831
0.80073866 0.62861439 0.47633337
0.83195824 0.65143804 0.50319364
0.86323664 0.67651697 0.53142026
0.89456425 0.70359599 0.56091423
0.91886608 0.73241238 0.59159542
0.91886608 0.76271921 0.62340028
0.91886608 0.79429885 0.65627936
0.35293086 0.55223692 0.31215814
0.35293086 0.55223692 0.31215814
0.35293086 0.55223692 0.31215814
0.35304710 0.55223829 0.31216318
0.35349771 0.55224365 0.31218281
0.35452408 0.55225595 0.31222789
0.35645625 0.55227953 0.31231423
0.35971511 0.55232056 0.31246425
0.36479304 0.55238772 0.31270940
0.37220064 0.55249320 0.31309321
0.38238083 0.55265388 0.31367508
0.39561395 0.55289303 0.31453500
0.41195479 0.55324251 0.31577880
0.43123225 0.55374568 0.31754358
0.45310825 0.55446108 0.32000223
0.47716269 0.55546711 0.32336531
0.50296897 0.55686759 0.32787787
0.53014241 0.55879800 0.33380866
0.55836144 0.56143185 0.34143052
0.58737029 0.56498558 0.35099325
0.61697197 0.56972007 0.36269426
0.64701781 0.57593539 0.37665514
0.67739708 0.58395571 0.39291129
0.70802786 0.59410250 0.41141727
0.73884976 0.60665797 0.43206495
0.76981835 0.62182578 0.45470747
0.80090094 0.63970022 0.47918223
0.83207339 0.66025410 0.50532887
0.86331789 0.68334955 0.53300066
0.89462123 0.70876701 0.56207033
0.91886608 0.73624210 0.59243160
0.91886608 0.76550015 0.62399832
0.91886608 0.79628185 0.65670220
0.37841851 0.58333212 0.33574957
0.37841851 0.58333212 0.33574957
0.37841851 0.58333212 0.33574957
0.37850428 0.58333311 0.33575332
0.37883710 0.58333695 0.33576790
0.37959708 0.58334580 0.33580141
0.38103488 0.58336274 0.33586560
0.38348064 0.58339222 0.33597718
0.38734206 0.58344050 0.33615964
0.39308071 0.58351634 0.33644562
0.40115933 0.58363191 0.33687993
0.41196459 0.58380403 0.33752342
0.42572774 0.58405577 0.33845761
0.44247607 0.58441870 0.33978998
0.46203756 0.58493564 0.34165948
0.48409352 0.58566447 0.34424114
0.50825207 0.58668267 0.34774818
0.53411392 0.58809302 0.35242925
0.56131574 0.59002996 0.35855811
0.58955038 0.59266626 0.36641446
0.61857068 0.59621846 0.37625673
0.64818417 0.60094909 0.38829208
0.67824419 0.60716245 0.40265135
0.70864051 0.61519032 0.41937674
0.73929099 0.62536554 0.43842568
0.77013474 0.63798466 0.45968837
0.80112674 0.65326649 0.48301224
0.83223371 0.67131806 0.50822635
0.86343106 0.69211949 0.53516072
0.89470062 0.71553316 0.56365908
0.91886608 0.74133306 0.59358540
0.91886608 0.76924372 0.62482599
0.91886608 0.79897732 0.65728869
0.40459904 0.61446026 0.36015572
0.40459904 0.61446026 0.36015572
0.40459904 0.61446026 0.36015572
0.40466231 0.61446097 0.36015850
0.40490801 0.61446374 0.36016934
0.40547004 0.61447010 0.36019423
0.40653715 0.61448229 0.36024192
0.40836366 0.61450350 0.36032484
0.41127584 0.61453823 0.36046052
0.41566619 0.61459280 0.36067335
0.42196756 0.61467599 0.36099696
0.43060254 0.61479993 0.36147731
0.44191420 0.61498133 0.36217652
0.45609851 0.61524307 0.36317756
0.47316552 0.61561638 0.36458957
0.49294618 0.61614368 0.36655350
0.51513938 0.61688223 0.36924687
0.53937655 0.61790885 0.37288625
0.56528035 0.61932561 0.37772478
0.59250431 0.62126644 0.38404241
0.62075257 0.62390409 0.39212687
0.64978455 0.62745618 0.40224634
0.67941113 0.63218812 0.41461839
0.70948694 0.63840973 0.42938322
0.73990189 0.64646175 0.44658944
0.77057347 0.65668937 0.46619642
0.80144021 0.66940386 0.48809152
0.83245646 0.68483859 0.51211532
0.86358841 0.70311176 0.53808741
0.89481104 0.72420838 0.56582737
0.91886608 0.74798818 0.59516875
0.91886608 0.77421594 0.62596646
0.91886608 0.80260289 0.65809927
0.43145919 0.64561980 0.38536744
0.43145919 0.64561980 0.38536744
0.43145919 0.64561980 0.38536744
0.43150582 0.64562031 0.38536951
0.43168698 0.64562230 0.38537754
0.43210193 0.64562688 0.38539601
0.43289180 0.64563564 0.38543140
0.43424991 0.64565090 0.38549295
0.43643108 0.64567589 0.38559368
0.43975530 0.64571516 0.38575178
0.44459955 0.64577504 0.38599240
0.45137108 0.64586427 0.38635004
0.46045964 0.64599493 0.38687164
0.47217502 0.64618358 0.38762046
0.48668833 0.64645290 0.38868082
0.50399956 0.64683382 0.39016355
0.52394496 0.64736833 0.39221173
0.54623916 0.64811324 0.39500577
0.57053300 0.64914486 0.39876613
0.59646677 0.65056487 0.40375139
0.62370730 0.65250717 0.41024879
0.65196737 0.65514517 0.41855535
0.68101129 0.65869848 0.42895013
0.71065219 0.66343657 0.44166189
0.74074535 0.66967619 0.45684045
0.77118053 0.67776842 0.47454040
0.80187462 0.68807205 0.49472217
