src/ffmpeg_scripts/luts/flog-experimental_-4p00.cube
TITLE "flog-experimental_-4p00"
LUT_3D_SIZE 33
# Fujifilm F-Log/Rec2020 -> PQ (EOTF Only)/Rec2020, CineEI Shift -4.00, Black Level 0.00% IRE, Input 109% -> Output 100% - Created with LUTCalc v4.01 by Ben Turley October 2020
0.00000073 0.00000073 0.00000073
0.00000073 0.00000073 0.00000073
0.00000073 0.00000073 0.00000073
0.00675038 0.00000073 0.00000073
0.04924744 0.00000073 0.00000073
0.07045115 0.00000073 0.00000073
0.08791365 0.00000073 0.00000073
0.10385258 0.00000073 0.00000073
0.11911562 0.00000073 0.00000073
0.13413519 0.00000073 0.00000073
0.14916925 0.00000073 0.00000073
0.16438793 0.00000073 0.00000073
0.17991133 0.00000073 0.00000073
0.19582842 0.00000073 0.00000073
0.21220718 0.00000073 0.00000073
0.22910063 0.00000073 0.00000073
0.24655048 0.00000073 0.00000073
0.26458947 0.00000073 0.00000073
0.28324296 0.00000073 0.00000073
0.30253003 0.00000073 0.00000073
0.32246429 0.00000073 0.00000073
0.34305444 0.00000073 0.00000073
0.36430479 0.00000073 0.00000073
0.38621558 0.00000073 0.00000073
0.40878335 0.00000073 0.00000073
0.43200118 0.00000073 0.00000073
0.45585900 0.00000073 0.00000073
0.48034377 0.00000073 0.00000073
0.50543973 0.00000073 0.00000073
0.53112862 0.00000073 0.00000073
0.55738988 0.00000073 0.00000073
0.58420086 0.00000073 0.00000073
0.61153701 0.00000073 0.00000073
0.00000073 0.00000073 0.00000073
0.00000073 0.00000073 0.00000073
0.00000073 0.00000073 0.00000073
0.00675038 0.00000073 0.00000073
0.04924744 0.00000073 0.00000073
0.07045115 0.00000073 0.00000073
0.08791365 0.00000073 0.00000073
0.10385258 0.00000073 0.00000073
0.11911562 0.00000073 0.00000073
0.13413519 0.00000073 0.00000073
0.14916925 0.00000073 0.00000073
0.16438793 0.00000073 0.00000073
0.17991133 0.00000073 0.00000073
0.19582842 0.00000073 0.00000073
0.21220718 0.00000073 0.00000073
0.22910063 0.00000073 0.00000073
0.24655048 0.00000073 0.00000073
0.26458947 0.00000073 0.00000073
0.28324296 0.00000073 0.00000073
0.30253003 0.00000073 0.00000073
0.32246429 0.00000073 0.00000073
0.34305444 0.00000073 0.00000073
0.36430479 0.00000073 0.00000073
0.38621558 0.00000073 0.00000073
0.40878335 0.00000073 0.00000073
0.43200118 0.00000073 0.00000073
0.45585900 0.00000073 0.00000073
0.48034377 0.00000073 0.00000073
0.50543973 0.00000073 0.00000073
0.53112862 0.00000073 0.00000073
0.55738988 0.00000073 0.00000073
0.58420086 0.00000073 0.00000073
0.61153701 0.00000073 0.00000073
0.00000073 0.00000073 0.00000073
0.00000073 0.00000073 0.00000073
0.00000073 0.00000073 0.00000073
0.00675038 0.00000073 0.00000073
0.04924744 0.00000073 0.00000073
0.07045115 0.00000073 0.00000073
0.08791365 0.00000073 0.00000073
0.10385258 0.00000073 0.00000073
0.11911562 0.00000073 0.00000073
0.13413519 0.00000073 0.00000073
0.14916925 0.00000073 0.00000073
0.16438793 0.00000073 0.00000073
0.17991133 0.00000073 0.00000073
0.19582842 0.00000073 0.00000073
0.21220718 0.00000073 0.00000073
0.22910063 0.00000073 0.00000073
0.24655048 0.00000073 0.00000073
0.26458947 0.00000073 0.00000073
0.28324296 0.00000073 0.00000073
0.30253003 0.00000073 0.00000073
0.32246429 0.00000073 0.00000073
0.34305444 0.00000073 0.00000073
0.36430479 0.00000073 0.00000073
0.38621558 0.00000073 0.00000073
0.40878335 0.00000073 0.00000073
0.43200118 0.00000073 0.00000073
0.45585900 0.00000073 0.00000073
0.48034377 0.00000073 0.00000073
0.50543973 0.00000073 0.00000073
0.53112862 0.00000073 0.00000073
0.55738988 0.00000073 0.00000073
0.58420086 0.00000073 0.00000073
0.61153701 0.00000073 0.00000073
0.00000073 0.00675038 0.00000073
0.00000073 0.00675038 0.00000073
0.00000073 0.00675038 0.00000073
0.00675038 0.00675038 0.00000073
0.04924744 0.00675038 0.00000073
0.07045115 0.00675038 0.00000073
0.08791365 0.00675038 0.00000073
0.10385258 0.00675038 0.00000073
0.11911562 0.00675038 0.00000073
0.13413519 0.00675038 0.00000073
0.14916925 0.00675038 0.00000073
0.16438793 0.00675038 0.00000073
0.17991133 0.00675038 0.00000073
0.19582842 0.00675038 0.00000073
0.21220718 0.00675038 0.00000073
0.22910063 0.00675038 0.00000073
0.24655048 0.00675038 0.00000073
0.26458947 0.00675038 0.00000073
0.28324296 0.00675038 0.00000073
0.30253003 0.00675038 0.00000073
0.32246429 0.00675038 0.00000073
0.34305444 0.00675038 0.00000073
0.36430479 0.00675038 0.00000073
0.38621558 0.00675038 0.00000073
0.40878335 0.00675038 0.00000073
0.43200118 0.00675038 0.00000073
0.45585900 0.00675038 0.00000073
0.48034377 0.00675038 0.00000073
0.50543973 0.00675038 0.00000073
0.53112862 0.00675038 0.00000073
0.55738988 0.00675038 0.00000073
0.58420086 0.00675038 0.00000073
0.61153701 0.00675038 0.00000073
0.00000073 0.04924744 0.00000073
0.00000073 0.04924744 0.00000073
0.00000073 0.04924744 0.00000073
0.00675038 0.04924744 0.00000073
0.04924744 0.04924744 0.00000073
0.07045115 0.04924744 0.00000073
0.08791365 0.04924744 0.00000073
0.10385258 0.04924744 0.00000073
0.11911562 0.04924744 0.00000073
0.13413519 0.04924744 0.00000073
0.14916925 0.04924744 0.00000073
0.16438793 0.04924744 0.00000073
0.17991133 0.04924744 0.00000073
0.19582842 0.04924744 0.00000073
0.21220718 0.04924744 0.00000073
0.22910063 0.04924744 0.00000073
0.24655048 0.04924744 0.00000073
0.26458947 0.04924744 0.00000073
0.28324296 0.04924744 0.00000073
0.30253003 0.04924744 0.00000073
0.32246429 0.04924744 0.00000073
0.34305444 0.04924744 0.00000073
0.36430479 0.04924744 0.00000073
0.38621558 0.04924744 0.00000073
0.40878335 0.04924744 0.00000073
0.43200118 0.04924744 0.00000073
0.45585900 0.04924744 0.00000073
0.48034377 0.04924744 0.00000073
0.50543973 0.04924744 0.00000073
0.53112862 0.04924744 0.00000073
0.55738988 0.04924744 0.00000073
0.58420086 0.04924744 0.00000073
0.61153701 0.04924744 0.00000073
0.00000073 0.07045115 0.00000073
0.00000073 0.07045115 0.00000073
0.00000073 0.07045115 0.00000073
0.00675038 0.07045115 0.00000073
0.04924744 0.07045115 0.00000073
0.07045115 0.07045115 0.00000073
0.08791365 0.07045115 0.00000073
0.10385258 0.07045115 0.00000073
0.11911562 0.07045115 0.00000073
0.13413519 0.07045115 0.00000073
0.14916925 0.07045115 0.00000073
0.16438793 0.07045115 0.00000073
0.17991133 0.07045115 0.00000073
0.19582842 0.07045115 0.00000073
0.21220718 0.07045115 0.00000073
0.22910063 0.07045115 0.00000073
0.24655048 0.07045115 0.00000073
0.26458947 0.07045115 0.00000073
0.28324296 0.07045115 0.00000073
0.30253003 0.07045115 0.00000073
0.32246429 0.07045115 0.00000073
0.34305444 0.07045115 0.00000073
0.36430479 0.07045115 0.00000073
0.38621558 0.07045115 0.00000073
0.40878335 0.07045115 0.00000073
0.43200118 0.07045115 0.00000073
0.45585900 0.07045115 0.00000073
0.48034377 0.07045115 0.00000073
0.50543973 0.07045115 0.00000073
0.53112862 0.07045115 0.00000073
0.55738988 0.07045115 0.00000073
0.58420086 0.07045115 0.00000073
0.61153701 0.07045115 0.00000073
0.00000073 0.08791365 0.00000073
0.00000073 0.08791365 0.00000073
0.00000073 0.08791365 0.00000073
0.00675038 0.08791365 0.00000073
0.04924744 0.08791365 0.00000073
0.07045115 0.08791365 0.00000073
0.08791365 0.08791365 0.00000073
0.10385258 0.08791365 0.00000073
0.11911562 0.08791365 0.00000073
0.13413519 0.08791365 0.00000073
0.14916925 0.08791365 0.00000073
0.16438793 0.08791365 0.00000073
0.17991133 0.08791365 0.00000073
0.19582842 0.08791365 0.00000073
0.21220718 0.08791365 0.00000073
0.22910063 0.08791365 0.00000073
0.24655048 0.08791365 0.00000073
0.26458947 0.08791365 0.00000073
0.28324296 0.08791365 0.00000073
0.30253003 0.08791365 0.00000073
0.32246429 0.08791365 0.00000073
0.34305444 0.08791365 0.00000073
0.36430479 0.08791365 0.00000073
0.38621558 0.08791365 0.00000073
0.40878335 0.08791365 0.00000073
0.43200118 0.08791365 0.00000073
0.45585900 0.08791365 0.00000073
0.48034377 0.08791365 0.00000073
0.50543973 0.08791365 0.00000073
0.53112862 0.08791365 0.00000073
0.55738988 0.08791365 0.00000073
0.58420086 0.08791365 0.00000073
0.61153701 0.08791365 0.00000073
0.00000073 0.10385258 0.00000073
0.00000073 0.10385258 0.00000073
0.00000073 0.10385258 0.00000073
0.00675038 0.10385258 0.00000073
0.04924744 0.10385258 0.00000073
0.07045115 0.10385258 0.00000073
0.08791365 0.10385258 0.00000073
0.10385258 0.10385258 0.00000073
0.11911562 0.10385258 0.00000073
0.13413519 0.10385258 0.00000073
0.14916925 0.10385258 0.00000073
0.16438793 0.10385258 0.00000073
0.17991133 0.10385258 0.00000073
0.19582842 0.10385258 0.00000073
0.21220718 0.10385258 0.00000073
0.22910063 0.10385258 0.00000073
0.24655048 0.10385258 0.00000073
0.26458947 0.10385258 0.00000073
0.28324296 0.10385258 0.00000073
0.30253003 0.10385258 0.00000073
0.32246429 0.10385258 0.00000073
0.34305444 0.10385258 0.00000073
0.36430479 0.10385258 0.00000073
0.38621558 0.10385258 0.00000073
0.40878335 0.10385258 0.00000073
0.43200118 0.10385258 0.00000073
0.45585900 0.10385258 0.00000073
0.48034377 0.10385258 0.00000073
0.50543973 0.10385258 0.00000073
0.53112862 0.10385258 0.00000073
0.55738988 0.10385258 0.00000073
0.58420086 0.10385258 0.00000073
0.61153701 0.10385258 0.00000073
0.00000073 0.11911562 0.00000073
0.00000073 0.11911562 0.00000073
0.00000073 0.11911562 0.00000073
0.00675038 0.11911562 0.00000073
0.04924744 0.11911562 0.00000073
0.07045115 0.11911562 0.00000073
0.08791365 0.11911562 0.00000073
0.10385258 0.11911562 0.00000073
0.11911562 0.11911562 0.00000073
0.13413519 0.11911562 0.00000073
0.14916925 0.11911562 0.00000073
0.16438793 0.11911562 0.00000073
0.17991133 0.11911562 0.00000073
0.19582842 0.11911562 0.00000073
0.21220718 0.11911562 0.00000073
0.22910063 0.11911562 0.00000073
0.24655048 0.11911562 0.00000073
0.26458947 0.11911562 0.00000073
0.28324296 0.11911562 0.00000073
0.30253003 0.11911562 0.00000073
0.32246429 0.11911562 0.00000073
0.34305444 0.11911562 0.00000073
0.36430479 0.11911562 0.00000073
0.38621558 0.11911562 0.00000073
0.40878335 0.11911562 0.00000073
0.43200118 0.11911562 0.00000073
0.45585900 0.11911562 0.00000073
0.48034377 0.11911562 0.00000073
0.50543973 0.11911562 0.00000073
0.53112862 0.11911562 0.00000073
0.55738988 0.11911562 0.00000073
0.58420086 0.11911562 0.00000073
0.61153701 0.11911562 0.00000073
0.00000073 0.13413519 0.00000073
0.00000073 0.13413519 0.00000073
0.00000073 0.13413519 0.00000073
0.00675038 0.13413519 0.00000073
0.04924744 0.13413519 0.00000073
0.07045115 0.13413519 0.00000073
0.08791365 0.13413519 0.00000073
0.10385258 0.13413519 0.00000073
0.11911562 0.13413519 0.00000073
0.13413519 0.13413519 0.00000073
0.14916925 0.13413519 0.00000073
0.16438793 0.13413519 0.00000073
0.17991133 0.13413519 0.00000073
0.19582842 0.13413519 0.00000073
0.21220718 0.13413519 0.00000073
0.22910063 0.13413519 0.00000073
0.24655048 0.13413519 0.00000073
0.26458947 0.13413519 0.00000073
0.28324296 0.13413519 0.00000073
0.30253003 0.13413519 0.00000073
0.32246429 0.13413519 0.00000073
0.34305444 0.13413519 0.00000073
0.36430479 0.13413519 0.00000073
0.38621558 0.13413519 0.00000073
0.40878335 0.13413519 0.00000073
0.43200118 0.13413519 0.00000073
0.45585900 0.13413519 0.00000073
0.48034377 0.13413519 0.00000073
0.50543973 0.13413519 0.00000073
0.53112862 0.13413519 0.00000073
0.55738988 0.13413519 0.00000073
0.58420086 0.13413519 0.00000073
0.61153701 0.13413519 0.00000073
0.00000073 0.14916925 0.00000073
0.00000073 0.14916925 0.00000073
0.00000073 0.14916925 0.00000073
0.00675038 0.14916925 0.00000073
0.04924744 0.14916925 0.00000073
0.07045115 0.14916925 0.00000073
0.08791365 0.14916925 0.00000073
0.10385258 0.14916925 0.00000073
0.11911562 0.14916925 0.00000073
0.13413519 0.14916925 0.00000073
0.14916925 0.14916925 0.00000073
0.16438793 0.14916925 0.00000073
0.17991133 0.14916925 0.00000073
0.19582842 0.14916925 0.00000073
0.21220718 0.14916925 0.00000073
0.22910063 0.14916925 0.00000073
0.24655048 0.14916925 0.00000073
0.26458947 0.14916925 0.00000073
0.28324296 0.14916925 0.00000073
0.30253003 0.14916925 0.00000073
0.32246429 0.14916925 0.00000073
0.34305444 0.14916925 0.00000073
0.36430479 0.14916925 0.00000073
0.38621558 0.14916925 0.00000073
0.40878335 0.14916925 0.00000073
0.43200118 0.14916925 0.00000073
0.45585900 0.14916925 0.00000073
0.48034377 0.14916925 0.00000073
0.50543973 0.14916925 0.00000073
0.53112862 0.14916925 0.00000073
0.55738988 0.14916925 0.00000073
0.58420086 0.14916925 0.00000073
0.61153701 0.14916925 0.00000073
0.00000073 0.16438793 0.00000073
0.00000073 0.16438793 0.00000073
0.00000073 0.16438793 0.00000073
0.00675038 0.16438793 0.00000073
0.04924744 0.16438793 0.00000073
0.07045115 0.16438793 0.00000073
0.08791365 0.16438793 0.00000073
0.10385258 0.16438793 0.00000073
0.11911562 0.16438793 0.00000073
0.13413519 0.16438793 0.00000073
0.14916925 0.16438793 0.00000073
0.16438793 0.16438793 0.00000073
0.17991133 0.16438793 0.00000073
0.19582842 0.16438793 0.00000073
0.21220718 0.16438793 0.00000073
0.22910063 0.16438793 0.00000073
0.24655048 0.16438793 0.00000073
0.26458947 0.16438793 0.00000073
0.28324296 0.16438793 0.00000073
0.30253003 0.16438793 0.00000073
0.32246429 0.16438793 0.00000073
0.34305444 0.16438793 0.00000073
0.36430479 0.16438793 0.00000073
0.38621558 0.16438793 0.00000073
0.40878335 0.16438793 0.00000073
0.43200118 0.16438793 0.00000073
0.45585900 0.16438793 0.00000073
0.48034377 0.16438793 0.00000073
0.50543973 0.16438793 0.00000073
0.53112862 0.16438793 0.00000073
0.55738988 0.16438793 0.00000073
0.58420086 0.16438793 0.00000073
0.61153701 0.16438793 0.00000073
0.00000073 0.17991133 0.00000073
0.00000073 0.17991133 0.00000073
0.00000073 0.17991133 0.00000073
0.00675038 0.17991133 0.00000073
0.04924744 0.17991133 0.00000073
0.07045115 0.17991133 0.00000073
0.08791365 0.17991133 0.00000073
0.10385258 0.17991133 0.00000073
0.11911562 0.17991133 0.00000073
0.13413519 0.17991133 0.00000073
0.14916925 0.17991133 0.00000073
0.16438793 0.17991133 0.00000073
0.17991133 0.17991133 0.00000073
0.19582842 0.17991133 0.00000073
0.21220718 0.17991133 0.00000073
0.22910063 0.17991133 0.00000073
0.24655048 0.17991133 0.00000073
0.26458947 0.17991133 0.00000073
0.28324296 0.17991133 0.00000073
0.30253003 0.17991133 0.00000073
0.32246429 0.17991133 0.00000073
0.34305444 0.17991133 0.00000073
0.36430479 0.17991133 0.00000073
0.38621558 0.17991133 0.00000073
0.40878335 0.17991133 0.00000073
0.43200118 0.17991133 0.00000073
0.45585900 0.17991133 0.00000073
0.48034377 0.17991133 0.00000073
0.50543973 0.17991133 0.00000073
0.53112862 0.17991133 0.00000073
0.55738988 0.17991133 0.00000073
0.58420086 0.17991133 0.00000073
0.61153701 0.17991133 0.00000073
0.00000073 0.19582842 0.00000073
0.00000073 0.19582842 0.00000073
0.00000073 0.19582842 0.00000073
0.00675038 0.19582842 0.00000073
0.04924744 0.19582842 0.00000073
0.07045115 0.19582842 0.00000073
0.08791365 0.19582842 0.00000073
0.10385258 0.19582842 0.00000073
0.11911562 0.19582842 0.00000073
0.13413519 0.19582842 0.00000073
0.14916925 0.19582842 0.00000073
0.16438793 0.19582842 0.00000073
0.17991133 0.19582842 0.00000073
0.19582842 0.19582842 0.00000073
0.21220718 0.19582842 0.00000073
0.22910063 0.19582842 0.00000073
0.24655048 0.19582842 0.00000073
0.26458947 0.19582842 0.00000073
0.28324296 0.19582842 0.00000073
0.30253003 0.19582842 0.00000073
0.32246429 0.19582842 0.00000073
0.34305444 0.19582842 0.00000073
0.36430479 0.19582842 0.00000073
0.38621558 0.19582842 0.00000073
0.40878335 0.19582842 0.00000073
0.43200118 0.19582842 0.00000073
0.45585900 0.19582842 0.00000073
0.48034377 0.19582842 0.00000073
0.50543973 0.19582842 0.00000073
0.53112862 0.19582842 0.00000073
0.55738988 0.19582842 0.00000073
0.58420086 0.19582842 0.00000073
0.61153701 0.19582842 0.00000073
0.00000073 0.21220718 0.00000073
0.00000073 0.21220718 0.00000073
0.00000073 0.21220718 0.00000073
0.00675038 0.21220718 0.00000073
0.04924744 0.21220718 0.00000073
0.07045115 0.21220718 0.00000073
0.08791365 0.21220718 0.00000073
0.10385258 0.21220718 0.00000073
0.11911562 0.21220718 0.00000073
0.13413519 0.21220718 0.00000073
0.14916925 0.21220718 0.00000073
0.16438793 0.21220718 0.00000073
0.17991133 0.21220718 0.00000073
0.19582842 0.21220718 0.00000073
0.21220718 0.21220718 0.00000073
0.22910063 0.21220718 0.00000073
0.24655048 0.21220718 0.00000073
0.26458947 0.21220718 0.00000073
0.28324296 0.21220718 0.00000073
0.30253003 0.21220718 0.00000073
0.32246429 0.21220718 0.00000073
0.34305444 0.21220718 0.00000073
0.36430479 0.21220718 0.00000073
0.38621558 0.21220718 0.00000073
0.40878335 0.21220718 0.00000073
0.43200118 0.21220718 0.00000073
0.45585900 0.21220718 0.00000073
0.48034377 0.21220718 0.00000073
0.50543973 0.21220718 0.00000073
0.53112862 0.21220718 0.00000073
0.55738988 0.21220718 0.00000073
0.58420086 0.21220718 0.00000073
0.61153701 0.21220718 0.00000073
0.00000073 0.22910063 0.00000073
0.00000073 0.22910063 0.00000073
0.00000073 0.22910063 0.00000073
0.00675038 0.22910063 0.00000073
0.04924744 0.22910063 0.00000073
0.07045115 0.22910063 0.00000073
0.08791365 0.22910063 0.00000073
0.10385258 0.22910063 0.00000073
0.11911562 0.22910063 0.00000073
0.13413519 0.22910063 0.00000073
0.14916925 0.22910063 0.00000073
0.16438793 0.22910063 0.00000073
0.17991133 0.22910063 0.00000073
0.19582842 0.22910063 0.00000073
0.21220718 0.22910063 0.00000073
0.22910063 0.22910063 0.00000073
0.24655048 0.22910063 0.00000073
0.26458947 0.22910063 0.00000073
0.28324296 0.22910063 0.00000073
0.30253003 0.22910063 0.00000073
0.32246429 0.22910063 0.00000073
0.34305444 0.22910063 0.00000073
0.36430479 0.22910063 0.00000073
0.38621558 0.22910063 0.00000073
0.40878335 0.22910063 0.00000073
0.43200118 0.22910063 0.00000073
0.45585900 0.22910063 0.00000073
0.48034377 0.22910063 0.00000073
0.50543973 0.22910063 0.00000073
0.53112862 0.22910063 0.00000073
0.55738988 0.22910063 0.00000073
0.58420086 0.22910063 0.00000073
0.61153701 0.22910063 0.00000073
0.00000073 0.24655048 0.00000073
0.00000073 0.24655048 0.00000073
0.00000073 0.24655048 0.00000073
0.00675038 0.24655048 0.00000073
0.04924744 0.24655048 0.00000073
0.07045115 0.24655048 0.00000073
0.08791365 0.24655048 0.00000073
0.10385258 0.24655048 0.00000073
0.11911562 0.24655048 0.00000073
0.13413519 0.24655048 0.00000073
0.14916925 0.24655048 0.00000073
0.16438793 0.24655048 0.00000073
0.17991133 0.24655048 0.00000073
0.19582842 0.24655048 0.00000073
0.21220718 0.24655048 0.00000073
0.22910063 0.24655048 0.00000073
0.24655048 0.24655048 0.00000073
0.26458947 0.24655048 0.00000073
0.28324296 0.24655048 0.00000073
0.30253003 0.24655048 0.00000073
0.32246429 0.24655048 0.00000073
0.34305444 0.24655048 0.00000073
0.36430479 0.24655048 0.00000073
0.38621558 0.24655048 0.00000073
0.40878335 0.24655048 0.00000073
0.43200118 0.24655048 0.00000073
0.45585900 0.24655048 0.00000073
0.48034377 0.24655048 0.00000073
0.50543973 0.24655048 0.00000073
0.53112862 0.24655048 0.00000073
0.55738988 0.24655048 0.00000073
0.58420086 0.24655048 0.00000073
0.61153701 0.24655048 0.00000073
0.00000073 0.26458947 0.00000073
0.00000073 0.26458947 0.00000073
0.00000073 0.26458947 0.00000073
0.00675038 0.26458947 0.00000073
0.04924744 0.26458947 0.00000073
0.07045115 0.26458947 0.00000073
0.08791365 0.26458947 0.00000073
0.10385258 0.26458947 0.00000073
0.11911562 0.26458947 0.00000073
0.13413519 0.26458947 0.00000073
0.14916925 0.26458947 0.00000073
0.16438793 0.26458947 0.00000073
0.17991133 0.26458947 0.00000073
0.19582842 0.26458947 0.00000073
0.21220718 0.26458947 0.00000073
0.22910063 0.26458947 0.00000073
0.24655048 0.26458947 0.00000073
0.26458947 0.26458947 0.00000073
0.28324296 0.26458947 0.00000073
0.30253003 0.26458947 0.00000073
0.32246429 0.26458947 0.00000073
0.34305444 0.26458947 0.00000073
0.36430479 0.26458947 0.00000073
0.38621558 0.26458947 0.00000073
0.40878335 0.26458947 0.00000073
0.43200118 0.26458947 0.00000073
0.45585900 0.26458947 0.00000073
0.48034377 0.26458947 0.00000073
0.50543973 0.26458947 0.00000073
0.53112862 0.26458947 0.00000073
0.55738988 0.26458947 0.00000073
0.58420086 0.26458947 0.00000073
0.61153701 0.26458947 0.00000073
0.00000073 0.28324296 0.00000073
0.00000073 0.28324296 0.00000073
0.00000073 0.28324296 0.00000073
0.00675038 0.28324296 0.00000073
0.04924744 0.28324296 0.00000073
0.07045115 0.28324296 0.00000073
0.08791365 0.28324296 0.00000073
0.10385258 0.28324296 0.00000073
0.11911562 0.28324296 0.00000073
0.13413519 0.28324296 0.00000073
0.14916925 0.28324296 0.00000073
0.16438793 0.28324296 0.00000073
0.17991133 0.28324296 0.00000073
0.19582842 0.28324296 0.00000073
0.21220718 0.28324296 0.00000073
0.22910063 0.28324296 0.00000073
0.24655048 0.28324296 0.00000073
0.26458947 0.28324296 0.00000073
0.28324296 0.28324296 0.00000073
0.30253003 0.28324296 0.00000073
0.32246429 0.28324296 0.00000073
0.34305444 0.28324296 0.00000073
0.36430479 0.28324296 0.00000073
0.38621558 0.28324296 0.00000073
0.40878335 0.28324296 0.00000073
0.43200118 0.28324296 0.00000073
0.45585900 0.28324296 0.00000073
0.48034377 0.28324296 0.00000073
0.50543973 0.28324296 0.00000073
0.53112862 0.28324296 0.00000073
0.55738988 0.28324296 0.00000073
0.58420086 0.28324296 0.00000073
0.61153701 0.28324296 0.00000073
0.00000073 0.30253003 0.00000073
0.00000073 0.30253003 0.00000073
0.00000073 0.30253003 0.00000073
0.00675038 0.30253003 0.00000073
0.04924744 0.30253003 0.00000073
0.07045115 0.30253003 0.00000073
0.08791365 0.30253003 0.00000073
0.10385258 0.30253003 0.00000073
0.11911562 0.30253003 0.00000073
0.13413519 0.30253003 0.00000073
0.14916925 0.30253003 0.00000073
0.16438793 0.30253003 0.00000073
0.17991133 0.30253003 0.00000073
0.19582842 0.30253003 0.00000073
0.21220718 0.30253003 0.00000073
0.22910063 0.30253003 0.00000073
0.24655048 0.30253003 0.00000073
0.26458947 0.30253003 0.00000073
0.28324296 0.30253003 0.00000073
0.30253003 0.30253003 0.00000073
0.32246429 0.30253003 0.00000073
0.34305444 0.30253003 0.00000073
0.36430479 0.30253003 0.00000073
0.38621558 0.30253003 0.00000073
0.40878335 0.30253003 0.00000073
0.43200118 0.30253003 0.00000073
0.45585900 0.30253003 0.00000073
0.48034377 0.30253003 0.00000073
0.50543973 0.30253003 0.00000073
0.53112862 0.30253003 0.00000073
0.55738988 0.30253003 0.00000073
0.58420086 0.30253003 0.00000073
0.61153701 0.30253003 0.00000073
0.00000073 0.32246429 0.00000073
0.00000073 0.32246429 0.00000073
0.00000073 0.32246429 0.00000073
0.00675038 0.32246429 0.00000073
0.04924744 0.32246429 0.00000073
0.07045115 0.32246429 0.00000073
0.08791365 0.32246429 0.00000073
0.10385258 0.32246429 0.00000073
0.11911562 0.32246429 0.00000073
0.13413519 0.32246429 0.00000073
0.14916925 0.32246429 0.00000073
0.16438793 0.32246429 0.00000073
0.17991133 0.32246429 0.00000073
0.19582842 0.32246429 0.00000073
0.21220718 0.32246429 0.00000073
0.22910063 0.32246429 0.00000073
0.24655048 0.32246429 0.00000073
0.26458947 0.32246429 0.00000073
0.28324296 0.32246429 0.00000073
0.30253003 0.32246429 0.00000073
0.32246429 0.32246429 0.00000073
0.34305444 0.32246429 0.00000073
0.36430479 0.32246429 0.00000073
0.38621558 0.32246429 0.00000073
0.40878335 0.32246429 0.00000073
0.43200118 0.32246429 0.00000073
0.45585900 0.32246429 0.00000073
0.48034377 0.32246429 0.00000073
0.50543973 0.32246429 0.00000073
0.53112862 0.32246429 0.00000073
0.55738988 0.32246429 0.00000073
0.58420086 0.32246429 0.00000073
0.61153701 0.32246429 0.00000073
0.00000073 0.34305444 0.00000073
0.00000073 0.34305444 0.00000073
0.00000073 0.34305444 0.00000073
0.00675038 0.34305444 0.00000073
0.04924744 0.34305444 0.00000073
0.07045115 0.34305444 0.00000073
0.08791365 0.34305444 0.00000073
0.10385258 0.34305444 0.00000073
0.11911562 0.34305444 0.00000073
0.13413519 0.34305444 0.00000073
0.14916925 0.34305444 0.00000073
0.16438793 0.34305444 0.00000073
0.17991133 0.34305444 0.00000073
0.19582842 0.34305444 0.00000073
0.21220718 0.34305444 0.00000073
0.22910063 0.34305444 0.00000073
0.24655048 0.34305444 0.00000073
0.26458947 0.34305444 0.00000073
0.28324296 0.34305444 0.00000073
0.30253003 0.34305444 0.00000073
0.32246429 0.34305444 0.00000073
0.34305444 0.34305444 0.00000073
0.36430479 0.34305444 0.00000073
0.38621558 0.34305444 0.00000073
0.40878335 0.34305444 0.00000073
0.43200118 0.34305444 0.00000073
0.45585900 0.34305444 0.00000073
