src/ffmpeg_scripts/luts/flog-smpte2084_-3p00.cube
TITLE "flog-smpte2084_-3p00"
LUT_3D_SIZE 9
# Fujifilm F-Log/Rec2020 -> PQ (EOTF Only)/Rec2020, CineEI Shift -3.00, Black Level 0.00% IRE, Input 109% -> Output 109% - Created with LUTCalc v4.01 by Ben Turley October 2020
0.06256172 0.06256172 0.06256172
0.10427881 0.06256172 0.06256172
0.15847574 0.06256172 0.06256172
0.20352911 0.06256172 0.06256172
0.25146566 0.06256172 0.06256172
0.30470889 0.06256172 0.06256172
0.36387988 0.06256172 0.06256172
0.42875576 0.06256172 0.06256172
0.49859683 0.06256172 0.06256172
0.06256172 0.10427881 0.06256172
0.10427881 0.10427881 0.06256172
0.15847574 0.10427881 0.06256172
0.20352911 0.10427881 0.06256172
0.25146566 0.10427881 0.06256172
0.30470889 0.10427881 0.06256172
0.36387988 0.10427881 0.06256172
0.42875576 0.10427881 0.06256172
0.49859683 0.10427881 0.06256172
0.06256172 0.15847574 0.06256172
0.10427881 0.15847574 0.06256172
0.15847574 0.15847574 0.06256172
0.20352911 0.15847574 0.06256172
0.25146566 0.15847574 0.06256172
0.30470889 0.15847574 0.06256172
0.36387988 0.15847574 0.06256172
0.42875576 0.15847574 0.06256172
0.49859683 0.15847574 0.06256172
0.06256172 0.20352911 0.06256172
0.10427881 0.20352911 0.06256172
0.15847574 0.20352911 0.06256172
0.20352911 0.20352911 0.06256172
0.25146566 0.20352911 0.06256172
0.30470889 0.20352911 0.06256172
0.36387988 0.20352911 0.06256172
0.42875576 0.20352911 0.06256172
0.49859683 0.20352911 0.06256172
0.06256172 0.25146566 0.06256172
0.10427881 0.25146566 0.06256172
0.15847574 0.25146566 0.06256172
0.20352911 0.25146566 0.06256172
0.25146566 0.25146566 0.06256172
0.30470889 0.25146566 0.06256172
0.36387988 0.25146566 0.06256172
0.42875576 0.25146566 0.06256172
0.49859683 0.25146566 0.06256172
0.06256172 0.30470889 0.06256172
0.10427881 0.30470889 0.06256172
0.15847574 0.30470889 0.06256172
0.20352911 0.30470889 0.06256172
0.25146566 0.30470889 0.06256172
0.30470889 0.30470889 0.06256172
0.36387988 0.30470889 0.06256172
0.42875576 0.30470889 0.06256172
0.49859683 0.30470889 0.06256172
0.06256172 0.36387988 0.06256172
0.10427881 0.36387988 0.06256172
0.15847574 0.36387988 0.06256172
0.20352911 0.36387988 0.06256172
0.25146566 0.36387988 0.06256172
0.30470889 0.36387988 0.06256172
0.36387988 0.36387988 0.06256172
0.42875576 0.36387988 0.06256172
0.49859683 0.36387988 0.06256172
0.06256172 0.42875576 0.06256172
0.10427881 0.42875576 0.06256172
0.15847574 0.42875576 0.06256172
0.20352911 0.42875576 0.06256172
0.25146566 0.42875576 0.06256172
0.30470889 0.42875576 0.06256172
0.36387988 0.42875576 0.06256172
0.42875576 0.42875576 0.06256172
0.49859683 0.42875576 0.06256172
0.06256172 0.49859683 0.06256172
0.10427881 0.49859683 0.06256172
0.15847574 0.49859683 0.06256172
0.20352911 0.49859683 0.06256172
0.25146566 0.49859683 0.06256172
0.30470889 0.49859683 0.06256172
0.36387988 0.49859683 0.06256172
0.42875576 0.49859683 0.06256172
0.49859683 0.49859683 0.06256172
0.06256172 0.06256172 0.10427881
0.10427881 0.06256172 0.10427881
0.15847574 0.06256172 0.10427881
0.20352911 0.06256172 0.10427881
0.25146566 0.06256172 0.10427881
0.30470889 0.06256172 0.10427881
0.36387988 0.06256172 0.10427881
0.42875576 0.06256172 0.10427881
0.49859683 0.06256172 0.10427881
0.06256172 0.10427881 0.10427881
0.10427881 0.10427881 0.10427881
0.15847574 0.10427881 0.10427881
0.20352911 0.10427881 0.10427881
0.25146566 0.10427881 0.10427881
0.30470889 0.10427881 0.10427881
0.36387988 0.10427881 0.10427881
0.42875576 0.10427881 0.10427881
0.49859683 0.10427881 0.10427881
0.06256172 0.15847574 0.10427881
0.10427881 0.15847574 0.10427881
0.15847574 0.15847574 0.10427881
0.20352911 0.15847574 0.10427881
0.25146566 0.15847574 0.10427881
0.30470889 0.15847574 0.10427881
0.36387988 0.15847574 0.10427881
0.42875576 0.15847574 0.10427881
0.49859683 0.15847574 0.10427881
0.06256172 0.20352911 0.10427881
0.10427881 0.20352911 0.10427881
0.15847574 0.20352911 0.10427881
0.20352911 0.20352911 0.10427881
0.25146566 0.20352911 0.10427881
0.30470889 0.20352911 0.10427881
0.36387988 0.20352911 0.10427881
0.42875576 0.20352911 0.10427881
0.49859683 0.20352911 0.10427881
0.06256172 0.25146566 0.10427881
0.10427881 0.25146566 0.10427881
0.15847574 0.25146566 0.10427881
0.20352911 0.25146566 0.10427881
0.25146566 0.25146566 0.10427881
0.30470889 0.25146566 0.10427881
0.36387988 0.25146566 0.10427881
0.42875576 0.25146566 0.10427881
0.49859683 0.25146566 0.10427881
0.06256172 0.30470889 0.10427881
0.10427881 0.30470889 0.10427881
0.15847574 0.30470889 0.10427881
0.20352911 0.30470889 0.10427881
0.25146566 0.30470889 0.10427881
0.30470889 0.30470889 0.10427881
0.36387988 0.30470889 0.10427881
0.42875576 0.30470889 0.10427881
0.49859683 0.30470889 0.10427881
0.06256172 0.36387988 0.10427881
0.10427881 0.36387988 0.10427881
0.15847574 0.36387988 0.10427881
0.20352911 0.36387988 0.10427881
0.25146566 0.36387988 0.10427881
0.30470889 0.36387988 0.10427881
0.36387988 0.36387988 0.10427881
0.42875576 0.36387988 0.10427881
0.49859683 0.36387988 0.10427881
0.06256172 0.42875576 0.10427881
0.10427881 0.42875576 0.10427881
0.15847574 0.42875576 0.10427881
0.20352911 0.42875576 0.10427881
0.25146566 0.42875576 0.10427881
0.30470889 0.42875576 0.10427881
0.36387988 0.42875576 0.10427881
0.42875576 0.42875576 0.10427881
0.49859683 0.42875576 0.10427881
0.06256172 0.49859683 0.10427881
0.10427881 0.49859683 0.10427881
0.15847574 0.49859683 0.10427881
0.20352911 0.49859683 0.10427881
0.25146566 0.49859683 0.10427881
0.30470889 0.49859683 0.10427881
0.36387988 0.49859683 0.10427881
0.42875576 0.49859683 0.10427881
0.49859683 0.49859683 0.10427881
0.06256172 0.06256172 0.15847574
0.10427881 0.06256172 0.15847574
0.15847574 0.06256172 0.15847574
0.20352911 0.06256172 0.15847574
0.25146566 0.06256172 0.15847574
0.30470889 0.06256172 0.15847574
0.36387988 0.06256172 0.15847574
0.42875576 0.06256172 0.15847574
0.49859683 0.06256172 0.15847574
0.06256172 0.10427881 0.15847574
0.10427881 0.10427881 0.15847574
0.15847574 0.10427881 0.15847574
0.20352911 0.10427881 0.15847574
0.25146566 0.10427881 0.15847574
0.30470889 0.10427881 0.15847574
0.36387988 0.10427881 0.15847574
0.42875576 0.10427881 0.15847574
0.49859683 0.10427881 0.15847574
0.06256172 0.15847574 0.15847574
0.10427881 0.15847574 0.15847574
0.15847574 0.15847574 0.15847574
0.20352911 0.15847574 0.15847574
0.25146566 0.15847574 0.15847574
0.30470889 0.15847574 0.15847574
0.36387988 0.15847574 0.15847574
0.42875576 0.15847574 0.15847574
0.49859683 0.15847574 0.15847574
0.06256172 0.20352911 0.15847574
0.10427881 0.20352911 0.15847574
0.15847574 0.20352911 0.15847574
0.20352911 0.20352911 0.15847574
0.25146566 0.20352911 0.15847574
0.30470889 0.20352911 0.15847574
0.36387988 0.20352911 0.15847574
0.42875576 0.20352911 0.15847574
0.49859683 0.20352911 0.15847574
0.06256172 0.25146566 0.15847574
0.10427881 0.25146566 0.15847574
0.15847574 0.25146566 0.15847574
0.20352911 0.25146566 0.15847574
0.25146566 0.25146566 0.15847574
0.30470889 0.25146566 0.15847574
0.36387988 0.25146566 0.15847574
0.42875576 0.25146566 0.15847574
0.49859683 0.25146566 0.15847574
0.06256172 0.30470889 0.15847574
0.10427881 0.30470889 0.15847574
0.15847574 0.30470889 0.15847574
0.20352911 0.30470889 0.15847574
0.25146566 0.30470889 0.15847574
0.30470889 0.30470889 0.15847574
0.36387988 0.30470889 0.15847574
0.42875576 0.30470889 0.15847574
0.49859683 0.30470889 0.15847574
0.06256172 0.36387988 0.15847574
0.10427881 0.36387988 0.15847574
0.15847574 0.36387988 0.15847574
0.20352911 0.36387988 0.15847574
0.25146566 0.36387988 0.15847574
0.30470889 0.36387988 0.15847574
0.36387988 0.36387988 0.15847574
0.42875576 0.36387988 0.15847574
0.49859683 0.36387988 0.15847574
0.06256172 0.42875576 0.15847574
0.10427881 0.42875576 0.15847574
0.15847574 0.42875576 0.15847574
0.20352911 0.42875576 0.15847574
0.25146566 0.42875576 0.15847574
0.30470889 0.42875576 0.15847574
0.36387988 0.42875576 0.15847574
0.42875576 0.42875576 0.15847574
0.49859683 0.42875576 0.15847574
0.06256172 0.49859683 0.15847574
0.10427881 0.49859683 0.15847574
0.15847574 0.49859683 0.15847574
0.20352911 0.49859683 0.15847574
0.25146566 0.49859683 0.15847574
0.30470889 0.49859683 0.15847574
0.36387988 0.49859683 0.15847574
0.42875576 0.49859683 0.15847574
0.49859683 0.49859683 0.15847574
0.06256172 0.06256172 0.20352911
0.10427881 0.06256172 0.20352911
0.15847574 0.06256172 0.20352911
0.20352911 0.06256172 0.20352911
0.25146566 0.06256172 0.20352911
0.30470889 0.06256172 0.20352911
0.36387988 0.06256172 0.20352911
0.42875576 0.06256172 0.20352911
0.49859683 0.06256172 0.20352911
0.06256172 0.10427881 0.20352911
0.10427881 0.10427881 0.20352911
0.15847574 0.10427881 0.20352911
0.20352911 0.10427881 0.20352911
0.25146566 0.10427881 0.20352911
0.30470889 0.10427881 0.20352911
0.36387988 0.10427881 0.20352911
0.42875576 0.10427881 0.20352911
0.49859683 0.10427881 0.20352911
0.06256172 0.15847574 0.20352911
0.10427881 0.15847574 0.20352911
0.15847574 0.15847574 0.20352911
0.20352911 0.15847574 0.20352911
0.25146566 0.15847574 0.20352911
0.30470889 0.15847574 0.20352911
0.36387988 0.15847574 0.20352911
0.42875576 0.15847574 0.20352911
0.49859683 0.15847574 0.20352911
0.06256172 0.20352911 0.20352911
0.10427881 0.20352911 0.20352911
0.15847574 0.20352911 0.20352911
0.20352911 0.20352911 0.20352911
0.25146566 0.20352911 0.20352911
0.30470889 0.20352911 0.20352911
0.36387988 0.20352911 0.20352911
0.42875576 0.20352911 0.20352911
0.49859683 0.20352911 0.20352911
0.06256172 0.25146566 0.20352911
0.10427881 0.25146566 0.20352911
0.15847574 0.25146566 0.20352911
0.20352911 0.25146566 0.20352911
0.25146566 0.25146566 0.20352911
0.30470889 0.25146566 0.20352911
0.36387988 0.25146566 0.20352911
0.42875576 0.25146566 0.20352911
0.49859683 0.25146566 0.20352911
0.06256172 0.30470889 0.20352911
0.10427881 0.30470889 0.20352911
0.15847574 0.30470889 0.20352911
0.20352911 0.30470889 0.20352911
0.25146566 0.30470889 0.20352911
0.30470889 0.30470889 0.20352911
0.36387988 0.30470889 0.20352911
0.42875576 0.30470889 0.20352911
0.49859683 0.30470889 0.20352911
0.06256172 0.36387988 0.20352911
0.10427881 0.36387988 0.20352911
0.15847574 0.36387988 0.20352911
0.20352911 0.36387988 0.20352911
0.25146566 0.36387988 0.20352911
0.30470889 0.36387988 0.20352911
0.36387988 0.36387988 0.20352911
0.42875576 0.36387988 0.20352911
0.49859683 0.36387988 0.20352911
0.06256172 0.42875576 0.20352911
0.10427881 0.42875576 0.20352911
0.15847574 0.42875576 0.20352911
0.20352911 0.42875576 0.20352911
0.25146566 0.42875576 0.20352911
0.30470889 0.42875576 0.20352911
0.36387988 0.42875576 0.20352911
0.42875576 0.42875576 0.20352911
0.49859683 0.42875576 0.20352911
0.06256172 0.49859683 0.20352911
0.10427881 0.49859683 0.20352911
0.15847574 0.49859683 0.20352911
0.20352911 0.49859683 0.20352911
0.25146566 0.49859683 0.20352911
0.30470889 0.49859683 0.20352911
0.36387988 0.49859683 0.20352911
0.42875576 0.49859683 0.20352911
0.49859683 0.49859683 0.20352911
0.06256172 0.06256172 0.25146566
0.10427881 0.06256172 0.25146566
0.15847574 0.06256172 0.25146566
0.20352911 0.06256172 0.25146566
0.25146566 0.06256172 0.25146566
0.30470889 0.06256172 0.25146566
0.36387988 0.06256172 0.25146566
0.42875576 0.06256172 0.25146566
0.49859683 0.06256172 0.25146566
0.06256172 0.10427881 0.25146566
0.10427881 0.10427881 0.25146566
0.15847574 0.10427881 0.25146566
0.20352911 0.10427881 0.25146566
0.25146566 0.10427881 0.25146566
0.30470889 0.10427881 0.25146566
0.36387988 0.10427881 0.25146566
0.42875576 0.10427881 0.25146566
0.49859683 0.10427881 0.25146566
0.06256172 0.15847574 0.25146566
0.10427881 0.15847574 0.25146566
0.15847574 0.15847574 0.25146566
0.20352911 0.15847574 0.25146566
0.25146566 0.15847574 0.25146566
0.30470889 0.15847574 0.25146566
0.36387988 0.15847574 0.25146566
0.42875576 0.15847574 0.25146566
0.49859683 0.15847574 0.25146566
0.06256172 0.20352911 0.25146566
0.10427881 0.20352911 0.25146566
0.15847574 0.20352911 0.25146566
0.20352911 0.20352911 0.25146566
0.25146566 0.20352911 0.25146566
0.30470889 0.20352911 0.25146566
0.36387988 0.20352911 0.25146566
0.42875576 0.20352911 0.25146566
0.49859683 0.20352911 0.25146566
0.06256172 0.25146566 0.25146566
0.10427881 0.25146566 0.25146566
0.15847574 0.25146566 0.25146566
0.20352911 0.25146566 0.25146566
0.25146566 0.25146566 0.25146566
0.30470889 0.25146566 0.25146566
0.36387988 0.25146566 0.25146566
0.42875576 0.25146566 0.25146566
0.49859683 0.25146566 0.25146566
0.06256172 0.30470889 0.25146566
0.10427881 0.30470889 0.25146566
0.15847574 0.30470889 0.25146566
0.20352911 0.30470889 0.25146566
0.25146566 0.30470889 0.25146566
0.30470889 0.30470889 0.25146566
0.36387988 0.30470889 0.25146566
0.42875576 0.30470889 0.25146566
0.49859683 0.30470889 0.25146566
0.06256172 0.36387988 0.25146566
0.10427881 0.36387988 0.25146566
0.15847574 0.36387988 0.25146566
0.20352911 0.36387988 0.25146566
0.25146566 0.36387988 0.25146566
0.30470889 0.36387988 0.25146566
0.36387988 0.36387988 0.25146566
0.42875576 0.36387988 0.25146566
0.49859683 0.36387988 0.25146566
0.06256172 0.42875576 0.25146566
0.10427881 0.42875576 0.25146566
0.15847574 0.42875576 0.25146566
0.20352911 0.42875576 0.25146566
0.25146566 0.42875576 0.25146566
0.30470889 0.42875576 0.25146566
0.36387988 0.42875576 0.25146566
0.42875576 0.42875576 0.25146566
0.49859683 0.42875576 0.25146566
0.06256172 0.49859683 0.25146566
0.10427881 0.49859683 0.25146566
0.15847574 0.49859683 0.25146566
0.20352911 0.49859683 0.25146566
0.25146566 0.49859683 0.25146566
0.30470889 0.49859683 0.25146566
0.36387988 0.49859683 0.25146566
0.42875576 0.49859683 0.25146566
0.49859683 0.49859683 0.25146566
0.06256172 0.06256172 0.30470889
0.10427881 0.06256172 0.30470889
0.15847574 0.06256172 0.30470889
0.20352911 0.06256172 0.30470889
0.25146566 0.06256172 0.30470889
0.30470889 0.06256172 0.30470889
0.36387988 0.06256172 0.30470889
0.42875576 0.06256172 0.30470889
0.49859683 0.06256172 0.30470889
0.06256172 0.10427881 0.30470889
0.10427881 0.10427881 0.30470889
0.15847574 0.10427881 0.30470889
0.20352911 0.10427881 0.30470889
0.25146566 0.10427881 0.30470889
0.30470889 0.10427881 0.30470889
0.36387988 0.10427881 0.30470889
0.42875576 0.10427881 0.30470889
0.49859683 0.10427881 0.30470889
0.06256172 0.15847574 0.30470889
0.10427881 0.15847574 0.30470889
0.15847574 0.15847574 0.30470889
0.20352911 0.15847574 0.30470889
0.25146566 0.15847574 0.30470889
0.30470889 0.15847574 0.30470889
0.36387988 0.15847574 0.30470889
0.42875576 0.15847574 0.30470889
0.49859683 0.15847574 0.30470889
0.06256172 0.20352911 0.30470889
0.10427881 0.20352911 0.30470889
0.15847574 0.20352911 0.30470889
0.20352911 0.20352911 0.30470889
0.25146566 0.20352911 0.30470889
0.30470889 0.20352911 0.30470889
0.36387988 0.20352911 0.30470889
0.42875576 0.20352911 0.30470889
0.49859683 0.20352911 0.30470889
0.06256172 0.25146566 0.30470889
0.10427881 0.25146566 0.30470889
0.15847574 0.25146566 0.30470889
0.20352911 0.25146566 0.30470889
0.25146566 0.25146566 0.30470889
0.30470889 0.25146566 0.30470889
0.36387988 0.25146566 0.30470889
0.42875576 0.25146566 0.30470889
0.49859683 0.25146566 0.30470889
0.06256172 0.30470889 0.30470889
0.10427881 0.30470889 0.30470889
0.15847574 0.30470889 0.30470889
0.20352911 0.30470889 0.30470889
0.25146566 0.30470889 0.30470889
0.30470889 0.30470889 0.30470889
0.36387988 0.30470889 0.30470889
0.42875576 0.30470889 0.30470889
0.49859683 0.30470889 0.30470889
0.06256172 0.36387988 0.30470889
0.10427881 0.36387988 0.30470889
0.15847574 0.36387988 0.30470889
0.20352911 0.36387988 0.30470889
0.25146566 0.36387988 0.30470889
0.30470889 0.36387988 0.30470889
0.36387988 0.36387988 0.30470889
0.42875576 0.36387988 0.30470889
0.49859683 0.36387988 0.30470889
0.06256172 0.42875576 0.30470889
0.10427881 0.42875576 0.30470889
0.15847574 0.42875576 0.30470889
0.20352911 0.42875576 0.30470889
0.25146566 0.42875576 0.30470889
0.30470889 0.42875576 0.30470889
0.36387988 0.42875576 0.30470889
0.42875576 0.42875576 0.30470889
0.49859683 0.42875576 0.30470889
0.06256172 0.49859683 0.30470889
0.10427881 0.49859683 0.30470889
0.15847574 0.49859683 0.30470889
0.20352911 0.49859683 0.30470889
0.25146566 0.49859683 0.30470889
0.30470889 0.49859683 0.30470889
0.36387988 0.49859683 0.30470889
0.42875576 0.49859683 0.30470889
0.49859683 0.49859683 0.30470889
0.06256172 0.06256172 0.36387988
0.10427881 0.06256172 0.36387988
0.15847574 0.06256172 0.36387988
0.20352911 0.06256172 0.36387988
0.25146566 0.06256172 0.36387988
0.30470889 0.06256172 0.36387988
0.36387988 0.06256172 0.36387988
0.42875576 0.06256172 0.36387988
0.49859683 0.06256172 0.36387988
0.06256172 0.10427881 0.36387988
0.10427881 0.10427881 0.36387988
0.15847574 0.10427881 0.36387988
0.20352911 0.10427881 0.36387988
0.25146566 0.10427881 0.36387988
0.30470889 0.10427881 0.36387988
0.36387988 0.10427881 0.36387988
0.42875576 0.10427881 0.36387988
0.49859683 0.10427881 0.36387988
0.06256172 0.15847574 0.36387988
0.10427881 0.15847574 0.36387988
0.15847574 0.15847574 0.36387988
0.20352911 0.15847574 0.36387988
0.25146566 0.15847574 0.36387988
0.30470889 0.15847574 0.36387988
0.36387988 0.15847574 0.36387988
0.42875576 0.15847574 0.36387988
0.49859683 0.15847574 0.36387988
0.06256172 0.20352911 0.36387988
0.10427881 0.20352911 0.36387988
0.15847574 0.20352911 0.36387988
0.20352911 0.20352911 0.36387988
0.25146566 0.20352911 0.36387988
0.30470889 0.20352911 0.36387988
0.36387988 0.20352911 0.36387988
0.42875576 0.20352911 0.36387988
0.49859683 0.20352911 0.36387988
0.06256172 0.25146566 0.36387988
0.10427881 0.25146566 0.36387988
0.15847574 0.25146566 0.36387988
0.20352911 0.25146566 0.36387988
0.25146566 0.25146566 0.36387988
0.30470889 0.25146566 0.36387988
0.36387988 0.25146566 0.36387988
0.42875576 0.25146566 0.36387988
0.49859683 0.25146566 0.36387988
0.06256172 0.30470889 0.36387988
0.10427881 0.30470889 0.36387988
0.15847574 0.30470889 0.36387988
0.20352911 0.30470889 0.36387988
0.25146566 0.30470889 0.36387988
0.30470889 0.30470889 0.36387988
0.36387988 0.30470889 0.36387988
0.42875576 0.30470889 0.36387988
0.49859683 0.30470889 0.36387988
0.06256172 0.36387988 0.36387988
0.10427881 0.36387988 0.36387988
0.15847574 0.36387988 0.36387988
0.20352911 0.36387988 0.36387988
0.25146566 0.36387988 0.36387988
0.30470889 0.36387988 0.36387988
0.36387988 0.36387988 0.36387988
0.42875576 0.36387988 0.36387988
0.49859683 0.36387988 0.36387988
0.06256172 0.42875576 0.36387988
0.10427881 0.42875576 0.36387988
0.15847574 0.42875576 0.36387988
0.20352911 0.42875576 0.36387988
0.25146566 0.42875576 0.36387988
0.30470889 0.42875576 0.36387988
0.36387988 0.42875576 0.36387988
0.42875576 0.42875576 0.36387988
0.49859683 0.42875576 0.36387988
0.06256172 0.49859683 0.36387988
0.10427881 0.49859683 0.36387988
0.15847574 0.49859683 0.36387988
0.20352911 0.49859683 0.36387988
0.25146566 0.49859683 0.36387988
0.30470889 0.49859683 0.36387988
0.36387988 0.49859683 0.36387988
0.42875576 0.49859683 0.36387988
0.49859683 0.49859683 0.36387988
0.06256172 0.06256172 0.42875576
0.10427881 0.06256172 0.42875576
0.15847574 0.06256172 0.42875576
0.20352911 0.06256172 0.42875576
0.25146566 0.06256172 0.42875576
0.30470889 0.06256172 0.42875576
0.36387988 0.06256172 0.42875576
0.42875576 0.06256172 0.42875576
0.49859683 0.06256172 0.42875576
0.06256172 0.10427881 0.42875576
0.10427881 0.10427881 0.42875576
0.15847574 0.10427881 0.42875576
0.20352911 0.10427881 0.42875576
0.25146566 0.10427881 0.42875576
0.30470889 0.10427881 0.42875576
0.36387988 0.10427881 0.42875576
0.42875576 0.10427881 0.42875576
0.49859683 0.10427881 0.42875576
0.06256172 0.15847574 0.42875576
0.10427881 0.15847574 0.42875576
0.15847574 0.15847574 0.42875576
0.20352911 0.15847574 0.42875576
0.25146566 0.15847574 0.42875576
0.30470889 0.15847574 0.42875576
0.36387988 0.15847574 0.42875576
0.42875576 0.15847574 0.42875576
0.49859683 0.15847574 0.42875576
0.06256172 0.20352911 0.42875576
0.10427881 0.20352911 0.42875576
0.15847574 0.20352911 0.42875576
0.20352911 0.20352911 0.42875576
0.25146566 0.20352911 0.42875576
0.30470889 0.20352911 0.42875576
0.36387988 0.20352911 0.42875576
0.42875576 0.20352911 0.42875576
0.49859683 0.20352911 0.42875576
0.06256172 0.25146566 0.42875576
0.10427881 0.25146566 0.42875576
0.15847574 0.25146566 0.42875576
0.20352911 0.25146566 0.42875576
0.25146566 0.25146566 0.42875576
0.30470889 0.25146566 0.42875576
0.36387988 0.25146566 0.42875576
0.42875576 0.25146566 0.42875576
0.49859683 0.25146566 0.42875576
0.06256172 0.30470889 0.42875576
0.10427881 0.30470889 0.42875576
0.15847574 0.30470889 0.42875576
0.20352911 0.30470889 0.42875576
0.25146566 0.30470889 0.42875576
0.30470889 0.30470889 0.42875576
0.36387988 0.30470889 0.42875576
0.42875576 0.30470889 0.42875576
0.49859683 0.30470889 0.42875576
0.06256172 0.36387988 0.42875576
0.10427881 0.36387988 0.42875576
0.15847574 0.36387988 0.42875576
0.20352911 0.36387988 0.42875576
0.25146566 0.36387988 0.42875576
0.30470889 0.36387988 0.42875576
0.36387988 0.36387988 0.42875576
0.42875576 0.36387988 0.42875576
0.49859683 0.36387988 0.42875576
0.06256172 0.42875576 0.42875576
0.10427881 0.42875576 0.42875576
0.15847574 0.42875576 0.42875576
0.20352911 0.42875576 0.42875576
0.25146566 0.42875576 0.42875576
0.30470889 0.42875576 0.42875576
0.36387988 0.42875576 0.42875576
0.42875576 0.42875576 0.42875576
0.49859683 0.42875576 0.42875576
0.06256172 0.49859683 0.42875576
0.10427881 0.49859683 0.42875576
0.15847574 0.49859683 0.42875576
0.20352911 0.49859683 0.42875576
0.25146566 0.49859683 0.42875576
0.30470889 0.49859683 0.42875576
0.36387988 0.49859683 0.42875576
0.42875576 0.49859683 0.42875576
0.49859683 0.49859683 0.42875576
0.06256172 0.06256172 0.49859683
0.10427881 0.06256172 0.49859683
0.15847574 0.06256172 0.49859683
0.20352911 0.06256172 0.49859683
0.25146566 0.06256172 0.49859683
0.30470889 0.06256172 0.49859683
0.36387988 0.06256172 0.49859683
0.42875576 0.06256172 0.49859683
0.49859683 0.06256172 0.49859683
0.06256172 0.10427881 0.49859683
0.10427881 0.10427881 0.49859683
0.15847574 0.10427881 0.49859683
0.20352911 0.10427881 0.49859683
0.25146566 0.10427881 0.49859683
0.30470889 0.10427881 0.49859683
0.36387988 0.10427881 0.49859683
0.42875576 0.10427881 0.49859683
0.49859683 0.10427881 0.49859683
0.06256172 0.15847574 0.49859683
0.10427881 0.15847574 0.49859683
0.15847574 0.15847574 0.49859683
0.20352911 0.15847574 0.49859683
0.25146566 0.15847574 0.49859683
0.30470889 0.15847574 0.49859683
0.36387988 0.15847574 0.49859683
0.42875576 0.15847574 0.49859683
0.49859683 0.15847574 0.49859683
0.06256172 0.20352911 0.49859683
0.10427881 0.20352911 0.49859683
0.15847574 0.20352911 0.49859683
0.20352911 0.20352911 0.49859683
0.25146566 0.20352911 0.49859683
0.30470889 0.20352911 0.49859683
0.36387988 0.20352911 0.49859683
0.42875576 0.20352911 0.49859683
0.49859683 0.20352911 0.49859683
0.06256172 0.25146566 0.49859683
0.10427881 0.25146566 0.49859683
0.15847574 0.25146566 0.49859683
0.20352911 0.25146566 0.49859683
0.25146566 0.25146566 0.49859683
0.30470889 0.25146566 0.49859683
0.36387988 0.25146566 0.49859683
0.42875576 0.25146566 0.49859683
0.49859683 0.25146566 0.49859683
0.06256172 0.30470889 0.49859683
0.10427881 0.30470889 0.49859683
0.15847574 0.30470889 0.49859683
0.20352911 0.30470889 0.49859683
0.25146566 0.30470889 0.49859683
0.30470889 0.30470889 0.49859683
0.36387988 0.30470889 0.49859683
0.42875576 0.30470889 0.49859683
0.49859683 0.30470889 0.49859683
0.06256172 0.36387988 0.49859683
0.10427881 0.36387988 0.49859683
0.15847574 0.36387988 0.49859683
0.20352911 0.36387988 0.49859683
0.25146566 0.36387988 0.49859683
0.30470889 0.36387988 0.49859683
0.36387988 0.36387988 0.49859683
0.42875576 0.36387988 0.49859683
0.49859683 0.36387988 0.49859683
0.06256172 0.42875576 0.49859683
0.10427881 0.42875576 0.49859683
0.15847574 0.42875576 0.49859683
0.20352911 0.42875576 0.49859683
0.25146566 0.42875576 0.49859683
0.30470889 0.42875576 0.49859683
0.36387988 0.42875576 0.49859683
0.42875576 0.42875576 0.49859683
0.49859683 0.42875576 0.49859683
0.06256172 0.49859683 0.49859683
0.10427881 0.49859683 0.49859683
0.15847574 0.49859683 0.49859683
0.20352911 0.49859683 0.49859683
0.25146566 0.49859683 0.49859683
0.30470889 0.49859683 0.49859683
0.36387988 0.49859683 0.49859683
0.42875576 0.49859683 0.49859683
0.49859683 0.49859683 0.49859683
