src/ffmpeg_scripts/luts/flog-experimental_-3p00.cube
TITLE "flog-experimental_-3p00"
LUT_3D_SIZE 9
# Fujifilm F-Log/Rec2020 -> PQ (EOTF Only)/Rec2020, CineEI Shift -3.00, Black Level 0.00% IRE, Input 109% -> Output 100% - Created with LUTCalc v4.01 by Ben Turley October 2020
0.00000073 0.00000073 0.00000073
0.06750411 0.00000073 0.00000073
0.15520140 0.00000073 0.00000073
0.22810329 0.00000073 0.00000073
0.30567053 0.00000073 0.00000073
0.39182460 0.00000073 0.00000073
0.48757055 0.00000073 0.00000073
0.59254769 0.00000073 0.00000073
0.70555912 0.00000073 0.00000073
0.00000073 0.06750411 0.00000073
0.06750411 0.06750411 0.00000073
0.15520140 0.06750411 0.00000073
0.22810329 0.06750411 0.00000073
0.30567053 0.06750411 0.00000073
0.39182460 0.06750411 0.00000073
0.48757055 0.06750411 0.00000073
0.59254769 0.06750411 0.00000073
0.70555912 0.06750411 0.00000073
0.00000073 0.15520140 0.00000073
0.06750411 0.15520140 0.00000073
0.15520140 0.15520140 0.00000073
0.22810329 0.15520140 0.00000073
0.30567053 0.15520140 0.00000073
0.39182460 0.15520140 0.00000073
0.48757055 0.15520140 0.00000073
0.59254769 0.15520140 0.00000073
0.70555912 0.15520140 0.00000073
0.00000073 0.22810329 0.00000073
0.06750411 0.22810329 0.00000073
0.15520140 0.22810329 0.00000073
0.22810329 0.22810329 0.00000073
0.30567053 0.22810329 0.00000073
0.39182460 0.22810329 0.00000073
0.48757055 0.22810329 0.00000073
0.59254769 0.22810329 0.00000073
0.70555912 0.22810329 0.00000073
0.00000073 0.30567053 0.00000073
0.06750411 0.30567053 0.00000073
0.15520140 0.30567053 0.00000073
0.22810329 0.30567053 0.00000073
0.30567053 0.30567053 0.00000073
0.39182460 0.30567053 0.00000073
0.48757055 0.30567053 0.00000073
0.59254769 0.30567053 0.00000073
0.70555912 0.30567053 0.00000073
0.00000073 0.39182460 0.00000073
0.06750411 0.39182460 0.00000073
0.15520140 0.39182460 0.00000073
0.22810329 0.39182460 0.00000073
0.30567053 0.39182460 0.00000073
0.39182460 0.39182460 0.00000073
0.48757055 0.39182460 0.00000073
0.59254769 0.39182460 0.00000073
0.70555912 0.39182460 0.00000073
0.00000073 0.48757055 0.00000073
0.06750411 0.48757055 0.00000073
0.15520140 0.48757055 0.00000073
0.22810329 0.48757055 0.00000073
0.30567053 0.48757055 0.00000073
0.39182460 0.48757055 0.00000073
0.48757055 0.48757055 0.00000073
0.59254769 0.48757055 0.00000073
0.70555912 0.48757055 0.00000073
0.00000073 0.59254769 0.00000073
0.06750411 0.59254769 0.00000073
0.15520140 0.59254769 0.00000073
0.22810329 0.59254769 0.00000073
0.30567053 0.59254769 0.00000073
0.39182460 0.59254769 0.00000073
0.48757055 0.59254769 0.00000073
0.59254769 0.59254769 0.00000073
0.70555912 0.59254769 0.00000073
0.00000073 0.70555912 0.00000073
0.06750411 0.70555912 0.00000073
0.15520140 0.70555912 0.00000073
0.22810329 0.70555912 0.00000073
0.30567053 0.70555912 0.00000073
0.39182460 0.70555912 0.00000073
0.48757055 0.70555912 0.00000073
0.59254769 0.70555912 0.00000073
0.70555912 0.70555912 0.00000073
0.00000073 0.00000073 0.06750411
0.06750411 0.00000073 0.06750411
0.15520140 0.00000073 0.06750411
0.22810329 0.00000073 0.06750411
0.30567053 0.00000073 0.06750411
0.39182460 0.00000073 0.06750411
0.48757055 0.00000073 0.06750411
0.59254769 0.00000073 0.06750411
0.70555912 0.00000073 0.06750411
0.00000073 0.06750411 0.06750411
0.06750411 0.06750411 0.06750411
0.15520140 0.06750411 0.06750411
0.22810329 0.06750411 0.06750411
0.30567053 0.06750411 0.06750411
0.39182460 0.06750411 0.06750411
0.48757055 0.06750411 0.06750411
0.59254769 0.06750411 0.06750411
0.70555912 0.06750411 0.06750411
0.00000073 0.15520140 0.06750411
0.06750411 0.15520140 0.06750411
0.15520140 0.15520140 0.06750411
0.22810329 0.15520140 0.06750411
0.30567053 0.15520140 0.06750411
0.39182460 0.15520140 0.06750411
0.48757055 0.15520140 0.06750411
0.59254769 0.15520140 0.06750411
0.70555912 0.15520140 0.06750411
0.00000073 0.22810329 0.06750411
0.06750411 0.22810329 0.06750411
0.15520140 0.22810329 0.06750411
0.22810329 0.22810329 0.06750411
0.30567053 0.22810329 0.06750411
0.39182460 0.22810329 0.06750411
0.48757055 0.22810329 0.06750411
0.59254769 0.22810329 0.06750411
0.70555912 0.22810329 0.06750411
0.00000073 0.30567053 0.06750411
0.06750411 0.30567053 0.06750411
0.15520140 0.30567053 0.06750411
0.22810329 0.30567053 0.06750411
0.30567053 0.30567053 0.06750411
0.39182460 0.30567053 0.06750411
0.48757055 0.30567053 0.06750411
0.59254769 0.30567053 0.06750411
0.70555912 0.30567053 0.06750411
0.00000073 0.39182460 0.06750411
0.06750411 0.39182460 0.06750411
0.15520140 0.39182460 0.06750411
0.22810329 0.39182460 0.06750411
0.30567053 0.39182460 0.06750411
0.39182460 0.39182460 0.06750411
0.48757055 0.39182460 0.06750411
0.59254769 0.39182460 0.06750411
0.70555912 0.39182460 0.06750411
0.00000073 0.48757055 0.06750411
0.06750411 0.48757055 0.06750411
0.15520140 0.48757055 0.06750411
0.22810329 0.48757055 0.06750411
0.30567053 0.48757055 0.06750411
0.39182460 0.48757055 0.06750411
0.48757055 0.48757055 0.06750411
0.59254769 0.48757055 0.06750411
0.70555912 0.48757055 0.06750411
0.00000073 0.59254769 0.06750411
0.06750411 0.59254769 0.06750411
0.15520140 0.59254769 0.06750411
0.22810329 0.59254769 0.06750411
0.30567053 0.59254769 0.06750411
0.39182460 0.59254769 0.06750411
0.48757055 0.59254769 0.06750411
0.59254769 0.59254769 0.06750411
0.70555912 0.59254769 0.06750411
0.00000073 0.70555912 0.06750411
0.06750411 0.70555912 0.06750411
0.15520140 0.70555912 0.06750411
0.22810329 0.70555912 0.06750411
0.30567053 0.70555912 0.06750411
0.39182460 0.70555912 0.06750411
0.48757055 0.70555912 0.06750411
0.59254769 0.70555912 0.06750411
0.70555912 0.70555912 0.06750411
0.00000073 0.00000073 0.15520140
0.06750411 0.00000073 0.15520140
0.15520140 0.00000073 0.15520140
0.22810329 0.00000073 0.15520140
0.30567053 0.00000073 0.15520140
0.39182460 0.00000073 0.15520140
0.48757055 0.00000073 0.15520140
0.59254769 0.00000073 0.15520140
0.70555912 0.00000073 0.15520140
0.00000073 0.06750411 0.15520140
0.06750411 0.06750411 0.15520140
0.15520140 0.06750411 0.15520140
0.22810329 0.06750411 0.15520140
0.30567053 0.06750411 0.15520140
0.39182460 0.06750411 0.15520140
0.48757055 0.06750411 0.15520140
0.59254769 0.06750411 0.15520140
0.70555912 0.06750411 0.15520140
0.00000073 0.15520140 0.15520140
0.06750411 0.15520140 0.15520140
0.15520140 0.15520140 0.15520140
0.22810329 0.15520140 0.15520140
0.30567053 0.15520140 0.15520140
0.39182460 0.15520140 0.15520140
0.48757055 0.15520140 0.15520140
0.59254769 0.15520140 0.15520140
0.70555912 0.15520140 0.15520140
0.00000073 0.22810329 0.15520140
0.06750411 0.22810329 0.15520140
0.15520140 0.22810329 0.15520140
0.22810329 0.22810329 0.15520140
0.30567053 0.22810329 0.15520140
0.39182460 0.22810329 0.15520140
0.48757055 0.22810329 0.15520140
0.59254769 0.22810329 0.15520140
0.70555912 0.22810329 0.15520140
0.00000073 0.30567053 0.15520140
0.06750411 0.30567053 0.15520140
0.15520140 0.30567053 0.15520140
0.22810329 0.30567053 0.15520140
0.30567053 0.30567053 0.15520140
0.39182460 0.30567053 0.15520140
0.48757055 0.30567053 0.15520140
0.59254769 0.30567053 0.15520140
0.70555912 0.30567053 0.15520140
0.00000073 0.39182460 0.15520140
0.06750411 0.39182460 0.15520140
0.15520140 0.39182460 0.15520140
0.22810329 0.39182460 0.15520140
0.30567053 0.39182460 0.15520140
0.39182460 0.39182460 0.15520140
0.48757055 0.39182460 0.15520140
0.59254769 0.39182460 0.15520140
0.70555912 0.39182460 0.15520140
0.00000073 0.48757055 0.15520140
0.06750411 0.48757055 0.15520140
0.15520140 0.48757055 0.15520140
0.22810329 0.48757055 0.15520140
0.30567053 0.48757055 0.15520140
0.39182460 0.48757055 0.15520140
0.48757055 0.48757055 0.15520140
0.59254769 0.48757055 0.15520140
0.70555912 0.48757055 0.15520140
0.00000073 0.59254769 0.15520140
0.06750411 0.59254769 0.15520140
0.15520140 0.59254769 0.15520140
0.22810329 0.59254769 0.15520140
0.30567053 0.59254769 0.15520140
0.39182460 0.59254769 0.15520140
0.48757055 0.59254769 0.15520140
0.59254769 0.59254769 0.15520140
0.70555912 0.59254769 0.15520140
0.00000073 0.70555912 0.15520140
0.06750411 0.70555912 0.15520140
0.15520140 0.70555912 0.15520140
0.22810329 0.70555912 0.15520140
0.30567053 0.70555912 0.15520140
0.39182460 0.70555912 0.15520140
0.48757055 0.70555912 0.15520140
0.59254769 0.70555912 0.15520140
0.70555912 0.70555912 0.15520140
0.00000073 0.00000073 0.22810329
0.06750411 0.00000073 0.22810329
0.15520140 0.00000073 0.22810329
0.22810329 0.00000073 0.22810329
0.30567053 0.00000073 0.22810329
0.39182460 0.00000073 0.22810329
0.48757055 0.00000073 0.22810329
0.59254769 0.00000073 0.22810329
0.70555912 0.00000073 0.22810329
0.00000073 0.06750411 0.22810329
0.06750411 0.06750411 0.22810329
0.15520140 0.06750411 0.22810329
0.22810329 0.06750411 0.22810329
0.30567053 0.06750411 0.22810329
0.39182460 0.06750411 0.22810329
0.48757055 0.06750411 0.22810329
0.59254769 0.06750411 0.22810329
0.70555912 0.06750411 0.22810329
0.00000073 0.15520140 0.22810329
0.06750411 0.15520140 0.22810329
0.15520140 0.15520140 0.22810329
0.22810329 0.15520140 0.22810329
0.30567053 0.15520140 0.22810329
0.39182460 0.15520140 0.22810329
0.48757055 0.15520140 0.22810329
0.59254769 0.15520140 0.22810329
0.70555912 0.15520140 0.22810329
0.00000073 0.22810329 0.22810329
0.06750411 0.22810329 0.22810329
0.15520140 0.22810329 0.22810329
0.22810329 0.22810329 0.22810329
0.30567053 0.22810329 0.22810329
0.39182460 0.22810329 0.22810329
0.48757055 0.22810329 0.22810329
0.59254769 0.22810329 0.22810329
0.70555912 0.22810329 0.22810329
0.00000073 0.30567053 0.22810329
0.06750411 0.30567053 0.22810329
0.15520140 0.30567053 0.22810329
0.22810329 0.30567053 0.22810329
0.30567053 0.30567053 0.22810329
0.39182460 0.30567053 0.22810329
0.48757055 0.30567053 0.22810329
0.59254769 0.30567053 0.22810329
0.70555912 0.30567053 0.22810329
0.00000073 0.39182460 0.22810329
0.06750411 0.39182460 0.22810329
0.15520140 0.39182460 0.22810329
0.22810329 0.39182460 0.22810329
0.30567053 0.39182460 0.22810329
0.39182460 0.39182460 0.22810329
0.48757055 0.39182460 0.22810329
0.59254769 0.39182460 0.22810329
0.70555912 0.39182460 0.22810329
0.00000073 0.48757055 0.22810329
0.06750411 0.48757055 0.22810329
0.15520140 0.48757055 0.22810329
0.22810329 0.48757055 0.22810329
0.30567053 0.48757055 0.22810329
0.39182460 0.48757055 0.22810329
0.48757055 0.48757055 0.22810329
0.59254769 0.48757055 0.22810329
0.70555912 0.48757055 0.22810329
0.00000073 0.59254769 0.22810329
0.06750411 0.59254769 0.22810329
0.15520140 0.59254769 0.22810329
0.22810329 0.59254769 0.22810329
0.30567053 0.59254769 0.22810329
0.39182460 0.59254769 0.22810329
0.48757055 0.59254769 0.22810329
0.59254769 0.59254769 0.22810329
0.70555912 0.59254769 0.22810329
0.00000073 0.70555912 0.22810329
0.06750411 0.70555912 0.22810329
0.15520140 0.70555912 0.22810329
0.22810329 0.70555912 0.22810329
0.30567053 0.70555912 0.22810329
0.39182460 0.70555912 0.22810329
0.48757055 0.70555912 0.22810329
0.59254769 0.70555912 0.22810329
0.70555912 0.70555912 0.22810329
0.00000073 0.00000073 0.30567053
0.06750411 0.00000073 0.30567053
0.15520140 0.00000073 0.30567053
0.22810329 0.00000073 0.30567053
0.30567053 0.00000073 0.30567053
0.39182460 0.00000073 0.30567053
0.48757055 0.00000073 0.30567053
0.59254769 0.00000073 0.30567053
0.70555912 0.00000073 0.30567053
0.00000073 0.06750411 0.30567053
0.06750411 0.06750411 0.30567053
0.15520140 0.06750411 0.30567053
0.22810329 0.06750411 0.30567053
0.30567053 0.06750411 0.30567053
0.39182460 0.06750411 0.30567053
0.48757055 0.06750411 0.30567053
0.59254769 0.06750411 0.30567053
0.70555912 0.06750411 0.30567053
0.00000073 0.15520140 0.30567053
0.06750411 0.15520140 0.30567053
0.15520140 0.15520140 0.30567053
0.22810329 0.15520140 0.30567053
0.30567053 0.15520140 0.30567053
0.39182460 0.15520140 0.30567053
0.48757055 0.15520140 0.30567053
0.59254769 0.15520140 0.30567053
0.70555912 0.15520140 0.30567053
0.00000073 0.22810329 0.30567053
0.06750411 0.22810329 0.30567053
0.15520140 0.22810329 0.30567053
0.22810329 0.22810329 0.30567053
0.30567053 0.22810329 0.30567053
0.39182460 0.22810329 0.30567053
0.48757055 0.22810329 0.30567053
0.59254769 0.22810329 0.30567053
0.70555912 0.22810329 0.30567053
0.00000073 0.30567053 0.30567053
0.06750411 0.30567053 0.30567053
0.15520140 0.30567053 0.30567053
0.22810329 0.30567053 0.30567053
0.30567053 0.30567053 0.30567053
0.39182460 0.30567053 0.30567053
0.48757055 0.30567053 0.30567053
0.59254769 0.30567053 0.30567053
0.70555912 0.30567053 0.30567053
0.00000073 0.39182460 0.30567053
0.06750411 0.39182460 0.30567053
0.15520140 0.39182460 0.30567053
0.22810329 0.39182460 0.30567053
0.30567053 0.39182460 0.30567053
0.39182460 0.39182460 0.30567053
0.48757055 0.39182460 0.30567053
0.59254769 0.39182460 0.30567053
0.70555912 0.39182460 0.30567053
0.00000073 0.48757055 0.30567053
0.06750411 0.48757055 0.30567053
0.15520140 0.48757055 0.30567053
0.22810329 0.48757055 0.30567053
0.30567053 0.48757055 0.30567053
0.39182460 0.48757055 0.30567053
0.48757055 0.48757055 0.30567053
0.59254769 0.48757055 0.30567053
0.70555912 0.48757055 0.30567053
0.00000073 0.59254769 0.30567053
0.06750411 0.59254769 0.30567053
0.15520140 0.59254769 0.30567053
0.22810329 0.59254769 0.30567053
0.30567053 0.59254769 0.30567053
0.39182460 0.59254769 0.30567053
0.48757055 0.59254769 0.30567053
0.59254769 0.59254769 0.30567053
0.70555912 0.59254769 0.30567053
0.00000073 0.70555912 0.30567053
0.06750411 0.70555912 0.30567053
0.15520140 0.70555912 0.30567053
0.22810329 0.70555912 0.30567053
0.30567053 0.70555912 0.30567053
0.39182460 0.70555912 0.30567053
0.48757055 0.70555912 0.30567053
0.59254769 0.70555912 0.30567053
0.70555912 0.70555912 0.30567053
0.00000073 0.00000073 0.39182460
0.06750411 0.00000073 0.39182460
0.15520140 0.00000073 0.39182460
0.22810329 0.00000073 0.39182460
0.30567053 0.00000073 0.39182460
0.39182460 0.00000073 0.39182460
0.48757055 0.00000073 0.39182460
0.59254769 0.00000073 0.39182460
0.70555912 0.00000073 0.39182460
0.00000073 0.06750411 0.39182460
0.06750411 0.06750411 0.39182460
0.15520140 0.06750411 0.39182460
0.22810329 0.06750411 0.39182460
0.30567053 0.06750411 0.39182460
0.39182460 0.06750411 0.39182460
0.48757055 0.06750411 0.39182460
0.59254769 0.06750411 0.39182460
0.70555912 0.06750411 0.39182460
0.00000073 0.15520140 0.39182460
0.06750411 0.15520140 0.39182460
0.15520140 0.15520140 0.39182460
0.22810329 0.15520140 0.39182460
0.30567053 0.15520140 0.39182460
0.39182460 0.15520140 0.39182460
0.48757055 0.15520140 0.39182460
0.59254769 0.15520140 0.39182460
0.70555912 0.15520140 0.39182460
0.00000073 0.22810329 0.39182460
0.06750411 0.22810329 0.39182460
0.15520140 0.22810329 0.39182460
0.22810329 0.22810329 0.39182460
0.30567053 0.22810329 0.39182460
0.39182460 0.22810329 0.39182460
0.48757055 0.22810329 0.39182460
0.59254769 0.22810329 0.39182460
0.70555912 0.22810329 0.39182460
0.00000073 0.30567053 0.39182460
0.06750411 0.30567053 0.39182460
0.15520140 0.30567053 0.39182460
0.22810329 0.30567053 0.39182460
0.30567053 0.30567053 0.39182460
0.39182460 0.30567053 0.39182460
0.48757055 0.30567053 0.39182460
0.59254769 0.30567053 0.39182460
0.70555912 0.30567053 0.39182460
0.00000073 0.39182460 0.39182460
0.06750411 0.39182460 0.39182460
0.15520140 0.39182460 0.39182460
0.22810329 0.39182460 0.39182460
0.30567053 0.39182460 0.39182460
0.39182460 0.39182460 0.39182460
0.48757055 0.39182460 0.39182460
0.59254769 0.39182460 0.39182460
0.70555912 0.39182460 0.39182460
0.00000073 0.48757055 0.39182460
0.06750411 0.48757055 0.39182460
0.15520140 0.48757055 0.39182460
0.22810329 0.48757055 0.39182460
0.30567053 0.48757055 0.39182460
0.39182460 0.48757055 0.39182460
0.48757055 0.48757055 0.39182460
0.59254769 0.48757055 0.39182460
0.70555912 0.48757055 0.39182460
0.00000073 0.59254769 0.39182460
0.06750411 0.59254769 0.39182460
0.15520140 0.59254769 0.39182460
0.22810329 0.59254769 0.39182460
0.30567053 0.59254769 0.39182460
0.39182460 0.59254769 0.39182460
0.48757055 0.59254769 0.39182460
0.59254769 0.59254769 0.39182460
0.70555912 0.59254769 0.39182460
0.00000073 0.70555912 0.39182460
0.06750411 0.70555912 0.39182460
0.15520140 0.70555912 0.39182460
0.22810329 0.70555912 0.39182460
0.30567053 0.70555912 0.39182460
0.39182460 0.70555912 0.39182460
0.48757055 0.70555912 0.39182460
0.59254769 0.70555912 0.39182460
0.70555912 0.70555912 0.39182460
0.00000073 0.00000073 0.48757055
0.06750411 0.00000073 0.48757055
0.15520140 0.00000073 0.48757055
0.22810329 0.00000073 0.48757055
0.30567053 0.00000073 0.48757055
0.39182460 0.00000073 0.48757055
0.48757055 0.00000073 0.48757055
0.59254769 0.00000073 0.48757055
0.70555912 0.00000073 0.48757055
0.00000073 0.06750411 0.48757055
0.06750411 0.06750411 0.48757055
0.15520140 0.06750411 0.48757055
0.22810329 0.06750411 0.48757055
0.30567053 0.06750411 0.48757055
0.39182460 0.06750411 0.48757055
0.48757055 0.06750411 0.48757055
0.59254769 0.06750411 0.48757055
0.70555912 0.06750411 0.48757055
0.00000073 0.15520140 0.48757055
0.06750411 0.15520140 0.48757055
0.15520140 0.15520140 0.48757055
0.22810329 0.15520140 0.48757055
0.30567053 0.15520140 0.48757055
0.39182460 0.15520140 0.48757055
0.48757055 0.15520140 0.48757055
0.59254769 0.15520140 0.48757055
0.70555912 0.15520140 0.48757055
0.00000073 0.22810329 0.48757055
0.06750411 0.22810329 0.48757055
0.15520140 0.22810329 0.48757055
0.22810329 0.22810329 0.48757055
0.30567053 0.22810329 0.48757055
0.39182460 0.22810329 0.48757055
0.48757055 0.22810329 0.48757055
0.59254769 0.22810329 0.48757055
0.70555912 0.22810329 0.48757055
0.00000073 0.30567053 0.48757055
0.06750411 0.30567053 0.48757055
0.15520140 0.30567053 0.48757055
0.22810329 0.30567053 0.48757055
0.30567053 0.30567053 0.48757055
0.39182460 0.30567053 0.48757055
0.48757055 0.30567053 0.48757055
0.59254769 0.30567053 0.48757055
0.70555912 0.30567053 0.48757055
0.00000073 0.39182460 0.48757055
0.06750411 0.39182460 0.48757055
0.15520140 0.39182460 0.48757055
0.22810329 0.39182460 0.48757055
0.30567053 0.39182460 0.48757055
0.39182460 0.39182460 0.48757055
0.48757055 0.39182460 0.48757055
0.59254769 0.39182460 0.48757055
0.70555912 0.39182460 0.48757055
0.00000073 0.48757055 0.48757055
0.06750411 0.48757055 0.48757055
0.15520140 0.48757055 0.48757055
0.22810329 0.48757055 0.48757055
0.30567053 0.48757055 0.48757055
0.39182460 0.48757055 0.48757055
0.48757055 0.48757055 0.48757055
0.59254769 0.48757055 0.48757055
0.70555912 0.48757055 0.48757055
0.00000073 0.59254769 0.48757055
0.06750411 0.59254769 0.48757055
0.15520140 0.59254769 0.48757055
0.22810329 0.59254769 0.48757055
0.30567053 0.59254769 0.48757055
0.39182460 0.59254769 0.48757055
0.48757055 0.59254769 0.48757055
0.59254769 0.59254769 0.48757055
0.70555912 0.59254769 0.48757055
0.00000073 0.70555912 0.48757055
0.06750411 0.70555912 0.48757055
0.15520140 0.70555912 0.48757055
0.22810329 0.70555912 0.48757055
0.30567053 0.70555912 0.48757055
0.39182460 0.70555912 0.48757055
0.48757055 0.70555912 0.48757055
0.59254769 0.70555912 0.48757055
0.70555912 0.70555912 0.48757055
0.00000073 0.00000073 0.59254769
0.06750411 0.00000073 0.59254769
0.15520140 0.00000073 0.59254769
0.22810329 0.00000073 0.59254769
0.30567053 0.00000073 0.59254769
0.39182460 0.00000073 0.59254769
0.48757055 0.00000073 0.59254769
0.59254769 0.00000073 0.59254769
0.70555912 0.00000073 0.59254769
0.00000073 0.06750411 0.59254769
0.06750411 0.06750411 0.59254769
0.15520140 0.06750411 0.59254769
0.22810329 0.06750411 0.59254769
0.30567053 0.06750411 0.59254769
0.39182460 0.06750411 0.59254769
0.48757055 0.06750411 0.59254769
0.59254769 0.06750411 0.59254769
0.70555912 0.06750411 0.59254769
0.00000073 0.15520140 0.59254769
0.06750411 0.15520140 0.59254769
0.15520140 0.15520140 0.59254769
0.22810329 0.15520140 0.59254769
0.30567053 0.15520140 0.59254769
0.39182460 0.15520140 0.59254769
0.48757055 0.15520140 0.59254769
0.59254769 0.15520140 0.59254769
0.70555912 0.15520140 0.59254769
0.00000073 0.22810329 0.59254769
0.06750411 0.22810329 0.59254769
0.15520140 0.22810329 0.59254769
0.22810329 0.22810329 0.59254769
0.30567053 0.22810329 0.59254769
0.39182460 0.22810329 0.59254769
0.48757055 0.22810329 0.59254769
0.59254769 0.22810329 0.59254769
0.70555912 0.22810329 0.59254769
0.00000073 0.30567053 0.59254769
0.06750411 0.30567053 0.59254769
0.15520140 0.30567053 0.59254769
0.22810329 0.30567053 0.59254769
0.30567053 0.30567053 0.59254769
0.39182460 0.30567053 0.59254769
0.48757055 0.30567053 0.59254769
0.59254769 0.30567053 0.59254769
0.70555912 0.30567053 0.59254769
0.00000073 0.39182460 0.59254769
0.06750411 0.39182460 0.59254769
0.15520140 0.39182460 0.59254769
0.22810329 0.39182460 0.59254769
0.30567053 0.39182460 0.59254769
0.39182460 0.39182460 0.59254769
0.48757055 0.39182460 0.59254769
0.59254769 0.39182460 0.59254769
0.70555912 0.39182460 0.59254769
0.00000073 0.48757055 0.59254769
0.06750411 0.48757055 0.59254769
0.15520140 0.48757055 0.59254769
0.22810329 0.48757055 0.59254769
0.30567053 0.48757055 0.59254769
0.39182460 0.48757055 0.59254769
0.48757055 0.48757055 0.59254769
0.59254769 0.48757055 0.59254769
0.70555912 0.48757055 0.59254769
0.00000073 0.59254769 0.59254769
0.06750411 0.59254769 0.59254769
0.15520140 0.59254769 0.59254769
0.22810329 0.59254769 0.59254769
0.30567053 0.59254769 0.59254769
0.39182460 0.59254769 0.59254769
0.48757055 0.59254769 0.59254769
0.59254769 0.59254769 0.59254769
0.70555912 0.59254769 0.59254769
0.00000073 0.70555912 0.59254769
0.06750411 0.70555912 0.59254769
0.15520140 0.70555912 0.59254769
0.22810329 0.70555912 0.59254769
0.30567053 0.70555912 0.59254769
0.39182460 0.70555912 0.59254769
0.48757055 0.70555912 0.59254769
0.59254769 0.70555912 0.59254769
0.70555912 0.70555912 0.59254769
0.00000073 0.00000073 0.70555912
0.06750411 0.00000073 0.70555912
0.15520140 0.00000073 0.70555912
0.22810329 0.00000073 0.70555912
0.30567053 0.00000073 0.70555912
0.39182460 0.00000073 0.70555912
0.48757055 0.00000073 0.70555912
0.59254769 0.00000073 0.70555912
0.70555912 0.00000073 0.70555912
0.00000073 0.06750411 0.70555912
0.06750411 0.06750411 0.70555912
0.15520140 0.06750411 0.70555912
0.22810329 0.06750411 0.70555912
0.30567053 0.06750411 0.70555912
0.39182460 0.06750411 0.70555912
0.48757055 0.06750411 0.70555912
0.59254769 0.06750411 0.70555912
0.70555912 0.06750411 0.70555912
0.00000073 0.15520140 0.70555912
0.06750411 0.15520140 0.70555912
0.15520140 0.15520140 0.70555912
0.22810329 0.15520140 0.70555912
0.30567053 0.15520140 0.70555912
0.39182460 0.15520140 0.70555912
0.48757055 0.15520140 0.70555912
0.59254769 0.15520140 0.70555912
0.70555912 0.15520140 0.70555912
0.00000073 0.22810329 0.70555912
0.06750411 0.22810329 0.70555912
0.15520140 0.22810329 0.70555912
0.22810329 0.22810329 0.70555912
0.30567053 0.22810329 0.70555912
0.39182460 0.22810329 0.70555912
0.48757055 0.22810329 0.70555912
0.59254769 0.22810329 0.70555912
0.70555912 0.22810329 0.70555912
0.00000073 0.30567053 0.70555912
0.06750411 0.30567053 0.70555912
0.15520140 0.30567053 0.70555912
0.22810329 0.30567053 0.70555912
0.30567053 0.30567053 0.70555912
0.39182460 0.30567053 0.70555912
0.48757055 0.30567053 0.70555912
0.59254769 0.30567053 0.70555912
0.70555912 0.30567053 0.70555912
0.00000073 0.39182460 0.70555912
0.06750411 0.39182460 0.70555912
0.15520140 0.39182460 0.70555912
0.22810329 0.39182460 0.70555912
0.30567053 0.39182460 0.70555912
0.39182460 0.39182460 0.70555912
0.48757055 0.39182460 0.70555912
0.59254769 0.39182460 0.70555912
0.70555912 0.39182460 0.70555912
0.00000073 0.48757055 0.70555912
0.06750411 0.48757055 0.70555912
0.15520140 0.48757055 0.70555912
0.22810329 0.48757055 0.70555912
0.30567053 0.48757055 0.70555912
0.39182460 0.48757055 0.70555912
0.48757055 0.48757055 0.70555912
0.59254769 0.48757055 0.70555912
0.70555912 0.48757055 0.70555912
0.00000073 0.59254769 0.70555912
0.06750411 0.59254769 0.70555912
0.15520140 0.59254769 0.70555912
0.22810329 0.59254769 0.70555912
0.30567053 0.59254769 0.70555912
0.39182460 0.59254769 0.70555912
0.48757055 0.59254769 0.70555912
0.59254769 0.59254769 0.70555912
0.70555912 0.59254769 0.70555912
0.00000073 0.70555912 0.70555912
0.06750411 0.70555912 0.70555912
0.15520140 0.70555912 0.70555912
0.22810329 0.70555912 0.70555912
0.30567053 0.70555912 0.70555912
0.39182460 0.70555912 0.70555912
0.48757055 0.70555912 0.70555912
0.59254769 0.70555912 0.70555912
0.70555912 0.70555912 0.70555912
