src/ffmpeg_scripts/luts/flog-experimental_-3p67.cube
TITLE "flog-experimental_-3p67"
LUT_3D_SIZE 33
# Fujifilm F-Log/Rec2020 -> PQ (EOTF Only)/Rec2020, CineEI Shift -3.67, Black Level 0.00% IRE, Input 109% -> Output 100% - Created with LUTCalc v4.01 by Ben Turley October 2020
0.00000073 0.00000073 0.00000073
0.00000073 0.00000073 0.00000073
0.00000073 0.00000073 0.00000073
0.00769488 0.00000073 0.00000073
0.05480663 0.00000073 0.00000073
0.07790650 0.00000073 0.00000073
0.09680507 0.00000073 0.00000073
0.11397353 0.00000073 0.00000073
0.13035101 0.00000073 0.00000073
0.14641375 0.00000073 0.00000073
0.16244398 0.00000073 0.00000073
0.17862637 0.00000073 0.00000073
0.19509018 0.00000073 0.00000073
0.21193016 0.00000073 0.00000073
0.22921795 0.00000073 0.00000073
0.24700870 0.00000073 0.00000073
0.26534520 0.00000073 0.00000073
0.28426047 0.00000073 0.00000073
0.30377958 0.00000073 0.00000073
0.32392085 0.00000073 0.00000073
0.34469679 0.00000073 0.00000073
0.36611476 0.00000073 0.00000073
0.38817752 0.00000073 0.00000073
0.41088366 0.00000073 0.00000073
0.43422795 0.00000073 0.00000073
0.45820171 0.00000073 0.00000073
0.48279304 0.00000073 0.00000073
0.50798714 0.00000073 0.00000073
0.53376653 0.00000073 0.00000073
0.56011130 0.00000073 0.00000073
0.58699931 0.00000073 0.00000073
0.61440647 0.00000073 0.00000073
0.64230689 0.00000073 0.00000073
0.00000073 0.00000073 0.00000073
0.00000073 0.00000073 0.00000073
0.00000073 0.00000073 0.00000073
0.00769488 0.00000073 0.00000073
0.05480663 0.00000073 0.00000073
0.07790650 0.00000073 0.00000073
0.09680507 0.00000073 0.00000073
0.11397353 0.00000073 0.00000073
0.13035101 0.00000073 0.00000073
0.14641375 0.00000073 0.00000073
0.16244398 0.00000073 0.00000073
0.17862637 0.00000073 0.00000073
0.19509018 0.00000073 0.00000073
0.21193016 0.00000073 0.00000073
0.22921795 0.00000073 0.00000073
0.24700870 0.00000073 0.00000073
0.26534520 0.00000073 0.00000073
0.28426047 0.00000073 0.00000073
0.30377958 0.00000073 0.00000073
0.32392085 0.00000073 0.00000073
0.34469679 0.00000073 0.00000073
0.36611476 0.00000073 0.00000073
0.38817752 0.00000073 0.00000073
0.41088366 0.00000073 0.00000073
0.43422795 0.00000073 0.00000073
0.45820171 0.00000073 0.00000073
0.48279304 0.00000073 0.00000073
0.50798714 0.00000073 0.00000073
0.53376653 0.00000073 0.00000073
0.56011130 0.00000073 0.00000073
0.58699931 0.00000073 0.00000073
0.61440647 0.00000073 0.00000073
0.64230689 0.00000073 0.00000073
0.00000073 0.00000073 0.00000073
0.00000073 0.00000073 0.00000073
0.00000073 0.00000073 0.00000073
0.00769488 0.00000073 0.00000073
0.05480663 0.00000073 0.00000073
0.07790650 0.00000073 0.00000073
0.09680507 0.00000073 0.00000073
0.11397353 0.00000073 0.00000073
0.13035101 0.00000073 0.00000073
0.14641375 0.00000073 0.00000073
0.16244398 0.00000073 0.00000073
0.17862637 0.00000073 0.00000073
0.19509018 0.00000073 0.00000073
0.21193016 0.00000073 0.00000073
0.22921795 0.00000073 0.00000073
0.24700870 0.00000073 0.00000073
0.26534520 0.00000073 0.00000073
0.28426047 0.00000073 0.00000073
0.30377958 0.00000073 0.00000073
0.32392085 0.00000073 0.00000073
0.34469679 0.00000073 0.00000073
0.36611476 0.00000073 0.00000073
0.38817752 0.00000073 0.00000073
0.41088366 0.00000073 0.00000073
0.43422795 0.00000073 0.00000073
0.45820171 0.00000073 0.00000073
0.48279304 0.00000073 0.00000073
0.50798714 0.00000073 0.00000073
0.53376653 0.00000073 0.00000073
0.56011130 0.00000073 0.00000073
0.58699931 0.00000073 0.00000073
0.61440647 0.00000073 0.00000073
0.64230689 0.00000073 0.00000073
0.00000073 0.00769488 0.00000073
0.00000073 0.00769488 0.00000073
0.00000073 0.00769488 0.00000073
0.00769488 0.00769488 0.00000073
0.05480663 0.00769488 0.00000073
0.07790650 0.00769488 0.00000073
0.09680507 0.00769488 0.00000073
0.11397353 0.00769488 0.00000073
0.13035101 0.00769488 0.00000073
0.14641375 0.00769488 0.00000073
0.16244398 0.00769488 0.00000073
0.17862637 0.00769488 0.00000073
0.19509018 0.00769488 0.00000073
0.21193016 0.00769488 0.00000073
0.22921795 0.00769488 0.00000073
0.24700870 0.00769488 0.00000073
0.26534520 0.00769488 0.00000073
0.28426047 0.00769488 0.00000073
0.30377958 0.00769488 0.00000073
0.32392085 0.00769488 0.00000073
0.34469679 0.00769488 0.00000073
0.36611476 0.00769488 0.00000073
0.38817752 0.00769488 0.00000073
0.41088366 0.00769488 0.00000073
0.43422795 0.00769488 0.00000073
0.45820171 0.00769488 0.00000073
0.48279304 0.00769488 0.00000073
0.50798714 0.00769488 0.00000073
0.53376653 0.00769488 0.00000073
0.56011130 0.00769488 0.00000073
0.58699931 0.00769488 0.00000073
0.61440647 0.00769488 0.00000073
0.64230689 0.00769488 0.00000073
0.00000073 0.05480663 0.00000073
0.00000073 0.05480663 0.00000073
0.00000073 0.05480663 0.00000073
0.00769488 0.05480663 0.00000073
0.05480663 0.05480663 0.00000073
0.07790650 0.05480663 0.00000073
0.09680507 0.05480663 0.00000073
0.11397353 0.05480663 0.00000073
0.13035101 0.05480663 0.00000073
0.14641375 0.05480663 0.00000073
0.16244398 0.05480663 0.00000073
0.17862637 0.05480663 0.00000073
0.19509018 0.05480663 0.00000073
0.21193016 0.05480663 0.00000073
0.22921795 0.05480663 0.00000073
0.24700870 0.05480663 0.00000073
0.26534520 0.05480663 0.00000073
0.28426047 0.05480663 0.00000073
0.30377958 0.05480663 0.00000073
0.32392085 0.05480663 0.00000073
0.34469679 0.05480663 0.00000073
0.36611476 0.05480663 0.00000073
0.38817752 0.05480663 0.00000073
0.41088366 0.05480663 0.00000073
0.43422795 0.05480663 0.00000073
0.45820171 0.05480663 0.00000073
0.48279304 0.05480663 0.00000073
0.50798714 0.05480663 0.00000073
0.53376653 0.05480663 0.00000073
0.56011130 0.05480663 0.00000073
0.58699931 0.05480663 0.00000073
0.61440647 0.05480663 0.00000073
0.64230689 0.05480663 0.00000073
0.00000073 0.07790650 0.00000073
0.00000073 0.07790650 0.00000073
0.00000073 0.07790650 0.00000073
0.00769488 0.07790650 0.00000073
0.05480663 0.07790650 0.00000073
0.07790650 0.07790650 0.00000073
0.09680507 0.07790650 0.00000073
0.11397353 0.07790650 0.00000073
0.13035101 0.07790650 0.00000073
0.14641375 0.07790650 0.00000073
0.16244398 0.07790650 0.00000073
0.17862637 0.07790650 0.00000073
0.19509018 0.07790650 0.00000073
0.21193016 0.07790650 0.00000073
0.22921795 0.07790650 0.00000073
0.24700870 0.07790650 0.00000073
0.26534520 0.07790650 0.00000073
0.28426047 0.07790650 0.00000073
0.30377958 0.07790650 0.00000073
0.32392085 0.07790650 0.00000073
0.34469679 0.07790650 0.00000073
0.36611476 0.07790650 0.00000073
0.38817752 0.07790650 0.00000073
0.41088366 0.07790650 0.00000073
0.43422795 0.07790650 0.00000073
0.45820171 0.07790650 0.00000073
0.48279304 0.07790650 0.00000073
0.50798714 0.07790650 0.00000073
0.53376653 0.07790650 0.00000073
0.56011130 0.07790650 0.00000073
0.58699931 0.07790650 0.00000073
0.61440647 0.07790650 0.00000073
0.64230689 0.07790650 0.00000073
0.00000073 0.09680507 0.00000073
0.00000073 0.09680507 0.00000073
0.00000073 0.09680507 0.00000073
0.00769488 0.09680507 0.00000073
0.05480663 0.09680507 0.00000073
0.07790650 0.09680507 0.00000073
0.09680507 0.09680507 0.00000073
0.11397353 0.09680507 0.00000073
0.13035101 0.09680507 0.00000073
0.14641375 0.09680507 0.00000073
0.16244398 0.09680507 0.00000073
0.17862637 0.09680507 0.00000073
0.19509018 0.09680507 0.00000073
0.21193016 0.09680507 0.00000073
0.22921795 0.09680507 0.00000073
0.24700870 0.09680507 0.00000073
0.26534520 0.09680507 0.00000073
0.28426047 0.09680507 0.00000073
0.30377958 0.09680507 0.00000073
0.32392085 0.09680507 0.00000073
0.34469679 0.09680507 0.00000073
0.36611476 0.09680507 0.00000073
0.38817752 0.09680507 0.00000073
0.41088366 0.09680507 0.00000073
0.43422795 0.09680507 0.00000073
0.45820171 0.09680507 0.00000073
0.48279304 0.09680507 0.00000073
0.50798714 0.09680507 0.00000073
0.53376653 0.09680507 0.00000073
0.56011130 0.09680507 0.00000073
0.58699931 0.09680507 0.00000073
0.61440647 0.09680507 0.00000073
0.64230689 0.09680507 0.00000073
0.00000073 0.11397353 0.00000073
0.00000073 0.11397353 0.00000073
0.00000073 0.11397353 0.00000073
0.00769488 0.11397353 0.00000073
0.05480663 0.11397353 0.00000073
0.07790650 0.11397353 0.00000073
0.09680507 0.11397353 0.00000073
0.11397353 0.11397353 0.00000073
0.13035101 0.11397353 0.00000073
0.14641375 0.11397353 0.00000073
0.16244398 0.11397353 0.00000073
0.17862637 0.11397353 0.00000073
0.19509018 0.11397353 0.00000073
0.21193016 0.11397353 0.00000073
0.22921795 0.11397353 0.00000073
0.24700870 0.11397353 0.00000073
0.26534520 0.11397353 0.00000073
0.28426047 0.11397353 0.00000073
0.30377958 0.11397353 0.00000073
0.32392085 0.11397353 0.00000073
0.34469679 0.11397353 0.00000073
0.36611476 0.11397353 0.00000073
0.38817752 0.11397353 0.00000073
0.41088366 0.11397353 0.00000073
0.43422795 0.11397353 0.00000073
0.45820171 0.11397353 0.00000073
0.48279304 0.11397353 0.00000073
0.50798714 0.11397353 0.00000073
0.53376653 0.11397353 0.00000073
0.56011130 0.11397353 0.00000073
0.58699931 0.11397353 0.00000073
0.61440647 0.11397353 0.00000073
0.64230689 0.11397353 0.00000073
0.00000073 0.13035101 0.00000073
0.00000073 0.13035101 0.00000073
0.00000073 0.13035101 0.00000073
0.00769488 0.13035101 0.00000073
0.05480663 0.13035101 0.00000073
0.07790650 0.13035101 0.00000073
0.09680507 0.13035101 0.00000073
0.11397353 0.13035101 0.00000073
0.13035101 0.13035101 0.00000073
0.14641375 0.13035101 0.00000073
0.16244398 0.13035101 0.00000073
0.17862637 0.13035101 0.00000073
0.19509018 0.13035101 0.00000073
0.21193016 0.13035101 0.00000073
0.22921795 0.13035101 0.00000073
0.24700870 0.13035101 0.00000073
0.26534520 0.13035101 0.00000073
0.28426047 0.13035101 0.00000073
0.30377958 0.13035101 0.00000073
0.32392085 0.13035101 0.00000073
0.34469679 0.13035101 0.00000073
0.36611476 0.13035101 0.00000073
0.38817752 0.13035101 0.00000073
0.41088366 0.13035101 0.00000073
0.43422795 0.13035101 0.00000073
0.45820171 0.13035101 0.00000073
0.48279304 0.13035101 0.00000073
0.50798714 0.13035101 0.00000073
0.53376653 0.13035101 0.00000073
0.56011130 0.13035101 0.00000073
0.58699931 0.13035101 0.00000073
0.61440647 0.13035101 0.00000073
0.64230689 0.13035101 0.00000073
0.00000073 0.14641375 0.00000073
0.00000073 0.14641375 0.00000073
0.00000073 0.14641375 0.00000073
0.00769488 0.14641375 0.00000073
0.05480663 0.14641375 0.00000073
0.07790650 0.14641375 0.00000073
0.09680507 0.14641375 0.00000073
0.11397353 0.14641375 0.00000073
0.13035101 0.14641375 0.00000073
0.14641375 0.14641375 0.00000073
0.16244398 0.14641375 0.00000073
0.17862637 0.14641375 0.00000073
0.19509018 0.14641375 0.00000073
0.21193016 0.14641375 0.00000073
0.22921795 0.14641375 0.00000073
0.24700870 0.14641375 0.00000073
0.26534520 0.14641375 0.00000073
0.28426047 0.14641375 0.00000073
0.30377958 0.14641375 0.00000073
0.32392085 0.14641375 0.00000073
0.34469679 0.14641375 0.00000073
0.36611476 0.14641375 0.00000073
0.38817752 0.14641375 0.00000073
0.41088366 0.14641375 0.00000073
0.43422795 0.14641375 0.00000073
0.45820171 0.14641375 0.00000073
0.48279304 0.14641375 0.00000073
0.50798714 0.14641375 0.00000073
0.53376653 0.14641375 0.00000073
0.56011130 0.14641375 0.00000073
0.58699931 0.14641375 0.00000073
0.61440647 0.14641375 0.00000073
0.64230689 0.14641375 0.00000073
0.00000073 0.16244398 0.00000073
0.00000073 0.16244398 0.00000073
0.00000073 0.16244398 0.00000073
0.00769488 0.16244398 0.00000073
0.05480663 0.16244398 0.00000073
0.07790650 0.16244398 0.00000073
0.09680507 0.16244398 0.00000073
0.11397353 0.16244398 0.00000073
0.13035101 0.16244398 0.00000073
0.14641375 0.16244398 0.00000073
0.16244398 0.16244398 0.00000073
0.17862637 0.16244398 0.00000073
0.19509018 0.16244398 0.00000073
0.21193016 0.16244398 0.00000073
0.22921795 0.16244398 0.00000073
0.24700870 0.16244398 0.00000073
0.26534520 0.16244398 0.00000073
0.28426047 0.16244398 0.00000073
0.30377958 0.16244398 0.00000073
0.32392085 0.16244398 0.00000073
0.34469679 0.16244398 0.00000073
0.36611476 0.16244398 0.00000073
0.38817752 0.16244398 0.00000073
0.41088366 0.16244398 0.00000073
0.43422795 0.16244398 0.00000073
0.45820171 0.16244398 0.00000073
0.48279304 0.16244398 0.00000073
0.50798714 0.16244398 0.00000073
0.53376653 0.16244398 0.00000073
0.56011130 0.16244398 0.00000073
0.58699931 0.16244398 0.00000073
0.61440647 0.16244398 0.00000073
0.64230689 0.16244398 0.00000073
0.00000073 0.17862637 0.00000073
0.00000073 0.17862637 0.00000073
0.00000073 0.17862637 0.00000073
0.00769488 0.17862637 0.00000073
0.05480663 0.17862637 0.00000073
0.07790650 0.17862637 0.00000073
0.09680507 0.17862637 0.00000073
0.11397353 0.17862637 0.00000073
0.13035101 0.17862637 0.00000073
0.14641375 0.17862637 0.00000073
0.16244398 0.17862637 0.00000073
0.17862637 0.17862637 0.00000073
0.19509018 0.17862637 0.00000073
0.21193016 0.17862637 0.00000073
0.22921795 0.17862637 0.00000073
0.24700870 0.17862637 0.00000073
0.26534520 0.17862637 0.00000073
0.28426047 0.17862637 0.00000073
0.30377958 0.17862637 0.00000073
0.32392085 0.17862637 0.00000073
0.34469679 0.17862637 0.00000073
0.36611476 0.17862637 0.00000073
0.38817752 0.17862637 0.00000073
0.41088366 0.17862637 0.00000073
0.43422795 0.17862637 0.00000073
0.45820171 0.17862637 0.00000073
0.48279304 0.17862637 0.00000073
0.50798714 0.17862637 0.00000073
0.53376653 0.17862637 0.00000073
0.56011130 0.17862637 0.00000073
0.58699931 0.17862637 0.00000073
0.61440647 0.17862637 0.00000073
0.64230689 0.17862637 0.00000073
0.00000073 0.19509018 0.00000073
0.00000073 0.19509018 0.00000073
0.00000073 0.19509018 0.00000073
0.00769488 0.19509018 0.00000073
0.05480663 0.19509018 0.00000073
0.07790650 0.19509018 0.00000073
0.09680507 0.19509018 0.00000073
0.11397353 0.19509018 0.00000073
0.13035101 0.19509018 0.00000073
0.14641375 0.19509018 0.00000073
0.16244398 0.19509018 0.00000073
0.17862637 0.19509018 0.00000073
0.19509018 0.19509018 0.00000073
0.21193016 0.19509018 0.00000073
0.22921795 0.19509018 0.00000073
0.24700870 0.19509018 0.00000073
0.26534520 0.19509018 0.00000073
0.28426047 0.19509018 0.00000073
0.30377958 0.19509018 0.00000073
0.32392085 0.19509018 0.00000073
0.34469679 0.19509018 0.00000073
0.36611476 0.19509018 0.00000073
0.38817752 0.19509018 0.00000073
0.41088366 0.19509018 0.00000073
0.43422795 0.19509018 0.00000073
0.45820171 0.19509018 0.00000073
0.48279304 0.19509018 0.00000073
0.50798714 0.19509018 0.00000073
0.53376653 0.19509018 0.00000073
0.56011130 0.19509018 0.00000073
0.58699931 0.19509018 0.00000073
0.61440647 0.19509018 0.00000073
0.64230689 0.19509018 0.00000073
0.00000073 0.21193016 0.00000073
0.00000073 0.21193016 0.00000073
0.00000073 0.21193016 0.00000073
0.00769488 0.21193016 0.00000073
0.05480663 0.21193016 0.00000073
0.07790650 0.21193016 0.00000073
0.09680507 0.21193016 0.00000073
0.11397353 0.21193016 0.00000073
0.13035101 0.21193016 0.00000073
0.14641375 0.21193016 0.00000073
0.16244398 0.21193016 0.00000073
0.17862637 0.21193016 0.00000073
0.19509018 0.21193016 0.00000073
0.21193016 0.21193016 0.00000073
0.22921795 0.21193016 0.00000073
0.24700870 0.21193016 0.00000073
0.26534520 0.21193016 0.00000073
0.28426047 0.21193016 0.00000073
0.30377958 0.21193016 0.00000073
0.32392085 0.21193016 0.00000073
0.34469679 0.21193016 0.00000073
0.36611476 0.21193016 0.00000073
0.38817752 0.21193016 0.00000073
0.41088366 0.21193016 0.00000073
0.43422795 0.21193016 0.00000073
0.45820171 0.21193016 0.00000073
0.48279304 0.21193016 0.00000073
0.50798714 0.21193016 0.00000073
0.53376653 0.21193016 0.00000073
0.56011130 0.21193016 0.00000073
0.58699931 0.21193016 0.00000073
0.61440647 0.21193016 0.00000073
0.64230689 0.21193016 0.00000073
0.00000073 0.22921795 0.00000073
0.00000073 0.22921795 0.00000073
0.00000073 0.22921795 0.00000073
0.00769488 0.22921795 0.00000073
0.05480663 0.22921795 0.00000073
0.07790650 0.22921795 0.00000073
0.09680507 0.22921795 0.00000073
0.11397353 0.22921795 0.00000073
0.13035101 0.22921795 0.00000073
0.14641375 0.22921795 0.00000073
0.16244398 0.22921795 0.00000073
0.17862637 0.22921795 0.00000073
0.19509018 0.22921795 0.00000073
0.21193016 0.22921795 0.00000073
0.22921795 0.22921795 0.00000073
0.24700870 0.22921795 0.00000073
0.26534520 0.22921795 0.00000073
0.28426047 0.22921795 0.00000073
0.30377958 0.22921795 0.00000073
0.32392085 0.22921795 0.00000073
0.34469679 0.22921795 0.00000073
0.36611476 0.22921795 0.00000073
0.38817752 0.22921795 0.00000073
0.41088366 0.22921795 0.00000073
0.43422795 0.22921795 0.00000073
0.45820171 0.22921795 0.00000073
0.48279304 0.22921795 0.00000073
0.50798714 0.22921795 0.00000073
0.53376653 0.22921795 0.00000073
0.56011130 0.22921795 0.00000073
0.58699931 0.22921795 0.00000073
0.61440647 0.22921795 0.00000073
0.64230689 0.22921795 0.00000073
0.00000073 0.24700870 0.00000073
0.00000073 0.24700870 0.00000073
0.00000073 0.24700870 0.00000073
0.00769488 0.24700870 0.00000073
0.05480663 0.24700870 0.00000073
0.07790650 0.24700870 0.00000073
0.09680507 0.24700870 0.00000073
0.11397353 0.24700870 0.00000073
0.13035101 0.24700870 0.00000073
0.14641375 0.24700870 0.00000073
0.16244398 0.24700870 0.00000073
0.17862637 0.24700870 0.00000073
0.19509018 0.24700870 0.00000073
0.21193016 0.24700870 0.00000073
0.22921795 0.24700870 0.00000073
0.24700870 0.24700870 0.00000073
0.26534520 0.24700870 0.00000073
0.28426047 0.24700870 0.00000073
0.30377958 0.24700870 0.00000073
0.32392085 0.24700870 0.00000073
0.34469679 0.24700870 0.00000073
0.36611476 0.24700870 0.00000073
0.38817752 0.24700870 0.00000073
0.41088366 0.24700870 0.00000073
0.43422795 0.24700870 0.00000073
0.45820171 0.24700870 0.00000073
0.48279304 0.24700870 0.00000073
0.50798714 0.24700870 0.00000073
0.53376653 0.24700870 0.00000073
0.56011130 0.24700870 0.00000073
0.58699931 0.24700870 0.00000073
0.61440647 0.24700870 0.00000073
0.64230689 0.24700870 0.00000073
0.00000073 0.26534520 0.00000073
0.00000073 0.26534520 0.00000073
0.00000073 0.26534520 0.00000073
0.00769488 0.26534520 0.00000073
0.05480663 0.26534520 0.00000073
0.07790650 0.26534520 0.00000073
0.09680507 0.26534520 0.00000073
0.11397353 0.26534520 0.00000073
0.13035101 0.26534520 0.00000073
0.14641375 0.26534520 0.00000073
0.16244398 0.26534520 0.00000073
0.17862637 0.26534520 0.00000073
0.19509018 0.26534520 0.00000073
0.21193016 0.26534520 0.00000073
0.22921795 0.26534520 0.00000073
0.24700870 0.26534520 0.00000073
0.26534520 0.26534520 0.00000073
0.28426047 0.26534520 0.00000073
0.30377958 0.26534520 0.00000073
0.32392085 0.26534520 0.00000073
0.34469679 0.26534520 0.00000073
0.36611476 0.26534520 0.00000073
0.38817752 0.26534520 0.00000073
0.41088366 0.26534520 0.00000073
0.43422795 0.26534520 0.00000073
0.45820171 0.26534520 0.00000073
0.48279304 0.26534520 0.00000073
0.50798714 0.26534520 0.00000073
0.53376653 0.26534520 0.00000073
0.56011130 0.26534520 0.00000073
0.58699931 0.26534520 0.00000073
0.61440647 0.26534520 0.00000073
0.64230689 0.26534520 0.00000073
0.00000073 0.28426047 0.00000073
0.00000073 0.28426047 0.00000073
0.00000073 0.28426047 0.00000073
0.00769488 0.28426047 0.00000073
0.05480663 0.28426047 0.00000073
0.07790650 0.28426047 0.00000073
0.09680507 0.28426047 0.00000073
0.11397353 0.28426047 0.00000073
0.13035101 0.28426047 0.00000073
0.14641375 0.28426047 0.00000073
0.16244398 0.28426047 0.00000073
0.17862637 0.28426047 0.00000073
0.19509018 0.28426047 0.00000073
0.21193016 0.28426047 0.00000073
0.22921795 0.28426047 0.00000073
0.24700870 0.28426047 0.00000073
0.26534520 0.28426047 0.00000073
0.28426047 0.28426047 0.00000073
0.30377958 0.28426047 0.00000073
0.32392085 0.28426047 0.00000073
0.34469679 0.28426047 0.00000073
0.36611476 0.28426047 0.00000073
0.38817752 0.28426047 0.00000073
0.41088366 0.28426047 0.00000073
0.43422795 0.28426047 0.00000073
0.45820171 0.28426047 0.00000073
0.48279304 0.28426047 0.00000073
0.50798714 0.28426047 0.00000073
0.53376653 0.28426047 0.00000073
0.56011130 0.28426047 0.00000073
0.58699931 0.28426047 0.00000073
0.61440647 0.28426047 0.00000073
0.64230689 0.28426047 0.00000073
0.00000073 0.30377958 0.00000073
0.00000073 0.30377958 0.00000073
0.00000073 0.30377958 0.00000073
0.00769488 0.30377958 0.00000073
0.05480663 0.30377958 0.00000073
0.07790650 0.30377958 0.00000073
0.09680507 0.30377958 0.00000073
0.11397353 0.30377958 0.00000073
0.13035101 0.30377958 0.00000073
0.14641375 0.30377958 0.00000073
0.16244398 0.30377958 0.00000073
0.17862637 0.30377958 0.00000073
0.19509018 0.30377958 0.00000073
0.21193016 0.30377958 0.00000073
0.22921795 0.30377958 0.00000073
0.24700870 0.30377958 0.00000073
0.26534520 0.30377958 0.00000073
0.28426047 0.30377958 0.00000073
0.30377958 0.30377958 0.00000073
0.32392085 0.30377958 0.00000073
0.34469679 0.30377958 0.00000073
0.36611476 0.30377958 0.00000073
0.38817752 0.30377958 0.00000073
0.41088366 0.30377958 0.00000073
0.43422795 0.30377958 0.00000073
0.45820171 0.30377958 0.00000073
0.48279304 0.30377958 0.00000073
0.50798714 0.30377958 0.00000073
0.53376653 0.30377958 0.00000073
0.56011130 0.30377958 0.00000073
0.58699931 0.30377958 0.00000073
0.61440647 0.30377958 0.00000073
0.64230689 0.30377958 0.00000073
0.00000073 0.32392085 0.00000073
0.00000073 0.32392085 0.00000073
0.00000073 0.32392085 0.00000073
0.00769488 0.32392085 0.00000073
0.05480663 0.32392085 0.00000073
0.07790650 0.32392085 0.00000073
0.09680507 0.32392085 0.00000073
0.11397353 0.32392085 0.00000073
0.13035101 0.32392085 0.00000073
0.14641375 0.32392085 0.00000073
0.16244398 0.32392085 0.00000073
0.17862637 0.32392085 0.00000073
0.19509018 0.32392085 0.00000073
0.21193016 0.32392085 0.00000073
0.22921795 0.32392085 0.00000073
0.24700870 0.32392085 0.00000073
0.26534520 0.32392085 0.00000073
0.28426047 0.32392085 0.00000073
0.30377958 0.32392085 0.00000073
0.32392085 0.32392085 0.00000073
0.34469679 0.32392085 0.00000073
0.36611476 0.32392085 0.00000073
0.38817752 0.32392085 0.00000073
0.41088366 0.32392085 0.00000073
0.43422795 0.32392085 0.00000073
0.45820171 0.32392085 0.00000073
0.48279304 0.32392085 0.00000073
0.50798714 0.32392085 0.00000073
0.53376653 0.32392085 0.00000073
0.56011130 0.32392085 0.00000073
0.58699931 0.32392085 0.00000073
0.61440647 0.32392085 0.00000073
0.64230689 0.32392085 0.00000073
0.00000073 0.34469679 0.00000073
0.00000073 0.34469679 0.00000073
0.00000073 0.34469679 0.00000073
0.00769488 0.34469679 0.00000073
0.05480663 0.34469679 0.00000073
0.07790650 0.34469679 0.00000073
0.09680507 0.34469679 0.00000073
0.11397353 0.34469679 0.00000073
0.13035101 0.34469679 0.00000073
0.14641375 0.34469679 0.00000073
0.16244398 0.34469679 0.00000073
0.17862637 0.34469679 0.00000073
0.19509018 0.34469679 0.00000073
0.21193016 0.34469679 0.00000073
0.22921795 0.34469679 0.00000073
0.24700870 0.34469679 0.00000073
0.26534520 0.34469679 0.00000073
0.28426047 0.34469679 0.00000073
0.30377958 0.34469679 0.00000073
0.32392085 0.34469679 0.00000073
0.34469679 0.34469679 0.00000073
0.36611476 0.34469679 0.00000073
0.38817752 0.34469679 0.00000073
0.41088366 0.34469679 0.00000073
0.43422795 0.34469679 0.00000073
0.45820171 0.34469679 0.00000073
0.48279304 0.34469679 0.00000073
0.50798714 0.34469679 0.00000073
0.53376653 0.34469679 0.00000073
0.56011130 0.34469679 0.00000073
0.58699931 0.34469679 0.00000073
0.61440647 0.34469679 0.00000073
0.64230689 0.34469679 0.00000073
0.00000073 0.36611476 0.00000073
0.00000073 0.36611476 0.00000073
0.00000073 0.36611476 0.00000073
0.00769488 0.36611476 0.00000073
0.05480663 0.36611476 0.00000073
0.07790650 0.36611476 0.00000073
0.09680507 0.36611476 0.00000073
0.11397353 0.36611476 0.00000073
0.13035101 0.36611476 0.00000073
0.14641375 0.36611476 0.00000073
0.16244398 0.36611476 0.00000073
0.17862637 0.36611476 0.00000073
0.19509018 0.36611476 0.00000073
0.21193016 0.36611476 0.00000073
0.22921795 0.36611476 0.00000073
0.24700870 0.36611476 0.00000073
0.26534520 0.36611476 0.00000073
0.28426047 0.36611476 0.00000073
0.30377958 0.36611476 0.00000073
0.32392085 0.36611476 0.00000073
0.34469679 0.36611476 0.00000073
0.36611476 0.36611476 0.00000073
0.38817752 0.36611476 0.00000073
0.41088366 0.36611476 0.00000073
0.43422795 0.36611476 0.00000073
0.45820171 0.36611476 0.00000073
0.48279304 0.36611476 0.00000073
