src/ffmpeg_scripts/luts/flog-smpte2084_-3p00.cube
TITLE "flog-smpte2084_-3p00"
LUT_3D_SIZE 33
# Fujifilm F-Log/Rec2020 -> PQ (EOTF Only)/Rec2020, CineEI Shift -3.00, Black Level 0.00% IRE, Input 109% -> Output 109% - Created with LUTCalc v4.01 by Ben Turley October 2020
0.06256172 0.06256172 0.06256172
0.06256172 0.06256172 0.06256172
0.06256172 0.06256172 0.06256172
0.06872178 0.06256172 0.06256172
0.10427881 0.06256172 0.06256172
0.12110142 0.06256172 0.06256172
0.13468282 0.06256172 0.06256172
0.14690516 0.06256172 0.06256172
0.15847574 0.06256172 0.06256172
0.16974933 0.06256172 0.06256172
0.18093368 0.06256172 0.06256172
0.19216282 0.06256172 0.06256172
0.20352911 0.06256172 0.06256172
0.21509905 0.06256172 0.06256172
0.22692190 0.06256172 0.06256172
0.23903477 0.06256172 0.06256172
0.25146566 0.06256172 0.06256172
0.26423554 0.06256172 0.06256172
0.27735968 0.06256172 0.06256172
0.29084862 0.06256172 0.06256172
0.30470889 0.06256172 0.06256172
0.31894351 0.06256172 0.06256172
0.33355246 0.06256172 0.06256172
0.34853298 0.06256172 0.06256172
0.36387988 0.06256172 0.06256172
0.37958580 0.06256172 0.06256172
0.39564141 0.06256172 0.06256172
0.41203561 0.06256172 0.06256172
0.42875576 0.06256172 0.06256172
0.44578778 0.06256172 0.06256172
0.46311638 0.06256172 0.06256172
0.48072517 0.06256172 0.06256172
0.49859683 0.06256172 0.06256172
0.06256172 0.06256172 0.06256172
0.06256172 0.06256172 0.06256172
0.06256172 0.06256172 0.06256172
0.06872178 0.06256172 0.06256172
0.10427881 0.06256172 0.06256172
0.12110142 0.06256172 0.06256172
0.13468282 0.06256172 0.06256172
0.14690516 0.06256172 0.06256172
0.15847574 0.06256172 0.06256172
0.16974933 0.06256172 0.06256172
0.18093368 0.06256172 0.06256172
0.19216282 0.06256172 0.06256172
0.20352911 0.06256172 0.06256172
0.21509905 0.06256172 0.06256172
0.22692190 0.06256172 0.06256172
0.23903477 0.06256172 0.06256172
0.25146566 0.06256172 0.06256172
0.26423554 0.06256172 0.06256172
0.27735968 0.06256172 0.06256172
0.29084862 0.06256172 0.06256172
0.30470889 0.06256172 0.06256172
0.31894351 0.06256172 0.06256172
0.33355246 0.06256172 0.06256172
0.34853298 0.06256172 0.06256172
0.36387988 0.06256172 0.06256172
0.37958580 0.06256172 0.06256172
0.39564141 0.06256172 0.06256172
0.41203561 0.06256172 0.06256172
0.42875576 0.06256172 0.06256172
0.44578778 0.06256172 0.06256172
0.46311638 0.06256172 0.06256172
0.48072517 0.06256172 0.06256172
0.49859683 0.06256172 0.06256172
0.06256172 0.06256172 0.06256172
0.06256172 0.06256172 0.06256172
0.06256172 0.06256172 0.06256172
0.06872178 0.06256172 0.06256172
0.10427881 0.06256172 0.06256172
0.12110142 0.06256172 0.06256172
0.13468282 0.06256172 0.06256172
0.14690516 0.06256172 0.06256172
0.15847574 0.06256172 0.06256172
0.16974933 0.06256172 0.06256172
0.18093368 0.06256172 0.06256172
0.19216282 0.06256172 0.06256172
0.20352911 0.06256172 0.06256172
0.21509905 0.06256172 0.06256172
0.22692190 0.06256172 0.06256172
0.23903477 0.06256172 0.06256172
0.25146566 0.06256172 0.06256172
0.26423554 0.06256172 0.06256172
0.27735968 0.06256172 0.06256172
0.29084862 0.06256172 0.06256172
0.30470889 0.06256172 0.06256172
0.31894351 0.06256172 0.06256172
0.33355246 0.06256172 0.06256172
0.34853298 0.06256172 0.06256172
0.36387988 0.06256172 0.06256172
0.37958580 0.06256172 0.06256172
0.39564141 0.06256172 0.06256172
0.41203561 0.06256172 0.06256172
0.42875576 0.06256172 0.06256172
0.44578778 0.06256172 0.06256172
0.46311638 0.06256172 0.06256172
0.48072517 0.06256172 0.06256172
0.49859683 0.06256172 0.06256172
0.06256172 0.06872178 0.06256172
0.06256172 0.06872178 0.06256172
0.06256172 0.06872178 0.06256172
0.06872178 0.06872178 0.06256172
0.10427881 0.06872178 0.06256172
0.12110142 0.06872178 0.06256172
0.13468282 0.06872178 0.06256172
0.14690516 0.06872178 0.06256172
0.15847574 0.06872178 0.06256172
0.16974933 0.06872178 0.06256172
0.18093368 0.06872178 0.06256172
0.19216282 0.06872178 0.06256172
0.20352911 0.06872178 0.06256172
0.21509905 0.06872178 0.06256172
0.22692190 0.06872178 0.06256172
0.23903477 0.06872178 0.06256172
0.25146566 0.06872178 0.06256172
0.26423554 0.06872178 0.06256172
0.27735968 0.06872178 0.06256172
0.29084862 0.06872178 0.06256172
0.30470889 0.06872178 0.06256172
0.31894351 0.06872178 0.06256172
0.33355246 0.06872178 0.06256172
0.34853298 0.06872178 0.06256172
0.36387988 0.06872178 0.06256172
0.37958580 0.06872178 0.06256172
0.39564141 0.06872178 0.06256172
0.41203561 0.06872178 0.06256172
0.42875576 0.06872178 0.06256172
0.44578778 0.06872178 0.06256172
0.46311638 0.06872178 0.06256172
0.48072517 0.06872178 0.06256172
0.49859683 0.06872178 0.06256172
0.06256172 0.10427881 0.06256172
0.06256172 0.10427881 0.06256172
0.06256172 0.10427881 0.06256172
0.06872178 0.10427881 0.06256172
0.10427881 0.10427881 0.06256172
0.12110142 0.10427881 0.06256172
0.13468282 0.10427881 0.06256172
0.14690516 0.10427881 0.06256172
0.15847574 0.10427881 0.06256172
0.16974933 0.10427881 0.06256172
0.18093368 0.10427881 0.06256172
0.19216282 0.10427881 0.06256172
0.20352911 0.10427881 0.06256172
0.21509905 0.10427881 0.06256172
0.22692190 0.10427881 0.06256172
0.23903477 0.10427881 0.06256172
0.25146566 0.10427881 0.06256172
0.26423554 0.10427881 0.06256172
0.27735968 0.10427881 0.06256172
0.29084862 0.10427881 0.06256172
0.30470889 0.10427881 0.06256172
0.31894351 0.10427881 0.06256172
0.33355246 0.10427881 0.06256172
0.34853298 0.10427881 0.06256172
0.36387988 0.10427881 0.06256172
0.37958580 0.10427881 0.06256172
0.39564141 0.10427881 0.06256172
0.41203561 0.10427881 0.06256172
0.42875576 0.10427881 0.06256172
0.44578778 0.10427881 0.06256172
0.46311638 0.10427881 0.06256172
0.48072517 0.10427881 0.06256172
0.49859683 0.10427881 0.06256172
0.06256172 0.12110142 0.06256172
0.06256172 0.12110142 0.06256172
0.06256172 0.12110142 0.06256172
0.06872178 0.12110142 0.06256172
0.10427881 0.12110142 0.06256172
0.12110142 0.12110142 0.06256172
0.13468282 0.12110142 0.06256172
0.14690516 0.12110142 0.06256172
0.15847574 0.12110142 0.06256172
0.16974933 0.12110142 0.06256172
0.18093368 0.12110142 0.06256172
0.19216282 0.12110142 0.06256172
0.20352911 0.12110142 0.06256172
0.21509905 0.12110142 0.06256172
0.22692190 0.12110142 0.06256172
0.23903477 0.12110142 0.06256172
0.25146566 0.12110142 0.06256172
0.26423554 0.12110142 0.06256172
0.27735968 0.12110142 0.06256172
0.29084862 0.12110142 0.06256172
0.30470889 0.12110142 0.06256172
0.31894351 0.12110142 0.06256172
0.33355246 0.12110142 0.06256172
0.34853298 0.12110142 0.06256172
0.36387988 0.12110142 0.06256172
0.37958580 0.12110142 0.06256172
0.39564141 0.12110142 0.06256172
0.41203561 0.12110142 0.06256172
0.42875576 0.12110142 0.06256172
0.44578778 0.12110142 0.06256172
0.46311638 0.12110142 0.06256172
0.48072517 0.12110142 0.06256172
0.49859683 0.12110142 0.06256172
0.06256172 0.13468282 0.06256172
0.06256172 0.13468282 0.06256172
0.06256172 0.13468282 0.06256172
0.06872178 0.13468282 0.06256172
0.10427881 0.13468282 0.06256172
0.12110142 0.13468282 0.06256172
0.13468282 0.13468282 0.06256172
0.14690516 0.13468282 0.06256172
0.15847574 0.13468282 0.06256172
0.16974933 0.13468282 0.06256172
0.18093368 0.13468282 0.06256172
0.19216282 0.13468282 0.06256172
0.20352911 0.13468282 0.06256172
0.21509905 0.13468282 0.06256172
0.22692190 0.13468282 0.06256172
0.23903477 0.13468282 0.06256172
0.25146566 0.13468282 0.06256172
0.26423554 0.13468282 0.06256172
0.27735968 0.13468282 0.06256172
0.29084862 0.13468282 0.06256172
0.30470889 0.13468282 0.06256172
0.31894351 0.13468282 0.06256172
0.33355246 0.13468282 0.06256172
0.34853298 0.13468282 0.06256172
0.36387988 0.13468282 0.06256172
0.37958580 0.13468282 0.06256172
0.39564141 0.13468282 0.06256172
0.41203561 0.13468282 0.06256172
0.42875576 0.13468282 0.06256172
0.44578778 0.13468282 0.06256172
0.46311638 0.13468282 0.06256172
0.48072517 0.13468282 0.06256172
0.49859683 0.13468282 0.06256172
0.06256172 0.14690516 0.06256172
0.06256172 0.14690516 0.06256172
0.06256172 0.14690516 0.06256172
0.06872178 0.14690516 0.06256172
0.10427881 0.14690516 0.06256172
0.12110142 0.14690516 0.06256172
0.13468282 0.14690516 0.06256172
0.14690516 0.14690516 0.06256172
0.15847574 0.14690516 0.06256172
0.16974933 0.14690516 0.06256172
0.18093368 0.14690516 0.06256172
0.19216282 0.14690516 0.06256172
0.20352911 0.14690516 0.06256172
0.21509905 0.14690516 0.06256172
0.22692190 0.14690516 0.06256172
0.23903477 0.14690516 0.06256172
0.25146566 0.14690516 0.06256172
0.26423554 0.14690516 0.06256172
0.27735968 0.14690516 0.06256172
0.29084862 0.14690516 0.06256172
0.30470889 0.14690516 0.06256172
0.31894351 0.14690516 0.06256172
0.33355246 0.14690516 0.06256172
0.34853298 0.14690516 0.06256172
0.36387988 0.14690516 0.06256172
0.37958580 0.14690516 0.06256172
0.39564141 0.14690516 0.06256172
0.41203561 0.14690516 0.06256172
0.42875576 0.14690516 0.06256172
0.44578778 0.14690516 0.06256172
0.46311638 0.14690516 0.06256172
0.48072517 0.14690516 0.06256172
0.49859683 0.14690516 0.06256172
0.06256172 0.15847574 0.06256172
0.06256172 0.15847574 0.06256172
0.06256172 0.15847574 0.06256172
0.06872178 0.15847574 0.06256172
0.10427881 0.15847574 0.06256172
0.12110142 0.15847574 0.06256172
0.13468282 0.15847574 0.06256172
0.14690516 0.15847574 0.06256172
0.15847574 0.15847574 0.06256172
0.16974933 0.15847574 0.06256172
0.18093368 0.15847574 0.06256172
0.19216282 0.15847574 0.06256172
0.20352911 0.15847574 0.06256172
0.21509905 0.15847574 0.06256172
0.22692190 0.15847574 0.06256172
0.23903477 0.15847574 0.06256172
0.25146566 0.15847574 0.06256172
0.26423554 0.15847574 0.06256172
0.27735968 0.15847574 0.06256172
0.29084862 0.15847574 0.06256172
0.30470889 0.15847574 0.06256172
0.31894351 0.15847574 0.06256172
0.33355246 0.15847574 0.06256172
0.34853298 0.15847574 0.06256172
0.36387988 0.15847574 0.06256172
0.37958580 0.15847574 0.06256172
0.39564141 0.15847574 0.06256172
0.41203561 0.15847574 0.06256172
0.42875576 0.15847574 0.06256172
0.44578778 0.15847574 0.06256172
0.46311638 0.15847574 0.06256172
0.48072517 0.15847574 0.06256172
0.49859683 0.15847574 0.06256172
0.06256172 0.16974933 0.06256172
0.06256172 0.16974933 0.06256172
0.06256172 0.16974933 0.06256172
0.06872178 0.16974933 0.06256172
0.10427881 0.16974933 0.06256172
0.12110142 0.16974933 0.06256172
0.13468282 0.16974933 0.06256172
0.14690516 0.16974933 0.06256172
0.15847574 0.16974933 0.06256172
0.16974933 0.16974933 0.06256172
0.18093368 0.16974933 0.06256172
0.19216282 0.16974933 0.06256172
0.20352911 0.16974933 0.06256172
0.21509905 0.16974933 0.06256172
0.22692190 0.16974933 0.06256172
0.23903477 0.16974933 0.06256172
0.25146566 0.16974933 0.06256172
0.26423554 0.16974933 0.06256172
0.27735968 0.16974933 0.06256172
0.29084862 0.16974933 0.06256172
0.30470889 0.16974933 0.06256172
0.31894351 0.16974933 0.06256172
0.33355246 0.16974933 0.06256172
0.34853298 0.16974933 0.06256172
0.36387988 0.16974933 0.06256172
0.37958580 0.16974933 0.06256172
0.39564141 0.16974933 0.06256172
0.41203561 0.16974933 0.06256172
0.42875576 0.16974933 0.06256172
0.44578778 0.16974933 0.06256172
0.46311638 0.16974933 0.06256172
0.48072517 0.16974933 0.06256172
0.49859683 0.16974933 0.06256172
0.06256172 0.18093368 0.06256172
0.06256172 0.18093368 0.06256172
0.06256172 0.18093368 0.06256172
0.06872178 0.18093368 0.06256172
0.10427881 0.18093368 0.06256172
0.12110142 0.18093368 0.06256172
0.13468282 0.18093368 0.06256172
0.14690516 0.18093368 0.06256172
0.15847574 0.18093368 0.06256172
0.16974933 0.18093368 0.06256172
0.18093368 0.18093368 0.06256172
0.19216282 0.18093368 0.06256172
0.20352911 0.18093368 0.06256172
0.21509905 0.18093368 0.06256172
0.22692190 0.18093368 0.06256172
0.23903477 0.18093368 0.06256172
0.25146566 0.18093368 0.06256172
0.26423554 0.18093368 0.06256172
0.27735968 0.18093368 0.06256172
0.29084862 0.18093368 0.06256172
0.30470889 0.18093368 0.06256172
0.31894351 0.18093368 0.06256172
0.33355246 0.18093368 0.06256172
0.34853298 0.18093368 0.06256172
0.36387988 0.18093368 0.06256172
0.37958580 0.18093368 0.06256172
0.39564141 0.18093368 0.06256172
0.41203561 0.18093368 0.06256172
0.42875576 0.18093368 0.06256172
0.44578778 0.18093368 0.06256172
0.46311638 0.18093368 0.06256172
0.48072517 0.18093368 0.06256172
0.49859683 0.18093368 0.06256172
0.06256172 0.19216282 0.06256172
0.06256172 0.19216282 0.06256172
0.06256172 0.19216282 0.06256172
0.06872178 0.19216282 0.06256172
0.10427881 0.19216282 0.06256172
0.12110142 0.19216282 0.06256172
0.13468282 0.19216282 0.06256172
0.14690516 0.19216282 0.06256172
0.15847574 0.19216282 0.06256172
0.16974933 0.19216282 0.06256172
0.18093368 0.19216282 0.06256172
0.19216282 0.19216282 0.06256172
0.20352911 0.19216282 0.06256172
0.21509905 0.19216282 0.06256172
0.22692190 0.19216282 0.06256172
0.23903477 0.19216282 0.06256172
0.25146566 0.19216282 0.06256172
0.26423554 0.19216282 0.06256172
0.27735968 0.19216282 0.06256172
0.29084862 0.19216282 0.06256172
0.30470889 0.19216282 0.06256172
0.31894351 0.19216282 0.06256172
0.33355246 0.19216282 0.06256172
0.34853298 0.19216282 0.06256172
0.36387988 0.19216282 0.06256172
0.37958580 0.19216282 0.06256172
0.39564141 0.19216282 0.06256172
0.41203561 0.19216282 0.06256172
0.42875576 0.19216282 0.06256172
0.44578778 0.19216282 0.06256172
0.46311638 0.19216282 0.06256172
0.48072517 0.19216282 0.06256172
0.49859683 0.19216282 0.06256172
0.06256172 0.20352911 0.06256172
0.06256172 0.20352911 0.06256172
0.06256172 0.20352911 0.06256172
0.06872178 0.20352911 0.06256172
0.10427881 0.20352911 0.06256172
0.12110142 0.20352911 0.06256172
0.13468282 0.20352911 0.06256172
0.14690516 0.20352911 0.06256172
0.15847574 0.20352911 0.06256172
0.16974933 0.20352911 0.06256172
0.18093368 0.20352911 0.06256172
0.19216282 0.20352911 0.06256172
0.20352911 0.20352911 0.06256172
0.21509905 0.20352911 0.06256172
0.22692190 0.20352911 0.06256172
0.23903477 0.20352911 0.06256172
0.25146566 0.20352911 0.06256172
0.26423554 0.20352911 0.06256172
0.27735968 0.20352911 0.06256172
0.29084862 0.20352911 0.06256172
0.30470889 0.20352911 0.06256172
0.31894351 0.20352911 0.06256172
0.33355246 0.20352911 0.06256172
0.34853298 0.20352911 0.06256172
0.36387988 0.20352911 0.06256172
0.37958580 0.20352911 0.06256172
0.39564141 0.20352911 0.06256172
0.41203561 0.20352911 0.06256172
0.42875576 0.20352911 0.06256172
0.44578778 0.20352911 0.06256172
0.46311638 0.20352911 0.06256172
0.48072517 0.20352911 0.06256172
0.49859683 0.20352911 0.06256172
0.06256172 0.21509905 0.06256172
0.06256172 0.21509905 0.06256172
0.06256172 0.21509905 0.06256172
0.06872178 0.21509905 0.06256172
0.10427881 0.21509905 0.06256172
0.12110142 0.21509905 0.06256172
0.13468282 0.21509905 0.06256172
0.14690516 0.21509905 0.06256172
0.15847574 0.21509905 0.06256172
0.16974933 0.21509905 0.06256172
0.18093368 0.21509905 0.06256172
0.19216282 0.21509905 0.06256172
0.20352911 0.21509905 0.06256172
0.21509905 0.21509905 0.06256172
0.22692190 0.21509905 0.06256172
0.23903477 0.21509905 0.06256172
0.25146566 0.21509905 0.06256172
0.26423554 0.21509905 0.06256172
0.27735968 0.21509905 0.06256172
0.29084862 0.21509905 0.06256172
0.30470889 0.21509905 0.06256172
0.31894351 0.21509905 0.06256172
0.33355246 0.21509905 0.06256172
0.34853298 0.21509905 0.06256172
0.36387988 0.21509905 0.06256172
0.37958580 0.21509905 0.06256172
0.39564141 0.21509905 0.06256172
0.41203561 0.21509905 0.06256172
0.42875576 0.21509905 0.06256172
0.44578778 0.21509905 0.06256172
0.46311638 0.21509905 0.06256172
0.48072517 0.21509905 0.06256172
0.49859683 0.21509905 0.06256172
0.06256172 0.22692190 0.06256172
0.06256172 0.22692190 0.06256172
0.06256172 0.22692190 0.06256172
0.06872178 0.22692190 0.06256172
0.10427881 0.22692190 0.06256172
0.12110142 0.22692190 0.06256172
0.13468282 0.22692190 0.06256172
0.14690516 0.22692190 0.06256172
0.15847574 0.22692190 0.06256172
0.16974933 0.22692190 0.06256172
0.18093368 0.22692190 0.06256172
0.19216282 0.22692190 0.06256172
0.20352911 0.22692190 0.06256172
0.21509905 0.22692190 0.06256172
0.22692190 0.22692190 0.06256172
0.23903477 0.22692190 0.06256172
0.25146566 0.22692190 0.06256172
0.26423554 0.22692190 0.06256172
0.27735968 0.22692190 0.06256172
0.29084862 0.22692190 0.06256172
0.30470889 0.22692190 0.06256172
0.31894351 0.22692190 0.06256172
0.33355246 0.22692190 0.06256172
0.34853298 0.22692190 0.06256172
0.36387988 0.22692190 0.06256172
0.37958580 0.22692190 0.06256172
0.39564141 0.22692190 0.06256172
0.41203561 0.22692190 0.06256172
0.42875576 0.22692190 0.06256172
0.44578778 0.22692190 0.06256172
0.46311638 0.22692190 0.06256172
0.48072517 0.22692190 0.06256172
0.49859683 0.22692190 0.06256172
0.06256172 0.23903477 0.06256172
0.06256172 0.23903477 0.06256172
0.06256172 0.23903477 0.06256172
0.06872178 0.23903477 0.06256172
0.10427881 0.23903477 0.06256172
0.12110142 0.23903477 0.06256172
0.13468282 0.23903477 0.06256172
0.14690516 0.23903477 0.06256172
0.15847574 0.23903477 0.06256172
0.16974933 0.23903477 0.06256172
0.18093368 0.23903477 0.06256172
0.19216282 0.23903477 0.06256172
0.20352911 0.23903477 0.06256172
0.21509905 0.23903477 0.06256172
0.22692190 0.23903477 0.06256172
0.23903477 0.23903477 0.06256172
0.25146566 0.23903477 0.06256172
0.26423554 0.23903477 0.06256172
0.27735968 0.23903477 0.06256172
0.29084862 0.23903477 0.06256172
0.30470889 0.23903477 0.06256172
0.31894351 0.23903477 0.06256172
0.33355246 0.23903477 0.06256172
0.34853298 0.23903477 0.06256172
0.36387988 0.23903477 0.06256172
0.37958580 0.23903477 0.06256172
0.39564141 0.23903477 0.06256172
0.41203561 0.23903477 0.06256172
0.42875576 0.23903477 0.06256172
0.44578778 0.23903477 0.06256172
0.46311638 0.23903477 0.06256172
0.48072517 0.23903477 0.06256172
0.49859683 0.23903477 0.06256172
0.06256172 0.25146566 0.06256172
0.06256172 0.25146566 0.06256172
0.06256172 0.25146566 0.06256172
0.06872178 0.25146566 0.06256172
0.10427881 0.25146566 0.06256172
0.12110142 0.25146566 0.06256172
0.13468282 0.25146566 0.06256172
0.14690516 0.25146566 0.06256172
0.15847574 0.25146566 0.06256172
0.16974933 0.25146566 0.06256172
0.18093368 0.25146566 0.06256172
0.19216282 0.25146566 0.06256172
0.20352911 0.25146566 0.06256172
0.21509905 0.25146566 0.06256172
0.22692190 0.25146566 0.06256172
0.23903477 0.25146566 0.06256172
0.25146566 0.25146566 0.06256172
0.26423554 0.25146566 0.06256172
0.27735968 0.25146566 0.06256172
0.29084862 0.25146566 0.06256172
0.30470889 0.25146566 0.06256172
0.31894351 0.25146566 0.06256172
0.33355246 0.25146566 0.06256172
0.34853298 0.25146566 0.06256172
0.36387988 0.25146566 0.06256172
0.37958580 0.25146566 0.06256172
0.39564141 0.25146566 0.06256172
0.41203561 0.25146566 0.06256172
0.42875576 0.25146566 0.06256172
0.44578778 0.25146566 0.06256172
0.46311638 0.25146566 0.06256172
0.48072517 0.25146566 0.06256172
0.49859683 0.25146566 0.06256172
0.06256172 0.26423554 0.06256172
0.06256172 0.26423554 0.06256172
0.06256172 0.26423554 0.06256172
0.06872178 0.26423554 0.06256172
0.10427881 0.26423554 0.06256172
0.12110142 0.26423554 0.06256172
0.13468282 0.26423554 0.06256172
0.14690516 0.26423554 0.06256172
0.15847574 0.26423554 0.06256172
0.16974933 0.26423554 0.06256172
0.18093368 0.26423554 0.06256172
0.19216282 0.26423554 0.06256172
0.20352911 0.26423554 0.06256172
0.21509905 0.26423554 0.06256172
0.22692190 0.26423554 0.06256172
0.23903477 0.26423554 0.06256172
0.25146566 0.26423554 0.06256172
0.26423554 0.26423554 0.06256172
0.27735968 0.26423554 0.06256172
0.29084862 0.26423554 0.06256172
0.30470889 0.26423554 0.06256172
0.31894351 0.26423554 0.06256172
0.33355246 0.26423554 0.06256172
0.34853298 0.26423554 0.06256172
0.36387988 0.26423554 0.06256172
0.37958580 0.26423554 0.06256172
0.39564141 0.26423554 0.06256172
0.41203561 0.26423554 0.06256172
0.42875576 0.26423554 0.06256172
0.44578778 0.26423554 0.06256172
0.46311638 0.26423554 0.06256172
0.48072517 0.26423554 0.06256172
0.49859683 0.26423554 0.06256172
0.06256172 0.27735968 0.06256172
0.06256172 0.27735968 0.06256172
0.06256172 0.27735968 0.06256172
0.06872178 0.27735968 0.06256172
0.10427881 0.27735968 0.06256172
0.12110142 0.27735968 0.06256172
0.13468282 0.27735968 0.06256172
0.14690516 0.27735968 0.06256172
0.15847574 0.27735968 0.06256172
0.16974933 0.27735968 0.06256172
0.18093368 0.27735968 0.06256172
0.19216282 0.27735968 0.06256172
0.20352911 0.27735968 0.06256172
0.21509905 0.27735968 0.06256172
0.22692190 0.27735968 0.06256172
0.23903477 0.27735968 0.06256172
0.25146566 0.27735968 0.06256172
0.26423554 0.27735968 0.06256172
0.27735968 0.27735968 0.06256172
0.29084862 0.27735968 0.06256172
0.30470889 0.27735968 0.06256172
0.31894351 0.27735968 0.06256172
0.33355246 0.27735968 0.06256172
0.34853298 0.27735968 0.06256172
0.36387988 0.27735968 0.06256172
0.37958580 0.27735968 0.06256172
0.39564141 0.27735968 0.06256172
0.41203561 0.27735968 0.06256172
0.42875576 0.27735968 0.06256172
0.44578778 0.27735968 0.06256172
0.46311638 0.27735968 0.06256172
0.48072517 0.27735968 0.06256172
0.49859683 0.27735968 0.06256172
0.06256172 0.29084862 0.06256172
0.06256172 0.29084862 0.06256172
0.06256172 0.29084862 0.06256172
0.06872178 0.29084862 0.06256172
0.10427881 0.29084862 0.06256172
0.12110142 0.29084862 0.06256172
0.13468282 0.29084862 0.06256172
0.14690516 0.29084862 0.06256172
0.15847574 0.29084862 0.06256172
0.16974933 0.29084862 0.06256172
0.18093368 0.29084862 0.06256172
0.19216282 0.29084862 0.06256172
0.20352911 0.29084862 0.06256172
0.21509905 0.29084862 0.06256172
0.22692190 0.29084862 0.06256172
0.23903477 0.29084862 0.06256172
0.25146566 0.29084862 0.06256172
0.26423554 0.29084862 0.06256172
0.27735968 0.29084862 0.06256172
0.29084862 0.29084862 0.06256172
0.30470889 0.29084862 0.06256172
0.31894351 0.29084862 0.06256172
0.33355246 0.29084862 0.06256172
0.34853298 0.29084862 0.06256172
0.36387988 0.29084862 0.06256172
0.37958580 0.29084862 0.06256172
0.39564141 0.29084862 0.06256172
0.41203561 0.29084862 0.06256172
0.42875576 0.29084862 0.06256172
0.44578778 0.29084862 0.06256172
0.46311638 0.29084862 0.06256172
0.48072517 0.29084862 0.06256172
0.49859683 0.29084862 0.06256172
0.06256172 0.30470889 0.06256172
0.06256172 0.30470889 0.06256172
0.06256172 0.30470889 0.06256172
0.06872178 0.30470889 0.06256172
0.10427881 0.30470889 0.06256172
0.12110142 0.30470889 0.06256172
0.13468282 0.30470889 0.06256172
0.14690516 0.30470889 0.06256172
0.15847574 0.30470889 0.06256172
0.16974933 0.30470889 0.06256172
0.18093368 0.30470889 0.06256172
0.19216282 0.30470889 0.06256172
0.20352911 0.30470889 0.06256172
0.21509905 0.30470889 0.06256172
0.22692190 0.30470889 0.06256172
0.23903477 0.30470889 0.06256172
0.25146566 0.30470889 0.06256172
0.26423554 0.30470889 0.06256172
0.27735968 0.30470889 0.06256172
0.29084862 0.30470889 0.06256172
0.30470889 0.30470889 0.06256172
0.31894351 0.30470889 0.06256172
0.33355246 0.30470889 0.06256172
0.34853298 0.30470889 0.06256172
0.36387988 0.30470889 0.06256172
0.37958580 0.30470889 0.06256172
0.39564141 0.30470889 0.06256172
0.41203561 0.30470889 0.06256172
0.42875576 0.30470889 0.06256172
0.44578778 0.30470889 0.06256172
0.46311638 0.30470889 0.06256172
0.48072517 0.30470889 0.06256172
0.49859683 0.30470889 0.06256172
0.06256172 0.31894351 0.06256172
0.06256172 0.31894351 0.06256172
0.06256172 0.31894351 0.06256172
0.06872178 0.31894351 0.06256172
0.10427881 0.31894351 0.06256172
0.12110142 0.31894351 0.06256172
0.13468282 0.31894351 0.06256172
0.14690516 0.31894351 0.06256172
0.15847574 0.31894351 0.06256172
0.16974933 0.31894351 0.06256172
0.18093368 0.31894351 0.06256172
0.19216282 0.31894351 0.06256172
0.20352911 0.31894351 0.06256172
0.21509905 0.31894351 0.06256172
0.22692190 0.31894351 0.06256172
0.23903477 0.31894351 0.06256172
0.25146566 0.31894351 0.06256172
0.26423554 0.31894351 0.06256172
0.27735968 0.31894351 0.06256172
0.29084862 0.31894351 0.06256172
0.30470889 0.31894351 0.06256172
0.31894351 0.31894351 0.06256172
0.33355246 0.31894351 0.06256172
0.34853298 0.31894351 0.06256172
0.36387988 0.31894351 0.06256172
0.37958580 0.31894351 0.06256172
0.39564141 0.31894351 0.06256172
