src/ffmpeg_scripts/luts/flog-experimental_0-Native.cube
TITLE "flog-experimental_0-Native"
LUT_3D_SIZE 33
# Fujifilm F-Log/Rec2020 -> PQ (EOTF Only)/Rec2020, CineEI Shift 0.00, Black Level 0.00% IRE, Input 109% -> Output 100% - Created with LUTCalc v4.01 by Ben Turley October 2020
0.00000073 0.00000073 0.00000073
0.00000073 0.00000073 0.00000073
0.00000073 0.00000073 0.00000073
0.02998249 0.00000073 0.00000073
0.15692154 0.00000073 0.00000073
0.20757426 0.00000073 0.00000073
0.24612893 0.00000073 0.00000073
0.27942795 0.00000073 0.00000073
0.30992926 0.00000073 0.00000073
0.33881990 0.00000073 0.00000073
0.36676886 0.00000073 0.00000073
0.39419055 0.00000073 0.00000073
0.42135798 0.00000073 0.00000073
0.44845835 0.00000073 0.00000073
0.47562316 0.00000073 0.00000073
0.50294570 0.00000073 0.00000073
0.53049188 0.00000073 0.00000073
0.55830733 0.00000073 0.00000073
0.58642217 0.00000073 0.00000073
0.61485437 0.00000073 0.00000073
0.64361225 0.00000073 0.00000073
0.67269635 0.00000073 0.00000073
0.70210086 0.00000073 0.00000073
0.73181477 0.00000073 0.00000073
0.76182282 0.00000073 0.00000073
0.79210628 0.00000073 0.00000073
0.82264356 0.00000073 0.00000073
0.85341081 0.00000073 0.00000073
0.88438235 0.00000073 0.00000073
0.91553112 0.00000073 0.00000073
0.94682904 0.00000073 0.00000073
0.97824728 0.00000073 0.00000073
1.00000000 0.00000073 0.00000073
0.00000073 0.00000073 0.00000073
0.00000073 0.00000073 0.00000073
0.00000073 0.00000073 0.00000073
0.02998249 0.00000073 0.00000073
0.15692154 0.00000073 0.00000073
0.20757426 0.00000073 0.00000073
0.24612893 0.00000073 0.00000073
0.27942795 0.00000073 0.00000073
0.30992926 0.00000073 0.00000073
0.33881990 0.00000073 0.00000073
0.36676886 0.00000073 0.00000073
0.39419055 0.00000073 0.00000073
0.42135798 0.00000073 0.00000073
0.44845835 0.00000073 0.00000073
0.47562316 0.00000073 0.00000073
0.50294570 0.00000073 0.00000073
0.53049188 0.00000073 0.00000073
0.55830733 0.00000073 0.00000073
0.58642217 0.00000073 0.00000073
0.61485437 0.00000073 0.00000073
0.64361225 0.00000073 0.00000073
0.67269635 0.00000073 0.00000073
0.70210086 0.00000073 0.00000073
0.73181477 0.00000073 0.00000073
0.76182282 0.00000073 0.00000073
0.79210628 0.00000073 0.00000073
0.82264356 0.00000073 0.00000073
0.85341081 0.00000073 0.00000073
0.88438235 0.00000073 0.00000073
0.91553112 0.00000073 0.00000073
0.94682904 0.00000073 0.00000073
0.97824728 0.00000073 0.00000073
1.00000000 0.00000073 0.00000073
0.00000073 0.00000073 0.00000073
0.00000073 0.00000073 0.00000073
0.00000073 0.00000073 0.00000073
0.02998249 0.00000073 0.00000073
0.15692154 0.00000073 0.00000073
0.20757426 0.00000073 0.00000073
0.24612893 0.00000073 0.00000073
0.27942795 0.00000073 0.00000073
0.30992926 0.00000073 0.00000073
0.33881990 0.00000073 0.00000073
0.36676886 0.00000073 0.00000073
0.39419055 0.00000073 0.00000073
0.42135798 0.00000073 0.00000073
0.44845835 0.00000073 0.00000073
0.47562316 0.00000073 0.00000073
0.50294570 0.00000073 0.00000073
0.53049188 0.00000073 0.00000073
0.55830733 0.00000073 0.00000073
0.58642217 0.00000073 0.00000073
0.61485437 0.00000073 0.00000073
0.64361225 0.00000073 0.00000073
0.67269635 0.00000073 0.00000073
0.70210086 0.00000073 0.00000073
0.73181477 0.00000073 0.00000073
0.76182282 0.00000073 0.00000073
0.79210628 0.00000073 0.00000073
0.82264356 0.00000073 0.00000073
0.85341081 0.00000073 0.00000073
0.88438235 0.00000073 0.00000073
0.91553112 0.00000073 0.00000073
0.94682904 0.00000073 0.00000073
0.97824728 0.00000073 0.00000073
1.00000000 0.00000073 0.00000073
0.00000073 0.02998249 0.00000073
0.00000073 0.02998249 0.00000073
0.00000073 0.02998249 0.00000073
0.02998249 0.02998249 0.00000073
0.15692154 0.02998249 0.00000073
0.20757426 0.02998249 0.00000073
0.24612893 0.02998249 0.00000073
0.27942795 0.02998249 0.00000073
0.30992926 0.02998249 0.00000073
0.33881990 0.02998249 0.00000073
0.36676886 0.02998249 0.00000073
0.39419055 0.02998249 0.00000073
0.42135798 0.02998249 0.00000073
0.44845835 0.02998249 0.00000073
0.47562316 0.02998249 0.00000073
0.50294570 0.02998249 0.00000073
0.53049188 0.02998249 0.00000073
0.55830733 0.02998249 0.00000073
0.58642217 0.02998249 0.00000073
0.61485437 0.02998249 0.00000073
0.64361225 0.02998249 0.00000073
0.67269635 0.02998249 0.00000073
0.70210086 0.02998249 0.00000073
0.73181477 0.02998249 0.00000073
0.76182282 0.02998249 0.00000073
0.79210628 0.02998249 0.00000073
0.82264356 0.02998249 0.00000073
0.85341081 0.02998249 0.00000073
0.88438235 0.02998249 0.00000073
0.91553112 0.02998249 0.00000073
0.94682904 0.02998249 0.00000073
0.97824728 0.02998249 0.00000073
1.00000000 0.02998249 0.00000073
0.00000073 0.15692154 0.00000073
0.00000073 0.15692154 0.00000073
0.00000073 0.15692154 0.00000073
0.02998249 0.15692154 0.00000073
0.15692154 0.15692154 0.00000073
0.20757426 0.15692154 0.00000073
0.24612893 0.15692154 0.00000073
0.27942795 0.15692154 0.00000073
0.30992926 0.15692154 0.00000073
0.33881990 0.15692154 0.00000073
0.36676886 0.15692154 0.00000073
0.39419055 0.15692154 0.00000073
0.42135798 0.15692154 0.00000073
0.44845835 0.15692154 0.00000073
0.47562316 0.15692154 0.00000073
0.50294570 0.15692154 0.00000073
0.53049188 0.15692154 0.00000073
0.55830733 0.15692154 0.00000073
0.58642217 0.15692154 0.00000073
0.61485437 0.15692154 0.00000073
0.64361225 0.15692154 0.00000073
0.67269635 0.15692154 0.00000073
0.70210086 0.15692154 0.00000073
0.73181477 0.15692154 0.00000073
0.76182282 0.15692154 0.00000073
0.79210628 0.15692154 0.00000073
0.82264356 0.15692154 0.00000073
0.85341081 0.15692154 0.00000073
0.88438235 0.15692154 0.00000073
0.91553112 0.15692154 0.00000073
0.94682904 0.15692154 0.00000073
0.97824728 0.15692154 0.00000073
1.00000000 0.15692154 0.00000073
0.00000073 0.20757426 0.00000073
0.00000073 0.20757426 0.00000073
0.00000073 0.20757426 0.00000073
0.02998249 0.20757426 0.00000073
0.15692154 0.20757426 0.00000073
0.20757426 0.20757426 0.00000073
0.24612893 0.20757426 0.00000073
0.27942795 0.20757426 0.00000073
0.30992926 0.20757426 0.00000073
0.33881990 0.20757426 0.00000073
0.36676886 0.20757426 0.00000073
0.39419055 0.20757426 0.00000073
0.42135798 0.20757426 0.00000073
0.44845835 0.20757426 0.00000073
0.47562316 0.20757426 0.00000073
0.50294570 0.20757426 0.00000073
0.53049188 0.20757426 0.00000073
0.55830733 0.20757426 0.00000073
0.58642217 0.20757426 0.00000073
0.61485437 0.20757426 0.00000073
0.64361225 0.20757426 0.00000073
0.67269635 0.20757426 0.00000073
0.70210086 0.20757426 0.00000073
0.73181477 0.20757426 0.00000073
0.76182282 0.20757426 0.00000073
0.79210628 0.20757426 0.00000073
0.82264356 0.20757426 0.00000073
0.85341081 0.20757426 0.00000073
0.88438235 0.20757426 0.00000073
0.91553112 0.20757426 0.00000073
0.94682904 0.20757426 0.00000073
0.97824728 0.20757426 0.00000073
1.00000000 0.20757426 0.00000073
0.00000073 0.24612893 0.00000073
0.00000073 0.24612893 0.00000073
0.00000073 0.24612893 0.00000073
0.02998249 0.24612893 0.00000073
0.15692154 0.24612893 0.00000073
0.20757426 0.24612893 0.00000073
0.24612893 0.24612893 0.00000073
0.27942795 0.24612893 0.00000073
0.30992926 0.24612893 0.00000073
0.33881990 0.24612893 0.00000073
0.36676886 0.24612893 0.00000073
0.39419055 0.24612893 0.00000073
0.42135798 0.24612893 0.00000073
0.44845835 0.24612893 0.00000073
0.47562316 0.24612893 0.00000073
0.50294570 0.24612893 0.00000073
0.53049188 0.24612893 0.00000073
0.55830733 0.24612893 0.00000073
0.58642217 0.24612893 0.00000073
0.61485437 0.24612893 0.00000073
0.64361225 0.24612893 0.00000073
0.67269635 0.24612893 0.00000073
0.70210086 0.24612893 0.00000073
0.73181477 0.24612893 0.00000073
0.76182282 0.24612893 0.00000073
0.79210628 0.24612893 0.00000073
0.82264356 0.24612893 0.00000073
0.85341081 0.24612893 0.00000073
0.88438235 0.24612893 0.00000073
0.91553112 0.24612893 0.00000073
0.94682904 0.24612893 0.00000073
0.97824728 0.24612893 0.00000073
1.00000000 0.24612893 0.00000073
0.00000073 0.27942795 0.00000073
0.00000073 0.27942795 0.00000073
0.00000073 0.27942795 0.00000073
0.02998249 0.27942795 0.00000073
0.15692154 0.27942795 0.00000073
0.20757426 0.27942795 0.00000073
0.24612893 0.27942795 0.00000073
0.27942795 0.27942795 0.00000073
0.30992926 0.27942795 0.00000073
0.33881990 0.27942795 0.00000073
0.36676886 0.27942795 0.00000073
0.39419055 0.27942795 0.00000073
0.42135798 0.27942795 0.00000073
0.44845835 0.27942795 0.00000073
0.47562316 0.27942795 0.00000073
0.50294570 0.27942795 0.00000073
0.53049188 0.27942795 0.00000073
0.55830733 0.27942795 0.00000073
0.58642217 0.27942795 0.00000073
0.61485437 0.27942795 0.00000073
0.64361225 0.27942795 0.00000073
0.67269635 0.27942795 0.00000073
0.70210086 0.27942795 0.00000073
0.73181477 0.27942795 0.00000073
0.76182282 0.27942795 0.00000073
0.79210628 0.27942795 0.00000073
0.82264356 0.27942795 0.00000073
0.85341081 0.27942795 0.00000073
0.88438235 0.27942795 0.00000073
0.91553112 0.27942795 0.00000073
0.94682904 0.27942795 0.00000073
0.97824728 0.27942795 0.00000073
1.00000000 0.27942795 0.00000073
0.00000073 0.30992926 0.00000073
0.00000073 0.30992926 0.00000073
0.00000073 0.30992926 0.00000073
0.02998249 0.30992926 0.00000073
0.15692154 0.30992926 0.00000073
0.20757426 0.30992926 0.00000073
0.24612893 0.30992926 0.00000073
0.27942795 0.30992926 0.00000073
0.30992926 0.30992926 0.00000073
0.33881990 0.30992926 0.00000073
0.36676886 0.30992926 0.00000073
0.39419055 0.30992926 0.00000073
0.42135798 0.30992926 0.00000073
0.44845835 0.30992926 0.00000073
0.47562316 0.30992926 0.00000073
0.50294570 0.30992926 0.00000073
0.53049188 0.30992926 0.00000073
0.55830733 0.30992926 0.00000073
0.58642217 0.30992926 0.00000073
0.61485437 0.30992926 0.00000073
0.64361225 0.30992926 0.00000073
0.67269635 0.30992926 0.00000073
0.70210086 0.30992926 0.00000073
0.73181477 0.30992926 0.00000073
0.76182282 0.30992926 0.00000073
0.79210628 0.30992926 0.00000073
0.82264356 0.30992926 0.00000073
0.85341081 0.30992926 0.00000073
0.88438235 0.30992926 0.00000073
0.91553112 0.30992926 0.00000073
0.94682904 0.30992926 0.00000073
0.97824728 0.30992926 0.00000073
1.00000000 0.30992926 0.00000073
0.00000073 0.33881990 0.00000073
0.00000073 0.33881990 0.00000073
0.00000073 0.33881990 0.00000073
0.02998249 0.33881990 0.00000073
0.15692154 0.33881990 0.00000073
0.20757426 0.33881990 0.00000073
0.24612893 0.33881990 0.00000073
0.27942795 0.33881990 0.00000073
0.30992926 0.33881990 0.00000073
0.33881990 0.33881990 0.00000073
0.36676886 0.33881990 0.00000073
0.39419055 0.33881990 0.00000073
0.42135798 0.33881990 0.00000073
0.44845835 0.33881990 0.00000073
0.47562316 0.33881990 0.00000073
0.50294570 0.33881990 0.00000073
0.53049188 0.33881990 0.00000073
0.55830733 0.33881990 0.00000073
0.58642217 0.33881990 0.00000073
0.61485437 0.33881990 0.00000073
0.64361225 0.33881990 0.00000073
0.67269635 0.33881990 0.00000073
0.70210086 0.33881990 0.00000073
0.73181477 0.33881990 0.00000073
0.76182282 0.33881990 0.00000073
0.79210628 0.33881990 0.00000073
0.82264356 0.33881990 0.00000073
0.85341081 0.33881990 0.00000073
0.88438235 0.33881990 0.00000073
0.91553112 0.33881990 0.00000073
0.94682904 0.33881990 0.00000073
0.97824728 0.33881990 0.00000073
1.00000000 0.33881990 0.00000073
0.00000073 0.36676886 0.00000073
0.00000073 0.36676886 0.00000073
0.00000073 0.36676886 0.00000073
0.02998249 0.36676886 0.00000073
0.15692154 0.36676886 0.00000073
0.20757426 0.36676886 0.00000073
0.24612893 0.36676886 0.00000073
0.27942795 0.36676886 0.00000073
0.30992926 0.36676886 0.00000073
0.33881990 0.36676886 0.00000073
0.36676886 0.36676886 0.00000073
0.39419055 0.36676886 0.00000073
0.42135798 0.36676886 0.00000073
0.44845835 0.36676886 0.00000073
0.47562316 0.36676886 0.00000073
0.50294570 0.36676886 0.00000073
0.53049188 0.36676886 0.00000073
0.55830733 0.36676886 0.00000073
0.58642217 0.36676886 0.00000073
0.61485437 0.36676886 0.00000073
0.64361225 0.36676886 0.00000073
0.67269635 0.36676886 0.00000073
0.70210086 0.36676886 0.00000073
0.73181477 0.36676886 0.00000073
0.76182282 0.36676886 0.00000073
0.79210628 0.36676886 0.00000073
0.82264356 0.36676886 0.00000073
0.85341081 0.36676886 0.00000073
0.88438235 0.36676886 0.00000073
0.91553112 0.36676886 0.00000073
0.94682904 0.36676886 0.00000073
0.97824728 0.36676886 0.00000073
1.00000000 0.36676886 0.00000073
0.00000073 0.39419055 0.00000073
0.00000073 0.39419055 0.00000073
0.00000073 0.39419055 0.00000073
0.02998249 0.39419055 0.00000073
0.15692154 0.39419055 0.00000073
0.20757426 0.39419055 0.00000073
0.24612893 0.39419055 0.00000073
0.27942795 0.39419055 0.00000073
0.30992926 0.39419055 0.00000073
0.33881990 0.39419055 0.00000073
0.36676886 0.39419055 0.00000073
0.39419055 0.39419055 0.00000073
0.42135798 0.39419055 0.00000073
0.44845835 0.39419055 0.00000073
0.47562316 0.39419055 0.00000073
0.50294570 0.39419055 0.00000073
0.53049188 0.39419055 0.00000073
0.55830733 0.39419055 0.00000073
0.58642217 0.39419055 0.00000073
0.61485437 0.39419055 0.00000073
0.64361225 0.39419055 0.00000073
0.67269635 0.39419055 0.00000073
0.70210086 0.39419055 0.00000073
0.73181477 0.39419055 0.00000073
0.76182282 0.39419055 0.00000073
0.79210628 0.39419055 0.00000073
0.82264356 0.39419055 0.00000073
0.85341081 0.39419055 0.00000073
0.88438235 0.39419055 0.00000073
0.91553112 0.39419055 0.00000073
0.94682904 0.39419055 0.00000073
0.97824728 0.39419055 0.00000073
1.00000000 0.39419055 0.00000073
0.00000073 0.42135798 0.00000073
0.00000073 0.42135798 0.00000073
0.00000073 0.42135798 0.00000073
0.02998249 0.42135798 0.00000073
0.15692154 0.42135798 0.00000073
0.20757426 0.42135798 0.00000073
0.24612893 0.42135798 0.00000073
0.27942795 0.42135798 0.00000073
0.30992926 0.42135798 0.00000073
0.33881990 0.42135798 0.00000073
0.36676886 0.42135798 0.00000073
0.39419055 0.42135798 0.00000073
0.42135798 0.42135798 0.00000073
0.44845835 0.42135798 0.00000073
0.47562316 0.42135798 0.00000073
0.50294570 0.42135798 0.00000073
0.53049188 0.42135798 0.00000073
0.55830733 0.42135798 0.00000073
0.58642217 0.42135798 0.00000073
0.61485437 0.42135798 0.00000073
0.64361225 0.42135798 0.00000073
0.67269635 0.42135798 0.00000073
0.70210086 0.42135798 0.00000073
0.73181477 0.42135798 0.00000073
0.76182282 0.42135798 0.00000073
0.79210628 0.42135798 0.00000073
0.82264356 0.42135798 0.00000073
0.85341081 0.42135798 0.00000073
0.88438235 0.42135798 0.00000073
0.91553112 0.42135798 0.00000073
0.94682904 0.42135798 0.00000073
0.97824728 0.42135798 0.00000073
1.00000000 0.42135798 0.00000073
0.00000073 0.44845835 0.00000073
0.00000073 0.44845835 0.00000073
0.00000073 0.44845835 0.00000073
0.02998249 0.44845835 0.00000073
0.15692154 0.44845835 0.00000073
0.20757426 0.44845835 0.00000073
0.24612893 0.44845835 0.00000073
0.27942795 0.44845835 0.00000073
0.30992926 0.44845835 0.00000073
0.33881990 0.44845835 0.00000073
0.36676886 0.44845835 0.00000073
0.39419055 0.44845835 0.00000073
0.42135798 0.44845835 0.00000073
0.44845835 0.44845835 0.00000073
0.47562316 0.44845835 0.00000073
0.50294570 0.44845835 0.00000073
0.53049188 0.44845835 0.00000073
0.55830733 0.44845835 0.00000073
0.58642217 0.44845835 0.00000073
0.61485437 0.44845835 0.00000073
0.64361225 0.44845835 0.00000073
0.67269635 0.44845835 0.00000073
0.70210086 0.44845835 0.00000073
0.73181477 0.44845835 0.00000073
0.76182282 0.44845835 0.00000073
0.79210628 0.44845835 0.00000073
0.82264356 0.44845835 0.00000073
0.85341081 0.44845835 0.00000073
0.88438235 0.44845835 0.00000073
0.91553112 0.44845835 0.00000073
0.94682904 0.44845835 0.00000073
0.97824728 0.44845835 0.00000073
1.00000000 0.44845835 0.00000073
0.00000073 0.47562316 0.00000073
0.00000073 0.47562316 0.00000073
0.00000073 0.47562316 0.00000073
0.02998249 0.47562316 0.00000073
0.15692154 0.47562316 0.00000073
0.20757426 0.47562316 0.00000073
0.24612893 0.47562316 0.00000073
0.27942795 0.47562316 0.00000073
0.30992926 0.47562316 0.00000073
0.33881990 0.47562316 0.00000073
0.36676886 0.47562316 0.00000073
0.39419055 0.47562316 0.00000073
0.42135798 0.47562316 0.00000073
0.44845835 0.47562316 0.00000073
0.47562316 0.47562316 0.00000073
0.50294570 0.47562316 0.00000073
0.53049188 0.47562316 0.00000073
0.55830733 0.47562316 0.00000073
0.58642217 0.47562316 0.00000073
0.61485437 0.47562316 0.00000073
0.64361225 0.47562316 0.00000073
0.67269635 0.47562316 0.00000073
0.70210086 0.47562316 0.00000073
0.73181477 0.47562316 0.00000073
0.76182282 0.47562316 0.00000073
0.79210628 0.47562316 0.00000073
0.82264356 0.47562316 0.00000073
0.85341081 0.47562316 0.00000073
0.88438235 0.47562316 0.00000073
0.91553112 0.47562316 0.00000073
0.94682904 0.47562316 0.00000073
0.97824728 0.47562316 0.00000073
1.00000000 0.47562316 0.00000073
0.00000073 0.50294570 0.00000073
0.00000073 0.50294570 0.00000073
0.00000073 0.50294570 0.00000073
0.02998249 0.50294570 0.00000073
0.15692154 0.50294570 0.00000073
0.20757426 0.50294570 0.00000073
0.24612893 0.50294570 0.00000073
0.27942795 0.50294570 0.00000073
0.30992926 0.50294570 0.00000073
0.33881990 0.50294570 0.00000073
0.36676886 0.50294570 0.00000073
0.39419055 0.50294570 0.00000073
0.42135798 0.50294570 0.00000073
0.44845835 0.50294570 0.00000073
0.47562316 0.50294570 0.00000073
0.50294570 0.50294570 0.00000073
0.53049188 0.50294570 0.00000073
0.55830733 0.50294570 0.00000073
0.58642217 0.50294570 0.00000073
0.61485437 0.50294570 0.00000073
0.64361225 0.50294570 0.00000073
0.67269635 0.50294570 0.00000073
0.70210086 0.50294570 0.00000073
0.73181477 0.50294570 0.00000073
0.76182282 0.50294570 0.00000073
0.79210628 0.50294570 0.00000073
0.82264356 0.50294570 0.00000073
0.85341081 0.50294570 0.00000073
0.88438235 0.50294570 0.00000073
0.91553112 0.50294570 0.00000073
0.94682904 0.50294570 0.00000073
0.97824728 0.50294570 0.00000073
1.00000000 0.50294570 0.00000073
0.00000073 0.53049188 0.00000073
0.00000073 0.53049188 0.00000073
0.00000073 0.53049188 0.00000073
0.02998249 0.53049188 0.00000073
0.15692154 0.53049188 0.00000073
0.20757426 0.53049188 0.00000073
0.24612893 0.53049188 0.00000073
0.27942795 0.53049188 0.00000073
0.30992926 0.53049188 0.00000073
0.33881990 0.53049188 0.00000073
0.36676886 0.53049188 0.00000073
0.39419055 0.53049188 0.00000073
0.42135798 0.53049188 0.00000073
0.44845835 0.53049188 0.00000073
0.47562316 0.53049188 0.00000073
0.50294570 0.53049188 0.00000073
0.53049188 0.53049188 0.00000073
0.55830733 0.53049188 0.00000073
0.58642217 0.53049188 0.00000073
0.61485437 0.53049188 0.00000073
0.64361225 0.53049188 0.00000073
0.67269635 0.53049188 0.00000073
0.70210086 0.53049188 0.00000073
0.73181477 0.53049188 0.00000073
0.76182282 0.53049188 0.00000073
0.79210628 0.53049188 0.00000073
0.82264356 0.53049188 0.00000073
0.85341081 0.53049188 0.00000073
0.88438235 0.53049188 0.00000073
0.91553112 0.53049188 0.00000073
0.94682904 0.53049188 0.00000073
0.97824728 0.53049188 0.00000073
1.00000000 0.53049188 0.00000073
0.00000073 0.55830733 0.00000073
0.00000073 0.55830733 0.00000073
0.00000073 0.55830733 0.00000073
0.02998249 0.55830733 0.00000073
0.15692154 0.55830733 0.00000073
0.20757426 0.55830733 0.00000073
0.24612893 0.55830733 0.00000073
0.27942795 0.55830733 0.00000073
0.30992926 0.55830733 0.00000073
0.33881990 0.55830733 0.00000073
0.36676886 0.55830733 0.00000073
0.39419055 0.55830733 0.00000073
0.42135798 0.55830733 0.00000073
0.44845835 0.55830733 0.00000073
0.47562316 0.55830733 0.00000073
0.50294570 0.55830733 0.00000073
0.53049188 0.55830733 0.00000073
0.55830733 0.55830733 0.00000073
0.58642217 0.55830733 0.00000073
0.61485437 0.55830733 0.00000073
0.64361225 0.55830733 0.00000073
0.67269635 0.55830733 0.00000073
0.70210086 0.55830733 0.00000073
0.73181477 0.55830733 0.00000073
0.76182282 0.55830733 0.00000073
0.79210628 0.55830733 0.00000073
0.82264356 0.55830733 0.00000073
0.85341081 0.55830733 0.00000073
0.88438235 0.55830733 0.00000073
0.91553112 0.55830733 0.00000073
0.94682904 0.55830733 0.00000073
0.97824728 0.55830733 0.00000073
1.00000000 0.55830733 0.00000073
0.00000073 0.58642217 0.00000073
0.00000073 0.58642217 0.00000073
0.00000073 0.58642217 0.00000073
0.02998249 0.58642217 0.00000073
0.15692154 0.58642217 0.00000073
0.20757426 0.58642217 0.00000073
0.24612893 0.58642217 0.00000073
0.27942795 0.58642217 0.00000073
0.30992926 0.58642217 0.00000073
0.33881990 0.58642217 0.00000073
0.36676886 0.58642217 0.00000073
0.39419055 0.58642217 0.00000073
0.42135798 0.58642217 0.00000073
0.44845835 0.58642217 0.00000073
0.47562316 0.58642217 0.00000073
0.50294570 0.58642217 0.00000073
0.53049188 0.58642217 0.00000073
0.55830733 0.58642217 0.00000073
0.58642217 0.58642217 0.00000073
0.61485437 0.58642217 0.00000073
0.64361225 0.58642217 0.00000073
0.67269635 0.58642217 0.00000073
0.70210086 0.58642217 0.00000073
0.73181477 0.58642217 0.00000073
0.76182282 0.58642217 0.00000073
0.79210628 0.58642217 0.00000073
0.82264356 0.58642217 0.00000073
0.85341081 0.58642217 0.00000073
0.88438235 0.58642217 0.00000073
0.91553112 0.58642217 0.00000073
0.94682904 0.58642217 0.00000073
0.97824728 0.58642217 0.00000073
1.00000000 0.58642217 0.00000073
0.00000073 0.61485437 0.00000073
0.00000073 0.61485437 0.00000073
0.00000073 0.61485437 0.00000073
0.02998249 0.61485437 0.00000073
0.15692154 0.61485437 0.00000073
0.20757426 0.61485437 0.00000073
0.24612893 0.61485437 0.00000073
0.27942795 0.61485437 0.00000073
0.30992926 0.61485437 0.00000073
0.33881990 0.61485437 0.00000073
0.36676886 0.61485437 0.00000073
0.39419055 0.61485437 0.00000073
0.42135798 0.61485437 0.00000073
0.44845835 0.61485437 0.00000073
0.47562316 0.61485437 0.00000073
0.50294570 0.61485437 0.00000073
0.53049188 0.61485437 0.00000073
0.55830733 0.61485437 0.00000073
0.58642217 0.61485437 0.00000073
0.61485437 0.61485437 0.00000073
0.64361225 0.61485437 0.00000073
0.67269635 0.61485437 0.00000073
0.70210086 0.61485437 0.00000073
0.73181477 0.61485437 0.00000073
0.76182282 0.61485437 0.00000073
0.79210628 0.61485437 0.00000073
0.82264356 0.61485437 0.00000073
0.85341081 0.61485437 0.00000073
0.88438235 0.61485437 0.00000073
0.91553112 0.61485437 0.00000073
0.94682904 0.61485437 0.00000073
0.97824728 0.61485437 0.00000073
1.00000000 0.61485437 0.00000073
0.00000073 0.64361225 0.00000073
0.00000073 0.64361225 0.00000073
0.00000073 0.64361225 0.00000073
0.02998249 0.64361225 0.00000073
0.15692154 0.64361225 0.00000073
0.20757426 0.64361225 0.00000073
0.24612893 0.64361225 0.00000073
0.27942795 0.64361225 0.00000073
0.30992926 0.64361225 0.00000073
0.33881990 0.64361225 0.00000073
0.36676886 0.64361225 0.00000073
0.39419055 0.64361225 0.00000073
0.42135798 0.64361225 0.00000073
0.44845835 0.64361225 0.00000073
0.47562316 0.64361225 0.00000073
0.50294570 0.64361225 0.00000073
0.53049188 0.64361225 0.00000073
0.55830733 0.64361225 0.00000073
0.58642217 0.64361225 0.00000073
0.61485437 0.64361225 0.00000073
0.64361225 0.64361225 0.00000073
0.67269635 0.64361225 0.00000073
0.70210086 0.64361225 0.00000073
0.73181477 0.64361225 0.00000073
0.76182282 0.64361225 0.00000073
0.79210628 0.64361225 0.00000073
0.82264356 0.64361225 0.00000073
0.85341081 0.64361225 0.00000073
0.88438235 0.64361225 0.00000073
0.91553112 0.64361225 0.00000073
0.94682904 0.64361225 0.00000073
0.97824728 0.64361225 0.00000073
1.00000000 0.64361225 0.00000073
0.00000073 0.67269635 0.00000073
0.00000073 0.67269635 0.00000073
0.00000073 0.67269635 0.00000073
0.02998249 0.67269635 0.00000073
0.15692154 0.67269635 0.00000073
0.20757426 0.67269635 0.00000073
0.24612893 0.67269635 0.00000073
0.27942795 0.67269635 0.00000073
0.30992926 0.67269635 0.00000073
0.33881990 0.67269635 0.00000073
0.36676886 0.67269635 0.00000073
0.39419055 0.67269635 0.00000073
0.42135798 0.67269635 0.00000073
0.44845835 0.67269635 0.00000073
0.47562316 0.67269635 0.00000073
0.50294570 0.67269635 0.00000073
0.53049188 0.67269635 0.00000073
0.55830733 0.67269635 0.00000073
0.58642217 0.67269635 0.00000073
0.61485437 0.67269635 0.00000073
0.64361225 0.67269635 0.00000073
0.67269635 0.67269635 0.00000073
0.70210086 0.67269635 0.00000073
0.73181477 0.67269635 0.00000073
0.76182282 0.67269635 0.00000073
0.79210628 0.67269635 0.00000073
0.82264356 0.67269635 0.00000073
