src/ffmpeg_scripts/luts/flog-experimental_1p67.cube
TITLE "flog-experimental_1p67"
LUT_3D_SIZE 33
# Fujifilm F-Log/Rec2020 -> PQ (EOTF Only)/Rec2020, CineEI Shift 1.67, Black Level 0.00% IRE, Input 109% -> Output 100% - Created with LUTCalc v4.01 by Ben Turley October 2020
0.00000073 0.00000073 0.00000073
0.00000073 0.00000073 0.00000073
0.00000073 0.00000073 0.00000073
0.05230201 0.00000073 0.00000073
0.23447750 0.00000073 0.00000073
0.30042671 0.00000073 0.00000073
0.34909725 0.00000073 0.00000073
0.39025192 0.00000073 0.00000073
0.42732125 0.00000073 0.00000073
0.46193583 0.00000073 0.00000073
0.49500207 0.00000073 0.00000073
0.52707438 0.00000073 0.00000073
0.55851362 0.00000073 0.00000073
0.58956442 0.00000073 0.00000073
0.62039685 0.00000073 0.00000073
0.65113059 0.00000073 0.00000073
0.68184975 0.00000073 0.00000073
0.71261262 0.00000073 0.00000073
0.74345809 0.00000073 0.00000073
0.77441031 0.00000073 0.00000073
0.80548199 0.00000073 0.00000073
0.83667683 0.00000073 0.00000073
0.86799149 0.00000073 0.00000073
0.89941701 0.00000073 0.00000073
0.93094003 0.00000073 0.00000073
0.96254374 0.00000073 0.00000073
0.99420862 0.00000073 0.00000073
1.00000000 0.00000073 0.00000073
1.00000000 0.00000073 0.00000073
1.00000000 0.00000073 0.00000073
1.00000000 0.00000073 0.00000073
1.00000000 0.00000073 0.00000073
1.00000000 0.00000073 0.00000073
0.00000073 0.00000073 0.00000073
0.00000073 0.00000073 0.00000073
0.00000073 0.00000073 0.00000073
0.05230201 0.00000073 0.00000073
0.23447750 0.00000073 0.00000073
0.30042671 0.00000073 0.00000073
0.34909725 0.00000073 0.00000073
0.39025192 0.00000073 0.00000073
0.42732125 0.00000073 0.00000073
0.46193583 0.00000073 0.00000073
0.49500207 0.00000073 0.00000073
0.52707438 0.00000073 0.00000073
0.55851362 0.00000073 0.00000073
0.58956442 0.00000073 0.00000073
0.62039685 0.00000073 0.00000073
0.65113059 0.00000073 0.00000073
0.68184975 0.00000073 0.00000073
0.71261262 0.00000073 0.00000073
0.74345809 0.00000073 0.00000073
0.77441031 0.00000073 0.00000073
0.80548199 0.00000073 0.00000073
0.83667683 0.00000073 0.00000073
0.86799149 0.00000073 0.00000073
0.89941701 0.00000073 0.00000073
0.93094003 0.00000073 0.00000073
0.96254374 0.00000073 0.00000073
0.99420862 0.00000073 0.00000073
1.00000000 0.00000073 0.00000073
1.00000000 0.00000073 0.00000073
1.00000000 0.00000073 0.00000073
1.00000000 0.00000073 0.00000073
1.00000000 0.00000073 0.00000073
1.00000000 0.00000073 0.00000073
0.00000073 0.00000073 0.00000073
0.00000073 0.00000073 0.00000073
0.00000073 0.00000073 0.00000073
0.05230201 0.00000073 0.00000073
0.23447750 0.00000073 0.00000073
0.30042671 0.00000073 0.00000073
0.34909725 0.00000073 0.00000073
0.39025192 0.00000073 0.00000073
0.42732125 0.00000073 0.00000073
0.46193583 0.00000073 0.00000073
0.49500207 0.00000073 0.00000073
0.52707438 0.00000073 0.00000073
0.55851362 0.00000073 0.00000073
0.58956442 0.00000073 0.00000073
0.62039685 0.00000073 0.00000073
0.65113059 0.00000073 0.00000073
0.68184975 0.00000073 0.00000073
0.71261262 0.00000073 0.00000073
0.74345809 0.00000073 0.00000073
0.77441031 0.00000073 0.00000073
0.80548199 0.00000073 0.00000073
0.83667683 0.00000073 0.00000073
0.86799149 0.00000073 0.00000073
0.89941701 0.00000073 0.00000073
0.93094003 0.00000073 0.00000073
0.96254374 0.00000073 0.00000073
0.99420862 0.00000073 0.00000073
1.00000000 0.00000073 0.00000073
1.00000000 0.00000073 0.00000073
1.00000000 0.00000073 0.00000073
1.00000000 0.00000073 0.00000073
1.00000000 0.00000073 0.00000073
1.00000000 0.00000073 0.00000073
0.00000073 0.05230201 0.00000073
0.00000073 0.05230201 0.00000073
0.00000073 0.05230201 0.00000073
0.05230201 0.05230201 0.00000073
0.23447750 0.05230201 0.00000073
0.30042671 0.05230201 0.00000073
0.34909725 0.05230201 0.00000073
0.39025192 0.05230201 0.00000073
0.42732125 0.05230201 0.00000073
0.46193583 0.05230201 0.00000073
0.49500207 0.05230201 0.00000073
0.52707438 0.05230201 0.00000073
0.55851362 0.05230201 0.00000073
0.58956442 0.05230201 0.00000073
0.62039685 0.05230201 0.00000073
0.65113059 0.05230201 0.00000073
0.68184975 0.05230201 0.00000073
0.71261262 0.05230201 0.00000073
0.74345809 0.05230201 0.00000073
0.77441031 0.05230201 0.00000073
0.80548199 0.05230201 0.00000073
0.83667683 0.05230201 0.00000073
0.86799149 0.05230201 0.00000073
0.89941701 0.05230201 0.00000073
0.93094003 0.05230201 0.00000073
0.96254374 0.05230201 0.00000073
0.99420862 0.05230201 0.00000073
1.00000000 0.05230201 0.00000073
1.00000000 0.05230201 0.00000073
1.00000000 0.05230201 0.00000073
1.00000000 0.05230201 0.00000073
1.00000000 0.05230201 0.00000073
1.00000000 0.05230201 0.00000073
0.00000073 0.23447750 0.00000073
0.00000073 0.23447750 0.00000073
0.00000073 0.23447750 0.00000073
0.05230201 0.23447750 0.00000073
0.23447750 0.23447750 0.00000073
0.30042671 0.23447750 0.00000073
0.34909725 0.23447750 0.00000073
0.39025192 0.23447750 0.00000073
0.42732125 0.23447750 0.00000073
0.46193583 0.23447750 0.00000073
0.49500207 0.23447750 0.00000073
0.52707438 0.23447750 0.00000073
0.55851362 0.23447750 0.00000073
0.58956442 0.23447750 0.00000073
0.62039685 0.23447750 0.00000073
0.65113059 0.23447750 0.00000073
0.68184975 0.23447750 0.00000073
0.71261262 0.23447750 0.00000073
0.74345809 0.23447750 0.00000073
0.77441031 0.23447750 0.00000073
0.80548199 0.23447750 0.00000073
0.83667683 0.23447750 0.00000073
0.86799149 0.23447750 0.00000073
0.89941701 0.23447750 0.00000073
0.93094003 0.23447750 0.00000073
0.96254374 0.23447750 0.00000073
0.99420862 0.23447750 0.00000073
1.00000000 0.23447750 0.00000073
1.00000000 0.23447750 0.00000073
1.00000000 0.23447750 0.00000073
1.00000000 0.23447750 0.00000073
1.00000000 0.23447750 0.00000073
1.00000000 0.23447750 0.00000073
0.00000073 0.30042671 0.00000073
0.00000073 0.30042671 0.00000073
0.00000073 0.30042671 0.00000073
0.05230201 0.30042671 0.00000073
0.23447750 0.30042671 0.00000073
0.30042671 0.30042671 0.00000073
0.34909725 0.30042671 0.00000073
0.39025192 0.30042671 0.00000073
0.42732125 0.30042671 0.00000073
0.46193583 0.30042671 0.00000073
0.49500207 0.30042671 0.00000073
0.52707438 0.30042671 0.00000073
0.55851362 0.30042671 0.00000073
0.58956442 0.30042671 0.00000073
0.62039685 0.30042671 0.00000073
0.65113059 0.30042671 0.00000073
0.68184975 0.30042671 0.00000073
0.71261262 0.30042671 0.00000073
0.74345809 0.30042671 0.00000073
0.77441031 0.30042671 0.00000073
0.80548199 0.30042671 0.00000073
0.83667683 0.30042671 0.00000073
0.86799149 0.30042671 0.00000073
0.89941701 0.30042671 0.00000073
0.93094003 0.30042671 0.00000073
0.96254374 0.30042671 0.00000073
0.99420862 0.30042671 0.00000073
1.00000000 0.30042671 0.00000073
1.00000000 0.30042671 0.00000073
1.00000000 0.30042671 0.00000073
1.00000000 0.30042671 0.00000073
1.00000000 0.30042671 0.00000073
1.00000000 0.30042671 0.00000073
0.00000073 0.34909725 0.00000073
0.00000073 0.34909725 0.00000073
0.00000073 0.34909725 0.00000073
0.05230201 0.34909725 0.00000073
0.23447750 0.34909725 0.00000073
0.30042671 0.34909725 0.00000073
0.34909725 0.34909725 0.00000073
0.39025192 0.34909725 0.00000073
0.42732125 0.34909725 0.00000073
0.46193583 0.34909725 0.00000073
0.49500207 0.34909725 0.00000073
0.52707438 0.34909725 0.00000073
0.55851362 0.34909725 0.00000073
0.58956442 0.34909725 0.00000073
0.62039685 0.34909725 0.00000073
0.65113059 0.34909725 0.00000073
0.68184975 0.34909725 0.00000073
0.71261262 0.34909725 0.00000073
0.74345809 0.34909725 0.00000073
0.77441031 0.34909725 0.00000073
0.80548199 0.34909725 0.00000073
0.83667683 0.34909725 0.00000073
0.86799149 0.34909725 0.00000073
0.89941701 0.34909725 0.00000073
0.93094003 0.34909725 0.00000073
0.96254374 0.34909725 0.00000073
0.99420862 0.34909725 0.00000073
1.00000000 0.34909725 0.00000073
1.00000000 0.34909725 0.00000073
1.00000000 0.34909725 0.00000073
1.00000000 0.34909725 0.00000073
1.00000000 0.34909725 0.00000073
1.00000000 0.34909725 0.00000073
0.00000073 0.39025192 0.00000073
0.00000073 0.39025192 0.00000073
0.00000073 0.39025192 0.00000073
0.05230201 0.39025192 0.00000073
0.23447750 0.39025192 0.00000073
0.30042671 0.39025192 0.00000073
0.34909725 0.39025192 0.00000073
0.39025192 0.39025192 0.00000073
0.42732125 0.39025192 0.00000073
0.46193583 0.39025192 0.00000073
0.49500207 0.39025192 0.00000073
0.52707438 0.39025192 0.00000073
0.55851362 0.39025192 0.00000073
0.58956442 0.39025192 0.00000073
0.62039685 0.39025192 0.00000073
0.65113059 0.39025192 0.00000073
0.68184975 0.39025192 0.00000073
0.71261262 0.39025192 0.00000073
0.74345809 0.39025192 0.00000073
0.77441031 0.39025192 0.00000073
0.80548199 0.39025192 0.00000073
0.83667683 0.39025192 0.00000073
0.86799149 0.39025192 0.00000073
0.89941701 0.39025192 0.00000073
0.93094003 0.39025192 0.00000073
0.96254374 0.39025192 0.00000073
0.99420862 0.39025192 0.00000073
1.00000000 0.39025192 0.00000073
1.00000000 0.39025192 0.00000073
1.00000000 0.39025192 0.00000073
1.00000000 0.39025192 0.00000073
1.00000000 0.39025192 0.00000073
1.00000000 0.39025192 0.00000073
0.00000073 0.42732125 0.00000073
0.00000073 0.42732125 0.00000073
0.00000073 0.42732125 0.00000073
0.05230201 0.42732125 0.00000073
0.23447750 0.42732125 0.00000073
0.30042671 0.42732125 0.00000073
0.34909725 0.42732125 0.00000073
0.39025192 0.42732125 0.00000073
0.42732125 0.42732125 0.00000073
0.46193583 0.42732125 0.00000073
0.49500207 0.42732125 0.00000073
0.52707438 0.42732125 0.00000073
0.55851362 0.42732125 0.00000073
0.58956442 0.42732125 0.00000073
0.62039685 0.42732125 0.00000073
0.65113059 0.42732125 0.00000073
0.68184975 0.42732125 0.00000073
0.71261262 0.42732125 0.00000073
0.74345809 0.42732125 0.00000073
0.77441031 0.42732125 0.00000073
0.80548199 0.42732125 0.00000073
0.83667683 0.42732125 0.00000073
0.86799149 0.42732125 0.00000073
0.89941701 0.42732125 0.00000073
0.93094003 0.42732125 0.00000073
0.96254374 0.42732125 0.00000073
0.99420862 0.42732125 0.00000073
1.00000000 0.42732125 0.00000073
1.00000000 0.42732125 0.00000073
1.00000000 0.42732125 0.00000073
1.00000000 0.42732125 0.00000073
1.00000000 0.42732125 0.00000073
1.00000000 0.42732125 0.00000073
0.00000073 0.46193583 0.00000073
0.00000073 0.46193583 0.00000073
0.00000073 0.46193583 0.00000073
0.05230201 0.46193583 0.00000073
0.23447750 0.46193583 0.00000073
0.30042671 0.46193583 0.00000073
0.34909725 0.46193583 0.00000073
0.39025192 0.46193583 0.00000073
0.42732125 0.46193583 0.00000073
0.46193583 0.46193583 0.00000073
0.49500207 0.46193583 0.00000073
0.52707438 0.46193583 0.00000073
0.55851362 0.46193583 0.00000073
0.58956442 0.46193583 0.00000073
0.62039685 0.46193583 0.00000073
0.65113059 0.46193583 0.00000073
0.68184975 0.46193583 0.00000073
0.71261262 0.46193583 0.00000073
0.74345809 0.46193583 0.00000073
0.77441031 0.46193583 0.00000073
0.80548199 0.46193583 0.00000073
0.83667683 0.46193583 0.00000073
0.86799149 0.46193583 0.00000073
0.89941701 0.46193583 0.00000073
0.93094003 0.46193583 0.00000073
0.96254374 0.46193583 0.00000073
0.99420862 0.46193583 0.00000073
1.00000000 0.46193583 0.00000073
1.00000000 0.46193583 0.00000073
1.00000000 0.46193583 0.00000073
1.00000000 0.46193583 0.00000073
1.00000000 0.46193583 0.00000073
1.00000000 0.46193583 0.00000073
0.00000073 0.49500207 0.00000073
0.00000073 0.49500207 0.00000073
0.00000073 0.49500207 0.00000073
0.05230201 0.49500207 0.00000073
0.23447750 0.49500207 0.00000073
0.30042671 0.49500207 0.00000073
0.34909725 0.49500207 0.00000073
0.39025192 0.49500207 0.00000073
0.42732125 0.49500207 0.00000073
0.46193583 0.49500207 0.00000073
0.49500207 0.49500207 0.00000073
0.52707438 0.49500207 0.00000073
0.55851362 0.49500207 0.00000073
0.58956442 0.49500207 0.00000073
0.62039685 0.49500207 0.00000073
0.65113059 0.49500207 0.00000073
0.68184975 0.49500207 0.00000073
0.71261262 0.49500207 0.00000073
0.74345809 0.49500207 0.00000073
0.77441031 0.49500207 0.00000073
0.80548199 0.49500207 0.00000073
0.83667683 0.49500207 0.00000073
0.86799149 0.49500207 0.00000073
0.89941701 0.49500207 0.00000073
0.93094003 0.49500207 0.00000073
0.96254374 0.49500207 0.00000073
0.99420862 0.49500207 0.00000073
1.00000000 0.49500207 0.00000073
1.00000000 0.49500207 0.00000073
1.00000000 0.49500207 0.00000073
1.00000000 0.49500207 0.00000073
1.00000000 0.49500207 0.00000073
1.00000000 0.49500207 0.00000073
0.00000073 0.52707438 0.00000073
0.00000073 0.52707438 0.00000073
0.00000073 0.52707438 0.00000073
0.05230201 0.52707438 0.00000073
0.23447750 0.52707438 0.00000073
0.30042671 0.52707438 0.00000073
0.34909725 0.52707438 0.00000073
0.39025192 0.52707438 0.00000073
0.42732125 0.52707438 0.00000073
0.46193583 0.52707438 0.00000073
0.49500207 0.52707438 0.00000073
0.52707438 0.52707438 0.00000073
0.55851362 0.52707438 0.00000073
0.58956442 0.52707438 0.00000073
0.62039685 0.52707438 0.00000073
0.65113059 0.52707438 0.00000073
0.68184975 0.52707438 0.00000073
0.71261262 0.52707438 0.00000073
0.74345809 0.52707438 0.00000073
0.77441031 0.52707438 0.00000073
0.80548199 0.52707438 0.00000073
0.83667683 0.52707438 0.00000073
0.86799149 0.52707438 0.00000073
0.89941701 0.52707438 0.00000073
0.93094003 0.52707438 0.00000073
0.96254374 0.52707438 0.00000073
0.99420862 0.52707438 0.00000073
1.00000000 0.52707438 0.00000073
1.00000000 0.52707438 0.00000073
1.00000000 0.52707438 0.00000073
1.00000000 0.52707438 0.00000073
1.00000000 0.52707438 0.00000073
1.00000000 0.52707438 0.00000073
0.00000073 0.55851362 0.00000073
0.00000073 0.55851362 0.00000073
0.00000073 0.55851362 0.00000073
0.05230201 0.55851362 0.00000073
0.23447750 0.55851362 0.00000073
0.30042671 0.55851362 0.00000073
0.34909725 0.55851362 0.00000073
0.39025192 0.55851362 0.00000073
0.42732125 0.55851362 0.00000073
0.46193583 0.55851362 0.00000073
0.49500207 0.55851362 0.00000073
0.52707438 0.55851362 0.00000073
0.55851362 0.55851362 0.00000073
0.58956442 0.55851362 0.00000073
0.62039685 0.55851362 0.00000073
0.65113059 0.55851362 0.00000073
0.68184975 0.55851362 0.00000073
0.71261262 0.55851362 0.00000073
0.74345809 0.55851362 0.00000073
0.77441031 0.55851362 0.00000073
0.80548199 0.55851362 0.00000073
0.83667683 0.55851362 0.00000073
0.86799149 0.55851362 0.00000073
0.89941701 0.55851362 0.00000073
0.93094003 0.55851362 0.00000073
0.96254374 0.55851362 0.00000073
0.99420862 0.55851362 0.00000073
1.00000000 0.55851362 0.00000073
1.00000000 0.55851362 0.00000073
1.00000000 0.55851362 0.00000073
1.00000000 0.55851362 0.00000073
1.00000000 0.55851362 0.00000073
1.00000000 0.55851362 0.00000073
0.00000073 0.58956442 0.00000073
0.00000073 0.58956442 0.00000073
0.00000073 0.58956442 0.00000073
0.05230201 0.58956442 0.00000073
0.23447750 0.58956442 0.00000073
0.30042671 0.58956442 0.00000073
0.34909725 0.58956442 0.00000073
0.39025192 0.58956442 0.00000073
0.42732125 0.58956442 0.00000073
0.46193583 0.58956442 0.00000073
0.49500207 0.58956442 0.00000073
0.52707438 0.58956442 0.00000073
0.55851362 0.58956442 0.00000073
0.58956442 0.58956442 0.00000073
0.62039685 0.58956442 0.00000073
0.65113059 0.58956442 0.00000073
0.68184975 0.58956442 0.00000073
0.71261262 0.58956442 0.00000073
0.74345809 0.58956442 0.00000073
0.77441031 0.58956442 0.00000073
0.80548199 0.58956442 0.00000073
0.83667683 0.58956442 0.00000073
0.86799149 0.58956442 0.00000073
0.89941701 0.58956442 0.00000073
0.93094003 0.58956442 0.00000073
0.96254374 0.58956442 0.00000073
0.99420862 0.58956442 0.00000073
1.00000000 0.58956442 0.00000073
1.00000000 0.58956442 0.00000073
1.00000000 0.58956442 0.00000073
1.00000000 0.58956442 0.00000073
1.00000000 0.58956442 0.00000073
1.00000000 0.58956442 0.00000073
0.00000073 0.62039685 0.00000073
0.00000073 0.62039685 0.00000073
0.00000073 0.62039685 0.00000073
0.05230201 0.62039685 0.00000073
0.23447750 0.62039685 0.00000073
0.30042671 0.62039685 0.00000073
0.34909725 0.62039685 0.00000073
0.39025192 0.62039685 0.00000073
0.42732125 0.62039685 0.00000073
0.46193583 0.62039685 0.00000073
0.49500207 0.62039685 0.00000073
0.52707438 0.62039685 0.00000073
0.55851362 0.62039685 0.00000073
0.58956442 0.62039685 0.00000073
0.62039685 0.62039685 0.00000073
0.65113059 0.62039685 0.00000073
0.68184975 0.62039685 0.00000073
0.71261262 0.62039685 0.00000073
0.74345809 0.62039685 0.00000073
0.77441031 0.62039685 0.00000073
0.80548199 0.62039685 0.00000073
0.83667683 0.62039685 0.00000073
0.86799149 0.62039685 0.00000073
0.89941701 0.62039685 0.00000073
0.93094003 0.62039685 0.00000073
0.96254374 0.62039685 0.00000073
0.99420862 0.62039685 0.00000073
1.00000000 0.62039685 0.00000073
1.00000000 0.62039685 0.00000073
1.00000000 0.62039685 0.00000073
1.00000000 0.62039685 0.00000073
1.00000000 0.62039685 0.00000073
1.00000000 0.62039685 0.00000073
0.00000073 0.65113059 0.00000073
0.00000073 0.65113059 0.00000073
0.00000073 0.65113059 0.00000073
0.05230201 0.65113059 0.00000073
0.23447750 0.65113059 0.00000073
0.30042671 0.65113059 0.00000073
0.34909725 0.65113059 0.00000073
0.39025192 0.65113059 0.00000073
0.42732125 0.65113059 0.00000073
0.46193583 0.65113059 0.00000073
0.49500207 0.65113059 0.00000073
0.52707438 0.65113059 0.00000073
0.55851362 0.65113059 0.00000073
0.58956442 0.65113059 0.00000073
0.62039685 0.65113059 0.00000073
0.65113059 0.65113059 0.00000073
0.68184975 0.65113059 0.00000073
0.71261262 0.65113059 0.00000073
0.74345809 0.65113059 0.00000073
0.77441031 0.65113059 0.00000073
0.80548199 0.65113059 0.00000073
0.83667683 0.65113059 0.00000073
0.86799149 0.65113059 0.00000073
0.89941701 0.65113059 0.00000073
0.93094003 0.65113059 0.00000073
0.96254374 0.65113059 0.00000073
0.99420862 0.65113059 0.00000073
1.00000000 0.65113059 0.00000073
1.00000000 0.65113059 0.00000073
1.00000000 0.65113059 0.00000073
1.00000000 0.65113059 0.00000073
1.00000000 0.65113059 0.00000073
1.00000000 0.65113059 0.00000073
0.00000073 0.68184975 0.00000073
0.00000073 0.68184975 0.00000073
0.00000073 0.68184975 0.00000073
0.05230201 0.68184975 0.00000073
0.23447750 0.68184975 0.00000073
0.30042671 0.68184975 0.00000073
0.34909725 0.68184975 0.00000073
0.39025192 0.68184975 0.00000073
0.42732125 0.68184975 0.00000073
0.46193583 0.68184975 0.00000073
0.49500207 0.68184975 0.00000073
0.52707438 0.68184975 0.00000073
0.55851362 0.68184975 0.00000073
0.58956442 0.68184975 0.00000073
0.62039685 0.68184975 0.00000073
0.65113059 0.68184975 0.00000073
0.68184975 0.68184975 0.00000073
0.71261262 0.68184975 0.00000073
0.74345809 0.68184975 0.00000073
0.77441031 0.68184975 0.00000073
0.80548199 0.68184975 0.00000073
0.83667683 0.68184975 0.00000073
0.86799149 0.68184975 0.00000073
0.89941701 0.68184975 0.00000073
0.93094003 0.68184975 0.00000073
0.96254374 0.68184975 0.00000073
0.99420862 0.68184975 0.00000073
1.00000000 0.68184975 0.00000073
1.00000000 0.68184975 0.00000073
1.00000000 0.68184975 0.00000073
1.00000000 0.68184975 0.00000073
1.00000000 0.68184975 0.00000073
1.00000000 0.68184975 0.00000073
0.00000073 0.71261262 0.00000073
0.00000073 0.71261262 0.00000073
0.00000073 0.71261262 0.00000073
0.05230201 0.71261262 0.00000073
0.23447750 0.71261262 0.00000073
0.30042671 0.71261262 0.00000073
0.34909725 0.71261262 0.00000073
0.39025192 0.71261262 0.00000073
0.42732125 0.71261262 0.00000073
0.46193583 0.71261262 0.00000073
0.49500207 0.71261262 0.00000073
0.52707438 0.71261262 0.00000073
0.55851362 0.71261262 0.00000073
0.58956442 0.71261262 0.00000073
0.62039685 0.71261262 0.00000073
0.65113059 0.71261262 0.00000073
0.68184975 0.71261262 0.00000073
0.71261262 0.71261262 0.00000073
0.74345809 0.71261262 0.00000073
0.77441031 0.71261262 0.00000073
0.80548199 0.71261262 0.00000073
0.83667683 0.71261262 0.00000073
0.86799149 0.71261262 0.00000073
0.89941701 0.71261262 0.00000073
0.93094003 0.71261262 0.00000073
0.96254374 0.71261262 0.00000073
0.99420862 0.71261262 0.00000073
1.00000000 0.71261262 0.00000073
1.00000000 0.71261262 0.00000073
1.00000000 0.71261262 0.00000073
1.00000000 0.71261262 0.00000073
1.00000000 0.71261262 0.00000073
1.00000000 0.71261262 0.00000073
0.00000073 0.74345809 0.00000073
0.00000073 0.74345809 0.00000073
0.00000073 0.74345809 0.00000073
0.05230201 0.74345809 0.00000073
0.23447750 0.74345809 0.00000073
0.30042671 0.74345809 0.00000073
0.34909725 0.74345809 0.00000073
0.39025192 0.74345809 0.00000073
0.42732125 0.74345809 0.00000073
0.46193583 0.74345809 0.00000073
0.49500207 0.74345809 0.00000073
0.52707438 0.74345809 0.00000073
0.55851362 0.74345809 0.00000073
0.58956442 0.74345809 0.00000073
0.62039685 0.74345809 0.00000073
0.65113059 0.74345809 0.00000073
0.68184975 0.74345809 0.00000073
0.71261262 0.74345809 0.00000073
0.74345809 0.74345809 0.00000073
0.77441031 0.74345809 0.00000073
0.80548199 0.74345809 0.00000073
0.83667683 0.74345809 0.00000073
0.86799149 0.74345809 0.00000073
0.89941701 0.74345809 0.00000073
0.93094003 0.74345809 0.00000073
0.96254374 0.74345809 0.00000073
0.99420862 0.74345809 0.00000073
1.00000000 0.74345809 0.00000073
1.00000000 0.74345809 0.00000073
1.00000000 0.74345809 0.00000073
1.00000000 0.74345809 0.00000073
1.00000000 0.74345809 0.00000073
1.00000000 0.74345809 0.00000073
0.00000073 0.77441031 0.00000073
0.00000073 0.77441031 0.00000073
0.00000073 0.77441031 0.00000073
0.05230201 0.77441031 0.00000073
0.23447750 0.77441031 0.00000073
0.30042671 0.77441031 0.00000073
0.34909725 0.77441031 0.00000073
0.39025192 0.77441031 0.00000073
0.42732125 0.77441031 0.00000073
0.46193583 0.77441031 0.00000073
0.49500207 0.77441031 0.00000073
0.52707438 0.77441031 0.00000073
0.55851362 0.77441031 0.00000073
0.58956442 0.77441031 0.00000073
0.62039685 0.77441031 0.00000073
0.65113059 0.77441031 0.00000073
0.68184975 0.77441031 0.00000073
0.71261262 0.77441031 0.00000073
0.74345809 0.77441031 0.00000073
0.77441031 0.77441031 0.00000073
0.80548199 0.77441031 0.00000073
0.83667683 0.77441031 0.00000073
0.86799149 0.77441031 0.00000073
0.89941701 0.77441031 0.00000073
0.93094003 0.77441031 0.00000073
0.96254374 0.77441031 0.00000073
0.99420862 0.77441031 0.00000073
1.00000000 0.77441031 0.00000073
1.00000000 0.77441031 0.00000073
1.00000000 0.77441031 0.00000073
1.00000000 0.77441031 0.00000073
1.00000000 0.77441031 0.00000073
1.00000000 0.77441031 0.00000073
0.00000073 0.80548199 0.00000073
0.00000073 0.80548199 0.00000073
0.00000073 0.80548199 0.00000073
0.05230201 0.80548199 0.00000073
0.23447750 0.80548199 0.00000073
0.30042671 0.80548199 0.00000073
0.34909725 0.80548199 0.00000073
0.39025192 0.80548199 0.00000073
0.42732125 0.80548199 0.00000073
0.46193583 0.80548199 0.00000073
0.49500207 0.80548199 0.00000073
0.52707438 0.80548199 0.00000073
0.55851362 0.80548199 0.00000073
0.58956442 0.80548199 0.00000073
0.62039685 0.80548199 0.00000073
0.65113059 0.80548199 0.00000073
0.68184975 0.80548199 0.00000073
0.71261262 0.80548199 0.00000073
0.74345809 0.80548199 0.00000073
0.77441031 0.80548199 0.00000073
0.80548199 0.80548199 0.00000073
0.83667683 0.80548199 0.00000073
0.86799149 0.80548199 0.00000073
0.89941701 0.80548199 0.00000073
0.93094003 0.80548199 0.00000073
0.96254374 0.80548199 0.00000073
0.99420862 0.80548199 0.00000073
1.00000000 0.80548199 0.00000073
1.00000000 0.80548199 0.00000073
1.00000000 0.80548199 0.00000073
1.00000000 0.80548199 0.00000073
1.00000000 0.80548199 0.00000073
1.00000000 0.80548199 0.00000073
0.00000073 0.83667683 0.00000073
0.00000073 0.83667683 0.00000073
0.00000073 0.83667683 0.00000073
0.05230201 0.83667683 0.00000073
0.23447750 0.83667683 0.00000073
0.30042671 0.83667683 0.00000073
0.34909725 0.83667683 0.00000073
0.39025192 0.83667683 0.00000073
0.42732125 0.83667683 0.00000073
0.46193583 0.83667683 0.00000073
0.49500207 0.83667683 0.00000073
0.52707438 0.83667683 0.00000073
0.55851362 0.83667683 0.00000073
0.58956442 0.83667683 0.00000073
0.62039685 0.83667683 0.00000073
0.65113059 0.83667683 0.00000073
0.68184975 0.83667683 0.00000073
0.71261262 0.83667683 0.00000073
0.74345809 0.83667683 0.00000073
0.77441031 0.83667683 0.00000073
0.80548199 0.83667683 0.00000073
0.83667683 0.83667683 0.00000073
0.86799149 0.83667683 0.00000073
0.89941701 0.83667683 0.00000073
0.93094003 0.83667683 0.00000073
0.96254374 0.83667683 0.00000073
0.99420862 0.83667683 0.00000073
