src/ffmpeg_scripts/luts/flog-experimental_-0p67.cube
TITLE "flog-experimental_-0p67"
LUT_3D_SIZE 5
# Fujifilm F-Log/Rec2020 -> PQ (EOTF Only)/Rec2020, CineEI Shift -0.67, Black Level 0.00% IRE, Input 109% -> Output 100% - Created with LUTCalc v4.01 by Ben Turley October 2020
0.00000073 0.00000073 0.00000073
0.26923728 0.00000073 0.00000073
0.47476407 0.00000073 0.00000073
0.69682259 0.00000073 0.00000073
0.94034160 0.00000073 0.00000073
0.00000073 0.26923728 0.00000073
0.26923728 0.26923728 0.00000073
0.47476407 0.26923728 0.00000073
0.69682259 0.26923728 0.00000073
0.94034160 0.26923728 0.00000073
0.00000073 0.47476407 0.00000073
0.26923728 0.47476407 0.00000073
0.47476407 0.47476407 0.00000073
0.69682259 0.47476407 0.00000073
0.94034160 0.47476407 0.00000073
0.00000073 0.69682259 0.00000073
0.26923728 0.69682259 0.00000073
0.47476407 0.69682259 0.00000073
0.69682259 0.69682259 0.00000073
0.94034160 0.69682259 0.00000073
0.00000073 0.94034160 0.00000073
0.26923728 0.94034160 0.00000073
0.47476407 0.94034160 0.00000073
0.69682259 0.94034160 0.00000073
0.94034160 0.94034160 0.00000073
0.00000073 0.00000073 0.26923728
0.26923728 0.00000073 0.26923728
0.47476407 0.00000073 0.26923728
0.69682259 0.00000073 0.26923728
0.94034160 0.00000073 0.26923728
0.00000073 0.26923728 0.26923728
0.26923728 0.26923728 0.26923728
0.47476407 0.26923728 0.26923728
0.69682259 0.26923728 0.26923728
0.94034160 0.26923728 0.26923728
0.00000073 0.47476407 0.26923728
0.26923728 0.47476407 0.26923728
0.47476407 0.47476407 0.26923728
0.69682259 0.47476407 0.26923728
0.94034160 0.47476407 0.26923728
0.00000073 0.69682259 0.26923728
0.26923728 0.69682259 0.26923728
0.47476407 0.69682259 0.26923728
0.69682259 0.69682259 0.26923728
0.94034160 0.69682259 0.26923728
0.00000073 0.94034160 0.26923728
0.26923728 0.94034160 0.26923728
0.47476407 0.94034160 0.26923728
0.69682259 0.94034160 0.26923728
0.94034160 0.94034160 0.26923728
0.00000073 0.00000073 0.47476407
0.26923728 0.00000073 0.47476407
0.47476407 0.00000073 0.47476407
0.69682259 0.00000073 0.47476407
0.94034160 0.00000073 0.47476407
0.00000073 0.26923728 0.47476407
0.26923728 0.26923728 0.47476407
0.47476407 0.26923728 0.47476407
0.69682259 0.26923728 0.47476407
0.94034160 0.26923728 0.47476407
0.00000073 0.47476407 0.47476407
0.26923728 0.47476407 0.47476407
0.47476407 0.47476407 0.47476407
0.69682259 0.47476407 0.47476407
0.94034160 0.47476407 0.47476407
0.00000073 0.69682259 0.47476407
0.26923728 0.69682259 0.47476407
0.47476407 0.69682259 0.47476407
0.69682259 0.69682259 0.47476407
0.94034160 0.69682259 0.47476407
0.00000073 0.94034160 0.47476407
0.26923728 0.94034160 0.47476407
0.47476407 0.94034160 0.47476407
0.69682259 0.94034160 0.47476407
0.94034160 0.94034160 0.47476407
0.00000073 0.00000073 0.69682259
0.26923728 0.00000073 0.69682259
0.47476407 0.00000073 0.69682259
0.69682259 0.00000073 0.69682259
0.94034160 0.00000073 0.69682259
0.00000073 0.26923728 0.69682259
0.26923728 0.26923728 0.69682259
0.47476407 0.26923728 0.69682259
0.69682259 0.26923728 0.69682259
0.94034160 0.26923728 0.69682259
0.00000073 0.47476407 0.69682259
0.26923728 0.47476407 0.69682259
0.47476407 0.47476407 0.69682259
0.69682259 0.47476407 0.69682259
0.94034160 0.47476407 0.69682259
0.00000073 0.69682259 0.69682259
0.26923728 0.69682259 0.69682259
0.47476407 0.69682259 0.69682259
0.69682259 0.69682259 0.69682259
0.94034160 0.69682259 0.69682259
0.00000073 0.94034160 0.69682259
0.26923728 0.94034160 0.69682259
0.47476407 0.94034160 0.69682259
0.69682259 0.94034160 0.69682259
0.94034160 0.94034160 0.69682259
0.00000073 0.00000073 0.94034160
0.26923728 0.00000073 0.94034160
0.47476407 0.00000073 0.94034160
0.69682259 0.00000073 0.94034160
0.94034160 0.00000073 0.94034160
0.00000073 0.26923728 0.94034160
0.26923728 0.26923728 0.94034160
0.47476407 0.26923728 0.94034160
0.69682259 0.26923728 0.94034160
0.94034160 0.26923728 0.94034160
0.00000073 0.47476407 0.94034160
0.26923728 0.47476407 0.94034160
0.47476407 0.47476407 0.94034160
0.69682259 0.47476407 0.94034160
0.94034160 0.47476407 0.94034160
0.00000073 0.69682259 0.94034160
0.26923728 0.69682259 0.94034160
0.47476407 0.69682259 0.94034160
0.69682259 0.69682259 0.94034160
0.94034160 0.69682259 0.94034160
0.00000073 0.94034160 0.94034160
0.26923728 0.94034160 0.94034160
0.47476407 0.94034160 0.94034160
0.69682259 0.94034160 0.94034160
0.94034160 0.94034160 0.94034160
