src/ffmpeg_scripts/luts/flog-smpte2084_-2p67.cube
TITLE "flog-smpte2084_-2p67"
LUT_3D_SIZE 9
# Fujifilm F-Log/Rec2020 -> PQ (EOTF Only)/Rec2020, CineEI Shift -2.67, Black Level 0.00% IRE, Input 109% -> Output 109% - Created with LUTCalc v4.01 by Ben Turley October 2020
0.06256172 0.06256172 0.06256172
0.10873003 0.06256172 0.06256172
0.16691878 0.06256172 0.06256172
0.21456423 0.06256172 0.06256172
0.26476882 0.06256172 0.06256172
0.32007548 0.06256172 0.06256172
0.38108786 0.06256172 0.06256172
0.44753214 0.06256172 0.06256172
0.51861870 0.06256172 0.06256172
0.06256172 0.10873003 0.06256172
0.10873003 0.10873003 0.06256172
0.16691878 0.10873003 0.06256172
0.21456423 0.10873003 0.06256172
0.26476882 0.10873003 0.06256172
0.32007548 0.10873003 0.06256172
0.38108786 0.10873003 0.06256172
0.44753214 0.10873003 0.06256172
0.51861870 0.10873003 0.06256172
0.06256172 0.16691878 0.06256172
0.10873003 0.16691878 0.06256172
0.16691878 0.16691878 0.06256172
0.21456423 0.16691878 0.06256172
0.26476882 0.16691878 0.06256172
0.32007548 0.16691878 0.06256172
0.38108786 0.16691878 0.06256172
0.44753214 0.16691878 0.06256172
0.51861870 0.16691878 0.06256172
0.06256172 0.21456423 0.06256172
0.10873003 0.21456423 0.06256172
0.16691878 0.21456423 0.06256172
0.21456423 0.21456423 0.06256172
0.26476882 0.21456423 0.06256172
0.32007548 0.21456423 0.06256172
0.38108786 0.21456423 0.06256172
0.44753214 0.21456423 0.06256172
0.51861870 0.21456423 0.06256172
0.06256172 0.26476882 0.06256172
0.10873003 0.26476882 0.06256172
0.16691878 0.26476882 0.06256172
0.21456423 0.26476882 0.06256172
0.26476882 0.26476882 0.06256172
0.32007548 0.26476882 0.06256172
0.38108786 0.26476882 0.06256172
0.44753214 0.26476882 0.06256172
0.51861870 0.26476882 0.06256172
0.06256172 0.32007548 0.06256172
0.10873003 0.32007548 0.06256172
0.16691878 0.32007548 0.06256172
0.21456423 0.32007548 0.06256172
0.26476882 0.32007548 0.06256172
0.32007548 0.32007548 0.06256172
0.38108786 0.32007548 0.06256172
0.44753214 0.32007548 0.06256172
0.51861870 0.32007548 0.06256172
0.06256172 0.38108786 0.06256172
0.10873003 0.38108786 0.06256172
0.16691878 0.38108786 0.06256172
0.21456423 0.38108786 0.06256172
0.26476882 0.38108786 0.06256172
0.32007548 0.38108786 0.06256172
0.38108786 0.38108786 0.06256172
0.44753214 0.38108786 0.06256172
0.51861870 0.38108786 0.06256172
0.06256172 0.44753214 0.06256172
0.10873003 0.44753214 0.06256172
0.16691878 0.44753214 0.06256172
0.21456423 0.44753214 0.06256172
0.26476882 0.44753214 0.06256172
0.32007548 0.44753214 0.06256172
0.38108786 0.44753214 0.06256172
0.44753214 0.44753214 0.06256172
0.51861870 0.44753214 0.06256172
0.06256172 0.51861870 0.06256172
0.10873003 0.51861870 0.06256172
0.16691878 0.51861870 0.06256172
0.21456423 0.51861870 0.06256172
0.26476882 0.51861870 0.06256172
0.32007548 0.51861870 0.06256172
0.38108786 0.51861870 0.06256172
0.44753214 0.51861870 0.06256172
0.51861870 0.51861870 0.06256172
0.06256172 0.06256172 0.10873003
0.10873003 0.06256172 0.10873003
0.16691878 0.06256172 0.10873003
0.21456423 0.06256172 0.10873003
0.26476882 0.06256172 0.10873003
0.32007548 0.06256172 0.10873003
0.38108786 0.06256172 0.10873003
0.44753214 0.06256172 0.10873003
0.51861870 0.06256172 0.10873003
0.06256172 0.10873003 0.10873003
0.10873003 0.10873003 0.10873003
0.16691878 0.10873003 0.10873003
0.21456423 0.10873003 0.10873003
0.26476882 0.10873003 0.10873003
0.32007548 0.10873003 0.10873003
0.38108786 0.10873003 0.10873003
0.44753214 0.10873003 0.10873003
0.51861870 0.10873003 0.10873003
0.06256172 0.16691878 0.10873003
0.10873003 0.16691878 0.10873003
0.16691878 0.16691878 0.10873003
0.21456423 0.16691878 0.10873003
0.26476882 0.16691878 0.10873003
0.32007548 0.16691878 0.10873003
0.38108786 0.16691878 0.10873003
0.44753214 0.16691878 0.10873003
0.51861870 0.16691878 0.10873003
0.06256172 0.21456423 0.10873003
0.10873003 0.21456423 0.10873003
0.16691878 0.21456423 0.10873003
0.21456423 0.21456423 0.10873003
0.26476882 0.21456423 0.10873003
0.32007548 0.21456423 0.10873003
0.38108786 0.21456423 0.10873003
0.44753214 0.21456423 0.10873003
0.51861870 0.21456423 0.10873003
0.06256172 0.26476882 0.10873003
0.10873003 0.26476882 0.10873003
0.16691878 0.26476882 0.10873003
0.21456423 0.26476882 0.10873003
0.26476882 0.26476882 0.10873003
0.32007548 0.26476882 0.10873003
0.38108786 0.26476882 0.10873003
0.44753214 0.26476882 0.10873003
0.51861870 0.26476882 0.10873003
0.06256172 0.32007548 0.10873003
0.10873003 0.32007548 0.10873003
0.16691878 0.32007548 0.10873003
0.21456423 0.32007548 0.10873003
0.26476882 0.32007548 0.10873003
0.32007548 0.32007548 0.10873003
0.38108786 0.32007548 0.10873003
0.44753214 0.32007548 0.10873003
0.51861870 0.32007548 0.10873003
0.06256172 0.38108786 0.10873003
0.10873003 0.38108786 0.10873003
0.16691878 0.38108786 0.10873003
0.21456423 0.38108786 0.10873003
0.26476882 0.38108786 0.10873003
0.32007548 0.38108786 0.10873003
0.38108786 0.38108786 0.10873003
0.44753214 0.38108786 0.10873003
0.51861870 0.38108786 0.10873003
0.06256172 0.44753214 0.10873003
0.10873003 0.44753214 0.10873003
0.16691878 0.44753214 0.10873003
0.21456423 0.44753214 0.10873003
0.26476882 0.44753214 0.10873003
0.32007548 0.44753214 0.10873003
0.38108786 0.44753214 0.10873003
0.44753214 0.44753214 0.10873003
0.51861870 0.44753214 0.10873003
0.06256172 0.51861870 0.10873003
0.10873003 0.51861870 0.10873003
0.16691878 0.51861870 0.10873003
0.21456423 0.51861870 0.10873003
0.26476882 0.51861870 0.10873003
0.32007548 0.51861870 0.10873003
0.38108786 0.51861870 0.10873003
0.44753214 0.51861870 0.10873003
0.51861870 0.51861870 0.10873003
0.06256172 0.06256172 0.16691878
0.10873003 0.06256172 0.16691878
0.16691878 0.06256172 0.16691878
0.21456423 0.06256172 0.16691878
0.26476882 0.06256172 0.16691878
0.32007548 0.06256172 0.16691878
0.38108786 0.06256172 0.16691878
0.44753214 0.06256172 0.16691878
0.51861870 0.06256172 0.16691878
0.06256172 0.10873003 0.16691878
0.10873003 0.10873003 0.16691878
0.16691878 0.10873003 0.16691878
0.21456423 0.10873003 0.16691878
0.26476882 0.10873003 0.16691878
0.32007548 0.10873003 0.16691878
0.38108786 0.10873003 0.16691878
0.44753214 0.10873003 0.16691878
0.51861870 0.10873003 0.16691878
0.06256172 0.16691878 0.16691878
0.10873003 0.16691878 0.16691878
0.16691878 0.16691878 0.16691878
0.21456423 0.16691878 0.16691878
0.26476882 0.16691878 0.16691878
0.32007548 0.16691878 0.16691878
0.38108786 0.16691878 0.16691878
0.44753214 0.16691878 0.16691878
0.51861870 0.16691878 0.16691878
0.06256172 0.21456423 0.16691878
0.10873003 0.21456423 0.16691878
0.16691878 0.21456423 0.16691878
0.21456423 0.21456423 0.16691878
0.26476882 0.21456423 0.16691878
0.32007548 0.21456423 0.16691878
0.38108786 0.21456423 0.16691878
0.44753214 0.21456423 0.16691878
0.51861870 0.21456423 0.16691878
0.06256172 0.26476882 0.16691878
0.10873003 0.26476882 0.16691878
0.16691878 0.26476882 0.16691878
0.21456423 0.26476882 0.16691878
0.26476882 0.26476882 0.16691878
0.32007548 0.26476882 0.16691878
0.38108786 0.26476882 0.16691878
0.44753214 0.26476882 0.16691878
0.51861870 0.26476882 0.16691878
0.06256172 0.32007548 0.16691878
0.10873003 0.32007548 0.16691878
0.16691878 0.32007548 0.16691878
0.21456423 0.32007548 0.16691878
0.26476882 0.32007548 0.16691878
0.32007548 0.32007548 0.16691878
0.38108786 0.32007548 0.16691878
0.44753214 0.32007548 0.16691878
0.51861870 0.32007548 0.16691878
0.06256172 0.38108786 0.16691878
0.10873003 0.38108786 0.16691878
0.16691878 0.38108786 0.16691878
0.21456423 0.38108786 0.16691878
0.26476882 0.38108786 0.16691878
0.32007548 0.38108786 0.16691878
0.38108786 0.38108786 0.16691878
0.44753214 0.38108786 0.16691878
0.51861870 0.38108786 0.16691878
0.06256172 0.44753214 0.16691878
0.10873003 0.44753214 0.16691878
0.16691878 0.44753214 0.16691878
0.21456423 0.44753214 0.16691878
0.26476882 0.44753214 0.16691878
0.32007548 0.44753214 0.16691878
0.38108786 0.44753214 0.16691878
0.44753214 0.44753214 0.16691878
0.51861870 0.44753214 0.16691878
0.06256172 0.51861870 0.16691878
0.10873003 0.51861870 0.16691878
0.16691878 0.51861870 0.16691878
0.21456423 0.51861870 0.16691878
0.26476882 0.51861870 0.16691878
0.32007548 0.51861870 0.16691878
0.38108786 0.51861870 0.16691878
0.44753214 0.51861870 0.16691878
0.51861870 0.51861870 0.16691878
0.06256172 0.06256172 0.21456423
0.10873003 0.06256172 0.21456423
0.16691878 0.06256172 0.21456423
0.21456423 0.06256172 0.21456423
0.26476882 0.06256172 0.21456423
0.32007548 0.06256172 0.21456423
0.38108786 0.06256172 0.21456423
0.44753214 0.06256172 0.21456423
0.51861870 0.06256172 0.21456423
0.06256172 0.10873003 0.21456423
0.10873003 0.10873003 0.21456423
0.16691878 0.10873003 0.21456423
0.21456423 0.10873003 0.21456423
0.26476882 0.10873003 0.21456423
0.32007548 0.10873003 0.21456423
0.38108786 0.10873003 0.21456423
0.44753214 0.10873003 0.21456423
0.51861870 0.10873003 0.21456423
0.06256172 0.16691878 0.21456423
0.10873003 0.16691878 0.21456423
0.16691878 0.16691878 0.21456423
0.21456423 0.16691878 0.21456423
0.26476882 0.16691878 0.21456423
0.32007548 0.16691878 0.21456423
0.38108786 0.16691878 0.21456423
0.44753214 0.16691878 0.21456423
0.51861870 0.16691878 0.21456423
0.06256172 0.21456423 0.21456423
0.10873003 0.21456423 0.21456423
0.16691878 0.21456423 0.21456423
0.21456423 0.21456423 0.21456423
0.26476882 0.21456423 0.21456423
0.32007548 0.21456423 0.21456423
0.38108786 0.21456423 0.21456423
0.44753214 0.21456423 0.21456423
0.51861870 0.21456423 0.21456423
0.06256172 0.26476882 0.21456423
0.10873003 0.26476882 0.21456423
0.16691878 0.26476882 0.21456423
0.21456423 0.26476882 0.21456423
0.26476882 0.26476882 0.21456423
0.32007548 0.26476882 0.21456423
0.38108786 0.26476882 0.21456423
0.44753214 0.26476882 0.21456423
0.51861870 0.26476882 0.21456423
0.06256172 0.32007548 0.21456423
0.10873003 0.32007548 0.21456423
0.16691878 0.32007548 0.21456423
0.21456423 0.32007548 0.21456423
0.26476882 0.32007548 0.21456423
0.32007548 0.32007548 0.21456423
0.38108786 0.32007548 0.21456423
0.44753214 0.32007548 0.21456423
0.51861870 0.32007548 0.21456423
0.06256172 0.38108786 0.21456423
0.10873003 0.38108786 0.21456423
0.16691878 0.38108786 0.21456423
0.21456423 0.38108786 0.21456423
0.26476882 0.38108786 0.21456423
0.32007548 0.38108786 0.21456423
0.38108786 0.38108786 0.21456423
0.44753214 0.38108786 0.21456423
0.51861870 0.38108786 0.21456423
0.06256172 0.44753214 0.21456423
0.10873003 0.44753214 0.21456423
0.16691878 0.44753214 0.21456423
0.21456423 0.44753214 0.21456423
0.26476882 0.44753214 0.21456423
0.32007548 0.44753214 0.21456423
0.38108786 0.44753214 0.21456423
0.44753214 0.44753214 0.21456423
0.51861870 0.44753214 0.21456423
0.06256172 0.51861870 0.21456423
0.10873003 0.51861870 0.21456423
0.16691878 0.51861870 0.21456423
0.21456423 0.51861870 0.21456423
0.26476882 0.51861870 0.21456423
0.32007548 0.51861870 0.21456423
0.38108786 0.51861870 0.21456423
0.44753214 0.51861870 0.21456423
0.51861870 0.51861870 0.21456423
0.06256172 0.06256172 0.26476882
0.10873003 0.06256172 0.26476882
0.16691878 0.06256172 0.26476882
0.21456423 0.06256172 0.26476882
0.26476882 0.06256172 0.26476882
0.32007548 0.06256172 0.26476882
0.38108786 0.06256172 0.26476882
0.44753214 0.06256172 0.26476882
0.51861870 0.06256172 0.26476882
0.06256172 0.10873003 0.26476882
0.10873003 0.10873003 0.26476882
0.16691878 0.10873003 0.26476882
0.21456423 0.10873003 0.26476882
0.26476882 0.10873003 0.26476882
0.32007548 0.10873003 0.26476882
0.38108786 0.10873003 0.26476882
0.44753214 0.10873003 0.26476882
0.51861870 0.10873003 0.26476882
0.06256172 0.16691878 0.26476882
0.10873003 0.16691878 0.26476882
0.16691878 0.16691878 0.26476882
0.21456423 0.16691878 0.26476882
0.26476882 0.16691878 0.26476882
0.32007548 0.16691878 0.26476882
0.38108786 0.16691878 0.26476882
0.44753214 0.16691878 0.26476882
0.51861870 0.16691878 0.26476882
0.06256172 0.21456423 0.26476882
0.10873003 0.21456423 0.26476882
0.16691878 0.21456423 0.26476882
0.21456423 0.21456423 0.26476882
0.26476882 0.21456423 0.26476882
0.32007548 0.21456423 0.26476882
0.38108786 0.21456423 0.26476882
0.44753214 0.21456423 0.26476882
0.51861870 0.21456423 0.26476882
0.06256172 0.26476882 0.26476882
0.10873003 0.26476882 0.26476882
0.16691878 0.26476882 0.26476882
0.21456423 0.26476882 0.26476882
0.26476882 0.26476882 0.26476882
0.32007548 0.26476882 0.26476882
0.38108786 0.26476882 0.26476882
0.44753214 0.26476882 0.26476882
0.51861870 0.26476882 0.26476882
0.06256172 0.32007548 0.26476882
0.10873003 0.32007548 0.26476882
0.16691878 0.32007548 0.26476882
0.21456423 0.32007548 0.26476882
0.26476882 0.32007548 0.26476882
0.32007548 0.32007548 0.26476882
0.38108786 0.32007548 0.26476882
0.44753214 0.32007548 0.26476882
0.51861870 0.32007548 0.26476882
0.06256172 0.38108786 0.26476882
0.10873003 0.38108786 0.26476882
0.16691878 0.38108786 0.26476882
0.21456423 0.38108786 0.26476882
0.26476882 0.38108786 0.26476882
0.32007548 0.38108786 0.26476882
0.38108786 0.38108786 0.26476882
0.44753214 0.38108786 0.26476882
0.51861870 0.38108786 0.26476882
0.06256172 0.44753214 0.26476882
0.10873003 0.44753214 0.26476882
0.16691878 0.44753214 0.26476882
0.21456423 0.44753214 0.26476882
0.26476882 0.44753214 0.26476882
0.32007548 0.44753214 0.26476882
0.38108786 0.44753214 0.26476882
0.44753214 0.44753214 0.26476882
0.51861870 0.44753214 0.26476882
0.06256172 0.51861870 0.26476882
0.10873003 0.51861870 0.26476882
0.16691878 0.51861870 0.26476882
0.21456423 0.51861870 0.26476882
0.26476882 0.51861870 0.26476882
0.32007548 0.51861870 0.26476882
0.38108786 0.51861870 0.26476882
0.44753214 0.51861870 0.26476882
0.51861870 0.51861870 0.26476882
0.06256172 0.06256172 0.32007548
0.10873003 0.06256172 0.32007548
0.16691878 0.06256172 0.32007548
0.21456423 0.06256172 0.32007548
0.26476882 0.06256172 0.32007548
0.32007548 0.06256172 0.32007548
0.38108786 0.06256172 0.32007548
0.44753214 0.06256172 0.32007548
0.51861870 0.06256172 0.32007548
0.06256172 0.10873003 0.32007548
0.10873003 0.10873003 0.32007548
0.16691878 0.10873003 0.32007548
0.21456423 0.10873003 0.32007548
0.26476882 0.10873003 0.32007548
0.32007548 0.10873003 0.32007548
0.38108786 0.10873003 0.32007548
0.44753214 0.10873003 0.32007548
0.51861870 0.10873003 0.32007548
0.06256172 0.16691878 0.32007548
0.10873003 0.16691878 0.32007548
0.16691878 0.16691878 0.32007548
0.21456423 0.16691878 0.32007548
0.26476882 0.16691878 0.32007548
0.32007548 0.16691878 0.32007548
0.38108786 0.16691878 0.32007548
0.44753214 0.16691878 0.32007548
0.51861870 0.16691878 0.32007548
0.06256172 0.21456423 0.32007548
0.10873003 0.21456423 0.32007548
0.16691878 0.21456423 0.32007548
0.21456423 0.21456423 0.32007548
0.26476882 0.21456423 0.32007548
0.32007548 0.21456423 0.32007548
0.38108786 0.21456423 0.32007548
0.44753214 0.21456423 0.32007548
0.51861870 0.21456423 0.32007548
0.06256172 0.26476882 0.32007548
0.10873003 0.26476882 0.32007548
0.16691878 0.26476882 0.32007548
0.21456423 0.26476882 0.32007548
0.26476882 0.26476882 0.32007548
0.32007548 0.26476882 0.32007548
0.38108786 0.26476882 0.32007548
0.44753214 0.26476882 0.32007548
0.51861870 0.26476882 0.32007548
0.06256172 0.32007548 0.32007548
0.10873003 0.32007548 0.32007548
0.16691878 0.32007548 0.32007548
0.21456423 0.32007548 0.32007548
0.26476882 0.32007548 0.32007548
0.32007548 0.32007548 0.32007548
0.38108786 0.32007548 0.32007548
0.44753214 0.32007548 0.32007548
0.51861870 0.32007548 0.32007548
0.06256172 0.38108786 0.32007548
0.10873003 0.38108786 0.32007548
0.16691878 0.38108786 0.32007548
0.21456423 0.38108786 0.32007548
0.26476882 0.38108786 0.32007548
0.32007548 0.38108786 0.32007548
0.38108786 0.38108786 0.32007548
0.44753214 0.38108786 0.32007548
0.51861870 0.38108786 0.32007548
0.06256172 0.44753214 0.32007548
0.10873003 0.44753214 0.32007548
0.16691878 0.44753214 0.32007548
0.21456423 0.44753214 0.32007548
0.26476882 0.44753214 0.32007548
0.32007548 0.44753214 0.32007548
0.38108786 0.44753214 0.32007548
0.44753214 0.44753214 0.32007548
0.51861870 0.44753214 0.32007548
0.06256172 0.51861870 0.32007548
0.10873003 0.51861870 0.32007548
0.16691878 0.51861870 0.32007548
0.21456423 0.51861870 0.32007548
0.26476882 0.51861870 0.32007548
0.32007548 0.51861870 0.32007548
0.38108786 0.51861870 0.32007548
0.44753214 0.51861870 0.32007548
0.51861870 0.51861870 0.32007548
0.06256172 0.06256172 0.38108786
0.10873003 0.06256172 0.38108786
0.16691878 0.06256172 0.38108786
0.21456423 0.06256172 0.38108786
0.26476882 0.06256172 0.38108786
0.32007548 0.06256172 0.38108786
0.38108786 0.06256172 0.38108786
0.44753214 0.06256172 0.38108786
0.51861870 0.06256172 0.38108786
0.06256172 0.10873003 0.38108786
0.10873003 0.10873003 0.38108786
0.16691878 0.10873003 0.38108786
0.21456423 0.10873003 0.38108786
0.26476882 0.10873003 0.38108786
0.32007548 0.10873003 0.38108786
0.38108786 0.10873003 0.38108786
0.44753214 0.10873003 0.38108786
0.51861870 0.10873003 0.38108786
0.06256172 0.16691878 0.38108786
0.10873003 0.16691878 0.38108786
0.16691878 0.16691878 0.38108786
0.21456423 0.16691878 0.38108786
0.26476882 0.16691878 0.38108786
0.32007548 0.16691878 0.38108786
0.38108786 0.16691878 0.38108786
0.44753214 0.16691878 0.38108786
0.51861870 0.16691878 0.38108786
0.06256172 0.21456423 0.38108786
0.10873003 0.21456423 0.38108786
0.16691878 0.21456423 0.38108786
0.21456423 0.21456423 0.38108786
0.26476882 0.21456423 0.38108786
0.32007548 0.21456423 0.38108786
0.38108786 0.21456423 0.38108786
0.44753214 0.21456423 0.38108786
0.51861870 0.21456423 0.38108786
0.06256172 0.26476882 0.38108786
0.10873003 0.26476882 0.38108786
0.16691878 0.26476882 0.38108786
0.21456423 0.26476882 0.38108786
0.26476882 0.26476882 0.38108786
0.32007548 0.26476882 0.38108786
0.38108786 0.26476882 0.38108786
0.44753214 0.26476882 0.38108786
0.51861870 0.26476882 0.38108786
0.06256172 0.32007548 0.38108786
0.10873003 0.32007548 0.38108786
0.16691878 0.32007548 0.38108786
0.21456423 0.32007548 0.38108786
0.26476882 0.32007548 0.38108786
0.32007548 0.32007548 0.38108786
0.38108786 0.32007548 0.38108786
0.44753214 0.32007548 0.38108786
0.51861870 0.32007548 0.38108786
0.06256172 0.38108786 0.38108786
0.10873003 0.38108786 0.38108786
0.16691878 0.38108786 0.38108786
0.21456423 0.38108786 0.38108786
0.26476882 0.38108786 0.38108786
0.32007548 0.38108786 0.38108786
0.38108786 0.38108786 0.38108786
0.44753214 0.38108786 0.38108786
0.51861870 0.38108786 0.38108786
0.06256172 0.44753214 0.38108786
0.10873003 0.44753214 0.38108786
0.16691878 0.44753214 0.38108786
0.21456423 0.44753214 0.38108786
0.26476882 0.44753214 0.38108786
0.32007548 0.44753214 0.38108786
0.38108786 0.44753214 0.38108786
0.44753214 0.44753214 0.38108786
0.51861870 0.44753214 0.38108786
0.06256172 0.51861870 0.38108786
0.10873003 0.51861870 0.38108786
0.16691878 0.51861870 0.38108786
0.21456423 0.51861870 0.38108786
0.26476882 0.51861870 0.38108786
0.32007548 0.51861870 0.38108786
0.38108786 0.51861870 0.38108786
0.44753214 0.51861870 0.38108786
0.51861870 0.51861870 0.38108786
0.06256172 0.06256172 0.44753214
0.10873003 0.06256172 0.44753214
0.16691878 0.06256172 0.44753214
0.21456423 0.06256172 0.44753214
0.26476882 0.06256172 0.44753214
0.32007548 0.06256172 0.44753214
0.38108786 0.06256172 0.44753214
0.44753214 0.06256172 0.44753214
0.51861870 0.06256172 0.44753214
0.06256172 0.10873003 0.44753214
0.10873003 0.10873003 0.44753214
0.16691878 0.10873003 0.44753214
0.21456423 0.10873003 0.44753214
0.26476882 0.10873003 0.44753214
0.32007548 0.10873003 0.44753214
0.38108786 0.10873003 0.44753214
0.44753214 0.10873003 0.44753214
0.51861870 0.10873003 0.44753214
0.06256172 0.16691878 0.44753214
0.10873003 0.16691878 0.44753214
0.16691878 0.16691878 0.44753214
0.21456423 0.16691878 0.44753214
0.26476882 0.16691878 0.44753214
0.32007548 0.16691878 0.44753214
0.38108786 0.16691878 0.44753214
0.44753214 0.16691878 0.44753214
0.51861870 0.16691878 0.44753214
0.06256172 0.21456423 0.44753214
0.10873003 0.21456423 0.44753214
0.16691878 0.21456423 0.44753214
0.21456423 0.21456423 0.44753214
0.26476882 0.21456423 0.44753214
0.32007548 0.21456423 0.44753214
0.38108786 0.21456423 0.44753214
0.44753214 0.21456423 0.44753214
0.51861870 0.21456423 0.44753214
0.06256172 0.26476882 0.44753214
0.10873003 0.26476882 0.44753214
0.16691878 0.26476882 0.44753214
0.21456423 0.26476882 0.44753214
0.26476882 0.26476882 0.44753214
0.32007548 0.26476882 0.44753214
0.38108786 0.26476882 0.44753214
0.44753214 0.26476882 0.44753214
0.51861870 0.26476882 0.44753214
0.06256172 0.32007548 0.44753214
0.10873003 0.32007548 0.44753214
0.16691878 0.32007548 0.44753214
0.21456423 0.32007548 0.44753214
0.26476882 0.32007548 0.44753214
0.32007548 0.32007548 0.44753214
0.38108786 0.32007548 0.44753214
0.44753214 0.32007548 0.44753214
0.51861870 0.32007548 0.44753214
0.06256172 0.38108786 0.44753214
0.10873003 0.38108786 0.44753214
0.16691878 0.38108786 0.44753214
0.21456423 0.38108786 0.44753214
0.26476882 0.38108786 0.44753214
0.32007548 0.38108786 0.44753214
0.38108786 0.38108786 0.44753214
0.44753214 0.38108786 0.44753214
0.51861870 0.38108786 0.44753214
0.06256172 0.44753214 0.44753214
0.10873003 0.44753214 0.44753214
0.16691878 0.44753214 0.44753214
0.21456423 0.44753214 0.44753214
0.26476882 0.44753214 0.44753214
0.32007548 0.44753214 0.44753214
0.38108786 0.44753214 0.44753214
0.44753214 0.44753214 0.44753214
0.51861870 0.44753214 0.44753214
0.06256172 0.51861870 0.44753214
0.10873003 0.51861870 0.44753214
0.16691878 0.51861870 0.44753214
0.21456423 0.51861870 0.44753214
0.26476882 0.51861870 0.44753214
0.32007548 0.51861870 0.44753214
0.38108786 0.51861870 0.44753214
0.44753214 0.51861870 0.44753214
0.51861870 0.51861870 0.44753214
0.06256172 0.06256172 0.51861870
0.10873003 0.06256172 0.51861870
0.16691878 0.06256172 0.51861870
0.21456423 0.06256172 0.51861870
0.26476882 0.06256172 0.51861870
0.32007548 0.06256172 0.51861870
0.38108786 0.06256172 0.51861870
0.44753214 0.06256172 0.51861870
0.51861870 0.06256172 0.51861870
0.06256172 0.10873003 0.51861870
0.10873003 0.10873003 0.51861870
0.16691878 0.10873003 0.51861870
0.21456423 0.10873003 0.51861870
0.26476882 0.10873003 0.51861870
0.32007548 0.10873003 0.51861870
0.38108786 0.10873003 0.51861870
0.44753214 0.10873003 0.51861870
0.51861870 0.10873003 0.51861870
0.06256172 0.16691878 0.51861870
0.10873003 0.16691878 0.51861870
0.16691878 0.16691878 0.51861870
0.21456423 0.16691878 0.51861870
0.26476882 0.16691878 0.51861870
0.32007548 0.16691878 0.51861870
0.38108786 0.16691878 0.51861870
0.44753214 0.16691878 0.51861870
0.51861870 0.16691878 0.51861870
0.06256172 0.21456423 0.51861870
0.10873003 0.21456423 0.51861870
0.16691878 0.21456423 0.51861870
0.21456423 0.21456423 0.51861870
0.26476882 0.21456423 0.51861870
0.32007548 0.21456423 0.51861870
0.38108786 0.21456423 0.51861870
0.44753214 0.21456423 0.51861870
0.51861870 0.21456423 0.51861870
0.06256172 0.26476882 0.51861870
0.10873003 0.26476882 0.51861870
0.16691878 0.26476882 0.51861870
0.21456423 0.26476882 0.51861870
0.26476882 0.26476882 0.51861870
0.32007548 0.26476882 0.51861870
0.38108786 0.26476882 0.51861870
0.44753214 0.26476882 0.51861870
0.51861870 0.26476882 0.51861870
0.06256172 0.32007548 0.51861870
0.10873003 0.32007548 0.51861870
0.16691878 0.32007548 0.51861870
0.21456423 0.32007548 0.51861870
0.26476882 0.32007548 0.51861870
0.32007548 0.32007548 0.51861870
0.38108786 0.32007548 0.51861870
0.44753214 0.32007548 0.51861870
0.51861870 0.32007548 0.51861870
0.06256172 0.38108786 0.51861870
0.10873003 0.38108786 0.51861870
0.16691878 0.38108786 0.51861870
0.21456423 0.38108786 0.51861870
0.26476882 0.38108786 0.51861870
0.32007548 0.38108786 0.51861870
0.38108786 0.38108786 0.51861870
0.44753214 0.38108786 0.51861870
0.51861870 0.38108786 0.51861870
0.06256172 0.44753214 0.51861870
0.10873003 0.44753214 0.51861870
0.16691878 0.44753214 0.51861870
0.21456423 0.44753214 0.51861870
0.26476882 0.44753214 0.51861870
0.32007548 0.44753214 0.51861870
0.38108786 0.44753214 0.51861870
0.44753214 0.44753214 0.51861870
0.51861870 0.44753214 0.51861870
0.06256172 0.51861870 0.51861870
0.10873003 0.51861870 0.51861870
0.16691878 0.51861870 0.51861870
0.21456423 0.51861870 0.51861870
0.26476882 0.51861870 0.51861870
0.32007548 0.51861870 0.51861870
0.38108786 0.51861870 0.51861870
0.44753214 0.51861870 0.51861870
0.51861870 0.51861870 0.51861870
