src/ffmpeg_scripts/luts/flog-experimental_1p67.cube
TITLE "flog-experimental_1p67"
LUT_3D_SIZE 5
# Fujifilm F-Log/Rec2020 -> PQ (EOTF Only)/Rec2020, CineEI Shift 1.67, Black Level 0.00% IRE, Input 109% -> Output 100% - Created with LUTCalc v4.01 by Ben Turley October 2020
0.00000073 0.00000073 0.00000073
0.42732125 0.00000073 0.00000073
0.68184975 0.00000073 0.00000073
0.93094003 0.00000073 0.00000073
1.00000000 0.00000073 0.00000073
0.00000073 0.42732125 0.00000073
0.42732125 0.42732125 0.00000073
0.68184975 0.42732125 0.00000073
0.93094003 0.42732125 0.00000073
1.00000000 0.42732125 0.00000073
0.00000073 0.68184975 0.00000073
0.42732125 0.68184975 0.00000073
0.68184975 0.68184975 0.00000073
0.93094003 0.68184975 0.00000073
1.00000000 0.68184975 0.00000073
0.00000073 0.93094003 0.00000073
0.42732125 0.93094003 0.00000073
0.68184975 0.93094003 0.00000073
0.93094003 0.93094003 0.00000073
1.00000000 0.93094003 0.00000073
0.00000073 1.00000000 0.00000073
0.42732125 1.00000000 0.00000073
0.68184975 1.00000000 0.00000073
0.93094003 1.00000000 0.00000073
1.00000000 1.00000000 0.00000073
0.00000073 0.00000073 0.42732125
0.42732125 0.00000073 0.42732125
0.68184975 0.00000073 0.42732125
0.93094003 0.00000073 0.42732125
1.00000000 0.00000073 0.42732125
0.00000073 0.42732125 0.42732125
0.42732125 0.42732125 0.42732125
0.68184975 0.42732125 0.42732125
0.93094003 0.42732125 0.42732125
1.00000000 0.42732125 0.42732125
0.00000073 0.68184975 0.42732125
0.42732125 0.68184975 0.42732125
0.68184975 0.68184975 0.42732125
0.93094003 0.68184975 0.42732125
1.00000000 0.68184975 0.42732125
0.00000073 0.93094003 0.42732125
0.42732125 0.93094003 0.42732125
0.68184975 0.93094003 0.42732125
0.93094003 0.93094003 0.42732125
1.00000000 0.93094003 0.42732125
0.00000073 1.00000000 0.42732125
0.42732125 1.00000000 0.42732125
0.68184975 1.00000000 0.42732125
0.93094003 1.00000000 0.42732125
1.00000000 1.00000000 0.42732125
0.00000073 0.00000073 0.68184975
0.42732125 0.00000073 0.68184975
0.68184975 0.00000073 0.68184975
0.93094003 0.00000073 0.68184975
1.00000000 0.00000073 0.68184975
0.00000073 0.42732125 0.68184975
0.42732125 0.42732125 0.68184975
0.68184975 0.42732125 0.68184975
0.93094003 0.42732125 0.68184975
1.00000000 0.42732125 0.68184975
0.00000073 0.68184975 0.68184975
0.42732125 0.68184975 0.68184975
0.68184975 0.68184975 0.68184975
0.93094003 0.68184975 0.68184975
1.00000000 0.68184975 0.68184975
0.00000073 0.93094003 0.68184975
0.42732125 0.93094003 0.68184975
0.68184975 0.93094003 0.68184975
0.93094003 0.93094003 0.68184975
1.00000000 0.93094003 0.68184975
0.00000073 1.00000000 0.68184975
0.42732125 1.00000000 0.68184975
0.68184975 1.00000000 0.68184975
0.93094003 1.00000000 0.68184975
1.00000000 1.00000000 0.68184975
0.00000073 0.00000073 0.93094003
0.42732125 0.00000073 0.93094003
0.68184975 0.00000073 0.93094003
0.93094003 0.00000073 0.93094003
1.00000000 0.00000073 0.93094003
0.00000073 0.42732125 0.93094003
0.42732125 0.42732125 0.93094003
0.68184975 0.42732125 0.93094003
0.93094003 0.42732125 0.93094003
1.00000000 0.42732125 0.93094003
0.00000073 0.68184975 0.93094003
0.42732125 0.68184975 0.93094003
0.68184975 0.68184975 0.93094003
0.93094003 0.68184975 0.93094003
1.00000000 0.68184975 0.93094003
0.00000073 0.93094003 0.93094003
0.42732125 0.93094003 0.93094003
0.68184975 0.93094003 0.93094003
0.93094003 0.93094003 0.93094003
1.00000000 0.93094003 0.93094003
0.00000073 1.00000000 0.93094003
0.42732125 1.00000000 0.93094003
0.68184975 1.00000000 0.93094003
0.93094003 1.00000000 0.93094003
1.00000000 1.00000000 0.93094003
0.00000073 0.00000073 1.00000000
0.42732125 0.00000073 1.00000000
0.68184975 0.00000073 1.00000000
0.93094003 0.00000073 1.00000000
1.00000000 0.00000073 1.00000000
0.00000073 0.42732125 1.00000000
0.42732125 0.42732125 1.00000000
0.68184975 0.42732125 1.00000000
0.93094003 0.42732125 1.00000000
1.00000000 0.42732125 1.00000000
0.00000073 0.68184975 1.00000000
0.42732125 0.68184975 1.00000000
0.68184975 0.68184975 1.00000000
0.93094003 0.68184975 1.00000000
1.00000000 0.68184975 1.00000000
0.00000073 0.93094003 1.00000000
0.42732125 0.93094003 1.00000000
0.68184975 0.93094003 1.00000000
0.93094003 0.93094003 1.00000000
1.00000000 0.93094003 1.00000000
0.00000073 1.00000000 1.00000000
0.42732125 1.00000000 1.00000000
0.68184975 1.00000000 1.00000000
0.93094003 1.00000000 1.00000000
1.00000000 1.00000000 1.00000000
