src/ffmpeg_scripts/luts/flog-experimental_-2p67.cube
TITLE "flog-experimental_-2p67"
LUT_3D_SIZE 9
# Fujifilm F-Log/Rec2020 -> PQ (EOTF Only)/Rec2020, CineEI Shift -2.67, Black Level 0.00% IRE, Input 109% -> Output 100% - Created with LUTCalc v4.01 by Ben Turley October 2020
0.00000073 0.00000073 0.00000073
0.07470674 0.00000073 0.00000073
0.16886327 0.00000073 0.00000073
0.24595948 0.00000073 0.00000073
0.32719667 0.00000073 0.00000073
0.41668964 0.00000073 0.00000073
0.51541517 0.00000073 0.00000073
0.62293018 0.00000073 0.00000073
0.73795697 0.00000073 0.00000073
0.00000073 0.07470674 0.00000073
0.07470674 0.07470674 0.00000073
0.16886327 0.07470674 0.00000073
0.24595948 0.07470674 0.00000073
0.32719667 0.07470674 0.00000073
0.41668964 0.07470674 0.00000073
0.51541517 0.07470674 0.00000073
0.62293018 0.07470674 0.00000073
0.73795697 0.07470674 0.00000073
0.00000073 0.16886327 0.00000073
0.07470674 0.16886327 0.00000073
0.16886327 0.16886327 0.00000073
0.24595948 0.16886327 0.00000073
0.32719667 0.16886327 0.00000073
0.41668964 0.16886327 0.00000073
0.51541517 0.16886327 0.00000073
0.62293018 0.16886327 0.00000073
0.73795697 0.16886327 0.00000073
0.00000073 0.24595948 0.00000073
0.07470674 0.24595948 0.00000073
0.16886327 0.24595948 0.00000073
0.24595948 0.24595948 0.00000073
0.32719667 0.24595948 0.00000073
0.41668964 0.24595948 0.00000073
0.51541517 0.24595948 0.00000073
0.62293018 0.24595948 0.00000073
0.73795697 0.24595948 0.00000073
0.00000073 0.32719667 0.00000073
0.07470674 0.32719667 0.00000073
0.16886327 0.32719667 0.00000073
0.24595948 0.32719667 0.00000073
0.32719667 0.32719667 0.00000073
0.41668964 0.32719667 0.00000073
0.51541517 0.32719667 0.00000073
0.62293018 0.32719667 0.00000073
0.73795697 0.32719667 0.00000073
0.00000073 0.41668964 0.00000073
0.07470674 0.41668964 0.00000073
0.16886327 0.41668964 0.00000073
0.24595948 0.41668964 0.00000073
0.32719667 0.41668964 0.00000073
0.41668964 0.41668964 0.00000073
0.51541517 0.41668964 0.00000073
0.62293018 0.41668964 0.00000073
0.73795697 0.41668964 0.00000073
0.00000073 0.51541517 0.00000073
0.07470674 0.51541517 0.00000073
0.16886327 0.51541517 0.00000073
0.24595948 0.51541517 0.00000073
0.32719667 0.51541517 0.00000073
0.41668964 0.51541517 0.00000073
0.51541517 0.51541517 0.00000073
0.62293018 0.51541517 0.00000073
0.73795697 0.51541517 0.00000073
0.00000073 0.62293018 0.00000073
0.07470674 0.62293018 0.00000073
0.16886327 0.62293018 0.00000073
0.24595948 0.62293018 0.00000073
0.32719667 0.62293018 0.00000073
0.41668964 0.62293018 0.00000073
0.51541517 0.62293018 0.00000073
0.62293018 0.62293018 0.00000073
0.73795697 0.62293018 0.00000073
0.00000073 0.73795697 0.00000073
0.07470674 0.73795697 0.00000073
0.16886327 0.73795697 0.00000073
0.24595948 0.73795697 0.00000073
0.32719667 0.73795697 0.00000073
0.41668964 0.73795697 0.00000073
0.51541517 0.73795697 0.00000073
0.62293018 0.73795697 0.00000073
0.73795697 0.73795697 0.00000073
0.00000073 0.00000073 0.07470674
0.07470674 0.00000073 0.07470674
0.16886327 0.00000073 0.07470674
0.24595948 0.00000073 0.07470674
0.32719667 0.00000073 0.07470674
0.41668964 0.00000073 0.07470674
0.51541517 0.00000073 0.07470674
0.62293018 0.00000073 0.07470674
0.73795697 0.00000073 0.07470674
0.00000073 0.07470674 0.07470674
0.07470674 0.07470674 0.07470674
0.16886327 0.07470674 0.07470674
0.24595948 0.07470674 0.07470674
0.32719667 0.07470674 0.07470674
0.41668964 0.07470674 0.07470674
0.51541517 0.07470674 0.07470674
0.62293018 0.07470674 0.07470674
0.73795697 0.07470674 0.07470674
0.00000073 0.16886327 0.07470674
0.07470674 0.16886327 0.07470674
0.16886327 0.16886327 0.07470674
0.24595948 0.16886327 0.07470674
0.32719667 0.16886327 0.07470674
0.41668964 0.16886327 0.07470674
0.51541517 0.16886327 0.07470674
0.62293018 0.16886327 0.07470674
0.73795697 0.16886327 0.07470674
0.00000073 0.24595948 0.07470674
0.07470674 0.24595948 0.07470674
0.16886327 0.24595948 0.07470674
0.24595948 0.24595948 0.07470674
0.32719667 0.24595948 0.07470674
0.41668964 0.24595948 0.07470674
0.51541517 0.24595948 0.07470674
0.62293018 0.24595948 0.07470674
0.73795697 0.24595948 0.07470674
0.00000073 0.32719667 0.07470674
0.07470674 0.32719667 0.07470674
0.16886327 0.32719667 0.07470674
0.24595948 0.32719667 0.07470674
0.32719667 0.32719667 0.07470674
0.41668964 0.32719667 0.07470674
0.51541517 0.32719667 0.07470674
0.62293018 0.32719667 0.07470674
0.73795697 0.32719667 0.07470674
0.00000073 0.41668964 0.07470674
0.07470674 0.41668964 0.07470674
0.16886327 0.41668964 0.07470674
0.24595948 0.41668964 0.07470674
0.32719667 0.41668964 0.07470674
0.41668964 0.41668964 0.07470674
0.51541517 0.41668964 0.07470674
0.62293018 0.41668964 0.07470674
0.73795697 0.41668964 0.07470674
0.00000073 0.51541517 0.07470674
0.07470674 0.51541517 0.07470674
0.16886327 0.51541517 0.07470674
0.24595948 0.51541517 0.07470674
0.32719667 0.51541517 0.07470674
0.41668964 0.51541517 0.07470674
0.51541517 0.51541517 0.07470674
0.62293018 0.51541517 0.07470674
0.73795697 0.51541517 0.07470674
0.00000073 0.62293018 0.07470674
0.07470674 0.62293018 0.07470674
0.16886327 0.62293018 0.07470674
0.24595948 0.62293018 0.07470674
0.32719667 0.62293018 0.07470674
0.41668964 0.62293018 0.07470674
0.51541517 0.62293018 0.07470674
0.62293018 0.62293018 0.07470674
0.73795697 0.62293018 0.07470674
0.00000073 0.73795697 0.07470674
0.07470674 0.73795697 0.07470674
0.16886327 0.73795697 0.07470674
0.24595948 0.73795697 0.07470674
0.32719667 0.73795697 0.07470674
0.41668964 0.73795697 0.07470674
0.51541517 0.73795697 0.07470674
0.62293018 0.73795697 0.07470674
0.73795697 0.73795697 0.07470674
0.00000073 0.00000073 0.16886327
0.07470674 0.00000073 0.16886327
0.16886327 0.00000073 0.16886327
0.24595948 0.00000073 0.16886327
0.32719667 0.00000073 0.16886327
0.41668964 0.00000073 0.16886327
0.51541517 0.00000073 0.16886327
0.62293018 0.00000073 0.16886327
0.73795697 0.00000073 0.16886327
0.00000073 0.07470674 0.16886327
0.07470674 0.07470674 0.16886327
0.16886327 0.07470674 0.16886327
0.24595948 0.07470674 0.16886327
0.32719667 0.07470674 0.16886327
0.41668964 0.07470674 0.16886327
0.51541517 0.07470674 0.16886327
0.62293018 0.07470674 0.16886327
0.73795697 0.07470674 0.16886327
0.00000073 0.16886327 0.16886327
0.07470674 0.16886327 0.16886327
0.16886327 0.16886327 0.16886327
0.24595948 0.16886327 0.16886327
0.32719667 0.16886327 0.16886327
0.41668964 0.16886327 0.16886327
0.51541517 0.16886327 0.16886327
0.62293018 0.16886327 0.16886327
0.73795697 0.16886327 0.16886327
0.00000073 0.24595948 0.16886327
0.07470674 0.24595948 0.16886327
0.16886327 0.24595948 0.16886327
0.24595948 0.24595948 0.16886327
0.32719667 0.24595948 0.16886327
0.41668964 0.24595948 0.16886327
0.51541517 0.24595948 0.16886327
0.62293018 0.24595948 0.16886327
0.73795697 0.24595948 0.16886327
0.00000073 0.32719667 0.16886327
0.07470674 0.32719667 0.16886327
0.16886327 0.32719667 0.16886327
0.24595948 0.32719667 0.16886327
0.32719667 0.32719667 0.16886327
0.41668964 0.32719667 0.16886327
0.51541517 0.32719667 0.16886327
0.62293018 0.32719667 0.16886327
0.73795697 0.32719667 0.16886327
0.00000073 0.41668964 0.16886327
0.07470674 0.41668964 0.16886327
0.16886327 0.41668964 0.16886327
0.24595948 0.41668964 0.16886327
0.32719667 0.41668964 0.16886327
0.41668964 0.41668964 0.16886327
0.51541517 0.41668964 0.16886327
0.62293018 0.41668964 0.16886327
0.73795697 0.41668964 0.16886327
0.00000073 0.51541517 0.16886327
0.07470674 0.51541517 0.16886327
0.16886327 0.51541517 0.16886327
0.24595948 0.51541517 0.16886327
0.32719667 0.51541517 0.16886327
0.41668964 0.51541517 0.16886327
0.51541517 0.51541517 0.16886327
0.62293018 0.51541517 0.16886327
0.73795697 0.51541517 0.16886327
0.00000073 0.62293018 0.16886327
0.07470674 0.62293018 0.16886327
0.16886327 0.62293018 0.16886327
0.24595948 0.62293018 0.16886327
0.32719667 0.62293018 0.16886327
0.41668964 0.62293018 0.16886327
0.51541517 0.62293018 0.16886327
0.62293018 0.62293018 0.16886327
0.73795697 0.62293018 0.16886327
0.00000073 0.73795697 0.16886327
0.07470674 0.73795697 0.16886327
0.16886327 0.73795697 0.16886327
0.24595948 0.73795697 0.16886327
0.32719667 0.73795697 0.16886327
0.41668964 0.73795697 0.16886327
0.51541517 0.73795697 0.16886327
0.62293018 0.73795697 0.16886327
0.73795697 0.73795697 0.16886327
0.00000073 0.00000073 0.24595948
0.07470674 0.00000073 0.24595948
0.16886327 0.00000073 0.24595948
0.24595948 0.00000073 0.24595948
0.32719667 0.00000073 0.24595948
0.41668964 0.00000073 0.24595948
0.51541517 0.00000073 0.24595948
0.62293018 0.00000073 0.24595948
0.73795697 0.00000073 0.24595948
0.00000073 0.07470674 0.24595948
0.07470674 0.07470674 0.24595948
0.16886327 0.07470674 0.24595948
0.24595948 0.07470674 0.24595948
0.32719667 0.07470674 0.24595948
0.41668964 0.07470674 0.24595948
0.51541517 0.07470674 0.24595948
0.62293018 0.07470674 0.24595948
0.73795697 0.07470674 0.24595948
0.00000073 0.16886327 0.24595948
0.07470674 0.16886327 0.24595948
0.16886327 0.16886327 0.24595948
0.24595948 0.16886327 0.24595948
0.32719667 0.16886327 0.24595948
0.41668964 0.16886327 0.24595948
0.51541517 0.16886327 0.24595948
0.62293018 0.16886327 0.24595948
0.73795697 0.16886327 0.24595948
0.00000073 0.24595948 0.24595948
0.07470674 0.24595948 0.24595948
0.16886327 0.24595948 0.24595948
0.24595948 0.24595948 0.24595948
0.32719667 0.24595948 0.24595948
0.41668964 0.24595948 0.24595948
0.51541517 0.24595948 0.24595948
0.62293018 0.24595948 0.24595948
0.73795697 0.24595948 0.24595948
0.00000073 0.32719667 0.24595948
0.07470674 0.32719667 0.24595948
0.16886327 0.32719667 0.24595948
0.24595948 0.32719667 0.24595948
0.32719667 0.32719667 0.24595948
0.41668964 0.32719667 0.24595948
0.51541517 0.32719667 0.24595948
0.62293018 0.32719667 0.24595948
0.73795697 0.32719667 0.24595948
0.00000073 0.41668964 0.24595948
0.07470674 0.41668964 0.24595948
0.16886327 0.41668964 0.24595948
0.24595948 0.41668964 0.24595948
0.32719667 0.41668964 0.24595948
0.41668964 0.41668964 0.24595948
0.51541517 0.41668964 0.24595948
0.62293018 0.41668964 0.24595948
0.73795697 0.41668964 0.24595948
0.00000073 0.51541517 0.24595948
0.07470674 0.51541517 0.24595948
0.16886327 0.51541517 0.24595948
0.24595948 0.51541517 0.24595948
0.32719667 0.51541517 0.24595948
0.41668964 0.51541517 0.24595948
0.51541517 0.51541517 0.24595948
0.62293018 0.51541517 0.24595948
0.73795697 0.51541517 0.24595948
0.00000073 0.62293018 0.24595948
0.07470674 0.62293018 0.24595948
0.16886327 0.62293018 0.24595948
0.24595948 0.62293018 0.24595948
0.32719667 0.62293018 0.24595948
0.41668964 0.62293018 0.24595948
0.51541517 0.62293018 0.24595948
0.62293018 0.62293018 0.24595948
0.73795697 0.62293018 0.24595948
0.00000073 0.73795697 0.24595948
0.07470674 0.73795697 0.24595948
0.16886327 0.73795697 0.24595948
0.24595948 0.73795697 0.24595948
0.32719667 0.73795697 0.24595948
0.41668964 0.73795697 0.24595948
0.51541517 0.73795697 0.24595948
0.62293018 0.73795697 0.24595948
0.73795697 0.73795697 0.24595948
0.00000073 0.00000073 0.32719667
0.07470674 0.00000073 0.32719667
0.16886327 0.00000073 0.32719667
0.24595948 0.00000073 0.32719667
0.32719667 0.00000073 0.32719667
0.41668964 0.00000073 0.32719667
0.51541517 0.00000073 0.32719667
0.62293018 0.00000073 0.32719667
0.73795697 0.00000073 0.32719667
0.00000073 0.07470674 0.32719667
0.07470674 0.07470674 0.32719667
0.16886327 0.07470674 0.32719667
0.24595948 0.07470674 0.32719667
0.32719667 0.07470674 0.32719667
0.41668964 0.07470674 0.32719667
0.51541517 0.07470674 0.32719667
0.62293018 0.07470674 0.32719667
0.73795697 0.07470674 0.32719667
0.00000073 0.16886327 0.32719667
0.07470674 0.16886327 0.32719667
0.16886327 0.16886327 0.32719667
0.24595948 0.16886327 0.32719667
0.32719667 0.16886327 0.32719667
0.41668964 0.16886327 0.32719667
0.51541517 0.16886327 0.32719667
0.62293018 0.16886327 0.32719667
0.73795697 0.16886327 0.32719667
0.00000073 0.24595948 0.32719667
0.07470674 0.24595948 0.32719667
0.16886327 0.24595948 0.32719667
0.24595948 0.24595948 0.32719667
0.32719667 0.24595948 0.32719667
0.41668964 0.24595948 0.32719667
0.51541517 0.24595948 0.32719667
0.62293018 0.24595948 0.32719667
0.73795697 0.24595948 0.32719667
0.00000073 0.32719667 0.32719667
0.07470674 0.32719667 0.32719667
0.16886327 0.32719667 0.32719667
0.24595948 0.32719667 0.32719667
0.32719667 0.32719667 0.32719667
0.41668964 0.32719667 0.32719667
0.51541517 0.32719667 0.32719667
0.62293018 0.32719667 0.32719667
0.73795697 0.32719667 0.32719667
0.00000073 0.41668964 0.32719667
0.07470674 0.41668964 0.32719667
0.16886327 0.41668964 0.32719667
0.24595948 0.41668964 0.32719667
0.32719667 0.41668964 0.32719667
0.41668964 0.41668964 0.32719667
0.51541517 0.41668964 0.32719667
0.62293018 0.41668964 0.32719667
0.73795697 0.41668964 0.32719667
0.00000073 0.51541517 0.32719667
0.07470674 0.51541517 0.32719667
0.16886327 0.51541517 0.32719667
0.24595948 0.51541517 0.32719667
0.32719667 0.51541517 0.32719667
0.41668964 0.51541517 0.32719667
0.51541517 0.51541517 0.32719667
0.62293018 0.51541517 0.32719667
0.73795697 0.51541517 0.32719667
0.00000073 0.62293018 0.32719667
0.07470674 0.62293018 0.32719667
0.16886327 0.62293018 0.32719667
0.24595948 0.62293018 0.32719667
0.32719667 0.62293018 0.32719667
0.41668964 0.62293018 0.32719667
0.51541517 0.62293018 0.32719667
0.62293018 0.62293018 0.32719667
0.73795697 0.62293018 0.32719667
0.00000073 0.73795697 0.32719667
0.07470674 0.73795697 0.32719667
0.16886327 0.73795697 0.32719667
0.24595948 0.73795697 0.32719667
0.32719667 0.73795697 0.32719667
0.41668964 0.73795697 0.32719667
0.51541517 0.73795697 0.32719667
0.62293018 0.73795697 0.32719667
0.73795697 0.73795697 0.32719667
0.00000073 0.00000073 0.41668964
0.07470674 0.00000073 0.41668964
0.16886327 0.00000073 0.41668964
0.24595948 0.00000073 0.41668964
0.32719667 0.00000073 0.41668964
0.41668964 0.00000073 0.41668964
0.51541517 0.00000073 0.41668964
0.62293018 0.00000073 0.41668964
0.73795697 0.00000073 0.41668964
0.00000073 0.07470674 0.41668964
0.07470674 0.07470674 0.41668964
0.16886327 0.07470674 0.41668964
0.24595948 0.07470674 0.41668964
0.32719667 0.07470674 0.41668964
0.41668964 0.07470674 0.41668964
0.51541517 0.07470674 0.41668964
0.62293018 0.07470674 0.41668964
0.73795697 0.07470674 0.41668964
0.00000073 0.16886327 0.41668964
0.07470674 0.16886327 0.41668964
0.16886327 0.16886327 0.41668964
0.24595948 0.16886327 0.41668964
0.32719667 0.16886327 0.41668964
0.41668964 0.16886327 0.41668964
0.51541517 0.16886327 0.41668964
0.62293018 0.16886327 0.41668964
0.73795697 0.16886327 0.41668964
0.00000073 0.24595948 0.41668964
0.07470674 0.24595948 0.41668964
0.16886327 0.24595948 0.41668964
0.24595948 0.24595948 0.41668964
0.32719667 0.24595948 0.41668964
0.41668964 0.24595948 0.41668964
0.51541517 0.24595948 0.41668964
0.62293018 0.24595948 0.41668964
0.73795697 0.24595948 0.41668964
0.00000073 0.32719667 0.41668964
0.07470674 0.32719667 0.41668964
0.16886327 0.32719667 0.41668964
0.24595948 0.32719667 0.41668964
0.32719667 0.32719667 0.41668964
0.41668964 0.32719667 0.41668964
0.51541517 0.32719667 0.41668964
0.62293018 0.32719667 0.41668964
0.73795697 0.32719667 0.41668964
0.00000073 0.41668964 0.41668964
0.07470674 0.41668964 0.41668964
0.16886327 0.41668964 0.41668964
0.24595948 0.41668964 0.41668964
0.32719667 0.41668964 0.41668964
0.41668964 0.41668964 0.41668964
0.51541517 0.41668964 0.41668964
0.62293018 0.41668964 0.41668964
0.73795697 0.41668964 0.41668964
0.00000073 0.51541517 0.41668964
0.07470674 0.51541517 0.41668964
0.16886327 0.51541517 0.41668964
0.24595948 0.51541517 0.41668964
0.32719667 0.51541517 0.41668964
0.41668964 0.51541517 0.41668964
0.51541517 0.51541517 0.41668964
0.62293018 0.51541517 0.41668964
0.73795697 0.51541517 0.41668964
0.00000073 0.62293018 0.41668964
0.07470674 0.62293018 0.41668964
0.16886327 0.62293018 0.41668964
0.24595948 0.62293018 0.41668964
0.32719667 0.62293018 0.41668964
0.41668964 0.62293018 0.41668964
0.51541517 0.62293018 0.41668964
0.62293018 0.62293018 0.41668964
0.73795697 0.62293018 0.41668964
0.00000073 0.73795697 0.41668964
0.07470674 0.73795697 0.41668964
0.16886327 0.73795697 0.41668964
0.24595948 0.73795697 0.41668964
0.32719667 0.73795697 0.41668964
0.41668964 0.73795697 0.41668964
0.51541517 0.73795697 0.41668964
0.62293018 0.73795697 0.41668964
0.73795697 0.73795697 0.41668964
0.00000073 0.00000073 0.51541517
0.07470674 0.00000073 0.51541517
0.16886327 0.00000073 0.51541517
0.24595948 0.00000073 0.51541517
0.32719667 0.00000073 0.51541517
0.41668964 0.00000073 0.51541517
0.51541517 0.00000073 0.51541517
0.62293018 0.00000073 0.51541517
0.73795697 0.00000073 0.51541517
0.00000073 0.07470674 0.51541517
0.07470674 0.07470674 0.51541517
0.16886327 0.07470674 0.51541517
0.24595948 0.07470674 0.51541517
0.32719667 0.07470674 0.51541517
0.41668964 0.07470674 0.51541517
0.51541517 0.07470674 0.51541517
0.62293018 0.07470674 0.51541517
0.73795697 0.07470674 0.51541517
0.00000073 0.16886327 0.51541517
0.07470674 0.16886327 0.51541517
0.16886327 0.16886327 0.51541517
0.24595948 0.16886327 0.51541517
0.32719667 0.16886327 0.51541517
0.41668964 0.16886327 0.51541517
0.51541517 0.16886327 0.51541517
0.62293018 0.16886327 0.51541517
0.73795697 0.16886327 0.51541517
0.00000073 0.24595948 0.51541517
0.07470674 0.24595948 0.51541517
0.16886327 0.24595948 0.51541517
0.24595948 0.24595948 0.51541517
0.32719667 0.24595948 0.51541517
0.41668964 0.24595948 0.51541517
0.51541517 0.24595948 0.51541517
0.62293018 0.24595948 0.51541517
0.73795697 0.24595948 0.51541517
0.00000073 0.32719667 0.51541517
0.07470674 0.32719667 0.51541517
0.16886327 0.32719667 0.51541517
0.24595948 0.32719667 0.51541517
0.32719667 0.32719667 0.51541517
0.41668964 0.32719667 0.51541517
0.51541517 0.32719667 0.51541517
0.62293018 0.32719667 0.51541517
0.73795697 0.32719667 0.51541517
0.00000073 0.41668964 0.51541517
0.07470674 0.41668964 0.51541517
0.16886327 0.41668964 0.51541517
0.24595948 0.41668964 0.51541517
0.32719667 0.41668964 0.51541517
0.41668964 0.41668964 0.51541517
0.51541517 0.41668964 0.51541517
0.62293018 0.41668964 0.51541517
0.73795697 0.41668964 0.51541517
0.00000073 0.51541517 0.51541517
0.07470674 0.51541517 0.51541517
0.16886327 0.51541517 0.51541517
0.24595948 0.51541517 0.51541517
0.32719667 0.51541517 0.51541517
0.41668964 0.51541517 0.51541517
0.51541517 0.51541517 0.51541517
0.62293018 0.51541517 0.51541517
0.73795697 0.51541517 0.51541517
0.00000073 0.62293018 0.51541517
0.07470674 0.62293018 0.51541517
0.16886327 0.62293018 0.51541517
0.24595948 0.62293018 0.51541517
0.32719667 0.62293018 0.51541517
0.41668964 0.62293018 0.51541517
0.51541517 0.62293018 0.51541517
0.62293018 0.62293018 0.51541517
0.73795697 0.62293018 0.51541517
0.00000073 0.73795697 0.51541517
0.07470674 0.73795697 0.51541517
0.16886327 0.73795697 0.51541517
0.24595948 0.73795697 0.51541517
0.32719667 0.73795697 0.51541517
0.41668964 0.73795697 0.51541517
0.51541517 0.73795697 0.51541517
0.62293018 0.73795697 0.51541517
0.73795697 0.73795697 0.51541517
0.00000073 0.00000073 0.62293018
0.07470674 0.00000073 0.62293018
0.16886327 0.00000073 0.62293018
0.24595948 0.00000073 0.62293018
0.32719667 0.00000073 0.62293018
0.41668964 0.00000073 0.62293018
0.51541517 0.00000073 0.62293018
0.62293018 0.00000073 0.62293018
0.73795697 0.00000073 0.62293018
0.00000073 0.07470674 0.62293018
0.07470674 0.07470674 0.62293018
0.16886327 0.07470674 0.62293018
0.24595948 0.07470674 0.62293018
0.32719667 0.07470674 0.62293018
0.41668964 0.07470674 0.62293018
0.51541517 0.07470674 0.62293018
0.62293018 0.07470674 0.62293018
0.73795697 0.07470674 0.62293018
0.00000073 0.16886327 0.62293018
0.07470674 0.16886327 0.62293018
0.16886327 0.16886327 0.62293018
0.24595948 0.16886327 0.62293018
0.32719667 0.16886327 0.62293018
0.41668964 0.16886327 0.62293018
0.51541517 0.16886327 0.62293018
0.62293018 0.16886327 0.62293018
0.73795697 0.16886327 0.62293018
0.00000073 0.24595948 0.62293018
0.07470674 0.24595948 0.62293018
0.16886327 0.24595948 0.62293018
0.24595948 0.24595948 0.62293018
0.32719667 0.24595948 0.62293018
0.41668964 0.24595948 0.62293018
0.51541517 0.24595948 0.62293018
0.62293018 0.24595948 0.62293018
0.73795697 0.24595948 0.62293018
0.00000073 0.32719667 0.62293018
0.07470674 0.32719667 0.62293018
0.16886327 0.32719667 0.62293018
0.24595948 0.32719667 0.62293018
0.32719667 0.32719667 0.62293018
0.41668964 0.32719667 0.62293018
0.51541517 0.32719667 0.62293018
0.62293018 0.32719667 0.62293018
0.73795697 0.32719667 0.62293018
0.00000073 0.41668964 0.62293018
0.07470674 0.41668964 0.62293018
0.16886327 0.41668964 0.62293018
0.24595948 0.41668964 0.62293018
0.32719667 0.41668964 0.62293018
0.41668964 0.41668964 0.62293018
0.51541517 0.41668964 0.62293018
0.62293018 0.41668964 0.62293018
0.73795697 0.41668964 0.62293018
0.00000073 0.51541517 0.62293018
0.07470674 0.51541517 0.62293018
0.16886327 0.51541517 0.62293018
0.24595948 0.51541517 0.62293018
0.32719667 0.51541517 0.62293018
0.41668964 0.51541517 0.62293018
0.51541517 0.51541517 0.62293018
0.62293018 0.51541517 0.62293018
0.73795697 0.51541517 0.62293018
0.00000073 0.62293018 0.62293018
0.07470674 0.62293018 0.62293018
0.16886327 0.62293018 0.62293018
0.24595948 0.62293018 0.62293018
0.32719667 0.62293018 0.62293018
0.41668964 0.62293018 0.62293018
0.51541517 0.62293018 0.62293018
0.62293018 0.62293018 0.62293018
0.73795697 0.62293018 0.62293018
0.00000073 0.73795697 0.62293018
0.07470674 0.73795697 0.62293018
0.16886327 0.73795697 0.62293018
0.24595948 0.73795697 0.62293018
0.32719667 0.73795697 0.62293018
0.41668964 0.73795697 0.62293018
0.51541517 0.73795697 0.62293018
0.62293018 0.73795697 0.62293018
0.73795697 0.73795697 0.62293018
0.00000073 0.00000073 0.73795697
0.07470674 0.00000073 0.73795697
0.16886327 0.00000073 0.73795697
0.24595948 0.00000073 0.73795697
0.32719667 0.00000073 0.73795697
0.41668964 0.00000073 0.73795697
0.51541517 0.00000073 0.73795697
0.62293018 0.00000073 0.73795697
0.73795697 0.00000073 0.73795697
0.00000073 0.07470674 0.73795697
0.07470674 0.07470674 0.73795697
0.16886327 0.07470674 0.73795697
0.24595948 0.07470674 0.73795697
0.32719667 0.07470674 0.73795697
0.41668964 0.07470674 0.73795697
0.51541517 0.07470674 0.73795697
0.62293018 0.07470674 0.73795697
0.73795697 0.07470674 0.73795697
0.00000073 0.16886327 0.73795697
0.07470674 0.16886327 0.73795697
0.16886327 0.16886327 0.73795697
0.24595948 0.16886327 0.73795697
0.32719667 0.16886327 0.73795697
0.41668964 0.16886327 0.73795697
0.51541517 0.16886327 0.73795697
0.62293018 0.16886327 0.73795697
0.73795697 0.16886327 0.73795697
0.00000073 0.24595948 0.73795697
0.07470674 0.24595948 0.73795697
0.16886327 0.24595948 0.73795697
0.24595948 0.24595948 0.73795697
0.32719667 0.24595948 0.73795697
0.41668964 0.24595948 0.73795697
0.51541517 0.24595948 0.73795697
0.62293018 0.24595948 0.73795697
0.73795697 0.24595948 0.73795697
0.00000073 0.32719667 0.73795697
0.07470674 0.32719667 0.73795697
0.16886327 0.32719667 0.73795697
0.24595948 0.32719667 0.73795697
0.32719667 0.32719667 0.73795697
0.41668964 0.32719667 0.73795697
0.51541517 0.32719667 0.73795697
0.62293018 0.32719667 0.73795697
0.73795697 0.32719667 0.73795697
0.00000073 0.41668964 0.73795697
0.07470674 0.41668964 0.73795697
0.16886327 0.41668964 0.73795697
0.24595948 0.41668964 0.73795697
0.32719667 0.41668964 0.73795697
0.41668964 0.41668964 0.73795697
0.51541517 0.41668964 0.73795697
0.62293018 0.41668964 0.73795697
0.73795697 0.41668964 0.73795697
0.00000073 0.51541517 0.73795697
0.07470674 0.51541517 0.73795697
0.16886327 0.51541517 0.73795697
0.24595948 0.51541517 0.73795697
0.32719667 0.51541517 0.73795697
0.41668964 0.51541517 0.73795697
0.51541517 0.51541517 0.73795697
0.62293018 0.51541517 0.73795697
0.73795697 0.51541517 0.73795697
0.00000073 0.62293018 0.73795697
0.07470674 0.62293018 0.73795697
0.16886327 0.62293018 0.73795697
0.24595948 0.62293018 0.73795697
0.32719667 0.62293018 0.73795697
0.41668964 0.62293018 0.73795697
0.51541517 0.62293018 0.73795697
0.62293018 0.62293018 0.73795697
0.73795697 0.62293018 0.73795697
0.00000073 0.73795697 0.73795697
0.07470674 0.73795697 0.73795697
0.16886327 0.73795697 0.73795697
0.24595948 0.73795697 0.73795697
0.32719667 0.73795697 0.73795697
0.41668964 0.73795697 0.73795697
0.51541517 0.73795697 0.73795697
0.62293018 0.73795697 0.73795697
0.73795697 0.73795697 0.73795697
