src/ffmpeg_scripts/luts/flog-smpte2084_-0p33.cube
TITLE "flog-smpte2084_-0p33"
LUT_3D_SIZE 33
# Fujifilm F-Log/Rec2020 -> PQ (EOTF Only)/Rec2020, CineEI Shift -0.33, Black Level 0.00% IRE, Input 109% -> Output 109% - Created with LUTCalc v4.01 by Ben Turley October 2020
0.06256172 0.06256172 0.06256172
0.06256172 0.06256172 0.06256172
0.06256172 0.06256172 0.06256172
0.07905439 0.06256172 0.06256172
0.15154410 0.06256172 0.06256172
0.18103657 0.06256172 0.06256172
0.20362865 0.06256172 0.06256172
0.22322721 0.06256172 0.06256172
0.24124221 0.06256172 0.06256172
0.25835699 0.06256172 0.06256172
0.27495792 0.06256172 0.06256172
0.29128509 0.06256172 0.06256172
0.30749719 0.06256172 0.06256172
0.32370341 0.06256172 0.06256172
0.33998068 0.06256172 0.06256172
0.35638378 0.06256172 0.06256172
0.37295152 0.06256172 0.06256172
0.38971085 0.06256172 0.06256172
0.40667960 0.06256172 0.06256172
0.42386841 0.06256172 0.06256172
0.44128219 0.06256172 0.06256172
0.45892116 0.06256172 0.06256172
0.47678173 0.06256172 0.06256172
0.49485714 0.06256172 0.06256172
0.51313802 0.06256172 0.06256172
0.53161283 0.06256172 0.06256172
0.55026826 0.06256172 0.06256172
0.56908955 0.06256172 0.06256172
0.58806078 0.06256172 0.06256172
0.60716511 0.06256172 0.06256172
0.62638500 0.06256172 0.06256172
0.64570239 0.06256172 0.06256172
0.66509891 0.06256172 0.06256172
0.06256172 0.06256172 0.06256172
0.06256172 0.06256172 0.06256172
0.06256172 0.06256172 0.06256172
0.07905439 0.06256172 0.06256172
0.15154410 0.06256172 0.06256172
0.18103657 0.06256172 0.06256172
0.20362865 0.06256172 0.06256172
0.22322721 0.06256172 0.06256172
0.24124221 0.06256172 0.06256172
0.25835699 0.06256172 0.06256172
0.27495792 0.06256172 0.06256172
0.29128509 0.06256172 0.06256172
0.30749719 0.06256172 0.06256172
0.32370341 0.06256172 0.06256172
0.33998068 0.06256172 0.06256172
0.35638378 0.06256172 0.06256172
0.37295152 0.06256172 0.06256172
0.38971085 0.06256172 0.06256172
0.40667960 0.06256172 0.06256172
0.42386841 0.06256172 0.06256172
0.44128219 0.06256172 0.06256172
0.45892116 0.06256172 0.06256172
0.47678173 0.06256172 0.06256172
0.49485714 0.06256172 0.06256172
0.51313802 0.06256172 0.06256172
0.53161283 0.06256172 0.06256172
0.55026826 0.06256172 0.06256172
0.56908955 0.06256172 0.06256172
0.58806078 0.06256172 0.06256172
0.60716511 0.06256172 0.06256172
0.62638500 0.06256172 0.06256172
0.64570239 0.06256172 0.06256172
0.66509891 0.06256172 0.06256172
0.06256172 0.06256172 0.06256172
0.06256172 0.06256172 0.06256172
0.06256172 0.06256172 0.06256172
0.07905439 0.06256172 0.06256172
0.15154410 0.06256172 0.06256172
0.18103657 0.06256172 0.06256172
0.20362865 0.06256172 0.06256172
0.22322721 0.06256172 0.06256172
0.24124221 0.06256172 0.06256172
0.25835699 0.06256172 0.06256172
0.27495792 0.06256172 0.06256172
0.29128509 0.06256172 0.06256172
0.30749719 0.06256172 0.06256172
0.32370341 0.06256172 0.06256172
0.33998068 0.06256172 0.06256172
0.35638378 0.06256172 0.06256172
0.37295152 0.06256172 0.06256172
0.38971085 0.06256172 0.06256172
0.40667960 0.06256172 0.06256172
0.42386841 0.06256172 0.06256172
0.44128219 0.06256172 0.06256172
0.45892116 0.06256172 0.06256172
0.47678173 0.06256172 0.06256172
0.49485714 0.06256172 0.06256172
0.51313802 0.06256172 0.06256172
0.53161283 0.06256172 0.06256172
0.55026826 0.06256172 0.06256172
0.56908955 0.06256172 0.06256172
0.58806078 0.06256172 0.06256172
0.60716511 0.06256172 0.06256172
0.62638500 0.06256172 0.06256172
0.64570239 0.06256172 0.06256172
0.66509891 0.06256172 0.06256172
0.06256172 0.07905439 0.06256172
0.06256172 0.07905439 0.06256172
0.06256172 0.07905439 0.06256172
0.07905439 0.07905439 0.06256172
0.15154410 0.07905439 0.06256172
0.18103657 0.07905439 0.06256172
0.20362865 0.07905439 0.06256172
0.22322721 0.07905439 0.06256172
0.24124221 0.07905439 0.06256172
0.25835699 0.07905439 0.06256172
0.27495792 0.07905439 0.06256172
0.29128509 0.07905439 0.06256172
0.30749719 0.07905439 0.06256172
0.32370341 0.07905439 0.06256172
0.33998068 0.07905439 0.06256172
0.35638378 0.07905439 0.06256172
0.37295152 0.07905439 0.06256172
0.38971085 0.07905439 0.06256172
0.40667960 0.07905439 0.06256172
0.42386841 0.07905439 0.06256172
0.44128219 0.07905439 0.06256172
0.45892116 0.07905439 0.06256172
0.47678173 0.07905439 0.06256172
0.49485714 0.07905439 0.06256172
0.51313802 0.07905439 0.06256172
0.53161283 0.07905439 0.06256172
0.55026826 0.07905439 0.06256172
0.56908955 0.07905439 0.06256172
0.58806078 0.07905439 0.06256172
0.60716511 0.07905439 0.06256172
0.62638500 0.07905439 0.06256172
0.64570239 0.07905439 0.06256172
0.66509891 0.07905439 0.06256172
0.06256172 0.15154410 0.06256172
0.06256172 0.15154410 0.06256172
0.06256172 0.15154410 0.06256172
0.07905439 0.15154410 0.06256172
0.15154410 0.15154410 0.06256172
0.18103657 0.15154410 0.06256172
0.20362865 0.15154410 0.06256172
0.22322721 0.15154410 0.06256172
0.24124221 0.15154410 0.06256172
0.25835699 0.15154410 0.06256172
0.27495792 0.15154410 0.06256172
0.29128509 0.15154410 0.06256172
0.30749719 0.15154410 0.06256172
0.32370341 0.15154410 0.06256172
0.33998068 0.15154410 0.06256172
0.35638378 0.15154410 0.06256172
0.37295152 0.15154410 0.06256172
0.38971085 0.15154410 0.06256172
0.40667960 0.15154410 0.06256172
0.42386841 0.15154410 0.06256172
0.44128219 0.15154410 0.06256172
0.45892116 0.15154410 0.06256172
0.47678173 0.15154410 0.06256172
0.49485714 0.15154410 0.06256172
0.51313802 0.15154410 0.06256172
0.53161283 0.15154410 0.06256172
0.55026826 0.15154410 0.06256172
0.56908955 0.15154410 0.06256172
0.58806078 0.15154410 0.06256172
0.60716511 0.15154410 0.06256172
0.62638500 0.15154410 0.06256172
0.64570239 0.15154410 0.06256172
0.66509891 0.15154410 0.06256172
0.06256172 0.18103657 0.06256172
0.06256172 0.18103657 0.06256172
0.06256172 0.18103657 0.06256172
0.07905439 0.18103657 0.06256172
0.15154410 0.18103657 0.06256172
0.18103657 0.18103657 0.06256172
0.20362865 0.18103657 0.06256172
0.22322721 0.18103657 0.06256172
0.24124221 0.18103657 0.06256172
0.25835699 0.18103657 0.06256172
0.27495792 0.18103657 0.06256172
0.29128509 0.18103657 0.06256172
0.30749719 0.18103657 0.06256172
0.32370341 0.18103657 0.06256172
0.33998068 0.18103657 0.06256172
0.35638378 0.18103657 0.06256172
0.37295152 0.18103657 0.06256172
0.38971085 0.18103657 0.06256172
0.40667960 0.18103657 0.06256172
0.42386841 0.18103657 0.06256172
0.44128219 0.18103657 0.06256172
0.45892116 0.18103657 0.06256172
0.47678173 0.18103657 0.06256172
0.49485714 0.18103657 0.06256172
0.51313802 0.18103657 0.06256172
0.53161283 0.18103657 0.06256172
0.55026826 0.18103657 0.06256172
0.56908955 0.18103657 0.06256172
0.58806078 0.18103657 0.06256172
0.60716511 0.18103657 0.06256172
0.62638500 0.18103657 0.06256172
0.64570239 0.18103657 0.06256172
0.66509891 0.18103657 0.06256172
0.06256172 0.20362865 0.06256172
0.06256172 0.20362865 0.06256172
0.06256172 0.20362865 0.06256172
0.07905439 0.20362865 0.06256172
0.15154410 0.20362865 0.06256172
0.18103657 0.20362865 0.06256172
0.20362865 0.20362865 0.06256172
0.22322721 0.20362865 0.06256172
0.24124221 0.20362865 0.06256172
0.25835699 0.20362865 0.06256172
0.27495792 0.20362865 0.06256172
0.29128509 0.20362865 0.06256172
0.30749719 0.20362865 0.06256172
0.32370341 0.20362865 0.06256172
0.33998068 0.20362865 0.06256172
0.35638378 0.20362865 0.06256172
0.37295152 0.20362865 0.06256172
0.38971085 0.20362865 0.06256172
0.40667960 0.20362865 0.06256172
0.42386841 0.20362865 0.06256172
0.44128219 0.20362865 0.06256172
0.45892116 0.20362865 0.06256172
0.47678173 0.20362865 0.06256172
0.49485714 0.20362865 0.06256172
0.51313802 0.20362865 0.06256172
0.53161283 0.20362865 0.06256172
0.55026826 0.20362865 0.06256172
0.56908955 0.20362865 0.06256172
0.58806078 0.20362865 0.06256172
0.60716511 0.20362865 0.06256172
0.62638500 0.20362865 0.06256172
0.64570239 0.20362865 0.06256172
0.66509891 0.20362865 0.06256172
0.06256172 0.22322721 0.06256172
0.06256172 0.22322721 0.06256172
0.06256172 0.22322721 0.06256172
0.07905439 0.22322721 0.06256172
0.15154410 0.22322721 0.06256172
0.18103657 0.22322721 0.06256172
0.20362865 0.22322721 0.06256172
0.22322721 0.22322721 0.06256172
0.24124221 0.22322721 0.06256172
0.25835699 0.22322721 0.06256172
0.27495792 0.22322721 0.06256172
0.29128509 0.22322721 0.06256172
0.30749719 0.22322721 0.06256172
0.32370341 0.22322721 0.06256172
0.33998068 0.22322721 0.06256172
0.35638378 0.22322721 0.06256172
0.37295152 0.22322721 0.06256172
0.38971085 0.22322721 0.06256172
0.40667960 0.22322721 0.06256172
0.42386841 0.22322721 0.06256172
0.44128219 0.22322721 0.06256172
0.45892116 0.22322721 0.06256172
0.47678173 0.22322721 0.06256172
0.49485714 0.22322721 0.06256172
0.51313802 0.22322721 0.06256172
0.53161283 0.22322721 0.06256172
0.55026826 0.22322721 0.06256172
0.56908955 0.22322721 0.06256172
0.58806078 0.22322721 0.06256172
0.60716511 0.22322721 0.06256172
0.62638500 0.22322721 0.06256172
0.64570239 0.22322721 0.06256172
0.66509891 0.22322721 0.06256172
0.06256172 0.24124221 0.06256172
0.06256172 0.24124221 0.06256172
0.06256172 0.24124221 0.06256172
0.07905439 0.24124221 0.06256172
0.15154410 0.24124221 0.06256172
0.18103657 0.24124221 0.06256172
0.20362865 0.24124221 0.06256172
0.22322721 0.24124221 0.06256172
0.24124221 0.24124221 0.06256172
0.25835699 0.24124221 0.06256172
0.27495792 0.24124221 0.06256172
0.29128509 0.24124221 0.06256172
0.30749719 0.24124221 0.06256172
0.32370341 0.24124221 0.06256172
0.33998068 0.24124221 0.06256172
0.35638378 0.24124221 0.06256172
0.37295152 0.24124221 0.06256172
0.38971085 0.24124221 0.06256172
0.40667960 0.24124221 0.06256172
0.42386841 0.24124221 0.06256172
0.44128219 0.24124221 0.06256172
0.45892116 0.24124221 0.06256172
0.47678173 0.24124221 0.06256172
0.49485714 0.24124221 0.06256172
0.51313802 0.24124221 0.06256172
0.53161283 0.24124221 0.06256172
0.55026826 0.24124221 0.06256172
0.56908955 0.24124221 0.06256172
0.58806078 0.24124221 0.06256172
0.60716511 0.24124221 0.06256172
0.62638500 0.24124221 0.06256172
0.64570239 0.24124221 0.06256172
0.66509891 0.24124221 0.06256172
0.06256172 0.25835699 0.06256172
0.06256172 0.25835699 0.06256172
0.06256172 0.25835699 0.06256172
0.07905439 0.25835699 0.06256172
0.15154410 0.25835699 0.06256172
0.18103657 0.25835699 0.06256172
0.20362865 0.25835699 0.06256172
0.22322721 0.25835699 0.06256172
0.24124221 0.25835699 0.06256172
0.25835699 0.25835699 0.06256172
0.27495792 0.25835699 0.06256172
0.29128509 0.25835699 0.06256172
0.30749719 0.25835699 0.06256172
0.32370341 0.25835699 0.06256172
0.33998068 0.25835699 0.06256172
0.35638378 0.25835699 0.06256172
0.37295152 0.25835699 0.06256172
0.38971085 0.25835699 0.06256172
0.40667960 0.25835699 0.06256172
0.42386841 0.25835699 0.06256172
0.44128219 0.25835699 0.06256172
0.45892116 0.25835699 0.06256172
0.47678173 0.25835699 0.06256172
0.49485714 0.25835699 0.06256172
0.51313802 0.25835699 0.06256172
0.53161283 0.25835699 0.06256172
0.55026826 0.25835699 0.06256172
0.56908955 0.25835699 0.06256172
0.58806078 0.25835699 0.06256172
0.60716511 0.25835699 0.06256172
0.62638500 0.25835699 0.06256172
0.64570239 0.25835699 0.06256172
0.66509891 0.25835699 0.06256172
0.06256172 0.27495792 0.06256172
0.06256172 0.27495792 0.06256172
0.06256172 0.27495792 0.06256172
0.07905439 0.27495792 0.06256172
0.15154410 0.27495792 0.06256172
0.18103657 0.27495792 0.06256172
0.20362865 0.27495792 0.06256172
0.22322721 0.27495792 0.06256172
0.24124221 0.27495792 0.06256172
0.25835699 0.27495792 0.06256172
0.27495792 0.27495792 0.06256172
0.29128509 0.27495792 0.06256172
0.30749719 0.27495792 0.06256172
0.32370341 0.27495792 0.06256172
0.33998068 0.27495792 0.06256172
0.35638378 0.27495792 0.06256172
0.37295152 0.27495792 0.06256172
0.38971085 0.27495792 0.06256172
0.40667960 0.27495792 0.06256172
0.42386841 0.27495792 0.06256172
0.44128219 0.27495792 0.06256172
0.45892116 0.27495792 0.06256172
0.47678173 0.27495792 0.06256172
0.49485714 0.27495792 0.06256172
0.51313802 0.27495792 0.06256172
0.53161283 0.27495792 0.06256172
0.55026826 0.27495792 0.06256172
0.56908955 0.27495792 0.06256172
0.58806078 0.27495792 0.06256172
0.60716511 0.27495792 0.06256172
0.62638500 0.27495792 0.06256172
0.64570239 0.27495792 0.06256172
0.66509891 0.27495792 0.06256172
0.06256172 0.29128509 0.06256172
0.06256172 0.29128509 0.06256172
0.06256172 0.29128509 0.06256172
0.07905439 0.29128509 0.06256172
0.15154410 0.29128509 0.06256172
0.18103657 0.29128509 0.06256172
0.20362865 0.29128509 0.06256172
0.22322721 0.29128509 0.06256172
0.24124221 0.29128509 0.06256172
0.25835699 0.29128509 0.06256172
0.27495792 0.29128509 0.06256172
0.29128509 0.29128509 0.06256172
0.30749719 0.29128509 0.06256172
0.32370341 0.29128509 0.06256172
0.33998068 0.29128509 0.06256172
0.35638378 0.29128509 0.06256172
0.37295152 0.29128509 0.06256172
0.38971085 0.29128509 0.06256172
0.40667960 0.29128509 0.06256172
0.42386841 0.29128509 0.06256172
0.44128219 0.29128509 0.06256172
0.45892116 0.29128509 0.06256172
0.47678173 0.29128509 0.06256172
0.49485714 0.29128509 0.06256172
0.51313802 0.29128509 0.06256172
0.53161283 0.29128509 0.06256172
0.55026826 0.29128509 0.06256172
0.56908955 0.29128509 0.06256172
0.58806078 0.29128509 0.06256172
0.60716511 0.29128509 0.06256172
0.62638500 0.29128509 0.06256172
0.64570239 0.29128509 0.06256172
0.66509891 0.29128509 0.06256172
0.06256172 0.30749719 0.06256172
0.06256172 0.30749719 0.06256172
0.06256172 0.30749719 0.06256172
0.07905439 0.30749719 0.06256172
0.15154410 0.30749719 0.06256172
0.18103657 0.30749719 0.06256172
0.20362865 0.30749719 0.06256172
0.22322721 0.30749719 0.06256172
0.24124221 0.30749719 0.06256172
0.25835699 0.30749719 0.06256172
0.27495792 0.30749719 0.06256172
0.29128509 0.30749719 0.06256172
0.30749719 0.30749719 0.06256172
0.32370341 0.30749719 0.06256172
0.33998068 0.30749719 0.06256172
0.35638378 0.30749719 0.06256172
0.37295152 0.30749719 0.06256172
0.38971085 0.30749719 0.06256172
0.40667960 0.30749719 0.06256172
0.42386841 0.30749719 0.06256172
0.44128219 0.30749719 0.06256172
0.45892116 0.30749719 0.06256172
0.47678173 0.30749719 0.06256172
0.49485714 0.30749719 0.06256172
0.51313802 0.30749719 0.06256172
0.53161283 0.30749719 0.06256172
0.55026826 0.30749719 0.06256172
0.56908955 0.30749719 0.06256172
0.58806078 0.30749719 0.06256172
0.60716511 0.30749719 0.06256172
0.62638500 0.30749719 0.06256172
0.64570239 0.30749719 0.06256172
0.66509891 0.30749719 0.06256172
0.06256172 0.32370341 0.06256172
0.06256172 0.32370341 0.06256172
0.06256172 0.32370341 0.06256172
0.07905439 0.32370341 0.06256172
0.15154410 0.32370341 0.06256172
0.18103657 0.32370341 0.06256172
0.20362865 0.32370341 0.06256172
0.22322721 0.32370341 0.06256172
0.24124221 0.32370341 0.06256172
0.25835699 0.32370341 0.06256172
0.27495792 0.32370341 0.06256172
0.29128509 0.32370341 0.06256172
0.30749719 0.32370341 0.06256172
0.32370341 0.32370341 0.06256172
0.33998068 0.32370341 0.06256172
0.35638378 0.32370341 0.06256172
0.37295152 0.32370341 0.06256172
0.38971085 0.32370341 0.06256172
0.40667960 0.32370341 0.06256172
0.42386841 0.32370341 0.06256172
0.44128219 0.32370341 0.06256172
0.45892116 0.32370341 0.06256172
0.47678173 0.32370341 0.06256172
0.49485714 0.32370341 0.06256172
0.51313802 0.32370341 0.06256172
0.53161283 0.32370341 0.06256172
0.55026826 0.32370341 0.06256172
0.56908955 0.32370341 0.06256172
0.58806078 0.32370341 0.06256172
0.60716511 0.32370341 0.06256172
0.62638500 0.32370341 0.06256172
0.64570239 0.32370341 0.06256172
0.66509891 0.32370341 0.06256172
0.06256172 0.33998068 0.06256172
0.06256172 0.33998068 0.06256172
0.06256172 0.33998068 0.06256172
0.07905439 0.33998068 0.06256172
0.15154410 0.33998068 0.06256172
0.18103657 0.33998068 0.06256172
0.20362865 0.33998068 0.06256172
0.22322721 0.33998068 0.06256172
0.24124221 0.33998068 0.06256172
0.25835699 0.33998068 0.06256172
0.27495792 0.33998068 0.06256172
0.29128509 0.33998068 0.06256172
0.30749719 0.33998068 0.06256172
0.32370341 0.33998068 0.06256172
0.33998068 0.33998068 0.06256172
0.35638378 0.33998068 0.06256172
0.37295152 0.33998068 0.06256172
0.38971085 0.33998068 0.06256172
0.40667960 0.33998068 0.06256172
0.42386841 0.33998068 0.06256172
0.44128219 0.33998068 0.06256172
0.45892116 0.33998068 0.06256172
0.47678173 0.33998068 0.06256172
0.49485714 0.33998068 0.06256172
0.51313802 0.33998068 0.06256172
0.53161283 0.33998068 0.06256172
0.55026826 0.33998068 0.06256172
0.56908955 0.33998068 0.06256172
0.58806078 0.33998068 0.06256172
0.60716511 0.33998068 0.06256172
0.62638500 0.33998068 0.06256172
0.64570239 0.33998068 0.06256172
0.66509891 0.33998068 0.06256172
0.06256172 0.35638378 0.06256172
0.06256172 0.35638378 0.06256172
0.06256172 0.35638378 0.06256172
0.07905439 0.35638378 0.06256172
0.15154410 0.35638378 0.06256172
0.18103657 0.35638378 0.06256172
0.20362865 0.35638378 0.06256172
0.22322721 0.35638378 0.06256172
0.24124221 0.35638378 0.06256172
0.25835699 0.35638378 0.06256172
0.27495792 0.35638378 0.06256172
0.29128509 0.35638378 0.06256172
0.30749719 0.35638378 0.06256172
0.32370341 0.35638378 0.06256172
0.33998068 0.35638378 0.06256172
0.35638378 0.35638378 0.06256172
0.37295152 0.35638378 0.06256172
0.38971085 0.35638378 0.06256172
0.40667960 0.35638378 0.06256172
0.42386841 0.35638378 0.06256172
0.44128219 0.35638378 0.06256172
0.45892116 0.35638378 0.06256172
0.47678173 0.35638378 0.06256172
0.49485714 0.35638378 0.06256172
0.51313802 0.35638378 0.06256172
0.53161283 0.35638378 0.06256172
0.55026826 0.35638378 0.06256172
0.56908955 0.35638378 0.06256172
0.58806078 0.35638378 0.06256172
0.60716511 0.35638378 0.06256172
0.62638500 0.35638378 0.06256172
0.64570239 0.35638378 0.06256172
0.66509891 0.35638378 0.06256172
0.06256172 0.37295152 0.06256172
0.06256172 0.37295152 0.06256172
0.06256172 0.37295152 0.06256172
0.07905439 0.37295152 0.06256172
0.15154410 0.37295152 0.06256172
0.18103657 0.37295152 0.06256172
0.20362865 0.37295152 0.06256172
0.22322721 0.37295152 0.06256172
0.24124221 0.37295152 0.06256172
0.25835699 0.37295152 0.06256172
0.27495792 0.37295152 0.06256172
0.29128509 0.37295152 0.06256172
0.30749719 0.37295152 0.06256172
0.32370341 0.37295152 0.06256172
0.33998068 0.37295152 0.06256172
0.35638378 0.37295152 0.06256172
0.37295152 0.37295152 0.06256172
0.38971085 0.37295152 0.06256172
0.40667960 0.37295152 0.06256172
0.42386841 0.37295152 0.06256172
0.44128219 0.37295152 0.06256172
0.45892116 0.37295152 0.06256172
0.47678173 0.37295152 0.06256172
0.49485714 0.37295152 0.06256172
0.51313802 0.37295152 0.06256172
0.53161283 0.37295152 0.06256172
0.55026826 0.37295152 0.06256172
0.56908955 0.37295152 0.06256172
0.58806078 0.37295152 0.06256172
0.60716511 0.37295152 0.06256172
0.62638500 0.37295152 0.06256172
0.64570239 0.37295152 0.06256172
0.66509891 0.37295152 0.06256172
0.06256172 0.38971085 0.06256172
0.06256172 0.38971085 0.06256172
0.06256172 0.38971085 0.06256172
0.07905439 0.38971085 0.06256172
0.15154410 0.38971085 0.06256172
0.18103657 0.38971085 0.06256172
0.20362865 0.38971085 0.06256172
0.22322721 0.38971085 0.06256172
0.24124221 0.38971085 0.06256172
0.25835699 0.38971085 0.06256172
0.27495792 0.38971085 0.06256172
0.29128509 0.38971085 0.06256172
0.30749719 0.38971085 0.06256172
0.32370341 0.38971085 0.06256172
0.33998068 0.38971085 0.06256172
0.35638378 0.38971085 0.06256172
0.37295152 0.38971085 0.06256172
0.38971085 0.38971085 0.06256172
0.40667960 0.38971085 0.06256172
0.42386841 0.38971085 0.06256172
0.44128219 0.38971085 0.06256172
0.45892116 0.38971085 0.06256172
0.47678173 0.38971085 0.06256172
0.49485714 0.38971085 0.06256172
0.51313802 0.38971085 0.06256172
0.53161283 0.38971085 0.06256172
0.55026826 0.38971085 0.06256172
0.56908955 0.38971085 0.06256172
0.58806078 0.38971085 0.06256172
0.60716511 0.38971085 0.06256172
0.62638500 0.38971085 0.06256172
0.64570239 0.38971085 0.06256172
0.66509891 0.38971085 0.06256172
0.06256172 0.40667960 0.06256172
0.06256172 0.40667960 0.06256172
0.06256172 0.40667960 0.06256172
0.07905439 0.40667960 0.06256172
0.15154410 0.40667960 0.06256172
0.18103657 0.40667960 0.06256172
0.20362865 0.40667960 0.06256172
0.22322721 0.40667960 0.06256172
0.24124221 0.40667960 0.06256172
0.25835699 0.40667960 0.06256172
0.27495792 0.40667960 0.06256172
0.29128509 0.40667960 0.06256172
0.30749719 0.40667960 0.06256172
0.32370341 0.40667960 0.06256172
0.33998068 0.40667960 0.06256172
0.35638378 0.40667960 0.06256172
0.37295152 0.40667960 0.06256172
0.38971085 0.40667960 0.06256172
0.40667960 0.40667960 0.06256172
0.42386841 0.40667960 0.06256172
0.44128219 0.40667960 0.06256172
0.45892116 0.40667960 0.06256172
0.47678173 0.40667960 0.06256172
0.49485714 0.40667960 0.06256172
0.51313802 0.40667960 0.06256172
0.53161283 0.40667960 0.06256172
0.55026826 0.40667960 0.06256172
0.56908955 0.40667960 0.06256172
0.58806078 0.40667960 0.06256172
0.60716511 0.40667960 0.06256172
0.62638500 0.40667960 0.06256172
0.64570239 0.40667960 0.06256172
0.66509891 0.40667960 0.06256172
0.06256172 0.42386841 0.06256172
0.06256172 0.42386841 0.06256172
0.06256172 0.42386841 0.06256172
0.07905439 0.42386841 0.06256172
0.15154410 0.42386841 0.06256172
0.18103657 0.42386841 0.06256172
0.20362865 0.42386841 0.06256172
0.22322721 0.42386841 0.06256172
0.24124221 0.42386841 0.06256172
0.25835699 0.42386841 0.06256172
0.27495792 0.42386841 0.06256172
0.29128509 0.42386841 0.06256172
0.30749719 0.42386841 0.06256172
0.32370341 0.42386841 0.06256172
0.33998068 0.42386841 0.06256172
0.35638378 0.42386841 0.06256172
0.37295152 0.42386841 0.06256172
0.38971085 0.42386841 0.06256172
0.40667960 0.42386841 0.06256172
0.42386841 0.42386841 0.06256172
0.44128219 0.42386841 0.06256172
0.45892116 0.42386841 0.06256172
0.47678173 0.42386841 0.06256172
0.49485714 0.42386841 0.06256172
0.51313802 0.42386841 0.06256172
0.53161283 0.42386841 0.06256172
0.55026826 0.42386841 0.06256172
0.56908955 0.42386841 0.06256172
0.58806078 0.42386841 0.06256172
0.60716511 0.42386841 0.06256172
0.62638500 0.42386841 0.06256172
0.64570239 0.42386841 0.06256172
0.66509891 0.42386841 0.06256172
0.06256172 0.44128219 0.06256172
0.06256172 0.44128219 0.06256172
0.06256172 0.44128219 0.06256172
0.07905439 0.44128219 0.06256172
0.15154410 0.44128219 0.06256172
0.18103657 0.44128219 0.06256172
0.20362865 0.44128219 0.06256172
0.22322721 0.44128219 0.06256172
0.24124221 0.44128219 0.06256172
0.25835699 0.44128219 0.06256172
0.27495792 0.44128219 0.06256172
0.29128509 0.44128219 0.06256172
0.30749719 0.44128219 0.06256172
0.32370341 0.44128219 0.06256172
0.33998068 0.44128219 0.06256172
0.35638378 0.44128219 0.06256172
0.37295152 0.44128219 0.06256172
0.38971085 0.44128219 0.06256172
0.40667960 0.44128219 0.06256172
0.42386841 0.44128219 0.06256172
0.44128219 0.44128219 0.06256172
0.45892116 0.44128219 0.06256172
0.47678173 0.44128219 0.06256172
0.49485714 0.44128219 0.06256172
0.51313802 0.44128219 0.06256172
0.53161283 0.44128219 0.06256172
0.55026826 0.44128219 0.06256172
0.56908955 0.44128219 0.06256172
0.58806078 0.44128219 0.06256172
0.60716511 0.44128219 0.06256172
0.62638500 0.44128219 0.06256172
0.64570239 0.44128219 0.06256172
0.66509891 0.44128219 0.06256172
0.06256172 0.45892116 0.06256172
0.06256172 0.45892116 0.06256172
0.06256172 0.45892116 0.06256172
0.07905439 0.45892116 0.06256172
0.15154410 0.45892116 0.06256172
0.18103657 0.45892116 0.06256172
0.20362865 0.45892116 0.06256172
0.22322721 0.45892116 0.06256172
0.24124221 0.45892116 0.06256172
0.25835699 0.45892116 0.06256172
0.27495792 0.45892116 0.06256172
0.29128509 0.45892116 0.06256172
0.30749719 0.45892116 0.06256172
0.32370341 0.45892116 0.06256172
0.33998068 0.45892116 0.06256172
0.35638378 0.45892116 0.06256172
0.37295152 0.45892116 0.06256172
0.38971085 0.45892116 0.06256172
0.40667960 0.45892116 0.06256172
0.42386841 0.45892116 0.06256172
0.44128219 0.45892116 0.06256172
0.45892116 0.45892116 0.06256172
0.47678173 0.45892116 0.06256172
0.49485714 0.45892116 0.06256172
0.51313802 0.45892116 0.06256172
0.53161283 0.45892116 0.06256172
0.55026826 0.45892116 0.06256172
