src/ffmpeg_scripts/luts/flog-smpte2084_4p00.cube
TITLE "flog-smpte2084_4p00"
LUT_3D_SIZE 5
# Fujifilm F-Log/Rec2020 -> PQ (EOTF Only)/Rec2020, CineEI Shift 4.00, Black Level 0.00% IRE, Input 109% -> Output 109% - Created with LUTCalc v4.01 by Ben Turley October 2020
0.06256172 0.06256172 0.06256172
0.44918249 0.06256172 0.06256172
0.62788641 0.06256172 0.06256172
0.78854028 0.06256172 0.06256172
0.91886608 0.06256172 0.06256172
0.06256172 0.44918249 0.06256172
0.44918249 0.44918249 0.06256172
0.62788641 0.44918249 0.06256172
0.78854028 0.44918249 0.06256172
0.91886608 0.44918249 0.06256172
0.06256172 0.62788641 0.06256172
0.44918249 0.62788641 0.06256172
0.62788641 0.62788641 0.06256172
0.78854028 0.62788641 0.06256172
0.91886608 0.62788641 0.06256172
0.06256172 0.78854028 0.06256172
0.44918249 0.78854028 0.06256172
0.62788641 0.78854028 0.06256172
0.78854028 0.78854028 0.06256172
0.91886608 0.78854028 0.06256172
0.06256172 0.91886608 0.06256172
0.44918249 0.91886608 0.06256172
0.62788641 0.91886608 0.06256172
0.78854028 0.91886608 0.06256172
0.91886608 0.91886608 0.06256172
0.06256172 0.06256172 0.44918249
0.44918249 0.06256172 0.44918249
0.62788641 0.06256172 0.44918249
0.78854028 0.06256172 0.44918249
0.91886608 0.06256172 0.44918249
0.06256172 0.44918249 0.44918249
0.44918249 0.44918249 0.44918249
0.62788641 0.44918249 0.44918249
0.78854028 0.44918249 0.44918249
0.91886608 0.44918249 0.44918249
0.06256172 0.62788641 0.44918249
0.44918249 0.62788641 0.44918249
0.62788641 0.62788641 0.44918249
0.78854028 0.62788641 0.44918249
0.91886608 0.62788641 0.44918249
0.06256172 0.78854028 0.44918249
0.44918249 0.78854028 0.44918249
0.62788641 0.78854028 0.44918249
0.78854028 0.78854028 0.44918249
0.91886608 0.78854028 0.44918249
0.06256172 0.91886608 0.44918249
0.44918249 0.91886608 0.44918249
0.62788641 0.91886608 0.44918249
0.78854028 0.91886608 0.44918249
0.91886608 0.91886608 0.44918249
0.06256172 0.06256172 0.62788641
0.44918249 0.06256172 0.62788641
0.62788641 0.06256172 0.62788641
0.78854028 0.06256172 0.62788641
0.91886608 0.06256172 0.62788641
0.06256172 0.44918249 0.62788641
0.44918249 0.44918249 0.62788641
0.62788641 0.44918249 0.62788641
0.78854028 0.44918249 0.62788641
0.91886608 0.44918249 0.62788641
0.06256172 0.62788641 0.62788641
0.44918249 0.62788641 0.62788641
0.62788641 0.62788641 0.62788641
0.78854028 0.62788641 0.62788641
0.91886608 0.62788641 0.62788641
0.06256172 0.78854028 0.62788641
0.44918249 0.78854028 0.62788641
0.62788641 0.78854028 0.62788641
0.78854028 0.78854028 0.62788641
0.91886608 0.78854028 0.62788641
0.06256172 0.91886608 0.62788641
0.44918249 0.91886608 0.62788641
0.62788641 0.91886608 0.62788641
0.78854028 0.91886608 0.62788641
0.91886608 0.91886608 0.62788641
0.06256172 0.06256172 0.78854028
0.44918249 0.06256172 0.78854028
0.62788641 0.06256172 0.78854028
0.78854028 0.06256172 0.78854028
0.91886608 0.06256172 0.78854028
0.06256172 0.44918249 0.78854028
0.44918249 0.44918249 0.78854028
0.62788641 0.44918249 0.78854028
0.78854028 0.44918249 0.78854028
0.91886608 0.44918249 0.78854028
0.06256172 0.62788641 0.78854028
0.44918249 0.62788641 0.78854028
0.62788641 0.62788641 0.78854028
0.78854028 0.62788641 0.78854028
0.91886608 0.62788641 0.78854028
0.06256172 0.78854028 0.78854028
0.44918249 0.78854028 0.78854028
0.62788641 0.78854028 0.78854028
0.78854028 0.78854028 0.78854028
0.91886608 0.78854028 0.78854028
0.06256172 0.91886608 0.78854028
0.44918249 0.91886608 0.78854028
0.62788641 0.91886608 0.78854028
0.78854028 0.91886608 0.78854028
0.91886608 0.91886608 0.78854028
0.06256172 0.06256172 0.91886608
0.44918249 0.06256172 0.91886608
0.62788641 0.06256172 0.91886608
0.78854028 0.06256172 0.91886608
0.91886608 0.06256172 0.91886608
0.06256172 0.44918249 0.91886608
0.44918249 0.44918249 0.91886608
0.62788641 0.44918249 0.91886608
0.78854028 0.44918249 0.91886608
0.91886608 0.44918249 0.91886608
0.06256172 0.62788641 0.91886608
0.44918249 0.62788641 0.91886608
0.62788641 0.62788641 0.91886608
0.78854028 0.62788641 0.91886608
0.91886608 0.62788641 0.91886608
0.06256172 0.78854028 0.91886608
0.44918249 0.78854028 0.91886608
0.62788641 0.78854028 0.91886608
0.78854028 0.78854028 0.91886608
0.91886608 0.78854028 0.91886608
0.06256172 0.91886608 0.91886608
0.44918249 0.91886608 0.91886608
0.62788641 0.91886608 0.91886608
0.78854028 0.91886608 0.91886608
0.91886608 0.91886608 0.91886608
