src/ffmpeg_scripts/luts/flog-smpte2084_1p67.cube
TITLE "flog-smpte2084_1p67"
LUT_3D_SIZE 5
# Fujifilm F-Log/Rec2020 -> PQ (EOTF Only)/Rec2020, CineEI Shift 1.67, Black Level 0.00% IRE, Input 109% -> Output 109% - Created with LUTCalc v4.01 by Ben Turley October 2020
0.06256172 0.06256172 0.06256172
0.32664582 0.06256172 0.06256172
0.48394444 0.06256172 0.06256172
0.63788224 0.06256172 0.06256172
0.79439395 0.06256172 0.06256172
0.06256172 0.32664582 0.06256172
0.32664582 0.32664582 0.06256172
0.48394444 0.32664582 0.06256172
0.63788224 0.32664582 0.06256172
0.79439395 0.32664582 0.06256172
0.06256172 0.48394444 0.06256172
0.32664582 0.48394444 0.06256172
0.48394444 0.48394444 0.06256172
0.63788224 0.48394444 0.06256172
0.79439395 0.48394444 0.06256172
0.06256172 0.63788224 0.06256172
0.32664582 0.63788224 0.06256172
0.48394444 0.63788224 0.06256172
0.63788224 0.63788224 0.06256172
0.79439395 0.63788224 0.06256172
0.06256172 0.79439395 0.06256172
0.32664582 0.79439395 0.06256172
0.48394444 0.79439395 0.06256172
0.63788224 0.79439395 0.06256172
0.79439395 0.79439395 0.06256172
0.06256172 0.06256172 0.32664582
0.32664582 0.06256172 0.32664582
0.48394444 0.06256172 0.32664582
0.63788224 0.06256172 0.32664582
0.79439395 0.06256172 0.32664582
0.06256172 0.32664582 0.32664582
0.32664582 0.32664582 0.32664582
0.48394444 0.32664582 0.32664582
0.63788224 0.32664582 0.32664582
0.79439395 0.32664582 0.32664582
0.06256172 0.48394444 0.32664582
0.32664582 0.48394444 0.32664582
0.48394444 0.48394444 0.32664582
0.63788224 0.48394444 0.32664582
0.79439395 0.48394444 0.32664582
0.06256172 0.63788224 0.32664582
0.32664582 0.63788224 0.32664582
0.48394444 0.63788224 0.32664582
0.63788224 0.63788224 0.32664582
0.79439395 0.63788224 0.32664582
0.06256172 0.79439395 0.32664582
0.32664582 0.79439395 0.32664582
0.48394444 0.79439395 0.32664582
0.63788224 0.79439395 0.32664582
0.79439395 0.79439395 0.32664582
0.06256172 0.06256172 0.48394444
0.32664582 0.06256172 0.48394444
0.48394444 0.06256172 0.48394444
0.63788224 0.06256172 0.48394444
0.79439395 0.06256172 0.48394444
0.06256172 0.32664582 0.48394444
0.32664582 0.32664582 0.48394444
0.48394444 0.32664582 0.48394444
0.63788224 0.32664582 0.48394444
0.79439395 0.32664582 0.48394444
0.06256172 0.48394444 0.48394444
0.32664582 0.48394444 0.48394444
0.48394444 0.48394444 0.48394444
0.63788224 0.48394444 0.48394444
0.79439395 0.48394444 0.48394444
0.06256172 0.63788224 0.48394444
0.32664582 0.63788224 0.48394444
0.48394444 0.63788224 0.48394444
0.63788224 0.63788224 0.48394444
0.79439395 0.63788224 0.48394444
0.06256172 0.79439395 0.48394444
0.32664582 0.79439395 0.48394444
0.48394444 0.79439395 0.48394444
0.63788224 0.79439395 0.48394444
0.79439395 0.79439395 0.48394444
0.06256172 0.06256172 0.63788224
0.32664582 0.06256172 0.63788224
0.48394444 0.06256172 0.63788224
0.63788224 0.06256172 0.63788224
0.79439395 0.06256172 0.63788224
0.06256172 0.32664582 0.63788224
0.32664582 0.32664582 0.63788224
0.48394444 0.32664582 0.63788224
0.63788224 0.32664582 0.63788224
0.79439395 0.32664582 0.63788224
0.06256172 0.48394444 0.63788224
0.32664582 0.48394444 0.63788224
0.48394444 0.48394444 0.63788224
0.63788224 0.48394444 0.63788224
0.79439395 0.48394444 0.63788224
0.06256172 0.63788224 0.63788224
0.32664582 0.63788224 0.63788224
0.48394444 0.63788224 0.63788224
0.63788224 0.63788224 0.63788224
0.79439395 0.63788224 0.63788224
0.06256172 0.79439395 0.63788224
0.32664582 0.79439395 0.63788224
0.48394444 0.79439395 0.63788224
0.63788224 0.79439395 0.63788224
0.79439395 0.79439395 0.63788224
0.06256172 0.06256172 0.79439395
0.32664582 0.06256172 0.79439395
0.48394444 0.06256172 0.79439395
0.63788224 0.06256172 0.79439395
0.79439395 0.06256172 0.79439395
0.06256172 0.32664582 0.79439395
0.32664582 0.32664582 0.79439395
0.48394444 0.32664582 0.79439395
0.63788224 0.32664582 0.79439395
0.79439395 0.32664582 0.79439395
0.06256172 0.48394444 0.79439395
0.32664582 0.48394444 0.79439395
0.48394444 0.48394444 0.79439395
0.63788224 0.48394444 0.79439395
0.79439395 0.48394444 0.79439395
0.06256172 0.63788224 0.79439395
0.32664582 0.63788224 0.79439395
0.48394444 0.63788224 0.79439395
0.63788224 0.63788224 0.79439395
0.79439395 0.63788224 0.79439395
0.06256172 0.79439395 0.79439395
0.32664582 0.79439395 0.79439395
0.48394444 0.79439395 0.79439395
0.63788224 0.79439395 0.79439395
0.79439395 0.79439395 0.79439395
