src/ffmpeg_scripts/luts/flog-experimental_-0p33.cube
TITLE "flog-experimental_-0p33"
LUT_3D_SIZE 5
# Fujifilm F-Log/Rec2020 -> PQ (EOTF Only)/Rec2020, CineEI Shift -0.33, Black Level 0.00% IRE, Input 109% -> Output 100% - Created with LUTCalc v4.01 by Ben Turley October 2020
0.00000073 0.00000073 0.00000073
0.28912772 0.00000073 0.00000073
0.50224957 0.00000073 0.00000073
0.72908856 0.00000073 0.00000073
0.97497996 0.00000073 0.00000073
0.00000073 0.28912772 0.00000073
0.28912772 0.28912772 0.00000073
0.50224957 0.28912772 0.00000073
0.72908856 0.28912772 0.00000073
0.97497996 0.28912772 0.00000073
0.00000073 0.50224957 0.00000073
0.28912772 0.50224957 0.00000073
0.50224957 0.50224957 0.00000073
0.72908856 0.50224957 0.00000073
0.97497996 0.50224957 0.00000073
0.00000073 0.72908856 0.00000073
0.28912772 0.72908856 0.00000073
0.50224957 0.72908856 0.00000073
0.72908856 0.72908856 0.00000073
0.97497996 0.72908856 0.00000073
0.00000073 0.97497996 0.00000073
0.28912772 0.97497996 0.00000073
0.50224957 0.97497996 0.00000073
0.72908856 0.97497996 0.00000073
0.97497996 0.97497996 0.00000073
0.00000073 0.00000073 0.28912772
0.28912772 0.00000073 0.28912772
0.50224957 0.00000073 0.28912772
0.72908856 0.00000073 0.28912772
0.97497996 0.00000073 0.28912772
0.00000073 0.28912772 0.28912772
0.28912772 0.28912772 0.28912772
0.50224957 0.28912772 0.28912772
0.72908856 0.28912772 0.28912772
0.97497996 0.28912772 0.28912772
0.00000073 0.50224957 0.28912772
0.28912772 0.50224957 0.28912772
0.50224957 0.50224957 0.28912772
0.72908856 0.50224957 0.28912772
0.97497996 0.50224957 0.28912772
0.00000073 0.72908856 0.28912772
0.28912772 0.72908856 0.28912772
0.50224957 0.72908856 0.28912772
0.72908856 0.72908856 0.28912772
0.97497996 0.72908856 0.28912772
0.00000073 0.97497996 0.28912772
0.28912772 0.97497996 0.28912772
0.50224957 0.97497996 0.28912772
0.72908856 0.97497996 0.28912772
0.97497996 0.97497996 0.28912772
0.00000073 0.00000073 0.50224957
0.28912772 0.00000073 0.50224957
0.50224957 0.00000073 0.50224957
0.72908856 0.00000073 0.50224957
0.97497996 0.00000073 0.50224957
0.00000073 0.28912772 0.50224957
0.28912772 0.28912772 0.50224957
0.50224957 0.28912772 0.50224957
0.72908856 0.28912772 0.50224957
0.97497996 0.28912772 0.50224957
0.00000073 0.50224957 0.50224957
0.28912772 0.50224957 0.50224957
0.50224957 0.50224957 0.50224957
0.72908856 0.50224957 0.50224957
0.97497996 0.50224957 0.50224957
0.00000073 0.72908856 0.50224957
0.28912772 0.72908856 0.50224957
0.50224957 0.72908856 0.50224957
0.72908856 0.72908856 0.50224957
0.97497996 0.72908856 0.50224957
0.00000073 0.97497996 0.50224957
0.28912772 0.97497996 0.50224957
0.50224957 0.97497996 0.50224957
0.72908856 0.97497996 0.50224957
0.97497996 0.97497996 0.50224957
0.00000073 0.00000073 0.72908856
0.28912772 0.00000073 0.72908856
0.50224957 0.00000073 0.72908856
0.72908856 0.00000073 0.72908856
0.97497996 0.00000073 0.72908856
0.00000073 0.28912772 0.72908856
0.28912772 0.28912772 0.72908856
0.50224957 0.28912772 0.72908856
0.72908856 0.28912772 0.72908856
0.97497996 0.28912772 0.72908856
0.00000073 0.50224957 0.72908856
0.28912772 0.50224957 0.72908856
0.50224957 0.50224957 0.72908856
0.72908856 0.50224957 0.72908856
0.97497996 0.50224957 0.72908856
0.00000073 0.72908856 0.72908856
0.28912772 0.72908856 0.72908856
0.50224957 0.72908856 0.72908856
0.72908856 0.72908856 0.72908856
0.97497996 0.72908856 0.72908856
0.00000073 0.97497996 0.72908856
0.28912772 0.97497996 0.72908856
0.50224957 0.97497996 0.72908856
0.72908856 0.97497996 0.72908856
0.97497996 0.97497996 0.72908856
0.00000073 0.00000073 0.97497996
0.28912772 0.00000073 0.97497996
0.50224957 0.00000073 0.97497996
0.72908856 0.00000073 0.97497996
0.97497996 0.00000073 0.97497996
0.00000073 0.28912772 0.97497996
0.28912772 0.28912772 0.97497996
0.50224957 0.28912772 0.97497996
0.72908856 0.28912772 0.97497996
0.97497996 0.28912772 0.97497996
0.00000073 0.50224957 0.97497996
0.28912772 0.50224957 0.97497996
0.50224957 0.50224957 0.97497996
0.72908856 0.50224957 0.97497996
0.97497996 0.50224957 0.97497996
0.00000073 0.72908856 0.97497996
0.28912772 0.72908856 0.97497996
0.50224957 0.72908856 0.97497996
0.72908856 0.72908856 0.97497996
0.97497996 0.72908856 0.97497996
0.00000073 0.97497996 0.97497996
0.28912772 0.97497996 0.97497996
0.50224957 0.97497996 0.97497996
0.72908856 0.97497996 0.97497996
0.97497996 0.97497996 0.97497996
