src/ffmpeg_scripts/luts/flog-smpte2084_0-Native.cube
TITLE "flog-smpte2084_0-Native"
LUT_3D_SIZE 33
# Fujifilm F-Log/Rec2020 -> PQ (EOTF Only)/Rec2020, CineEI Shift 0.00, Black Level 0.00% IRE, Input 109% -> Output 109% - Created with LUTCalc v4.01 by Ben Turley October 2020
0.06256172 0.06256172 0.06256172
0.06256172 0.06256172 0.06256172
0.06256172 0.06256172 0.06256172
0.08109045 0.06256172 0.06256172
0.15953878 0.06256172 0.06256172
0.19084217 0.06256172 0.06256172
0.21466895 0.06256172 0.06256172
0.23524775 0.06256172 0.06256172
0.25409756 0.06256172 0.06256172
0.27195198 0.06256172 0.06256172
0.28922444 0.06256172 0.06256172
0.30617104 0.06256172 0.06256172
0.32296051 0.06256172 0.06256172
0.33970854 0.06256172 0.06256172
0.35649640 0.06256172 0.06256172
0.37338172 0.06256172 0.06256172
0.39040527 0.06256172 0.06256172
0.40759522 0.06256172 0.06256172
0.42497019 0.06256172 0.06256172
0.44254129 0.06256172 0.06256172
0.46031366 0.06256172 0.06256172
0.47828763 0.06256172 0.06256172
0.49645962 0.06256172 0.06256172
0.51482282 0.06256172 0.06256172
0.53336780 0.06256172 0.06256172
0.55208297 0.06256172 0.06256172
0.57095501 0.06256172 0.06256172
0.58996917 0.06256172 0.06256172
0.60910958 0.06256172 0.06256172
0.62835953 0.06256172 0.06256172
0.64770164 0.06256172 0.06256172
0.66711812 0.06256172 0.06256172
0.68659086 0.06256172 0.06256172
0.06256172 0.06256172 0.06256172
0.06256172 0.06256172 0.06256172
0.06256172 0.06256172 0.06256172
0.08109045 0.06256172 0.06256172
0.15953878 0.06256172 0.06256172
0.19084217 0.06256172 0.06256172
0.21466895 0.06256172 0.06256172
0.23524775 0.06256172 0.06256172
0.25409756 0.06256172 0.06256172
0.27195198 0.06256172 0.06256172
0.28922444 0.06256172 0.06256172
0.30617104 0.06256172 0.06256172
0.32296051 0.06256172 0.06256172
0.33970854 0.06256172 0.06256172
0.35649640 0.06256172 0.06256172
0.37338172 0.06256172 0.06256172
0.39040527 0.06256172 0.06256172
0.40759522 0.06256172 0.06256172
0.42497019 0.06256172 0.06256172
0.44254129 0.06256172 0.06256172
0.46031366 0.06256172 0.06256172
0.47828763 0.06256172 0.06256172
0.49645962 0.06256172 0.06256172
0.51482282 0.06256172 0.06256172
0.53336780 0.06256172 0.06256172
0.55208297 0.06256172 0.06256172
0.57095501 0.06256172 0.06256172
0.58996917 0.06256172 0.06256172
0.60910958 0.06256172 0.06256172
0.62835953 0.06256172 0.06256172
0.64770164 0.06256172 0.06256172
0.66711812 0.06256172 0.06256172
0.68659086 0.06256172 0.06256172
0.06256172 0.06256172 0.06256172
0.06256172 0.06256172 0.06256172
0.06256172 0.06256172 0.06256172
0.08109045 0.06256172 0.06256172
0.15953878 0.06256172 0.06256172
0.19084217 0.06256172 0.06256172
0.21466895 0.06256172 0.06256172
0.23524775 0.06256172 0.06256172
0.25409756 0.06256172 0.06256172
0.27195198 0.06256172 0.06256172
0.28922444 0.06256172 0.06256172
0.30617104 0.06256172 0.06256172
0.32296051 0.06256172 0.06256172
0.33970854 0.06256172 0.06256172
0.35649640 0.06256172 0.06256172
0.37338172 0.06256172 0.06256172
0.39040527 0.06256172 0.06256172
0.40759522 0.06256172 0.06256172
0.42497019 0.06256172 0.06256172
0.44254129 0.06256172 0.06256172
0.46031366 0.06256172 0.06256172
0.47828763 0.06256172 0.06256172
0.49645962 0.06256172 0.06256172
0.51482282 0.06256172 0.06256172
0.53336780 0.06256172 0.06256172
0.55208297 0.06256172 0.06256172
0.57095501 0.06256172 0.06256172
0.58996917 0.06256172 0.06256172
0.60910958 0.06256172 0.06256172
0.62835953 0.06256172 0.06256172
0.64770164 0.06256172 0.06256172
0.66711812 0.06256172 0.06256172
0.68659086 0.06256172 0.06256172
0.06256172 0.08109045 0.06256172
0.06256172 0.08109045 0.06256172
0.06256172 0.08109045 0.06256172
0.08109045 0.08109045 0.06256172
0.15953878 0.08109045 0.06256172
0.19084217 0.08109045 0.06256172
0.21466895 0.08109045 0.06256172
0.23524775 0.08109045 0.06256172
0.25409756 0.08109045 0.06256172
0.27195198 0.08109045 0.06256172
0.28922444 0.08109045 0.06256172
0.30617104 0.08109045 0.06256172
0.32296051 0.08109045 0.06256172
0.33970854 0.08109045 0.06256172
0.35649640 0.08109045 0.06256172
0.37338172 0.08109045 0.06256172
0.39040527 0.08109045 0.06256172
0.40759522 0.08109045 0.06256172
0.42497019 0.08109045 0.06256172
0.44254129 0.08109045 0.06256172
0.46031366 0.08109045 0.06256172
0.47828763 0.08109045 0.06256172
0.49645962 0.08109045 0.06256172
0.51482282 0.08109045 0.06256172
0.53336780 0.08109045 0.06256172
0.55208297 0.08109045 0.06256172
0.57095501 0.08109045 0.06256172
0.58996917 0.08109045 0.06256172
0.60910958 0.08109045 0.06256172
0.62835953 0.08109045 0.06256172
0.64770164 0.08109045 0.06256172
0.66711812 0.08109045 0.06256172
0.68659086 0.08109045 0.06256172
0.06256172 0.15953878 0.06256172
0.06256172 0.15953878 0.06256172
0.06256172 0.15953878 0.06256172
0.08109045 0.15953878 0.06256172
0.15953878 0.15953878 0.06256172
0.19084217 0.15953878 0.06256172
0.21466895 0.15953878 0.06256172
0.23524775 0.15953878 0.06256172
0.25409756 0.15953878 0.06256172
0.27195198 0.15953878 0.06256172
0.28922444 0.15953878 0.06256172
0.30617104 0.15953878 0.06256172
0.32296051 0.15953878 0.06256172
0.33970854 0.15953878 0.06256172
0.35649640 0.15953878 0.06256172
0.37338172 0.15953878 0.06256172
0.39040527 0.15953878 0.06256172
0.40759522 0.15953878 0.06256172
0.42497019 0.15953878 0.06256172
0.44254129 0.15953878 0.06256172
0.46031366 0.15953878 0.06256172
0.47828763 0.15953878 0.06256172
0.49645962 0.15953878 0.06256172
0.51482282 0.15953878 0.06256172
0.53336780 0.15953878 0.06256172
0.55208297 0.15953878 0.06256172
0.57095501 0.15953878 0.06256172
0.58996917 0.15953878 0.06256172
0.60910958 0.15953878 0.06256172
0.62835953 0.15953878 0.06256172
0.64770164 0.15953878 0.06256172
0.66711812 0.15953878 0.06256172
0.68659086 0.15953878 0.06256172
0.06256172 0.19084217 0.06256172
0.06256172 0.19084217 0.06256172
0.06256172 0.19084217 0.06256172
0.08109045 0.19084217 0.06256172
0.15953878 0.19084217 0.06256172
0.19084217 0.19084217 0.06256172
0.21466895 0.19084217 0.06256172
0.23524775 0.19084217 0.06256172
0.25409756 0.19084217 0.06256172
0.27195198 0.19084217 0.06256172
0.28922444 0.19084217 0.06256172
0.30617104 0.19084217 0.06256172
0.32296051 0.19084217 0.06256172
0.33970854 0.19084217 0.06256172
0.35649640 0.19084217 0.06256172
0.37338172 0.19084217 0.06256172
0.39040527 0.19084217 0.06256172
0.40759522 0.19084217 0.06256172
0.42497019 0.19084217 0.06256172
0.44254129 0.19084217 0.06256172
0.46031366 0.19084217 0.06256172
0.47828763 0.19084217 0.06256172
0.49645962 0.19084217 0.06256172
0.51482282 0.19084217 0.06256172
0.53336780 0.19084217 0.06256172
0.55208297 0.19084217 0.06256172
0.57095501 0.19084217 0.06256172
0.58996917 0.19084217 0.06256172
0.60910958 0.19084217 0.06256172
0.62835953 0.19084217 0.06256172
0.64770164 0.19084217 0.06256172
0.66711812 0.19084217 0.06256172
0.68659086 0.19084217 0.06256172
0.06256172 0.21466895 0.06256172
0.06256172 0.21466895 0.06256172
0.06256172 0.21466895 0.06256172
0.08109045 0.21466895 0.06256172
0.15953878 0.21466895 0.06256172
0.19084217 0.21466895 0.06256172
0.21466895 0.21466895 0.06256172
0.23524775 0.21466895 0.06256172
0.25409756 0.21466895 0.06256172
0.27195198 0.21466895 0.06256172
0.28922444 0.21466895 0.06256172
0.30617104 0.21466895 0.06256172
0.32296051 0.21466895 0.06256172
0.33970854 0.21466895 0.06256172
0.35649640 0.21466895 0.06256172
0.37338172 0.21466895 0.06256172
0.39040527 0.21466895 0.06256172
0.40759522 0.21466895 0.06256172
0.42497019 0.21466895 0.06256172
0.44254129 0.21466895 0.06256172
0.46031366 0.21466895 0.06256172
0.47828763 0.21466895 0.06256172
0.49645962 0.21466895 0.06256172
0.51482282 0.21466895 0.06256172
0.53336780 0.21466895 0.06256172
0.55208297 0.21466895 0.06256172
0.57095501 0.21466895 0.06256172
0.58996917 0.21466895 0.06256172
0.60910958 0.21466895 0.06256172
0.62835953 0.21466895 0.06256172
0.64770164 0.21466895 0.06256172
0.66711812 0.21466895 0.06256172
0.68659086 0.21466895 0.06256172
0.06256172 0.23524775 0.06256172
0.06256172 0.23524775 0.06256172
0.06256172 0.23524775 0.06256172
0.08109045 0.23524775 0.06256172
0.15953878 0.23524775 0.06256172
0.19084217 0.23524775 0.06256172
0.21466895 0.23524775 0.06256172
0.23524775 0.23524775 0.06256172
0.25409756 0.23524775 0.06256172
0.27195198 0.23524775 0.06256172
0.28922444 0.23524775 0.06256172
0.30617104 0.23524775 0.06256172
0.32296051 0.23524775 0.06256172
0.33970854 0.23524775 0.06256172
0.35649640 0.23524775 0.06256172
0.37338172 0.23524775 0.06256172
0.39040527 0.23524775 0.06256172
0.40759522 0.23524775 0.06256172
0.42497019 0.23524775 0.06256172
0.44254129 0.23524775 0.06256172
0.46031366 0.23524775 0.06256172
0.47828763 0.23524775 0.06256172
0.49645962 0.23524775 0.06256172
0.51482282 0.23524775 0.06256172
0.53336780 0.23524775 0.06256172
0.55208297 0.23524775 0.06256172
0.57095501 0.23524775 0.06256172
0.58996917 0.23524775 0.06256172
0.60910958 0.23524775 0.06256172
0.62835953 0.23524775 0.06256172
0.64770164 0.23524775 0.06256172
0.66711812 0.23524775 0.06256172
0.68659086 0.23524775 0.06256172
0.06256172 0.25409756 0.06256172
0.06256172 0.25409756 0.06256172
0.06256172 0.25409756 0.06256172
0.08109045 0.25409756 0.06256172
0.15953878 0.25409756 0.06256172
0.19084217 0.25409756 0.06256172
0.21466895 0.25409756 0.06256172
0.23524775 0.25409756 0.06256172
0.25409756 0.25409756 0.06256172
0.27195198 0.25409756 0.06256172
0.28922444 0.25409756 0.06256172
0.30617104 0.25409756 0.06256172
0.32296051 0.25409756 0.06256172
0.33970854 0.25409756 0.06256172
0.35649640 0.25409756 0.06256172
0.37338172 0.25409756 0.06256172
0.39040527 0.25409756 0.06256172
0.40759522 0.25409756 0.06256172
0.42497019 0.25409756 0.06256172
0.44254129 0.25409756 0.06256172
0.46031366 0.25409756 0.06256172
0.47828763 0.25409756 0.06256172
0.49645962 0.25409756 0.06256172
0.51482282 0.25409756 0.06256172
0.53336780 0.25409756 0.06256172
0.55208297 0.25409756 0.06256172
0.57095501 0.25409756 0.06256172
0.58996917 0.25409756 0.06256172
0.60910958 0.25409756 0.06256172
0.62835953 0.25409756 0.06256172
0.64770164 0.25409756 0.06256172
0.66711812 0.25409756 0.06256172
0.68659086 0.25409756 0.06256172
0.06256172 0.27195198 0.06256172
0.06256172 0.27195198 0.06256172
0.06256172 0.27195198 0.06256172
0.08109045 0.27195198 0.06256172
0.15953878 0.27195198 0.06256172
0.19084217 0.27195198 0.06256172
0.21466895 0.27195198 0.06256172
0.23524775 0.27195198 0.06256172
0.25409756 0.27195198 0.06256172
0.27195198 0.27195198 0.06256172
0.28922444 0.27195198 0.06256172
0.30617104 0.27195198 0.06256172
0.32296051 0.27195198 0.06256172
0.33970854 0.27195198 0.06256172
0.35649640 0.27195198 0.06256172
0.37338172 0.27195198 0.06256172
0.39040527 0.27195198 0.06256172
0.40759522 0.27195198 0.06256172
0.42497019 0.27195198 0.06256172
0.44254129 0.27195198 0.06256172
0.46031366 0.27195198 0.06256172
0.47828763 0.27195198 0.06256172
0.49645962 0.27195198 0.06256172
0.51482282 0.27195198 0.06256172
0.53336780 0.27195198 0.06256172
0.55208297 0.27195198 0.06256172
0.57095501 0.27195198 0.06256172
0.58996917 0.27195198 0.06256172
0.60910958 0.27195198 0.06256172
0.62835953 0.27195198 0.06256172
0.64770164 0.27195198 0.06256172
0.66711812 0.27195198 0.06256172
0.68659086 0.27195198 0.06256172
0.06256172 0.28922444 0.06256172
0.06256172 0.28922444 0.06256172
0.06256172 0.28922444 0.06256172
0.08109045 0.28922444 0.06256172
0.15953878 0.28922444 0.06256172
0.19084217 0.28922444 0.06256172
0.21466895 0.28922444 0.06256172
0.23524775 0.28922444 0.06256172
0.25409756 0.28922444 0.06256172
0.27195198 0.28922444 0.06256172
0.28922444 0.28922444 0.06256172
0.30617104 0.28922444 0.06256172
0.32296051 0.28922444 0.06256172
0.33970854 0.28922444 0.06256172
0.35649640 0.28922444 0.06256172
0.37338172 0.28922444 0.06256172
0.39040527 0.28922444 0.06256172
0.40759522 0.28922444 0.06256172
0.42497019 0.28922444 0.06256172
0.44254129 0.28922444 0.06256172
0.46031366 0.28922444 0.06256172
0.47828763 0.28922444 0.06256172
0.49645962 0.28922444 0.06256172
0.51482282 0.28922444 0.06256172
0.53336780 0.28922444 0.06256172
0.55208297 0.28922444 0.06256172
0.57095501 0.28922444 0.06256172
0.58996917 0.28922444 0.06256172
0.60910958 0.28922444 0.06256172
0.62835953 0.28922444 0.06256172
0.64770164 0.28922444 0.06256172
0.66711812 0.28922444 0.06256172
0.68659086 0.28922444 0.06256172
0.06256172 0.30617104 0.06256172
0.06256172 0.30617104 0.06256172
0.06256172 0.30617104 0.06256172
0.08109045 0.30617104 0.06256172
0.15953878 0.30617104 0.06256172
0.19084217 0.30617104 0.06256172
0.21466895 0.30617104 0.06256172
0.23524775 0.30617104 0.06256172
0.25409756 0.30617104 0.06256172
0.27195198 0.30617104 0.06256172
0.28922444 0.30617104 0.06256172
0.30617104 0.30617104 0.06256172
0.32296051 0.30617104 0.06256172
0.33970854 0.30617104 0.06256172
0.35649640 0.30617104 0.06256172
0.37338172 0.30617104 0.06256172
0.39040527 0.30617104 0.06256172
0.40759522 0.30617104 0.06256172
0.42497019 0.30617104 0.06256172
0.44254129 0.30617104 0.06256172
0.46031366 0.30617104 0.06256172
0.47828763 0.30617104 0.06256172
0.49645962 0.30617104 0.06256172
0.51482282 0.30617104 0.06256172
0.53336780 0.30617104 0.06256172
0.55208297 0.30617104 0.06256172
0.57095501 0.30617104 0.06256172
0.58996917 0.30617104 0.06256172
0.60910958 0.30617104 0.06256172
0.62835953 0.30617104 0.06256172
0.64770164 0.30617104 0.06256172
0.66711812 0.30617104 0.06256172
0.68659086 0.30617104 0.06256172
0.06256172 0.32296051 0.06256172
0.06256172 0.32296051 0.06256172
0.06256172 0.32296051 0.06256172
0.08109045 0.32296051 0.06256172
0.15953878 0.32296051 0.06256172
0.19084217 0.32296051 0.06256172
0.21466895 0.32296051 0.06256172
0.23524775 0.32296051 0.06256172
0.25409756 0.32296051 0.06256172
0.27195198 0.32296051 0.06256172
0.28922444 0.32296051 0.06256172
0.30617104 0.32296051 0.06256172
0.32296051 0.32296051 0.06256172
0.33970854 0.32296051 0.06256172
0.35649640 0.32296051 0.06256172
0.37338172 0.32296051 0.06256172
0.39040527 0.32296051 0.06256172
0.40759522 0.32296051 0.06256172
0.42497019 0.32296051 0.06256172
0.44254129 0.32296051 0.06256172
0.46031366 0.32296051 0.06256172
0.47828763 0.32296051 0.06256172
0.49645962 0.32296051 0.06256172
0.51482282 0.32296051 0.06256172
0.53336780 0.32296051 0.06256172
0.55208297 0.32296051 0.06256172
0.57095501 0.32296051 0.06256172
0.58996917 0.32296051 0.06256172
0.60910958 0.32296051 0.06256172
0.62835953 0.32296051 0.06256172
0.64770164 0.32296051 0.06256172
0.66711812 0.32296051 0.06256172
0.68659086 0.32296051 0.06256172
0.06256172 0.33970854 0.06256172
0.06256172 0.33970854 0.06256172
0.06256172 0.33970854 0.06256172
0.08109045 0.33970854 0.06256172
0.15953878 0.33970854 0.06256172
0.19084217 0.33970854 0.06256172
0.21466895 0.33970854 0.06256172
0.23524775 0.33970854 0.06256172
0.25409756 0.33970854 0.06256172
0.27195198 0.33970854 0.06256172
0.28922444 0.33970854 0.06256172
0.30617104 0.33970854 0.06256172
0.32296051 0.33970854 0.06256172
0.33970854 0.33970854 0.06256172
0.35649640 0.33970854 0.06256172
0.37338172 0.33970854 0.06256172
0.39040527 0.33970854 0.06256172
0.40759522 0.33970854 0.06256172
0.42497019 0.33970854 0.06256172
0.44254129 0.33970854 0.06256172
0.46031366 0.33970854 0.06256172
0.47828763 0.33970854 0.06256172
0.49645962 0.33970854 0.06256172
0.51482282 0.33970854 0.06256172
0.53336780 0.33970854 0.06256172
0.55208297 0.33970854 0.06256172
0.57095501 0.33970854 0.06256172
0.58996917 0.33970854 0.06256172
0.60910958 0.33970854 0.06256172
0.62835953 0.33970854 0.06256172
0.64770164 0.33970854 0.06256172
0.66711812 0.33970854 0.06256172
0.68659086 0.33970854 0.06256172
0.06256172 0.35649640 0.06256172
0.06256172 0.35649640 0.06256172
0.06256172 0.35649640 0.06256172
0.08109045 0.35649640 0.06256172
0.15953878 0.35649640 0.06256172
0.19084217 0.35649640 0.06256172
0.21466895 0.35649640 0.06256172
0.23524775 0.35649640 0.06256172
0.25409756 0.35649640 0.06256172
0.27195198 0.35649640 0.06256172
0.28922444 0.35649640 0.06256172
0.30617104 0.35649640 0.06256172
0.32296051 0.35649640 0.06256172
0.33970854 0.35649640 0.06256172
0.35649640 0.35649640 0.06256172
0.37338172 0.35649640 0.06256172
0.39040527 0.35649640 0.06256172
0.40759522 0.35649640 0.06256172
0.42497019 0.35649640 0.06256172
0.44254129 0.35649640 0.06256172
0.46031366 0.35649640 0.06256172
0.47828763 0.35649640 0.06256172
0.49645962 0.35649640 0.06256172
0.51482282 0.35649640 0.06256172
0.53336780 0.35649640 0.06256172
0.55208297 0.35649640 0.06256172
0.57095501 0.35649640 0.06256172
0.58996917 0.35649640 0.06256172
0.60910958 0.35649640 0.06256172
0.62835953 0.35649640 0.06256172
0.64770164 0.35649640 0.06256172
0.66711812 0.35649640 0.06256172
0.68659086 0.35649640 0.06256172
0.06256172 0.37338172 0.06256172
0.06256172 0.37338172 0.06256172
0.06256172 0.37338172 0.06256172
0.08109045 0.37338172 0.06256172
0.15953878 0.37338172 0.06256172
0.19084217 0.37338172 0.06256172
0.21466895 0.37338172 0.06256172
0.23524775 0.37338172 0.06256172
0.25409756 0.37338172 0.06256172
0.27195198 0.37338172 0.06256172
0.28922444 0.37338172 0.06256172
0.30617104 0.37338172 0.06256172
0.32296051 0.37338172 0.06256172
0.33970854 0.37338172 0.06256172
0.35649640 0.37338172 0.06256172
0.37338172 0.37338172 0.06256172
0.39040527 0.37338172 0.06256172
0.40759522 0.37338172 0.06256172
0.42497019 0.37338172 0.06256172
0.44254129 0.37338172 0.06256172
0.46031366 0.37338172 0.06256172
0.47828763 0.37338172 0.06256172
0.49645962 0.37338172 0.06256172
0.51482282 0.37338172 0.06256172
0.53336780 0.37338172 0.06256172
0.55208297 0.37338172 0.06256172
0.57095501 0.37338172 0.06256172
0.58996917 0.37338172 0.06256172
0.60910958 0.37338172 0.06256172
0.62835953 0.37338172 0.06256172
0.64770164 0.37338172 0.06256172
0.66711812 0.37338172 0.06256172
0.68659086 0.37338172 0.06256172
0.06256172 0.39040527 0.06256172
0.06256172 0.39040527 0.06256172
0.06256172 0.39040527 0.06256172
0.08109045 0.39040527 0.06256172
0.15953878 0.39040527 0.06256172
0.19084217 0.39040527 0.06256172
0.21466895 0.39040527 0.06256172
0.23524775 0.39040527 0.06256172
0.25409756 0.39040527 0.06256172
0.27195198 0.39040527 0.06256172
0.28922444 0.39040527 0.06256172
0.30617104 0.39040527 0.06256172
0.32296051 0.39040527 0.06256172
0.33970854 0.39040527 0.06256172
0.35649640 0.39040527 0.06256172
0.37338172 0.39040527 0.06256172
0.39040527 0.39040527 0.06256172
0.40759522 0.39040527 0.06256172
0.42497019 0.39040527 0.06256172
0.44254129 0.39040527 0.06256172
0.46031366 0.39040527 0.06256172
0.47828763 0.39040527 0.06256172
0.49645962 0.39040527 0.06256172
0.51482282 0.39040527 0.06256172
0.53336780 0.39040527 0.06256172
0.55208297 0.39040527 0.06256172
0.57095501 0.39040527 0.06256172
0.58996917 0.39040527 0.06256172
0.60910958 0.39040527 0.06256172
0.62835953 0.39040527 0.06256172
0.64770164 0.39040527 0.06256172
0.66711812 0.39040527 0.06256172
0.68659086 0.39040527 0.06256172
0.06256172 0.40759522 0.06256172
0.06256172 0.40759522 0.06256172
0.06256172 0.40759522 0.06256172
0.08109045 0.40759522 0.06256172
0.15953878 0.40759522 0.06256172
0.19084217 0.40759522 0.06256172
0.21466895 0.40759522 0.06256172
0.23524775 0.40759522 0.06256172
0.25409756 0.40759522 0.06256172
0.27195198 0.40759522 0.06256172
0.28922444 0.40759522 0.06256172
0.30617104 0.40759522 0.06256172
0.32296051 0.40759522 0.06256172
0.33970854 0.40759522 0.06256172
0.35649640 0.40759522 0.06256172
0.37338172 0.40759522 0.06256172
0.39040527 0.40759522 0.06256172
0.40759522 0.40759522 0.06256172
0.42497019 0.40759522 0.06256172
0.44254129 0.40759522 0.06256172
0.46031366 0.40759522 0.06256172
0.47828763 0.40759522 0.06256172
0.49645962 0.40759522 0.06256172
0.51482282 0.40759522 0.06256172
0.53336780 0.40759522 0.06256172
0.55208297 0.40759522 0.06256172
0.57095501 0.40759522 0.06256172
0.58996917 0.40759522 0.06256172
0.60910958 0.40759522 0.06256172
0.62835953 0.40759522 0.06256172
0.64770164 0.40759522 0.06256172
0.66711812 0.40759522 0.06256172
0.68659086 0.40759522 0.06256172
0.06256172 0.42497019 0.06256172
0.06256172 0.42497019 0.06256172
0.06256172 0.42497019 0.06256172
0.08109045 0.42497019 0.06256172
0.15953878 0.42497019 0.06256172
0.19084217 0.42497019 0.06256172
0.21466895 0.42497019 0.06256172
0.23524775 0.42497019 0.06256172
0.25409756 0.42497019 0.06256172
0.27195198 0.42497019 0.06256172
0.28922444 0.42497019 0.06256172
0.30617104 0.42497019 0.06256172
0.32296051 0.42497019 0.06256172
0.33970854 0.42497019 0.06256172
0.35649640 0.42497019 0.06256172
0.37338172 0.42497019 0.06256172
0.39040527 0.42497019 0.06256172
0.40759522 0.42497019 0.06256172
0.42497019 0.42497019 0.06256172
0.44254129 0.42497019 0.06256172
0.46031366 0.42497019 0.06256172
0.47828763 0.42497019 0.06256172
0.49645962 0.42497019 0.06256172
0.51482282 0.42497019 0.06256172
0.53336780 0.42497019 0.06256172
0.55208297 0.42497019 0.06256172
0.57095501 0.42497019 0.06256172
0.58996917 0.42497019 0.06256172
0.60910958 0.42497019 0.06256172
0.62835953 0.42497019 0.06256172
0.64770164 0.42497019 0.06256172
0.66711812 0.42497019 0.06256172
0.68659086 0.42497019 0.06256172
0.06256172 0.44254129 0.06256172
0.06256172 0.44254129 0.06256172
0.06256172 0.44254129 0.06256172
0.08109045 0.44254129 0.06256172
0.15953878 0.44254129 0.06256172
0.19084217 0.44254129 0.06256172
0.21466895 0.44254129 0.06256172
0.23524775 0.44254129 0.06256172
0.25409756 0.44254129 0.06256172
0.27195198 0.44254129 0.06256172
0.28922444 0.44254129 0.06256172
0.30617104 0.44254129 0.06256172
0.32296051 0.44254129 0.06256172
0.33970854 0.44254129 0.06256172
0.35649640 0.44254129 0.06256172
0.37338172 0.44254129 0.06256172
0.39040527 0.44254129 0.06256172
0.40759522 0.44254129 0.06256172
0.42497019 0.44254129 0.06256172
0.44254129 0.44254129 0.06256172
0.46031366 0.44254129 0.06256172
0.47828763 0.44254129 0.06256172
0.49645962 0.44254129 0.06256172
0.51482282 0.44254129 0.06256172
0.53336780 0.44254129 0.06256172
0.55208297 0.44254129 0.06256172
0.57095501 0.44254129 0.06256172
0.58996917 0.44254129 0.06256172
0.60910958 0.44254129 0.06256172
0.62835953 0.44254129 0.06256172
0.64770164 0.44254129 0.06256172
0.66711812 0.44254129 0.06256172
0.68659086 0.44254129 0.06256172
0.06256172 0.46031366 0.06256172
0.06256172 0.46031366 0.06256172
0.06256172 0.46031366 0.06256172
0.08109045 0.46031366 0.06256172
0.15953878 0.46031366 0.06256172
0.19084217 0.46031366 0.06256172
0.21466895 0.46031366 0.06256172
0.23524775 0.46031366 0.06256172
0.25409756 0.46031366 0.06256172
0.27195198 0.46031366 0.06256172
0.28922444 0.46031366 0.06256172
0.30617104 0.46031366 0.06256172
0.32296051 0.46031366 0.06256172
0.33970854 0.46031366 0.06256172
0.35649640 0.46031366 0.06256172
0.37338172 0.46031366 0.06256172
0.39040527 0.46031366 0.06256172
0.40759522 0.46031366 0.06256172
0.42497019 0.46031366 0.06256172
0.44254129 0.46031366 0.06256172
0.46031366 0.46031366 0.06256172
0.47828763 0.46031366 0.06256172
0.49645962 0.46031366 0.06256172
0.51482282 0.46031366 0.06256172
0.53336780 0.46031366 0.06256172
0.55208297 0.46031366 0.06256172
0.57095501 0.46031366 0.06256172
0.58996917 0.46031366 0.06256172
0.60910958 0.46031366 0.06256172
0.62835953 0.46031366 0.06256172
0.64770164 0.46031366 0.06256172
0.66711812 0.46031366 0.06256172
0.68659086 0.46031366 0.06256172
0.06256172 0.47828763 0.06256172
0.06256172 0.47828763 0.06256172
0.06256172 0.47828763 0.06256172
0.08109045 0.47828763 0.06256172
0.15953878 0.47828763 0.06256172
0.19084217 0.47828763 0.06256172
0.21466895 0.47828763 0.06256172
0.23524775 0.47828763 0.06256172
0.25409756 0.47828763 0.06256172
0.27195198 0.47828763 0.06256172
0.28922444 0.47828763 0.06256172
0.30617104 0.47828763 0.06256172
0.32296051 0.47828763 0.06256172
0.33970854 0.47828763 0.06256172
0.35649640 0.47828763 0.06256172
0.37338172 0.47828763 0.06256172
0.39040527 0.47828763 0.06256172
0.40759522 0.47828763 0.06256172
0.42497019 0.47828763 0.06256172
0.44254129 0.47828763 0.06256172
0.46031366 0.47828763 0.06256172
0.47828763 0.47828763 0.06256172
0.49645962 0.47828763 0.06256172
0.51482282 0.47828763 0.06256172
0.53336780 0.47828763 0.06256172
0.55208297 0.47828763 0.06256172
0.57095501 0.47828763 0.06256172
