src/ffmpeg_scripts/luts/flog-smpte2084_0p67.cube
TITLE "flog-smpte2084_0p67"
LUT_3D_SIZE 33
# Fujifilm F-Log/Rec2020 -> PQ (EOTF Only)/Rec2020, CineEI Shift 0.67, Black Level 0.00% IRE, Input 109% -> Output 109% - Created with LUTCalc v4.01 by Ben Turley October 2020
0.06256172 0.06256172 0.06256172
0.06256172 0.06256172 0.06256172
0.06256172 0.06256172 0.06256172
0.08583083 0.06256172 0.06256172
0.17708776 0.06256172 0.06256172
0.21211152 0.06256172 0.06256172
0.23843701 0.06256172 0.06256172
0.26097803 0.06256172 0.06256172
0.28148384 0.06256172 0.06256172
0.30079359 0.06256172 0.06256172
0.31937740 0.06256172 0.06256172
0.33752485 0.06256172 0.06256172
0.35542564 0.06256172 0.06256172
0.37320916 0.06256172 0.06256172
0.39096580 0.06256172 0.06256172
0.40875939 0.06256172 0.06256172
0.42663486 0.06256172 0.06256172
0.44462322 0.06256172 0.06256172
0.46274499 0.06256172 0.06256172
0.48101249 0.06256172 0.06256172
0.49943168 0.06256172 0.06256172
0.51800337 0.06256172 0.06256172
0.53672431 0.06256172 0.06256172
0.55558791 0.06256172 0.06256172
0.57458494 0.06256172 0.06256172
0.59370400 0.06256172 0.06256172
0.61293203 0.06256172 0.06256172
0.63225457 0.06256172 0.06256172
0.65165619 0.06256172 0.06256172
0.67112066 0.06256172 0.06256172
0.69063122 0.06256172 0.06256172
0.71017078 0.06256172 0.06256172
0.72972209 0.06256172 0.06256172
0.06256172 0.06256172 0.06256172
0.06256172 0.06256172 0.06256172
0.06256172 0.06256172 0.06256172
0.08583083 0.06256172 0.06256172
0.17708776 0.06256172 0.06256172
0.21211152 0.06256172 0.06256172
0.23843701 0.06256172 0.06256172
0.26097803 0.06256172 0.06256172
0.28148384 0.06256172 0.06256172
0.30079359 0.06256172 0.06256172
0.31937740 0.06256172 0.06256172
0.33752485 0.06256172 0.06256172
0.35542564 0.06256172 0.06256172
0.37320916 0.06256172 0.06256172
0.39096580 0.06256172 0.06256172
0.40875939 0.06256172 0.06256172
0.42663486 0.06256172 0.06256172
0.44462322 0.06256172 0.06256172
0.46274499 0.06256172 0.06256172
0.48101249 0.06256172 0.06256172
0.49943168 0.06256172 0.06256172
0.51800337 0.06256172 0.06256172
0.53672431 0.06256172 0.06256172
0.55558791 0.06256172 0.06256172
0.57458494 0.06256172 0.06256172
0.59370400 0.06256172 0.06256172
0.61293203 0.06256172 0.06256172
0.63225457 0.06256172 0.06256172
0.65165619 0.06256172 0.06256172
0.67112066 0.06256172 0.06256172
0.69063122 0.06256172 0.06256172
0.71017078 0.06256172 0.06256172
0.72972209 0.06256172 0.06256172
0.06256172 0.06256172 0.06256172
0.06256172 0.06256172 0.06256172
0.06256172 0.06256172 0.06256172
0.08583083 0.06256172 0.06256172
0.17708776 0.06256172 0.06256172
0.21211152 0.06256172 0.06256172
0.23843701 0.06256172 0.06256172
0.26097803 0.06256172 0.06256172
0.28148384 0.06256172 0.06256172
0.30079359 0.06256172 0.06256172
0.31937740 0.06256172 0.06256172
0.33752485 0.06256172 0.06256172
0.35542564 0.06256172 0.06256172
0.37320916 0.06256172 0.06256172
0.39096580 0.06256172 0.06256172
0.40875939 0.06256172 0.06256172
0.42663486 0.06256172 0.06256172
0.44462322 0.06256172 0.06256172
0.46274499 0.06256172 0.06256172
0.48101249 0.06256172 0.06256172
0.49943168 0.06256172 0.06256172
0.51800337 0.06256172 0.06256172
0.53672431 0.06256172 0.06256172
0.55558791 0.06256172 0.06256172
0.57458494 0.06256172 0.06256172
0.59370400 0.06256172 0.06256172
0.61293203 0.06256172 0.06256172
0.63225457 0.06256172 0.06256172
0.65165619 0.06256172 0.06256172
0.67112066 0.06256172 0.06256172
0.69063122 0.06256172 0.06256172
0.71017078 0.06256172 0.06256172
0.72972209 0.06256172 0.06256172
0.06256172 0.08583083 0.06256172
0.06256172 0.08583083 0.06256172
0.06256172 0.08583083 0.06256172
0.08583083 0.08583083 0.06256172
0.17708776 0.08583083 0.06256172
0.21211152 0.08583083 0.06256172
0.23843701 0.08583083 0.06256172
0.26097803 0.08583083 0.06256172
0.28148384 0.08583083 0.06256172
0.30079359 0.08583083 0.06256172
0.31937740 0.08583083 0.06256172
0.33752485 0.08583083 0.06256172
0.35542564 0.08583083 0.06256172
0.37320916 0.08583083 0.06256172
0.39096580 0.08583083 0.06256172
0.40875939 0.08583083 0.06256172
0.42663486 0.08583083 0.06256172
0.44462322 0.08583083 0.06256172
0.46274499 0.08583083 0.06256172
0.48101249 0.08583083 0.06256172
0.49943168 0.08583083 0.06256172
0.51800337 0.08583083 0.06256172
0.53672431 0.08583083 0.06256172
0.55558791 0.08583083 0.06256172
0.57458494 0.08583083 0.06256172
0.59370400 0.08583083 0.06256172
0.61293203 0.08583083 0.06256172
0.63225457 0.08583083 0.06256172
0.65165619 0.08583083 0.06256172
0.67112066 0.08583083 0.06256172
0.69063122 0.08583083 0.06256172
0.71017078 0.08583083 0.06256172
0.72972209 0.08583083 0.06256172
0.06256172 0.17708776 0.06256172
0.06256172 0.17708776 0.06256172
0.06256172 0.17708776 0.06256172
0.08583083 0.17708776 0.06256172
0.17708776 0.17708776 0.06256172
0.21211152 0.17708776 0.06256172
0.23843701 0.17708776 0.06256172
0.26097803 0.17708776 0.06256172
0.28148384 0.17708776 0.06256172
0.30079359 0.17708776 0.06256172
0.31937740 0.17708776 0.06256172
0.33752485 0.17708776 0.06256172
0.35542564 0.17708776 0.06256172
0.37320916 0.17708776 0.06256172
0.39096580 0.17708776 0.06256172
0.40875939 0.17708776 0.06256172
0.42663486 0.17708776 0.06256172
0.44462322 0.17708776 0.06256172
0.46274499 0.17708776 0.06256172
0.48101249 0.17708776 0.06256172
0.49943168 0.17708776 0.06256172
0.51800337 0.17708776 0.06256172
0.53672431 0.17708776 0.06256172
0.55558791 0.17708776 0.06256172
0.57458494 0.17708776 0.06256172
0.59370400 0.17708776 0.06256172
0.61293203 0.17708776 0.06256172
0.63225457 0.17708776 0.06256172
0.65165619 0.17708776 0.06256172
0.67112066 0.17708776 0.06256172
0.69063122 0.17708776 0.06256172
0.71017078 0.17708776 0.06256172
0.72972209 0.17708776 0.06256172
0.06256172 0.21211152 0.06256172
0.06256172 0.21211152 0.06256172
0.06256172 0.21211152 0.06256172
0.08583083 0.21211152 0.06256172
0.17708776 0.21211152 0.06256172
0.21211152 0.21211152 0.06256172
0.23843701 0.21211152 0.06256172
0.26097803 0.21211152 0.06256172
0.28148384 0.21211152 0.06256172
0.30079359 0.21211152 0.06256172
0.31937740 0.21211152 0.06256172
0.33752485 0.21211152 0.06256172
0.35542564 0.21211152 0.06256172
0.37320916 0.21211152 0.06256172
0.39096580 0.21211152 0.06256172
0.40875939 0.21211152 0.06256172
0.42663486 0.21211152 0.06256172
0.44462322 0.21211152 0.06256172
0.46274499 0.21211152 0.06256172
0.48101249 0.21211152 0.06256172
0.49943168 0.21211152 0.06256172
0.51800337 0.21211152 0.06256172
0.53672431 0.21211152 0.06256172
0.55558791 0.21211152 0.06256172
0.57458494 0.21211152 0.06256172
0.59370400 0.21211152 0.06256172
0.61293203 0.21211152 0.06256172
0.63225457 0.21211152 0.06256172
0.65165619 0.21211152 0.06256172
0.67112066 0.21211152 0.06256172
0.69063122 0.21211152 0.06256172
0.71017078 0.21211152 0.06256172
0.72972209 0.21211152 0.06256172
0.06256172 0.23843701 0.06256172
0.06256172 0.23843701 0.06256172
0.06256172 0.23843701 0.06256172
0.08583083 0.23843701 0.06256172
0.17708776 0.23843701 0.06256172
0.21211152 0.23843701 0.06256172
0.23843701 0.23843701 0.06256172
0.26097803 0.23843701 0.06256172
0.28148384 0.23843701 0.06256172
0.30079359 0.23843701 0.06256172
0.31937740 0.23843701 0.06256172
0.33752485 0.23843701 0.06256172
0.35542564 0.23843701 0.06256172
0.37320916 0.23843701 0.06256172
0.39096580 0.23843701 0.06256172
0.40875939 0.23843701 0.06256172
0.42663486 0.23843701 0.06256172
0.44462322 0.23843701 0.06256172
0.46274499 0.23843701 0.06256172
0.48101249 0.23843701 0.06256172
0.49943168 0.23843701 0.06256172
0.51800337 0.23843701 0.06256172
0.53672431 0.23843701 0.06256172
0.55558791 0.23843701 0.06256172
0.57458494 0.23843701 0.06256172
0.59370400 0.23843701 0.06256172
0.61293203 0.23843701 0.06256172
0.63225457 0.23843701 0.06256172
0.65165619 0.23843701 0.06256172
0.67112066 0.23843701 0.06256172
0.69063122 0.23843701 0.06256172
0.71017078 0.23843701 0.06256172
0.72972209 0.23843701 0.06256172
0.06256172 0.26097803 0.06256172
0.06256172 0.26097803 0.06256172
0.06256172 0.26097803 0.06256172
0.08583083 0.26097803 0.06256172
0.17708776 0.26097803 0.06256172
0.21211152 0.26097803 0.06256172
0.23843701 0.26097803 0.06256172
0.26097803 0.26097803 0.06256172
0.28148384 0.26097803 0.06256172
0.30079359 0.26097803 0.06256172
0.31937740 0.26097803 0.06256172
0.33752485 0.26097803 0.06256172
0.35542564 0.26097803 0.06256172
0.37320916 0.26097803 0.06256172
0.39096580 0.26097803 0.06256172
0.40875939 0.26097803 0.06256172
0.42663486 0.26097803 0.06256172
0.44462322 0.26097803 0.06256172
0.46274499 0.26097803 0.06256172
0.48101249 0.26097803 0.06256172
0.49943168 0.26097803 0.06256172
0.51800337 0.26097803 0.06256172
0.53672431 0.26097803 0.06256172
0.55558791 0.26097803 0.06256172
0.57458494 0.26097803 0.06256172
0.59370400 0.26097803 0.06256172
0.61293203 0.26097803 0.06256172
0.63225457 0.26097803 0.06256172
0.65165619 0.26097803 0.06256172
0.67112066 0.26097803 0.06256172
0.69063122 0.26097803 0.06256172
0.71017078 0.26097803 0.06256172
0.72972209 0.26097803 0.06256172
0.06256172 0.28148384 0.06256172
0.06256172 0.28148384 0.06256172
0.06256172 0.28148384 0.06256172
0.08583083 0.28148384 0.06256172
0.17708776 0.28148384 0.06256172
0.21211152 0.28148384 0.06256172
0.23843701 0.28148384 0.06256172
0.26097803 0.28148384 0.06256172
0.28148384 0.28148384 0.06256172
0.30079359 0.28148384 0.06256172
0.31937740 0.28148384 0.06256172
0.33752485 0.28148384 0.06256172
0.35542564 0.28148384 0.06256172
0.37320916 0.28148384 0.06256172
0.39096580 0.28148384 0.06256172
0.40875939 0.28148384 0.06256172
0.42663486 0.28148384 0.06256172
0.44462322 0.28148384 0.06256172
0.46274499 0.28148384 0.06256172
0.48101249 0.28148384 0.06256172
0.49943168 0.28148384 0.06256172
0.51800337 0.28148384 0.06256172
0.53672431 0.28148384 0.06256172
0.55558791 0.28148384 0.06256172
0.57458494 0.28148384 0.06256172
0.59370400 0.28148384 0.06256172
0.61293203 0.28148384 0.06256172
0.63225457 0.28148384 0.06256172
0.65165619 0.28148384 0.06256172
0.67112066 0.28148384 0.06256172
0.69063122 0.28148384 0.06256172
0.71017078 0.28148384 0.06256172
0.72972209 0.28148384 0.06256172
0.06256172 0.30079359 0.06256172
0.06256172 0.30079359 0.06256172
0.06256172 0.30079359 0.06256172
0.08583083 0.30079359 0.06256172
0.17708776 0.30079359 0.06256172
0.21211152 0.30079359 0.06256172
0.23843701 0.30079359 0.06256172
0.26097803 0.30079359 0.06256172
0.28148384 0.30079359 0.06256172
0.30079359 0.30079359 0.06256172
0.31937740 0.30079359 0.06256172
0.33752485 0.30079359 0.06256172
0.35542564 0.30079359 0.06256172
0.37320916 0.30079359 0.06256172
0.39096580 0.30079359 0.06256172
0.40875939 0.30079359 0.06256172
0.42663486 0.30079359 0.06256172
0.44462322 0.30079359 0.06256172
0.46274499 0.30079359 0.06256172
0.48101249 0.30079359 0.06256172
0.49943168 0.30079359 0.06256172
0.51800337 0.30079359 0.06256172
0.53672431 0.30079359 0.06256172
0.55558791 0.30079359 0.06256172
0.57458494 0.30079359 0.06256172
0.59370400 0.30079359 0.06256172
0.61293203 0.30079359 0.06256172
0.63225457 0.30079359 0.06256172
0.65165619 0.30079359 0.06256172
0.67112066 0.30079359 0.06256172
0.69063122 0.30079359 0.06256172
0.71017078 0.30079359 0.06256172
0.72972209 0.30079359 0.06256172
0.06256172 0.31937740 0.06256172
0.06256172 0.31937740 0.06256172
0.06256172 0.31937740 0.06256172
0.08583083 0.31937740 0.06256172
0.17708776 0.31937740 0.06256172
0.21211152 0.31937740 0.06256172
0.23843701 0.31937740 0.06256172
0.26097803 0.31937740 0.06256172
0.28148384 0.31937740 0.06256172
0.30079359 0.31937740 0.06256172
0.31937740 0.31937740 0.06256172
0.33752485 0.31937740 0.06256172
0.35542564 0.31937740 0.06256172
0.37320916 0.31937740 0.06256172
0.39096580 0.31937740 0.06256172
0.40875939 0.31937740 0.06256172
0.42663486 0.31937740 0.06256172
0.44462322 0.31937740 0.06256172
0.46274499 0.31937740 0.06256172
0.48101249 0.31937740 0.06256172
0.49943168 0.31937740 0.06256172
0.51800337 0.31937740 0.06256172
0.53672431 0.31937740 0.06256172
0.55558791 0.31937740 0.06256172
0.57458494 0.31937740 0.06256172
0.59370400 0.31937740 0.06256172
0.61293203 0.31937740 0.06256172
0.63225457 0.31937740 0.06256172
0.65165619 0.31937740 0.06256172
0.67112066 0.31937740 0.06256172
0.69063122 0.31937740 0.06256172
0.71017078 0.31937740 0.06256172
0.72972209 0.31937740 0.06256172
0.06256172 0.33752485 0.06256172
0.06256172 0.33752485 0.06256172
0.06256172 0.33752485 0.06256172
0.08583083 0.33752485 0.06256172
0.17708776 0.33752485 0.06256172
0.21211152 0.33752485 0.06256172
0.23843701 0.33752485 0.06256172
0.26097803 0.33752485 0.06256172
0.28148384 0.33752485 0.06256172
0.30079359 0.33752485 0.06256172
0.31937740 0.33752485 0.06256172
0.33752485 0.33752485 0.06256172
0.35542564 0.33752485 0.06256172
0.37320916 0.33752485 0.06256172
0.39096580 0.33752485 0.06256172
0.40875939 0.33752485 0.06256172
0.42663486 0.33752485 0.06256172
0.44462322 0.33752485 0.06256172
0.46274499 0.33752485 0.06256172
0.48101249 0.33752485 0.06256172
0.49943168 0.33752485 0.06256172
0.51800337 0.33752485 0.06256172
0.53672431 0.33752485 0.06256172
0.55558791 0.33752485 0.06256172
0.57458494 0.33752485 0.06256172
0.59370400 0.33752485 0.06256172
0.61293203 0.33752485 0.06256172
0.63225457 0.33752485 0.06256172
0.65165619 0.33752485 0.06256172
0.67112066 0.33752485 0.06256172
0.69063122 0.33752485 0.06256172
0.71017078 0.33752485 0.06256172
0.72972209 0.33752485 0.06256172
0.06256172 0.35542564 0.06256172
0.06256172 0.35542564 0.06256172
0.06256172 0.35542564 0.06256172
0.08583083 0.35542564 0.06256172
0.17708776 0.35542564 0.06256172
0.21211152 0.35542564 0.06256172
0.23843701 0.35542564 0.06256172
0.26097803 0.35542564 0.06256172
0.28148384 0.35542564 0.06256172
0.30079359 0.35542564 0.06256172
0.31937740 0.35542564 0.06256172
0.33752485 0.35542564 0.06256172
0.35542564 0.35542564 0.06256172
0.37320916 0.35542564 0.06256172
0.39096580 0.35542564 0.06256172
0.40875939 0.35542564 0.06256172
0.42663486 0.35542564 0.06256172
0.44462322 0.35542564 0.06256172
0.46274499 0.35542564 0.06256172
0.48101249 0.35542564 0.06256172
0.49943168 0.35542564 0.06256172
0.51800337 0.35542564 0.06256172
0.53672431 0.35542564 0.06256172
0.55558791 0.35542564 0.06256172
0.57458494 0.35542564 0.06256172
0.59370400 0.35542564 0.06256172
0.61293203 0.35542564 0.06256172
0.63225457 0.35542564 0.06256172
0.65165619 0.35542564 0.06256172
0.67112066 0.35542564 0.06256172
0.69063122 0.35542564 0.06256172
0.71017078 0.35542564 0.06256172
0.72972209 0.35542564 0.06256172
0.06256172 0.37320916 0.06256172
0.06256172 0.37320916 0.06256172
0.06256172 0.37320916 0.06256172
0.08583083 0.37320916 0.06256172
0.17708776 0.37320916 0.06256172
0.21211152 0.37320916 0.06256172
0.23843701 0.37320916 0.06256172
0.26097803 0.37320916 0.06256172
0.28148384 0.37320916 0.06256172
0.30079359 0.37320916 0.06256172
0.31937740 0.37320916 0.06256172
0.33752485 0.37320916 0.06256172
0.35542564 0.37320916 0.06256172
0.37320916 0.37320916 0.06256172
0.39096580 0.37320916 0.06256172
0.40875939 0.37320916 0.06256172
0.42663486 0.37320916 0.06256172
0.44462322 0.37320916 0.06256172
0.46274499 0.37320916 0.06256172
0.48101249 0.37320916 0.06256172
0.49943168 0.37320916 0.06256172
0.51800337 0.37320916 0.06256172
0.53672431 0.37320916 0.06256172
0.55558791 0.37320916 0.06256172
0.57458494 0.37320916 0.06256172
0.59370400 0.37320916 0.06256172
0.61293203 0.37320916 0.06256172
0.63225457 0.37320916 0.06256172
0.65165619 0.37320916 0.06256172
0.67112066 0.37320916 0.06256172
0.69063122 0.37320916 0.06256172
0.71017078 0.37320916 0.06256172
0.72972209 0.37320916 0.06256172
0.06256172 0.39096580 0.06256172
0.06256172 0.39096580 0.06256172
0.06256172 0.39096580 0.06256172
0.08583083 0.39096580 0.06256172
0.17708776 0.39096580 0.06256172
0.21211152 0.39096580 0.06256172
0.23843701 0.39096580 0.06256172
0.26097803 0.39096580 0.06256172
0.28148384 0.39096580 0.06256172
0.30079359 0.39096580 0.06256172
0.31937740 0.39096580 0.06256172
0.33752485 0.39096580 0.06256172
0.35542564 0.39096580 0.06256172
0.37320916 0.39096580 0.06256172
0.39096580 0.39096580 0.06256172
0.40875939 0.39096580 0.06256172
0.42663486 0.39096580 0.06256172
0.44462322 0.39096580 0.06256172
0.46274499 0.39096580 0.06256172
0.48101249 0.39096580 0.06256172
0.49943168 0.39096580 0.06256172
0.51800337 0.39096580 0.06256172
0.53672431 0.39096580 0.06256172
0.55558791 0.39096580 0.06256172
0.57458494 0.39096580 0.06256172
0.59370400 0.39096580 0.06256172
0.61293203 0.39096580 0.06256172
0.63225457 0.39096580 0.06256172
0.65165619 0.39096580 0.06256172
0.67112066 0.39096580 0.06256172
0.69063122 0.39096580 0.06256172
0.71017078 0.39096580 0.06256172
0.72972209 0.39096580 0.06256172
0.06256172 0.40875939 0.06256172
0.06256172 0.40875939 0.06256172
0.06256172 0.40875939 0.06256172
0.08583083 0.40875939 0.06256172
0.17708776 0.40875939 0.06256172
0.21211152 0.40875939 0.06256172
0.23843701 0.40875939 0.06256172
0.26097803 0.40875939 0.06256172
0.28148384 0.40875939 0.06256172
0.30079359 0.40875939 0.06256172
0.31937740 0.40875939 0.06256172
0.33752485 0.40875939 0.06256172
0.35542564 0.40875939 0.06256172
0.37320916 0.40875939 0.06256172
0.39096580 0.40875939 0.06256172
0.40875939 0.40875939 0.06256172
0.42663486 0.40875939 0.06256172
0.44462322 0.40875939 0.06256172
0.46274499 0.40875939 0.06256172
0.48101249 0.40875939 0.06256172
0.49943168 0.40875939 0.06256172
0.51800337 0.40875939 0.06256172
0.53672431 0.40875939 0.06256172
0.55558791 0.40875939 0.06256172
0.57458494 0.40875939 0.06256172
0.59370400 0.40875939 0.06256172
0.61293203 0.40875939 0.06256172
0.63225457 0.40875939 0.06256172
0.65165619 0.40875939 0.06256172
0.67112066 0.40875939 0.06256172
0.69063122 0.40875939 0.06256172
0.71017078 0.40875939 0.06256172
0.72972209 0.40875939 0.06256172
0.06256172 0.42663486 0.06256172
0.06256172 0.42663486 0.06256172
0.06256172 0.42663486 0.06256172
0.08583083 0.42663486 0.06256172
0.17708776 0.42663486 0.06256172
0.21211152 0.42663486 0.06256172
0.23843701 0.42663486 0.06256172
0.26097803 0.42663486 0.06256172
0.28148384 0.42663486 0.06256172
0.30079359 0.42663486 0.06256172
0.31937740 0.42663486 0.06256172
0.33752485 0.42663486 0.06256172
0.35542564 0.42663486 0.06256172
0.37320916 0.42663486 0.06256172
0.39096580 0.42663486 0.06256172
0.40875939 0.42663486 0.06256172
0.42663486 0.42663486 0.06256172
0.44462322 0.42663486 0.06256172
0.46274499 0.42663486 0.06256172
0.48101249 0.42663486 0.06256172
0.49943168 0.42663486 0.06256172
0.51800337 0.42663486 0.06256172
0.53672431 0.42663486 0.06256172
0.55558791 0.42663486 0.06256172
0.57458494 0.42663486 0.06256172
0.59370400 0.42663486 0.06256172
0.61293203 0.42663486 0.06256172
0.63225457 0.42663486 0.06256172
0.65165619 0.42663486 0.06256172
0.67112066 0.42663486 0.06256172
0.69063122 0.42663486 0.06256172
0.71017078 0.42663486 0.06256172
0.72972209 0.42663486 0.06256172
0.06256172 0.44462322 0.06256172
0.06256172 0.44462322 0.06256172
0.06256172 0.44462322 0.06256172
0.08583083 0.44462322 0.06256172
0.17708776 0.44462322 0.06256172
0.21211152 0.44462322 0.06256172
0.23843701 0.44462322 0.06256172
0.26097803 0.44462322 0.06256172
0.28148384 0.44462322 0.06256172
0.30079359 0.44462322 0.06256172
0.31937740 0.44462322 0.06256172
0.33752485 0.44462322 0.06256172
0.35542564 0.44462322 0.06256172
0.37320916 0.44462322 0.06256172
0.39096580 0.44462322 0.06256172
0.40875939 0.44462322 0.06256172
0.42663486 0.44462322 0.06256172
0.44462322 0.44462322 0.06256172
0.46274499 0.44462322 0.06256172
0.48101249 0.44462322 0.06256172
0.49943168 0.44462322 0.06256172
0.51800337 0.44462322 0.06256172
0.53672431 0.44462322 0.06256172
0.55558791 0.44462322 0.06256172
0.57458494 0.44462322 0.06256172
0.59370400 0.44462322 0.06256172
0.61293203 0.44462322 0.06256172
0.63225457 0.44462322 0.06256172
0.65165619 0.44462322 0.06256172
0.67112066 0.44462322 0.06256172
0.69063122 0.44462322 0.06256172
0.71017078 0.44462322 0.06256172
0.72972209 0.44462322 0.06256172
0.06256172 0.46274499 0.06256172
0.06256172 0.46274499 0.06256172
0.06256172 0.46274499 0.06256172
0.08583083 0.46274499 0.06256172
0.17708776 0.46274499 0.06256172
0.21211152 0.46274499 0.06256172
0.23843701 0.46274499 0.06256172
0.26097803 0.46274499 0.06256172
0.28148384 0.46274499 0.06256172
0.30079359 0.46274499 0.06256172
0.31937740 0.46274499 0.06256172
0.33752485 0.46274499 0.06256172
0.35542564 0.46274499 0.06256172
0.37320916 0.46274499 0.06256172
0.39096580 0.46274499 0.06256172
0.40875939 0.46274499 0.06256172
0.42663486 0.46274499 0.06256172
0.44462322 0.46274499 0.06256172
0.46274499 0.46274499 0.06256172
0.48101249 0.46274499 0.06256172
0.49943168 0.46274499 0.06256172
0.51800337 0.46274499 0.06256172
0.53672431 0.46274499 0.06256172
0.55558791 0.46274499 0.06256172
0.57458494 0.46274499 0.06256172
0.59370400 0.46274499 0.06256172
0.61293203 0.46274499 0.06256172
0.63225457 0.46274499 0.06256172
0.65165619 0.46274499 0.06256172
0.67112066 0.46274499 0.06256172
0.69063122 0.46274499 0.06256172
0.71017078 0.46274499 0.06256172
0.72972209 0.46274499 0.06256172
0.06256172 0.48101249 0.06256172
0.06256172 0.48101249 0.06256172
0.06256172 0.48101249 0.06256172
0.08583083 0.48101249 0.06256172
0.17708776 0.48101249 0.06256172
0.21211152 0.48101249 0.06256172
0.23843701 0.48101249 0.06256172
0.26097803 0.48101249 0.06256172
0.28148384 0.48101249 0.06256172
0.30079359 0.48101249 0.06256172
0.31937740 0.48101249 0.06256172
0.33752485 0.48101249 0.06256172
0.35542564 0.48101249 0.06256172
0.37320916 0.48101249 0.06256172
0.39096580 0.48101249 0.06256172
0.40875939 0.48101249 0.06256172
0.42663486 0.48101249 0.06256172
0.44462322 0.48101249 0.06256172
0.46274499 0.48101249 0.06256172
0.48101249 0.48101249 0.06256172
0.49943168 0.48101249 0.06256172
0.51800337 0.48101249 0.06256172
0.53672431 0.48101249 0.06256172
0.55558791 0.48101249 0.06256172
0.57458494 0.48101249 0.06256172
0.59370400 0.48101249 0.06256172
0.61293203 0.48101249 0.06256172
0.63225457 0.48101249 0.06256172
0.65165619 0.48101249 0.06256172
0.67112066 0.48101249 0.06256172
0.69063122 0.48101249 0.06256172
0.71017078 0.48101249 0.06256172
0.72972209 0.48101249 0.06256172
0.06256172 0.49943168 0.06256172
0.06256172 0.49943168 0.06256172
0.06256172 0.49943168 0.06256172
0.08583083 0.49943168 0.06256172
0.17708776 0.49943168 0.06256172
0.21211152 0.49943168 0.06256172
0.23843701 0.49943168 0.06256172
0.26097803 0.49943168 0.06256172
0.28148384 0.49943168 0.06256172
0.30079359 0.49943168 0.06256172
0.31937740 0.49943168 0.06256172
0.33752485 0.49943168 0.06256172
0.35542564 0.49943168 0.06256172
0.37320916 0.49943168 0.06256172
0.39096580 0.49943168 0.06256172
0.40875939 0.49943168 0.06256172
0.42663486 0.49943168 0.06256172
0.44462322 0.49943168 0.06256172
0.46274499 0.49943168 0.06256172
0.48101249 0.49943168 0.06256172
0.49943168 0.49943168 0.06256172
0.51800337 0.49943168 0.06256172
0.53672431 0.49943168 0.06256172
0.55558791 0.49943168 0.06256172
0.57458494 0.49943168 0.06256172
0.59370400 0.49943168 0.06256172
0.61293203 0.49943168 0.06256172
0.63225457 0.49943168 0.06256172
0.65165619 0.49943168 0.06256172
0.67112066 0.49943168 0.06256172
0.69063122 0.49943168 0.06256172
0.71017078 0.49943168 0.06256172
0.72972209 0.49943168 0.06256172
0.06256172 0.51800337 0.06256172
0.06256172 0.51800337 0.06256172
0.06256172 0.51800337 0.06256172
0.08583083 0.51800337 0.06256172
0.17708776 0.51800337 0.06256172
0.21211152 0.51800337 0.06256172
0.23843701 0.51800337 0.06256172
0.26097803 0.51800337 0.06256172
0.28148384 0.51800337 0.06256172
0.30079359 0.51800337 0.06256172
0.31937740 0.51800337 0.06256172
0.33752485 0.51800337 0.06256172
0.35542564 0.51800337 0.06256172
0.37320916 0.51800337 0.06256172
0.39096580 0.51800337 0.06256172
0.40875939 0.51800337 0.06256172
0.42663486 0.51800337 0.06256172
0.44462322 0.51800337 0.06256172
0.46274499 0.51800337 0.06256172
0.48101249 0.51800337 0.06256172
0.49943168 0.51800337 0.06256172
0.51800337 0.51800337 0.06256172
0.53672431 0.51800337 0.06256172
0.55558791 0.51800337 0.06256172
0.57458494 0.51800337 0.06256172
0.59370400 0.51800337 0.06256172
0.61293203 0.51800337 0.06256172
