src/ffmpeg_scripts/luts/flog-smpte2084_1p00.cube
TITLE "flog-smpte2084_1p00"
LUT_3D_SIZE 5
# Fujifilm F-Log/Rec2020 -> PQ (EOTF Only)/Rec2020, CineEI Shift 1.00, Black Level 0.00% IRE, Input 109% -> Output 109% - Created with LUTCalc v4.01 by Ben Turley October 2020
0.06256172 0.06256172 0.06256172
0.29600268 0.06256172 0.06256172
0.44536660 0.06256172 0.06256172
0.59551613 0.06256172 0.06256172
0.75130824 0.06256172 0.06256172
0.06256172 0.29600268 0.06256172
0.29600268 0.29600268 0.06256172
0.44536660 0.29600268 0.06256172
0.59551613 0.29600268 0.06256172
0.75130824 0.29600268 0.06256172
0.06256172 0.44536660 0.06256172
0.29600268 0.44536660 0.06256172
0.44536660 0.44536660 0.06256172
0.59551613 0.44536660 0.06256172
0.75130824 0.44536660 0.06256172
0.06256172 0.59551613 0.06256172
0.29600268 0.59551613 0.06256172
0.44536660 0.59551613 0.06256172
0.59551613 0.59551613 0.06256172
0.75130824 0.59551613 0.06256172
0.06256172 0.75130824 0.06256172
0.29600268 0.75130824 0.06256172
0.44536660 0.75130824 0.06256172
0.59551613 0.75130824 0.06256172
0.75130824 0.75130824 0.06256172
0.06256172 0.06256172 0.29600268
0.29600268 0.06256172 0.29600268
0.44536660 0.06256172 0.29600268
0.59551613 0.06256172 0.29600268
0.75130824 0.06256172 0.29600268
0.06256172 0.29600268 0.29600268
0.29600268 0.29600268 0.29600268
0.44536660 0.29600268 0.29600268
0.59551613 0.29600268 0.29600268
0.75130824 0.29600268 0.29600268
0.06256172 0.44536660 0.29600268
0.29600268 0.44536660 0.29600268
0.44536660 0.44536660 0.29600268
0.59551613 0.44536660 0.29600268
0.75130824 0.44536660 0.29600268
0.06256172 0.59551613 0.29600268
0.29600268 0.59551613 0.29600268
0.44536660 0.59551613 0.29600268
0.59551613 0.59551613 0.29600268
0.75130824 0.59551613 0.29600268
0.06256172 0.75130824 0.29600268
0.29600268 0.75130824 0.29600268
0.44536660 0.75130824 0.29600268
0.59551613 0.75130824 0.29600268
0.75130824 0.75130824 0.29600268
0.06256172 0.06256172 0.44536660
0.29600268 0.06256172 0.44536660
0.44536660 0.06256172 0.44536660
0.59551613 0.06256172 0.44536660
0.75130824 0.06256172 0.44536660
0.06256172 0.29600268 0.44536660
0.29600268 0.29600268 0.44536660
0.44536660 0.29600268 0.44536660
0.59551613 0.29600268 0.44536660
0.75130824 0.29600268 0.44536660
0.06256172 0.44536660 0.44536660
0.29600268 0.44536660 0.44536660
0.44536660 0.44536660 0.44536660
0.59551613 0.44536660 0.44536660
0.75130824 0.44536660 0.44536660
0.06256172 0.59551613 0.44536660
0.29600268 0.59551613 0.44536660
0.44536660 0.59551613 0.44536660
0.59551613 0.59551613 0.44536660
0.75130824 0.59551613 0.44536660
0.06256172 0.75130824 0.44536660
0.29600268 0.75130824 0.44536660
0.44536660 0.75130824 0.44536660
0.59551613 0.75130824 0.44536660
0.75130824 0.75130824 0.44536660
0.06256172 0.06256172 0.59551613
0.29600268 0.06256172 0.59551613
0.44536660 0.06256172 0.59551613
0.59551613 0.06256172 0.59551613
0.75130824 0.06256172 0.59551613
0.06256172 0.29600268 0.59551613
0.29600268 0.29600268 0.59551613
0.44536660 0.29600268 0.59551613
0.59551613 0.29600268 0.59551613
0.75130824 0.29600268 0.59551613
0.06256172 0.44536660 0.59551613
0.29600268 0.44536660 0.59551613
0.44536660 0.44536660 0.59551613
0.59551613 0.44536660 0.59551613
0.75130824 0.44536660 0.59551613
0.06256172 0.59551613 0.59551613
0.29600268 0.59551613 0.59551613
0.44536660 0.59551613 0.59551613
0.59551613 0.59551613 0.59551613
0.75130824 0.59551613 0.59551613
0.06256172 0.75130824 0.59551613
0.29600268 0.75130824 0.59551613
0.44536660 0.75130824 0.59551613
0.59551613 0.75130824 0.59551613
0.75130824 0.75130824 0.59551613
0.06256172 0.06256172 0.75130824
0.29600268 0.06256172 0.75130824
0.44536660 0.06256172 0.75130824
0.59551613 0.06256172 0.75130824
0.75130824 0.06256172 0.75130824
0.06256172 0.29600268 0.75130824
0.29600268 0.29600268 0.75130824
0.44536660 0.29600268 0.75130824
0.59551613 0.29600268 0.75130824
0.75130824 0.29600268 0.75130824
0.06256172 0.44536660 0.75130824
0.29600268 0.44536660 0.75130824
0.44536660 0.44536660 0.75130824
0.59551613 0.44536660 0.75130824
0.75130824 0.44536660 0.75130824
0.06256172 0.59551613 0.75130824
0.29600268 0.59551613 0.75130824
0.44536660 0.59551613 0.75130824
0.59551613 0.59551613 0.75130824
0.75130824 0.59551613 0.75130824
0.06256172 0.75130824 0.75130824
0.29600268 0.75130824 0.75130824
0.44536660 0.75130824 0.75130824
0.59551613 0.75130824 0.75130824
0.75130824 0.75130824 0.75130824
