src/ffmpeg_scripts/luts/flog-experimental_-4p00.cube
TITLE "flog-experimental_-4p00"
LUT_3D_SIZE 5
# Fujifilm F-Log/Rec2020 -> PQ (EOTF Only)/Rec2020, CineEI Shift -4.00, Black Level 0.00% IRE, Input 109% -> Output 100% - Created with LUTCalc v4.01 by Ben Turley October 2020
0.00000073 0.00000073 0.00000073
0.11911562 0.00000073 0.00000073
0.24655048 0.00000073 0.00000073
0.40878335 0.00000073 0.00000073
0.61153701 0.00000073 0.00000073
0.00000073 0.11911562 0.00000073
0.11911562 0.11911562 0.00000073
0.24655048 0.11911562 0.00000073
0.40878335 0.11911562 0.00000073
0.61153701 0.11911562 0.00000073
0.00000073 0.24655048 0.00000073
0.11911562 0.24655048 0.00000073
0.24655048 0.24655048 0.00000073
0.40878335 0.24655048 0.00000073
0.61153701 0.24655048 0.00000073
0.00000073 0.40878335 0.00000073
0.11911562 0.40878335 0.00000073
0.24655048 0.40878335 0.00000073
0.40878335 0.40878335 0.00000073
0.61153701 0.40878335 0.00000073
0.00000073 0.61153701 0.00000073
0.11911562 0.61153701 0.00000073
0.24655048 0.61153701 0.00000073
0.40878335 0.61153701 0.00000073
0.61153701 0.61153701 0.00000073
0.00000073 0.00000073 0.11911562
0.11911562 0.00000073 0.11911562
0.24655048 0.00000073 0.11911562
0.40878335 0.00000073 0.11911562
0.61153701 0.00000073 0.11911562
0.00000073 0.11911562 0.11911562
0.11911562 0.11911562 0.11911562
0.24655048 0.11911562 0.11911562
0.40878335 0.11911562 0.11911562
0.61153701 0.11911562 0.11911562
0.00000073 0.24655048 0.11911562
0.11911562 0.24655048 0.11911562
0.24655048 0.24655048 0.11911562
0.40878335 0.24655048 0.11911562
0.61153701 0.24655048 0.11911562
0.00000073 0.40878335 0.11911562
0.11911562 0.40878335 0.11911562
0.24655048 0.40878335 0.11911562
0.40878335 0.40878335 0.11911562
0.61153701 0.40878335 0.11911562
0.00000073 0.61153701 0.11911562
0.11911562 0.61153701 0.11911562
0.24655048 0.61153701 0.11911562
0.40878335 0.61153701 0.11911562
0.61153701 0.61153701 0.11911562
0.00000073 0.00000073 0.24655048
0.11911562 0.00000073 0.24655048
0.24655048 0.00000073 0.24655048
0.40878335 0.00000073 0.24655048
0.61153701 0.00000073 0.24655048
0.00000073 0.11911562 0.24655048
0.11911562 0.11911562 0.24655048
0.24655048 0.11911562 0.24655048
0.40878335 0.11911562 0.24655048
0.61153701 0.11911562 0.24655048
0.00000073 0.24655048 0.24655048
0.11911562 0.24655048 0.24655048
0.24655048 0.24655048 0.24655048
0.40878335 0.24655048 0.24655048
0.61153701 0.24655048 0.24655048
0.00000073 0.40878335 0.24655048
0.11911562 0.40878335 0.24655048
0.24655048 0.40878335 0.24655048
0.40878335 0.40878335 0.24655048
0.61153701 0.40878335 0.24655048
0.00000073 0.61153701 0.24655048
0.11911562 0.61153701 0.24655048
0.24655048 0.61153701 0.24655048
0.40878335 0.61153701 0.24655048
0.61153701 0.61153701 0.24655048
0.00000073 0.00000073 0.40878335
0.11911562 0.00000073 0.40878335
0.24655048 0.00000073 0.40878335
0.40878335 0.00000073 0.40878335
0.61153701 0.00000073 0.40878335
0.00000073 0.11911562 0.40878335
0.11911562 0.11911562 0.40878335
0.24655048 0.11911562 0.40878335
0.40878335 0.11911562 0.40878335
0.61153701 0.11911562 0.40878335
0.00000073 0.24655048 0.40878335
0.11911562 0.24655048 0.40878335
0.24655048 0.24655048 0.40878335
0.40878335 0.24655048 0.40878335
0.61153701 0.24655048 0.40878335
0.00000073 0.40878335 0.40878335
0.11911562 0.40878335 0.40878335
0.24655048 0.40878335 0.40878335
0.40878335 0.40878335 0.40878335
0.61153701 0.40878335 0.40878335
0.00000073 0.61153701 0.40878335
0.11911562 0.61153701 0.40878335
0.24655048 0.61153701 0.40878335
0.40878335 0.61153701 0.40878335
0.61153701 0.61153701 0.40878335
0.00000073 0.00000073 0.61153701
0.11911562 0.00000073 0.61153701
0.24655048 0.00000073 0.61153701
0.40878335 0.00000073 0.61153701
0.61153701 0.00000073 0.61153701
0.00000073 0.11911562 0.61153701
0.11911562 0.11911562 0.61153701
0.24655048 0.11911562 0.61153701
0.40878335 0.11911562 0.61153701
0.61153701 0.11911562 0.61153701
0.00000073 0.24655048 0.61153701
0.11911562 0.24655048 0.61153701
0.24655048 0.24655048 0.61153701
0.40878335 0.24655048 0.61153701
0.61153701 0.24655048 0.61153701
0.00000073 0.40878335 0.61153701
0.11911562 0.40878335 0.61153701
0.24655048 0.40878335 0.61153701
0.40878335 0.40878335 0.61153701
0.61153701 0.40878335 0.61153701
0.00000073 0.61153701 0.61153701
0.11911562 0.61153701 0.61153701
0.24655048 0.61153701 0.61153701
0.40878335 0.61153701 0.61153701
0.61153701 0.61153701 0.61153701
