src/ffmpeg_scripts/luts/flog-smpte2084_2p00.cube
TITLE "flog-smpte2084_2p00"
LUT_3D_SIZE 5
# Fujifilm F-Log/Rec2020 -> PQ (EOTF Only)/Rec2020, CineEI Shift 2.00, Black Level 0.00% IRE, Input 109% -> Output 109% - Created with LUTCalc v4.01 by Ben Turley October 2020
0.06256172 0.06256172 0.06256172
0.34274569 0.06256172 0.06256172
0.50373960 0.06256172 0.06256172
0.65926068 0.06256172 0.06256172
0.81584482 0.06256172 0.06256172
0.06256172 0.34274569 0.06256172
0.34274569 0.34274569 0.06256172
0.50373960 0.34274569 0.06256172
0.65926068 0.34274569 0.06256172
0.81584482 0.34274569 0.06256172
0.06256172 0.50373960 0.06256172
0.34274569 0.50373960 0.06256172
0.50373960 0.50373960 0.06256172
0.65926068 0.50373960 0.06256172
0.81584482 0.50373960 0.06256172
0.06256172 0.65926068 0.06256172
0.34274569 0.65926068 0.06256172
0.50373960 0.65926068 0.06256172
0.65926068 0.65926068 0.06256172
0.81584482 0.65926068 0.06256172
0.06256172 0.81584482 0.06256172
0.34274569 0.81584482 0.06256172
0.50373960 0.81584482 0.06256172
0.65926068 0.81584482 0.06256172
0.81584482 0.81584482 0.06256172
0.06256172 0.06256172 0.34274569
0.34274569 0.06256172 0.34274569
0.50373960 0.06256172 0.34274569
0.65926068 0.06256172 0.34274569
0.81584482 0.06256172 0.34274569
0.06256172 0.34274569 0.34274569
0.34274569 0.34274569 0.34274569
0.50373960 0.34274569 0.34274569
0.65926068 0.34274569 0.34274569
0.81584482 0.34274569 0.34274569
0.06256172 0.50373960 0.34274569
0.34274569 0.50373960 0.34274569
0.50373960 0.50373960 0.34274569
0.65926068 0.50373960 0.34274569
0.81584482 0.50373960 0.34274569
0.06256172 0.65926068 0.34274569
0.34274569 0.65926068 0.34274569
0.50373960 0.65926068 0.34274569
0.65926068 0.65926068 0.34274569
0.81584482 0.65926068 0.34274569
0.06256172 0.81584482 0.34274569
0.34274569 0.81584482 0.34274569
0.50373960 0.81584482 0.34274569
0.65926068 0.81584482 0.34274569
0.81584482 0.81584482 0.34274569
0.06256172 0.06256172 0.50373960
0.34274569 0.06256172 0.50373960
0.50373960 0.06256172 0.50373960
0.65926068 0.06256172 0.50373960
0.81584482 0.06256172 0.50373960
0.06256172 0.34274569 0.50373960
0.34274569 0.34274569 0.50373960
0.50373960 0.34274569 0.50373960
0.65926068 0.34274569 0.50373960
0.81584482 0.34274569 0.50373960
0.06256172 0.50373960 0.50373960
0.34274569 0.50373960 0.50373960
0.50373960 0.50373960 0.50373960
0.65926068 0.50373960 0.50373960
0.81584482 0.50373960 0.50373960
0.06256172 0.65926068 0.50373960
0.34274569 0.65926068 0.50373960
0.50373960 0.65926068 0.50373960
0.65926068 0.65926068 0.50373960
0.81584482 0.65926068 0.50373960
0.06256172 0.81584482 0.50373960
0.34274569 0.81584482 0.50373960
0.50373960 0.81584482 0.50373960
0.65926068 0.81584482 0.50373960
0.81584482 0.81584482 0.50373960
0.06256172 0.06256172 0.65926068
0.34274569 0.06256172 0.65926068
0.50373960 0.06256172 0.65926068
0.65926068 0.06256172 0.65926068
0.81584482 0.06256172 0.65926068
0.06256172 0.34274569 0.65926068
0.34274569 0.34274569 0.65926068
0.50373960 0.34274569 0.65926068
0.65926068 0.34274569 0.65926068
0.81584482 0.34274569 0.65926068
0.06256172 0.50373960 0.65926068
0.34274569 0.50373960 0.65926068
0.50373960 0.50373960 0.65926068
0.65926068 0.50373960 0.65926068
0.81584482 0.50373960 0.65926068
0.06256172 0.65926068 0.65926068
0.34274569 0.65926068 0.65926068
0.50373960 0.65926068 0.65926068
0.65926068 0.65926068 0.65926068
0.81584482 0.65926068 0.65926068
0.06256172 0.81584482 0.65926068
0.34274569 0.81584482 0.65926068
0.50373960 0.81584482 0.65926068
0.65926068 0.81584482 0.65926068
0.81584482 0.81584482 0.65926068
0.06256172 0.06256172 0.81584482
0.34274569 0.06256172 0.81584482
0.50373960 0.06256172 0.81584482
0.65926068 0.06256172 0.81584482
0.81584482 0.06256172 0.81584482
0.06256172 0.34274569 0.81584482
0.34274569 0.34274569 0.81584482
0.50373960 0.34274569 0.81584482
0.65926068 0.34274569 0.81584482
0.81584482 0.34274569 0.81584482
0.06256172 0.50373960 0.81584482
0.34274569 0.50373960 0.81584482
0.50373960 0.50373960 0.81584482
0.65926068 0.50373960 0.81584482
0.81584482 0.50373960 0.81584482
0.06256172 0.65926068 0.81584482
0.34274569 0.65926068 0.81584482
0.50373960 0.65926068 0.81584482
0.65926068 0.65926068 0.81584482
0.81584482 0.65926068 0.81584482
0.06256172 0.81584482 0.81584482
0.34274569 0.81584482 0.81584482
0.50373960 0.81584482 0.81584482
0.65926068 0.81584482 0.81584482
0.81584482 0.81584482 0.81584482
