src/ffmpeg_scripts/luts/flog-smpte2084_-1p00.cube
TITLE "flog-smpte2084_-1p00"
LUT_3D_SIZE 9
# Fujifilm F-Log/Rec2020 -> PQ (EOTF Only)/Rec2020, CineEI Shift -1.00, Black Level 0.00% IRE, Input 109% -> Output 109% - Created with LUTCalc v4.01 by Ben Turley October 2020
0.06256172 0.06256172 0.06256172
0.13704624 0.06256172 0.06256172
0.21722142 0.06256172 0.06256172
0.27817273 0.06256172 0.06256172
0.33946543 0.06256172 0.06256172
0.40439811 0.06256172 0.06256172
0.47357368 0.06256172 0.06256172
0.54655373 0.06256172 0.06256172
0.62239914 0.06256172 0.06256172
0.06256172 0.13704624 0.06256172
0.13704624 0.13704624 0.06256172
0.21722142 0.13704624 0.06256172
0.27817273 0.13704624 0.06256172
0.33946543 0.13704624 0.06256172
0.40439811 0.13704624 0.06256172
0.47357368 0.13704624 0.06256172
0.54655373 0.13704624 0.06256172
0.62239914 0.13704624 0.06256172
0.06256172 0.21722142 0.06256172
0.13704624 0.21722142 0.06256172
0.21722142 0.21722142 0.06256172
0.27817273 0.21722142 0.06256172
0.33946543 0.21722142 0.06256172
0.40439811 0.21722142 0.06256172
0.47357368 0.21722142 0.06256172
0.54655373 0.21722142 0.06256172
0.62239914 0.21722142 0.06256172
0.06256172 0.27817273 0.06256172
0.13704624 0.27817273 0.06256172
0.21722142 0.27817273 0.06256172
0.27817273 0.27817273 0.06256172
0.33946543 0.27817273 0.06256172
0.40439811 0.27817273 0.06256172
0.47357368 0.27817273 0.06256172
0.54655373 0.27817273 0.06256172
0.62239914 0.27817273 0.06256172
0.06256172 0.33946543 0.06256172
0.13704624 0.33946543 0.06256172
0.21722142 0.33946543 0.06256172
0.27817273 0.33946543 0.06256172
0.33946543 0.33946543 0.06256172
0.40439811 0.33946543 0.06256172
0.47357368 0.33946543 0.06256172
0.54655373 0.33946543 0.06256172
0.62239914 0.33946543 0.06256172
0.06256172 0.40439811 0.06256172
0.13704624 0.40439811 0.06256172
0.21722142 0.40439811 0.06256172
0.27817273 0.40439811 0.06256172
0.33946543 0.40439811 0.06256172
0.40439811 0.40439811 0.06256172
0.47357368 0.40439811 0.06256172
0.54655373 0.40439811 0.06256172
0.62239914 0.40439811 0.06256172
0.06256172 0.47357368 0.06256172
0.13704624 0.47357368 0.06256172
0.21722142 0.47357368 0.06256172
0.27817273 0.47357368 0.06256172
0.33946543 0.47357368 0.06256172
0.40439811 0.47357368 0.06256172
0.47357368 0.47357368 0.06256172
0.54655373 0.47357368 0.06256172
0.62239914 0.47357368 0.06256172
0.06256172 0.54655373 0.06256172
0.13704624 0.54655373 0.06256172
0.21722142 0.54655373 0.06256172
0.27817273 0.54655373 0.06256172
0.33946543 0.54655373 0.06256172
0.40439811 0.54655373 0.06256172
0.47357368 0.54655373 0.06256172
0.54655373 0.54655373 0.06256172
0.62239914 0.54655373 0.06256172
0.06256172 0.62239914 0.06256172
0.13704624 0.62239914 0.06256172
0.21722142 0.62239914 0.06256172
0.27817273 0.62239914 0.06256172
0.33946543 0.62239914 0.06256172
0.40439811 0.62239914 0.06256172
0.47357368 0.62239914 0.06256172
0.54655373 0.62239914 0.06256172
0.62239914 0.62239914 0.06256172
0.06256172 0.06256172 0.13704624
0.13704624 0.06256172 0.13704624
0.21722142 0.06256172 0.13704624
0.27817273 0.06256172 0.13704624
0.33946543 0.06256172 0.13704624
0.40439811 0.06256172 0.13704624
0.47357368 0.06256172 0.13704624
0.54655373 0.06256172 0.13704624
0.62239914 0.06256172 0.13704624
0.06256172 0.13704624 0.13704624
0.13704624 0.13704624 0.13704624
0.21722142 0.13704624 0.13704624
0.27817273 0.13704624 0.13704624
0.33946543 0.13704624 0.13704624
0.40439811 0.13704624 0.13704624
0.47357368 0.13704624 0.13704624
0.54655373 0.13704624 0.13704624
0.62239914 0.13704624 0.13704624
0.06256172 0.21722142 0.13704624
0.13704624 0.21722142 0.13704624
0.21722142 0.21722142 0.13704624
0.27817273 0.21722142 0.13704624
0.33946543 0.21722142 0.13704624
0.40439811 0.21722142 0.13704624
0.47357368 0.21722142 0.13704624
0.54655373 0.21722142 0.13704624
0.62239914 0.21722142 0.13704624
0.06256172 0.27817273 0.13704624
0.13704624 0.27817273 0.13704624
0.21722142 0.27817273 0.13704624
0.27817273 0.27817273 0.13704624
0.33946543 0.27817273 0.13704624
0.40439811 0.27817273 0.13704624
0.47357368 0.27817273 0.13704624
0.54655373 0.27817273 0.13704624
0.62239914 0.27817273 0.13704624
0.06256172 0.33946543 0.13704624
0.13704624 0.33946543 0.13704624
0.21722142 0.33946543 0.13704624
0.27817273 0.33946543 0.13704624
0.33946543 0.33946543 0.13704624
0.40439811 0.33946543 0.13704624
0.47357368 0.33946543 0.13704624
0.54655373 0.33946543 0.13704624
0.62239914 0.33946543 0.13704624
0.06256172 0.40439811 0.13704624
0.13704624 0.40439811 0.13704624
0.21722142 0.40439811 0.13704624
0.27817273 0.40439811 0.13704624
0.33946543 0.40439811 0.13704624
0.40439811 0.40439811 0.13704624
0.47357368 0.40439811 0.13704624
0.54655373 0.40439811 0.13704624
0.62239914 0.40439811 0.13704624
0.06256172 0.47357368 0.13704624
0.13704624 0.47357368 0.13704624
0.21722142 0.47357368 0.13704624
0.27817273 0.47357368 0.13704624
0.33946543 0.47357368 0.13704624
0.40439811 0.47357368 0.13704624
0.47357368 0.47357368 0.13704624
0.54655373 0.47357368 0.13704624
0.62239914 0.47357368 0.13704624
0.06256172 0.54655373 0.13704624
0.13704624 0.54655373 0.13704624
0.21722142 0.54655373 0.13704624
0.27817273 0.54655373 0.13704624
0.33946543 0.54655373 0.13704624
0.40439811 0.54655373 0.13704624
0.47357368 0.54655373 0.13704624
0.54655373 0.54655373 0.13704624
0.62239914 0.54655373 0.13704624
0.06256172 0.62239914 0.13704624
0.13704624 0.62239914 0.13704624
0.21722142 0.62239914 0.13704624
0.27817273 0.62239914 0.13704624
0.33946543 0.62239914 0.13704624
0.40439811 0.62239914 0.13704624
0.47357368 0.62239914 0.13704624
0.54655373 0.62239914 0.13704624
0.62239914 0.62239914 0.13704624
0.06256172 0.06256172 0.21722142
0.13704624 0.06256172 0.21722142
0.21722142 0.06256172 0.21722142
0.27817273 0.06256172 0.21722142
0.33946543 0.06256172 0.21722142
0.40439811 0.06256172 0.21722142
0.47357368 0.06256172 0.21722142
0.54655373 0.06256172 0.21722142
0.62239914 0.06256172 0.21722142
0.06256172 0.13704624 0.21722142
0.13704624 0.13704624 0.21722142
0.21722142 0.13704624 0.21722142
0.27817273 0.13704624 0.21722142
0.33946543 0.13704624 0.21722142
0.40439811 0.13704624 0.21722142
0.47357368 0.13704624 0.21722142
0.54655373 0.13704624 0.21722142
0.62239914 0.13704624 0.21722142
0.06256172 0.21722142 0.21722142
0.13704624 0.21722142 0.21722142
0.21722142 0.21722142 0.21722142
0.27817273 0.21722142 0.21722142
0.33946543 0.21722142 0.21722142
0.40439811 0.21722142 0.21722142
0.47357368 0.21722142 0.21722142
0.54655373 0.21722142 0.21722142
0.62239914 0.21722142 0.21722142
0.06256172 0.27817273 0.21722142
0.13704624 0.27817273 0.21722142
0.21722142 0.27817273 0.21722142
0.27817273 0.27817273 0.21722142
0.33946543 0.27817273 0.21722142
0.40439811 0.27817273 0.21722142
0.47357368 0.27817273 0.21722142
0.54655373 0.27817273 0.21722142
0.62239914 0.27817273 0.21722142
0.06256172 0.33946543 0.21722142
0.13704624 0.33946543 0.21722142
0.21722142 0.33946543 0.21722142
0.27817273 0.33946543 0.21722142
0.33946543 0.33946543 0.21722142
0.40439811 0.33946543 0.21722142
0.47357368 0.33946543 0.21722142
0.54655373 0.33946543 0.21722142
0.62239914 0.33946543 0.21722142
0.06256172 0.40439811 0.21722142
0.13704624 0.40439811 0.21722142
0.21722142 0.40439811 0.21722142
0.27817273 0.40439811 0.21722142
0.33946543 0.40439811 0.21722142
0.40439811 0.40439811 0.21722142
0.47357368 0.40439811 0.21722142
0.54655373 0.40439811 0.21722142
0.62239914 0.40439811 0.21722142
0.06256172 0.47357368 0.21722142
0.13704624 0.47357368 0.21722142
0.21722142 0.47357368 0.21722142
0.27817273 0.47357368 0.21722142
0.33946543 0.47357368 0.21722142
0.40439811 0.47357368 0.21722142
0.47357368 0.47357368 0.21722142
0.54655373 0.47357368 0.21722142
0.62239914 0.47357368 0.21722142
0.06256172 0.54655373 0.21722142
0.13704624 0.54655373 0.21722142
0.21722142 0.54655373 0.21722142
0.27817273 0.54655373 0.21722142
0.33946543 0.54655373 0.21722142
0.40439811 0.54655373 0.21722142
0.47357368 0.54655373 0.21722142
0.54655373 0.54655373 0.21722142
0.62239914 0.54655373 0.21722142
0.06256172 0.62239914 0.21722142
0.13704624 0.62239914 0.21722142
0.21722142 0.62239914 0.21722142
0.27817273 0.62239914 0.21722142
0.33946543 0.62239914 0.21722142
0.40439811 0.62239914 0.21722142
0.47357368 0.62239914 0.21722142
0.54655373 0.62239914 0.21722142
0.62239914 0.62239914 0.21722142
0.06256172 0.06256172 0.27817273
0.13704624 0.06256172 0.27817273
0.21722142 0.06256172 0.27817273
0.27817273 0.06256172 0.27817273
0.33946543 0.06256172 0.27817273
0.40439811 0.06256172 0.27817273
0.47357368 0.06256172 0.27817273
0.54655373 0.06256172 0.27817273
0.62239914 0.06256172 0.27817273
0.06256172 0.13704624 0.27817273
0.13704624 0.13704624 0.27817273
0.21722142 0.13704624 0.27817273
0.27817273 0.13704624 0.27817273
0.33946543 0.13704624 0.27817273
0.40439811 0.13704624 0.27817273
0.47357368 0.13704624 0.27817273
0.54655373 0.13704624 0.27817273
0.62239914 0.13704624 0.27817273
0.06256172 0.21722142 0.27817273
0.13704624 0.21722142 0.27817273
0.21722142 0.21722142 0.27817273
0.27817273 0.21722142 0.27817273
0.33946543 0.21722142 0.27817273
0.40439811 0.21722142 0.27817273
0.47357368 0.21722142 0.27817273
0.54655373 0.21722142 0.27817273
0.62239914 0.21722142 0.27817273
0.06256172 0.27817273 0.27817273
0.13704624 0.27817273 0.27817273
0.21722142 0.27817273 0.27817273
0.27817273 0.27817273 0.27817273
0.33946543 0.27817273 0.27817273
0.40439811 0.27817273 0.27817273
0.47357368 0.27817273 0.27817273
0.54655373 0.27817273 0.27817273
0.62239914 0.27817273 0.27817273
0.06256172 0.33946543 0.27817273
0.13704624 0.33946543 0.27817273
0.21722142 0.33946543 0.27817273
0.27817273 0.33946543 0.27817273
0.33946543 0.33946543 0.27817273
0.40439811 0.33946543 0.27817273
0.47357368 0.33946543 0.27817273
0.54655373 0.33946543 0.27817273
0.62239914 0.33946543 0.27817273
0.06256172 0.40439811 0.27817273
0.13704624 0.40439811 0.27817273
0.21722142 0.40439811 0.27817273
0.27817273 0.40439811 0.27817273
0.33946543 0.40439811 0.27817273
0.40439811 0.40439811 0.27817273
0.47357368 0.40439811 0.27817273
0.54655373 0.40439811 0.27817273
0.62239914 0.40439811 0.27817273
0.06256172 0.47357368 0.27817273
0.13704624 0.47357368 0.27817273
0.21722142 0.47357368 0.27817273
0.27817273 0.47357368 0.27817273
0.33946543 0.47357368 0.27817273
0.40439811 0.47357368 0.27817273
0.47357368 0.47357368 0.27817273
0.54655373 0.47357368 0.27817273
0.62239914 0.47357368 0.27817273
0.06256172 0.54655373 0.27817273
0.13704624 0.54655373 0.27817273
0.21722142 0.54655373 0.27817273
0.27817273 0.54655373 0.27817273
0.33946543 0.54655373 0.27817273
0.40439811 0.54655373 0.27817273
0.47357368 0.54655373 0.27817273
0.54655373 0.54655373 0.27817273
0.62239914 0.54655373 0.27817273
0.06256172 0.62239914 0.27817273
0.13704624 0.62239914 0.27817273
0.21722142 0.62239914 0.27817273
0.27817273 0.62239914 0.27817273
0.33946543 0.62239914 0.27817273
0.40439811 0.62239914 0.27817273
0.47357368 0.62239914 0.27817273
0.54655373 0.62239914 0.27817273
0.62239914 0.62239914 0.27817273
0.06256172 0.06256172 0.33946543
0.13704624 0.06256172 0.33946543
0.21722142 0.06256172 0.33946543
0.27817273 0.06256172 0.33946543
0.33946543 0.06256172 0.33946543
0.40439811 0.06256172 0.33946543
0.47357368 0.06256172 0.33946543
0.54655373 0.06256172 0.33946543
0.62239914 0.06256172 0.33946543
0.06256172 0.13704624 0.33946543
0.13704624 0.13704624 0.33946543
0.21722142 0.13704624 0.33946543
0.27817273 0.13704624 0.33946543
0.33946543 0.13704624 0.33946543
0.40439811 0.13704624 0.33946543
0.47357368 0.13704624 0.33946543
0.54655373 0.13704624 0.33946543
0.62239914 0.13704624 0.33946543
0.06256172 0.21722142 0.33946543
0.13704624 0.21722142 0.33946543
0.21722142 0.21722142 0.33946543
0.27817273 0.21722142 0.33946543
0.33946543 0.21722142 0.33946543
0.40439811 0.21722142 0.33946543
0.47357368 0.21722142 0.33946543
0.54655373 0.21722142 0.33946543
0.62239914 0.21722142 0.33946543
0.06256172 0.27817273 0.33946543
0.13704624 0.27817273 0.33946543
0.21722142 0.27817273 0.33946543
0.27817273 0.27817273 0.33946543
0.33946543 0.27817273 0.33946543
0.40439811 0.27817273 0.33946543
0.47357368 0.27817273 0.33946543
0.54655373 0.27817273 0.33946543
0.62239914 0.27817273 0.33946543
0.06256172 0.33946543 0.33946543
0.13704624 0.33946543 0.33946543
0.21722142 0.33946543 0.33946543
0.27817273 0.33946543 0.33946543
0.33946543 0.33946543 0.33946543
0.40439811 0.33946543 0.33946543
0.47357368 0.33946543 0.33946543
0.54655373 0.33946543 0.33946543
0.62239914 0.33946543 0.33946543
0.06256172 0.40439811 0.33946543
0.13704624 0.40439811 0.33946543
0.21722142 0.40439811 0.33946543
0.27817273 0.40439811 0.33946543
0.33946543 0.40439811 0.33946543
0.40439811 0.40439811 0.33946543
0.47357368 0.40439811 0.33946543
0.54655373 0.40439811 0.33946543
0.62239914 0.40439811 0.33946543
0.06256172 0.47357368 0.33946543
0.13704624 0.47357368 0.33946543
0.21722142 0.47357368 0.33946543
0.27817273 0.47357368 0.33946543
0.33946543 0.47357368 0.33946543
0.40439811 0.47357368 0.33946543
0.47357368 0.47357368 0.33946543
0.54655373 0.47357368 0.33946543
0.62239914 0.47357368 0.33946543
0.06256172 0.54655373 0.33946543
0.13704624 0.54655373 0.33946543
0.21722142 0.54655373 0.33946543
0.27817273 0.54655373 0.33946543
0.33946543 0.54655373 0.33946543
0.40439811 0.54655373 0.33946543
0.47357368 0.54655373 0.33946543
0.54655373 0.54655373 0.33946543
0.62239914 0.54655373 0.33946543
0.06256172 0.62239914 0.33946543
0.13704624 0.62239914 0.33946543
0.21722142 0.62239914 0.33946543
0.27817273 0.62239914 0.33946543
0.33946543 0.62239914 0.33946543
0.40439811 0.62239914 0.33946543
0.47357368 0.62239914 0.33946543
0.54655373 0.62239914 0.33946543
0.62239914 0.62239914 0.33946543
0.06256172 0.06256172 0.40439811
0.13704624 0.06256172 0.40439811
0.21722142 0.06256172 0.40439811
0.27817273 0.06256172 0.40439811
0.33946543 0.06256172 0.40439811
0.40439811 0.06256172 0.40439811
0.47357368 0.06256172 0.40439811
0.54655373 0.06256172 0.40439811
0.62239914 0.06256172 0.40439811
0.06256172 0.13704624 0.40439811
0.13704624 0.13704624 0.40439811
0.21722142 0.13704624 0.40439811
0.27817273 0.13704624 0.40439811
0.33946543 0.13704624 0.40439811
0.40439811 0.13704624 0.40439811
0.47357368 0.13704624 0.40439811
0.54655373 0.13704624 0.40439811
0.62239914 0.13704624 0.40439811
0.06256172 0.21722142 0.40439811
0.13704624 0.21722142 0.40439811
0.21722142 0.21722142 0.40439811
0.27817273 0.21722142 0.40439811
0.33946543 0.21722142 0.40439811
0.40439811 0.21722142 0.40439811
0.47357368 0.21722142 0.40439811
0.54655373 0.21722142 0.40439811
0.62239914 0.21722142 0.40439811
0.06256172 0.27817273 0.40439811
0.13704624 0.27817273 0.40439811
0.21722142 0.27817273 0.40439811
0.27817273 0.27817273 0.40439811
0.33946543 0.27817273 0.40439811
0.40439811 0.27817273 0.40439811
0.47357368 0.27817273 0.40439811
0.54655373 0.27817273 0.40439811
0.62239914 0.27817273 0.40439811
0.06256172 0.33946543 0.40439811
0.13704624 0.33946543 0.40439811
0.21722142 0.33946543 0.40439811
0.27817273 0.33946543 0.40439811
0.33946543 0.33946543 0.40439811
0.40439811 0.33946543 0.40439811
0.47357368 0.33946543 0.40439811
0.54655373 0.33946543 0.40439811
0.62239914 0.33946543 0.40439811
0.06256172 0.40439811 0.40439811
0.13704624 0.40439811 0.40439811
0.21722142 0.40439811 0.40439811
0.27817273 0.40439811 0.40439811
0.33946543 0.40439811 0.40439811
0.40439811 0.40439811 0.40439811
0.47357368 0.40439811 0.40439811
0.54655373 0.40439811 0.40439811
0.62239914 0.40439811 0.40439811
0.06256172 0.47357368 0.40439811
0.13704624 0.47357368 0.40439811
0.21722142 0.47357368 0.40439811
0.27817273 0.47357368 0.40439811
0.33946543 0.47357368 0.40439811
0.40439811 0.47357368 0.40439811
0.47357368 0.47357368 0.40439811
0.54655373 0.47357368 0.40439811
0.62239914 0.47357368 0.40439811
0.06256172 0.54655373 0.40439811
0.13704624 0.54655373 0.40439811
0.21722142 0.54655373 0.40439811
0.27817273 0.54655373 0.40439811
0.33946543 0.54655373 0.40439811
0.40439811 0.54655373 0.40439811
0.47357368 0.54655373 0.40439811
0.54655373 0.54655373 0.40439811
0.62239914 0.54655373 0.40439811
0.06256172 0.62239914 0.40439811
0.13704624 0.62239914 0.40439811
0.21722142 0.62239914 0.40439811
0.27817273 0.62239914 0.40439811
0.33946543 0.62239914 0.40439811
0.40439811 0.62239914 0.40439811
0.47357368 0.62239914 0.40439811
0.54655373 0.62239914 0.40439811
0.62239914 0.62239914 0.40439811
0.06256172 0.06256172 0.47357368
0.13704624 0.06256172 0.47357368
0.21722142 0.06256172 0.47357368
0.27817273 0.06256172 0.47357368
0.33946543 0.06256172 0.47357368
0.40439811 0.06256172 0.47357368
0.47357368 0.06256172 0.47357368
0.54655373 0.06256172 0.47357368
0.62239914 0.06256172 0.47357368
0.06256172 0.13704624 0.47357368
0.13704624 0.13704624 0.47357368
0.21722142 0.13704624 0.47357368
0.27817273 0.13704624 0.47357368
0.33946543 0.13704624 0.47357368
0.40439811 0.13704624 0.47357368
0.47357368 0.13704624 0.47357368
0.54655373 0.13704624 0.47357368
0.62239914 0.13704624 0.47357368
0.06256172 0.21722142 0.47357368
0.13704624 0.21722142 0.47357368
0.21722142 0.21722142 0.47357368
0.27817273 0.21722142 0.47357368
0.33946543 0.21722142 0.47357368
0.40439811 0.21722142 0.47357368
0.47357368 0.21722142 0.47357368
0.54655373 0.21722142 0.47357368
0.62239914 0.21722142 0.47357368
0.06256172 0.27817273 0.47357368
0.13704624 0.27817273 0.47357368
0.21722142 0.27817273 0.47357368
0.27817273 0.27817273 0.47357368
0.33946543 0.27817273 0.47357368
0.40439811 0.27817273 0.47357368
0.47357368 0.27817273 0.47357368
0.54655373 0.27817273 0.47357368
0.62239914 0.27817273 0.47357368
0.06256172 0.33946543 0.47357368
0.13704624 0.33946543 0.47357368
0.21722142 0.33946543 0.47357368
0.27817273 0.33946543 0.47357368
0.33946543 0.33946543 0.47357368
0.40439811 0.33946543 0.47357368
0.47357368 0.33946543 0.47357368
0.54655373 0.33946543 0.47357368
0.62239914 0.33946543 0.47357368
0.06256172 0.40439811 0.47357368
0.13704624 0.40439811 0.47357368
0.21722142 0.40439811 0.47357368
0.27817273 0.40439811 0.47357368
0.33946543 0.40439811 0.47357368
0.40439811 0.40439811 0.47357368
0.47357368 0.40439811 0.47357368
0.54655373 0.40439811 0.47357368
0.62239914 0.40439811 0.47357368
0.06256172 0.47357368 0.47357368
0.13704624 0.47357368 0.47357368
0.21722142 0.47357368 0.47357368
0.27817273 0.47357368 0.47357368
0.33946543 0.47357368 0.47357368
0.40439811 0.47357368 0.47357368
0.47357368 0.47357368 0.47357368
0.54655373 0.47357368 0.47357368
0.62239914 0.47357368 0.47357368
0.06256172 0.54655373 0.47357368
0.13704624 0.54655373 0.47357368
0.21722142 0.54655373 0.47357368
0.27817273 0.54655373 0.47357368
0.33946543 0.54655373 0.47357368
0.40439811 0.54655373 0.47357368
0.47357368 0.54655373 0.47357368
0.54655373 0.54655373 0.47357368
0.62239914 0.54655373 0.47357368
0.06256172 0.62239914 0.47357368
0.13704624 0.62239914 0.47357368
0.21722142 0.62239914 0.47357368
0.27817273 0.62239914 0.47357368
0.33946543 0.62239914 0.47357368
0.40439811 0.62239914 0.47357368
0.47357368 0.62239914 0.47357368
0.54655373 0.62239914 0.47357368
0.62239914 0.62239914 0.47357368
0.06256172 0.06256172 0.54655373
0.13704624 0.06256172 0.54655373
0.21722142 0.06256172 0.54655373
0.27817273 0.06256172 0.54655373
0.33946543 0.06256172 0.54655373
0.40439811 0.06256172 0.54655373
0.47357368 0.06256172 0.54655373
0.54655373 0.06256172 0.54655373
0.62239914 0.06256172 0.54655373
0.06256172 0.13704624 0.54655373
0.13704624 0.13704624 0.54655373
0.21722142 0.13704624 0.54655373
0.27817273 0.13704624 0.54655373
0.33946543 0.13704624 0.54655373
0.40439811 0.13704624 0.54655373
0.47357368 0.13704624 0.54655373
0.54655373 0.13704624 0.54655373
0.62239914 0.13704624 0.54655373
0.06256172 0.21722142 0.54655373
0.13704624 0.21722142 0.54655373
0.21722142 0.21722142 0.54655373
0.27817273 0.21722142 0.54655373
0.33946543 0.21722142 0.54655373
0.40439811 0.21722142 0.54655373
0.47357368 0.21722142 0.54655373
0.54655373 0.21722142 0.54655373
0.62239914 0.21722142 0.54655373
0.06256172 0.27817273 0.54655373
0.13704624 0.27817273 0.54655373
0.21722142 0.27817273 0.54655373
0.27817273 0.27817273 0.54655373
0.33946543 0.27817273 0.54655373
0.40439811 0.27817273 0.54655373
0.47357368 0.27817273 0.54655373
0.54655373 0.27817273 0.54655373
0.62239914 0.27817273 0.54655373
0.06256172 0.33946543 0.54655373
0.13704624 0.33946543 0.54655373
0.21722142 0.33946543 0.54655373
0.27817273 0.33946543 0.54655373
0.33946543 0.33946543 0.54655373
0.40439811 0.33946543 0.54655373
0.47357368 0.33946543 0.54655373
0.54655373 0.33946543 0.54655373
0.62239914 0.33946543 0.54655373
0.06256172 0.40439811 0.54655373
0.13704624 0.40439811 0.54655373
0.21722142 0.40439811 0.54655373
0.27817273 0.40439811 0.54655373
0.33946543 0.40439811 0.54655373
0.40439811 0.40439811 0.54655373
0.47357368 0.40439811 0.54655373
0.54655373 0.40439811 0.54655373
0.62239914 0.40439811 0.54655373
0.06256172 0.47357368 0.54655373
0.13704624 0.47357368 0.54655373
0.21722142 0.47357368 0.54655373
0.27817273 0.47357368 0.54655373
0.33946543 0.47357368 0.54655373
0.40439811 0.47357368 0.54655373
0.47357368 0.47357368 0.54655373
0.54655373 0.47357368 0.54655373
0.62239914 0.47357368 0.54655373
0.06256172 0.54655373 0.54655373
0.13704624 0.54655373 0.54655373
0.21722142 0.54655373 0.54655373
0.27817273 0.54655373 0.54655373
0.33946543 0.54655373 0.54655373
0.40439811 0.54655373 0.54655373
0.47357368 0.54655373 0.54655373
0.54655373 0.54655373 0.54655373
0.62239914 0.54655373 0.54655373
0.06256172 0.62239914 0.54655373
0.13704624 0.62239914 0.54655373
0.21722142 0.62239914 0.54655373
0.27817273 0.62239914 0.54655373
0.33946543 0.62239914 0.54655373
0.40439811 0.62239914 0.54655373
0.47357368 0.62239914 0.54655373
0.54655373 0.62239914 0.54655373
0.62239914 0.62239914 0.54655373
0.06256172 0.06256172 0.62239914
0.13704624 0.06256172 0.62239914
0.21722142 0.06256172 0.62239914
0.27817273 0.06256172 0.62239914
0.33946543 0.06256172 0.62239914
0.40439811 0.06256172 0.62239914
0.47357368 0.06256172 0.62239914
0.54655373 0.06256172 0.62239914
0.62239914 0.06256172 0.62239914
0.06256172 0.13704624 0.62239914
0.13704624 0.13704624 0.62239914
0.21722142 0.13704624 0.62239914
0.27817273 0.13704624 0.62239914
0.33946543 0.13704624 0.62239914
0.40439811 0.13704624 0.62239914
0.47357368 0.13704624 0.62239914
0.54655373 0.13704624 0.62239914
0.62239914 0.13704624 0.62239914
0.06256172 0.21722142 0.62239914
0.13704624 0.21722142 0.62239914
0.21722142 0.21722142 0.62239914
0.27817273 0.21722142 0.62239914
0.33946543 0.21722142 0.62239914
0.40439811 0.21722142 0.62239914
0.47357368 0.21722142 0.62239914
0.54655373 0.21722142 0.62239914
0.62239914 0.21722142 0.62239914
0.06256172 0.27817273 0.62239914
0.13704624 0.27817273 0.62239914
0.21722142 0.27817273 0.62239914
0.27817273 0.27817273 0.62239914
0.33946543 0.27817273 0.62239914
0.40439811 0.27817273 0.62239914
0.47357368 0.27817273 0.62239914
0.54655373 0.27817273 0.62239914
0.62239914 0.27817273 0.62239914
0.06256172 0.33946543 0.62239914
0.13704624 0.33946543 0.62239914
0.21722142 0.33946543 0.62239914
0.27817273 0.33946543 0.62239914
0.33946543 0.33946543 0.62239914
0.40439811 0.33946543 0.62239914
0.47357368 0.33946543 0.62239914
0.54655373 0.33946543 0.62239914
0.62239914 0.33946543 0.62239914
0.06256172 0.40439811 0.62239914
0.13704624 0.40439811 0.62239914
0.21722142 0.40439811 0.62239914
0.27817273 0.40439811 0.62239914
0.33946543 0.40439811 0.62239914
0.40439811 0.40439811 0.62239914
0.47357368 0.40439811 0.62239914
0.54655373 0.40439811 0.62239914
0.62239914 0.40439811 0.62239914
0.06256172 0.47357368 0.62239914
0.13704624 0.47357368 0.62239914
0.21722142 0.47357368 0.62239914
0.27817273 0.47357368 0.62239914
0.33946543 0.47357368 0.62239914
0.40439811 0.47357368 0.62239914
0.47357368 0.47357368 0.62239914
0.54655373 0.47357368 0.62239914
0.62239914 0.47357368 0.62239914
0.06256172 0.54655373 0.62239914
0.13704624 0.54655373 0.62239914
0.21722142 0.54655373 0.62239914
0.27817273 0.54655373 0.62239914
0.33946543 0.54655373 0.62239914
0.40439811 0.54655373 0.62239914
0.47357368 0.54655373 0.62239914
0.54655373 0.54655373 0.62239914
0.62239914 0.54655373 0.62239914
0.06256172 0.62239914 0.62239914
0.13704624 0.62239914 0.62239914
0.21722142 0.62239914 0.62239914
0.27817273 0.62239914 0.62239914
0.33946543 0.62239914 0.62239914
0.40439811 0.62239914 0.62239914
0.47357368 0.62239914 0.62239914
0.54655373 0.62239914 0.62239914
0.62239914 0.62239914 0.62239914
