src/ffmpeg_scripts/luts/flog-experimental_-2p67.cube
TITLE "flog-experimental_-2p67"
LUT_3D_SIZE 33
# Fujifilm F-Log/Rec2020 -> PQ (EOTF Only)/Rec2020, CineEI Shift -2.67, Black Level 0.00% IRE, Input 109% -> Output 100% - Created with LUTCalc v4.01 by Ben Turley October 2020
0.00000073 0.00000073 0.00000073
0.00000073 0.00000073 0.00000073
0.00000073 0.00000073 0.00000073
0.01132704 0.00000073 0.00000073
0.07470674 0.00000073 0.00000073
0.10415079 0.00000073 0.00000073
0.12776445 0.00000073 0.00000073
0.14891568 0.00000073 0.00000073
0.16886327 0.00000073 0.00000073
0.18823550 0.00000073 0.00000073
0.20739821 0.00000073 0.00000073
0.22658603 0.00000073 0.00000073
0.24595948 0.00000073 0.00000073
0.26563322 0.00000073 0.00000073
0.28569148 0.00000073 0.00000073
0.30619701 0.00000073 0.00000073
0.32719667 0.00000073 0.00000073
0.34872499 0.00000073 0.00000073
0.37080668 0.00000073 0.00000073
0.39345832 0.00000073 0.00000073
0.41668964 0.00000073 0.00000073
0.44050448 0.00000073 0.00000073
0.46490155 0.00000073 0.00000073
0.48987504 0.00000073 0.00000073
0.51541517 0.00000073 0.00000073
0.54150860 0.00000073 0.00000073
0.56813884 0.00000073 0.00000073
0.59528662 0.00000073 0.00000073
0.62293018 0.00000073 0.00000073
0.65104561 0.00000073 0.00000073
0.67960709 0.00000073 0.00000073
0.70858716 0.00000073 0.00000073
0.73795697 0.00000073 0.00000073
0.00000073 0.00000073 0.00000073
0.00000073 0.00000073 0.00000073
0.00000073 0.00000073 0.00000073
0.01132704 0.00000073 0.00000073
0.07470674 0.00000073 0.00000073
0.10415079 0.00000073 0.00000073
0.12776445 0.00000073 0.00000073
0.14891568 0.00000073 0.00000073
0.16886327 0.00000073 0.00000073
0.18823550 0.00000073 0.00000073
0.20739821 0.00000073 0.00000073
0.22658603 0.00000073 0.00000073
0.24595948 0.00000073 0.00000073
0.26563322 0.00000073 0.00000073
0.28569148 0.00000073 0.00000073
0.30619701 0.00000073 0.00000073
0.32719667 0.00000073 0.00000073
0.34872499 0.00000073 0.00000073
0.37080668 0.00000073 0.00000073
0.39345832 0.00000073 0.00000073
0.41668964 0.00000073 0.00000073
0.44050448 0.00000073 0.00000073
0.46490155 0.00000073 0.00000073
0.48987504 0.00000073 0.00000073
0.51541517 0.00000073 0.00000073
0.54150860 0.00000073 0.00000073
0.56813884 0.00000073 0.00000073
0.59528662 0.00000073 0.00000073
0.62293018 0.00000073 0.00000073
0.65104561 0.00000073 0.00000073
0.67960709 0.00000073 0.00000073
0.70858716 0.00000073 0.00000073
0.73795697 0.00000073 0.00000073
0.00000073 0.00000073 0.00000073
0.00000073 0.00000073 0.00000073
0.00000073 0.00000073 0.00000073
0.01132704 0.00000073 0.00000073
0.07470674 0.00000073 0.00000073
0.10415079 0.00000073 0.00000073
0.12776445 0.00000073 0.00000073
0.14891568 0.00000073 0.00000073
0.16886327 0.00000073 0.00000073
0.18823550 0.00000073 0.00000073
0.20739821 0.00000073 0.00000073
0.22658603 0.00000073 0.00000073
0.24595948 0.00000073 0.00000073
0.26563322 0.00000073 0.00000073
0.28569148 0.00000073 0.00000073
0.30619701 0.00000073 0.00000073
0.32719667 0.00000073 0.00000073
0.34872499 0.00000073 0.00000073
0.37080668 0.00000073 0.00000073
0.39345832 0.00000073 0.00000073
0.41668964 0.00000073 0.00000073
0.44050448 0.00000073 0.00000073
0.46490155 0.00000073 0.00000073
0.48987504 0.00000073 0.00000073
0.51541517 0.00000073 0.00000073
0.54150860 0.00000073 0.00000073
0.56813884 0.00000073 0.00000073
0.59528662 0.00000073 0.00000073
0.62293018 0.00000073 0.00000073
0.65104561 0.00000073 0.00000073
0.67960709 0.00000073 0.00000073
0.70858716 0.00000073 0.00000073
0.73795697 0.00000073 0.00000073
0.00000073 0.01132704 0.00000073
0.00000073 0.01132704 0.00000073
0.00000073 0.01132704 0.00000073
0.01132704 0.01132704 0.00000073
0.07470674 0.01132704 0.00000073
0.10415079 0.01132704 0.00000073
0.12776445 0.01132704 0.00000073
0.14891568 0.01132704 0.00000073
0.16886327 0.01132704 0.00000073
0.18823550 0.01132704 0.00000073
0.20739821 0.01132704 0.00000073
0.22658603 0.01132704 0.00000073
0.24595948 0.01132704 0.00000073
0.26563322 0.01132704 0.00000073
0.28569148 0.01132704 0.00000073
0.30619701 0.01132704 0.00000073
0.32719667 0.01132704 0.00000073
0.34872499 0.01132704 0.00000073
0.37080668 0.01132704 0.00000073
0.39345832 0.01132704 0.00000073
0.41668964 0.01132704 0.00000073
0.44050448 0.01132704 0.00000073
0.46490155 0.01132704 0.00000073
0.48987504 0.01132704 0.00000073
0.51541517 0.01132704 0.00000073
0.54150860 0.01132704 0.00000073
0.56813884 0.01132704 0.00000073
0.59528662 0.01132704 0.00000073
0.62293018 0.01132704 0.00000073
0.65104561 0.01132704 0.00000073
0.67960709 0.01132704 0.00000073
0.70858716 0.01132704 0.00000073
0.73795697 0.01132704 0.00000073
0.00000073 0.07470674 0.00000073
0.00000073 0.07470674 0.00000073
0.00000073 0.07470674 0.00000073
0.01132704 0.07470674 0.00000073
0.07470674 0.07470674 0.00000073
0.10415079 0.07470674 0.00000073
0.12776445 0.07470674 0.00000073
0.14891568 0.07470674 0.00000073
0.16886327 0.07470674 0.00000073
0.18823550 0.07470674 0.00000073
0.20739821 0.07470674 0.00000073
0.22658603 0.07470674 0.00000073
0.24595948 0.07470674 0.00000073
0.26563322 0.07470674 0.00000073
0.28569148 0.07470674 0.00000073
0.30619701 0.07470674 0.00000073
0.32719667 0.07470674 0.00000073
0.34872499 0.07470674 0.00000073
0.37080668 0.07470674 0.00000073
0.39345832 0.07470674 0.00000073
0.41668964 0.07470674 0.00000073
0.44050448 0.07470674 0.00000073
0.46490155 0.07470674 0.00000073
0.48987504 0.07470674 0.00000073
0.51541517 0.07470674 0.00000073
0.54150860 0.07470674 0.00000073
0.56813884 0.07470674 0.00000073
0.59528662 0.07470674 0.00000073
0.62293018 0.07470674 0.00000073
0.65104561 0.07470674 0.00000073
0.67960709 0.07470674 0.00000073
0.70858716 0.07470674 0.00000073
0.73795697 0.07470674 0.00000073
0.00000073 0.10415079 0.00000073
0.00000073 0.10415079 0.00000073
0.00000073 0.10415079 0.00000073
0.01132704 0.10415079 0.00000073
0.07470674 0.10415079 0.00000073
0.10415079 0.10415079 0.00000073
0.12776445 0.10415079 0.00000073
0.14891568 0.10415079 0.00000073
0.16886327 0.10415079 0.00000073
0.18823550 0.10415079 0.00000073
0.20739821 0.10415079 0.00000073
0.22658603 0.10415079 0.00000073
0.24595948 0.10415079 0.00000073
0.26563322 0.10415079 0.00000073
0.28569148 0.10415079 0.00000073
0.30619701 0.10415079 0.00000073
0.32719667 0.10415079 0.00000073
0.34872499 0.10415079 0.00000073
0.37080668 0.10415079 0.00000073
0.39345832 0.10415079 0.00000073
0.41668964 0.10415079 0.00000073
0.44050448 0.10415079 0.00000073
0.46490155 0.10415079 0.00000073
0.48987504 0.10415079 0.00000073
0.51541517 0.10415079 0.00000073
0.54150860 0.10415079 0.00000073
0.56813884 0.10415079 0.00000073
0.59528662 0.10415079 0.00000073
0.62293018 0.10415079 0.00000073
0.65104561 0.10415079 0.00000073
0.67960709 0.10415079 0.00000073
0.70858716 0.10415079 0.00000073
0.73795697 0.10415079 0.00000073
0.00000073 0.12776445 0.00000073
0.00000073 0.12776445 0.00000073
0.00000073 0.12776445 0.00000073
0.01132704 0.12776445 0.00000073
0.07470674 0.12776445 0.00000073
0.10415079 0.12776445 0.00000073
0.12776445 0.12776445 0.00000073
0.14891568 0.12776445 0.00000073
0.16886327 0.12776445 0.00000073
0.18823550 0.12776445 0.00000073
0.20739821 0.12776445 0.00000073
0.22658603 0.12776445 0.00000073
0.24595948 0.12776445 0.00000073
0.26563322 0.12776445 0.00000073
0.28569148 0.12776445 0.00000073
0.30619701 0.12776445 0.00000073
0.32719667 0.12776445 0.00000073
0.34872499 0.12776445 0.00000073
0.37080668 0.12776445 0.00000073
0.39345832 0.12776445 0.00000073
0.41668964 0.12776445 0.00000073
0.44050448 0.12776445 0.00000073
0.46490155 0.12776445 0.00000073
0.48987504 0.12776445 0.00000073
0.51541517 0.12776445 0.00000073
0.54150860 0.12776445 0.00000073
0.56813884 0.12776445 0.00000073
0.59528662 0.12776445 0.00000073
0.62293018 0.12776445 0.00000073
0.65104561 0.12776445 0.00000073
0.67960709 0.12776445 0.00000073
0.70858716 0.12776445 0.00000073
0.73795697 0.12776445 0.00000073
0.00000073 0.14891568 0.00000073
0.00000073 0.14891568 0.00000073
0.00000073 0.14891568 0.00000073
0.01132704 0.14891568 0.00000073
0.07470674 0.14891568 0.00000073
0.10415079 0.14891568 0.00000073
0.12776445 0.14891568 0.00000073
0.14891568 0.14891568 0.00000073
0.16886327 0.14891568 0.00000073
0.18823550 0.14891568 0.00000073
0.20739821 0.14891568 0.00000073
0.22658603 0.14891568 0.00000073
0.24595948 0.14891568 0.00000073
0.26563322 0.14891568 0.00000073
0.28569148 0.14891568 0.00000073
0.30619701 0.14891568 0.00000073
0.32719667 0.14891568 0.00000073
0.34872499 0.14891568 0.00000073
0.37080668 0.14891568 0.00000073
0.39345832 0.14891568 0.00000073
0.41668964 0.14891568 0.00000073
0.44050448 0.14891568 0.00000073
0.46490155 0.14891568 0.00000073
0.48987504 0.14891568 0.00000073
0.51541517 0.14891568 0.00000073
0.54150860 0.14891568 0.00000073
0.56813884 0.14891568 0.00000073
0.59528662 0.14891568 0.00000073
0.62293018 0.14891568 0.00000073
0.65104561 0.14891568 0.00000073
0.67960709 0.14891568 0.00000073
0.70858716 0.14891568 0.00000073
0.73795697 0.14891568 0.00000073
0.00000073 0.16886327 0.00000073
0.00000073 0.16886327 0.00000073
0.00000073 0.16886327 0.00000073
0.01132704 0.16886327 0.00000073
0.07470674 0.16886327 0.00000073
0.10415079 0.16886327 0.00000073
0.12776445 0.16886327 0.00000073
0.14891568 0.16886327 0.00000073
0.16886327 0.16886327 0.00000073
0.18823550 0.16886327 0.00000073
0.20739821 0.16886327 0.00000073
0.22658603 0.16886327 0.00000073
0.24595948 0.16886327 0.00000073
0.26563322 0.16886327 0.00000073
0.28569148 0.16886327 0.00000073
0.30619701 0.16886327 0.00000073
0.32719667 0.16886327 0.00000073
0.34872499 0.16886327 0.00000073
0.37080668 0.16886327 0.00000073
0.39345832 0.16886327 0.00000073
0.41668964 0.16886327 0.00000073
0.44050448 0.16886327 0.00000073
0.46490155 0.16886327 0.00000073
0.48987504 0.16886327 0.00000073
0.51541517 0.16886327 0.00000073
0.54150860 0.16886327 0.00000073
0.56813884 0.16886327 0.00000073
0.59528662 0.16886327 0.00000073
0.62293018 0.16886327 0.00000073
0.65104561 0.16886327 0.00000073
0.67960709 0.16886327 0.00000073
0.70858716 0.16886327 0.00000073
0.73795697 0.16886327 0.00000073
0.00000073 0.18823550 0.00000073
0.00000073 0.18823550 0.00000073
0.00000073 0.18823550 0.00000073
0.01132704 0.18823550 0.00000073
0.07470674 0.18823550 0.00000073
0.10415079 0.18823550 0.00000073
0.12776445 0.18823550 0.00000073
0.14891568 0.18823550 0.00000073
0.16886327 0.18823550 0.00000073
0.18823550 0.18823550 0.00000073
0.20739821 0.18823550 0.00000073
0.22658603 0.18823550 0.00000073
0.24595948 0.18823550 0.00000073
0.26563322 0.18823550 0.00000073
0.28569148 0.18823550 0.00000073
0.30619701 0.18823550 0.00000073
0.32719667 0.18823550 0.00000073
0.34872499 0.18823550 0.00000073
0.37080668 0.18823550 0.00000073
0.39345832 0.18823550 0.00000073
0.41668964 0.18823550 0.00000073
0.44050448 0.18823550 0.00000073
0.46490155 0.18823550 0.00000073
0.48987504 0.18823550 0.00000073
0.51541517 0.18823550 0.00000073
0.54150860 0.18823550 0.00000073
0.56813884 0.18823550 0.00000073
0.59528662 0.18823550 0.00000073
0.62293018 0.18823550 0.00000073
0.65104561 0.18823550 0.00000073
0.67960709 0.18823550 0.00000073
0.70858716 0.18823550 0.00000073
0.73795697 0.18823550 0.00000073
0.00000073 0.20739821 0.00000073
0.00000073 0.20739821 0.00000073
0.00000073 0.20739821 0.00000073
0.01132704 0.20739821 0.00000073
0.07470674 0.20739821 0.00000073
0.10415079 0.20739821 0.00000073
0.12776445 0.20739821 0.00000073
0.14891568 0.20739821 0.00000073
0.16886327 0.20739821 0.00000073
0.18823550 0.20739821 0.00000073
0.20739821 0.20739821 0.00000073
0.22658603 0.20739821 0.00000073
0.24595948 0.20739821 0.00000073
0.26563322 0.20739821 0.00000073
0.28569148 0.20739821 0.00000073
0.30619701 0.20739821 0.00000073
0.32719667 0.20739821 0.00000073
0.34872499 0.20739821 0.00000073
0.37080668 0.20739821 0.00000073
0.39345832 0.20739821 0.00000073
0.41668964 0.20739821 0.00000073
0.44050448 0.20739821 0.00000073
0.46490155 0.20739821 0.00000073
0.48987504 0.20739821 0.00000073
0.51541517 0.20739821 0.00000073
0.54150860 0.20739821 0.00000073
0.56813884 0.20739821 0.00000073
0.59528662 0.20739821 0.00000073
0.62293018 0.20739821 0.00000073
0.65104561 0.20739821 0.00000073
0.67960709 0.20739821 0.00000073
0.70858716 0.20739821 0.00000073
0.73795697 0.20739821 0.00000073
0.00000073 0.22658603 0.00000073
0.00000073 0.22658603 0.00000073
0.00000073 0.22658603 0.00000073
0.01132704 0.22658603 0.00000073
0.07470674 0.22658603 0.00000073
0.10415079 0.22658603 0.00000073
0.12776445 0.22658603 0.00000073
0.14891568 0.22658603 0.00000073
0.16886327 0.22658603 0.00000073
0.18823550 0.22658603 0.00000073
0.20739821 0.22658603 0.00000073
0.22658603 0.22658603 0.00000073
0.24595948 0.22658603 0.00000073
0.26563322 0.22658603 0.00000073
0.28569148 0.22658603 0.00000073
0.30619701 0.22658603 0.00000073
0.32719667 0.22658603 0.00000073
0.34872499 0.22658603 0.00000073
0.37080668 0.22658603 0.00000073
0.39345832 0.22658603 0.00000073
0.41668964 0.22658603 0.00000073
0.44050448 0.22658603 0.00000073
0.46490155 0.22658603 0.00000073
0.48987504 0.22658603 0.00000073
0.51541517 0.22658603 0.00000073
0.54150860 0.22658603 0.00000073
0.56813884 0.22658603 0.00000073
0.59528662 0.22658603 0.00000073
0.62293018 0.22658603 0.00000073
0.65104561 0.22658603 0.00000073
0.67960709 0.22658603 0.00000073
0.70858716 0.22658603 0.00000073
0.73795697 0.22658603 0.00000073
0.00000073 0.24595948 0.00000073
0.00000073 0.24595948 0.00000073
0.00000073 0.24595948 0.00000073
0.01132704 0.24595948 0.00000073
0.07470674 0.24595948 0.00000073
0.10415079 0.24595948 0.00000073
0.12776445 0.24595948 0.00000073
0.14891568 0.24595948 0.00000073
0.16886327 0.24595948 0.00000073
0.18823550 0.24595948 0.00000073
0.20739821 0.24595948 0.00000073
0.22658603 0.24595948 0.00000073
0.24595948 0.24595948 0.00000073
0.26563322 0.24595948 0.00000073
0.28569148 0.24595948 0.00000073
0.30619701 0.24595948 0.00000073
0.32719667 0.24595948 0.00000073
0.34872499 0.24595948 0.00000073
0.37080668 0.24595948 0.00000073
0.39345832 0.24595948 0.00000073
0.41668964 0.24595948 0.00000073
0.44050448 0.24595948 0.00000073
0.46490155 0.24595948 0.00000073
0.48987504 0.24595948 0.00000073
0.51541517 0.24595948 0.00000073
0.54150860 0.24595948 0.00000073
0.56813884 0.24595948 0.00000073
0.59528662 0.24595948 0.00000073
0.62293018 0.24595948 0.00000073
0.65104561 0.24595948 0.00000073
0.67960709 0.24595948 0.00000073
0.70858716 0.24595948 0.00000073
0.73795697 0.24595948 0.00000073
0.00000073 0.26563322 0.00000073
0.00000073 0.26563322 0.00000073
0.00000073 0.26563322 0.00000073
0.01132704 0.26563322 0.00000073
0.07470674 0.26563322 0.00000073
0.10415079 0.26563322 0.00000073
0.12776445 0.26563322 0.00000073
0.14891568 0.26563322 0.00000073
0.16886327 0.26563322 0.00000073
0.18823550 0.26563322 0.00000073
0.20739821 0.26563322 0.00000073
0.22658603 0.26563322 0.00000073
0.24595948 0.26563322 0.00000073
0.26563322 0.26563322 0.00000073
0.28569148 0.26563322 0.00000073
0.30619701 0.26563322 0.00000073
0.32719667 0.26563322 0.00000073
0.34872499 0.26563322 0.00000073
0.37080668 0.26563322 0.00000073
0.39345832 0.26563322 0.00000073
0.41668964 0.26563322 0.00000073
0.44050448 0.26563322 0.00000073
0.46490155 0.26563322 0.00000073
0.48987504 0.26563322 0.00000073
0.51541517 0.26563322 0.00000073
0.54150860 0.26563322 0.00000073
0.56813884 0.26563322 0.00000073
0.59528662 0.26563322 0.00000073
0.62293018 0.26563322 0.00000073
0.65104561 0.26563322 0.00000073
0.67960709 0.26563322 0.00000073
0.70858716 0.26563322 0.00000073
0.73795697 0.26563322 0.00000073
0.00000073 0.28569148 0.00000073
0.00000073 0.28569148 0.00000073
0.00000073 0.28569148 0.00000073
0.01132704 0.28569148 0.00000073
0.07470674 0.28569148 0.00000073
0.10415079 0.28569148 0.00000073
0.12776445 0.28569148 0.00000073
0.14891568 0.28569148 0.00000073
0.16886327 0.28569148 0.00000073
0.18823550 0.28569148 0.00000073
0.20739821 0.28569148 0.00000073
0.22658603 0.28569148 0.00000073
0.24595948 0.28569148 0.00000073
0.26563322 0.28569148 0.00000073
0.28569148 0.28569148 0.00000073
0.30619701 0.28569148 0.00000073
0.32719667 0.28569148 0.00000073
0.34872499 0.28569148 0.00000073
0.37080668 0.28569148 0.00000073
0.39345832 0.28569148 0.00000073
0.41668964 0.28569148 0.00000073
0.44050448 0.28569148 0.00000073
0.46490155 0.28569148 0.00000073
0.48987504 0.28569148 0.00000073
0.51541517 0.28569148 0.00000073
0.54150860 0.28569148 0.00000073
0.56813884 0.28569148 0.00000073
0.59528662 0.28569148 0.00000073
0.62293018 0.28569148 0.00000073
0.65104561 0.28569148 0.00000073
0.67960709 0.28569148 0.00000073
0.70858716 0.28569148 0.00000073
0.73795697 0.28569148 0.00000073
0.00000073 0.30619701 0.00000073
0.00000073 0.30619701 0.00000073
0.00000073 0.30619701 0.00000073
0.01132704 0.30619701 0.00000073
0.07470674 0.30619701 0.00000073
0.10415079 0.30619701 0.00000073
0.12776445 0.30619701 0.00000073
0.14891568 0.30619701 0.00000073
0.16886327 0.30619701 0.00000073
0.18823550 0.30619701 0.00000073
0.20739821 0.30619701 0.00000073
0.22658603 0.30619701 0.00000073
0.24595948 0.30619701 0.00000073
0.26563322 0.30619701 0.00000073
0.28569148 0.30619701 0.00000073
0.30619701 0.30619701 0.00000073
0.32719667 0.30619701 0.00000073
0.34872499 0.30619701 0.00000073
0.37080668 0.30619701 0.00000073
0.39345832 0.30619701 0.00000073
0.41668964 0.30619701 0.00000073
0.44050448 0.30619701 0.00000073
0.46490155 0.30619701 0.00000073
0.48987504 0.30619701 0.00000073
0.51541517 0.30619701 0.00000073
0.54150860 0.30619701 0.00000073
0.56813884 0.30619701 0.00000073
0.59528662 0.30619701 0.00000073
0.62293018 0.30619701 0.00000073
0.65104561 0.30619701 0.00000073
0.67960709 0.30619701 0.00000073
0.70858716 0.30619701 0.00000073
0.73795697 0.30619701 0.00000073
0.00000073 0.32719667 0.00000073
0.00000073 0.32719667 0.00000073
0.00000073 0.32719667 0.00000073
0.01132704 0.32719667 0.00000073
0.07470674 0.32719667 0.00000073
0.10415079 0.32719667 0.00000073
0.12776445 0.32719667 0.00000073
0.14891568 0.32719667 0.00000073
0.16886327 0.32719667 0.00000073
0.18823550 0.32719667 0.00000073
0.20739821 0.32719667 0.00000073
0.22658603 0.32719667 0.00000073
0.24595948 0.32719667 0.00000073
0.26563322 0.32719667 0.00000073
0.28569148 0.32719667 0.00000073
0.30619701 0.32719667 0.00000073
0.32719667 0.32719667 0.00000073
0.34872499 0.32719667 0.00000073
0.37080668 0.32719667 0.00000073
0.39345832 0.32719667 0.00000073
0.41668964 0.32719667 0.00000073
0.44050448 0.32719667 0.00000073
0.46490155 0.32719667 0.00000073
0.48987504 0.32719667 0.00000073
0.51541517 0.32719667 0.00000073
0.54150860 0.32719667 0.00000073
0.56813884 0.32719667 0.00000073
0.59528662 0.32719667 0.00000073
0.62293018 0.32719667 0.00000073
0.65104561 0.32719667 0.00000073
0.67960709 0.32719667 0.00000073
0.70858716 0.32719667 0.00000073
0.73795697 0.32719667 0.00000073
0.00000073 0.34872499 0.00000073
0.00000073 0.34872499 0.00000073
0.00000073 0.34872499 0.00000073
0.01132704 0.34872499 0.00000073
0.07470674 0.34872499 0.00000073
0.10415079 0.34872499 0.00000073
0.12776445 0.34872499 0.00000073
0.14891568 0.34872499 0.00000073
0.16886327 0.34872499 0.00000073
0.18823550 0.34872499 0.00000073
0.20739821 0.34872499 0.00000073
0.22658603 0.34872499 0.00000073
0.24595948 0.34872499 0.00000073
0.26563322 0.34872499 0.00000073
0.28569148 0.34872499 0.00000073
0.30619701 0.34872499 0.00000073
0.32719667 0.34872499 0.00000073
0.34872499 0.34872499 0.00000073
0.37080668 0.34872499 0.00000073
0.39345832 0.34872499 0.00000073
0.41668964 0.34872499 0.00000073
0.44050448 0.34872499 0.00000073
0.46490155 0.34872499 0.00000073
0.48987504 0.34872499 0.00000073
0.51541517 0.34872499 0.00000073
0.54150860 0.34872499 0.00000073
0.56813884 0.34872499 0.00000073
0.59528662 0.34872499 0.00000073
0.62293018 0.34872499 0.00000073
0.65104561 0.34872499 0.00000073
0.67960709 0.34872499 0.00000073
0.70858716 0.34872499 0.00000073
0.73795697 0.34872499 0.00000073
0.00000073 0.37080668 0.00000073
0.00000073 0.37080668 0.00000073
0.00000073 0.37080668 0.00000073
0.01132704 0.37080668 0.00000073
0.07470674 0.37080668 0.00000073
0.10415079 0.37080668 0.00000073
0.12776445 0.37080668 0.00000073
0.14891568 0.37080668 0.00000073
0.16886327 0.37080668 0.00000073
0.18823550 0.37080668 0.00000073
0.20739821 0.37080668 0.00000073
0.22658603 0.37080668 0.00000073
0.24595948 0.37080668 0.00000073
0.26563322 0.37080668 0.00000073
0.28569148 0.37080668 0.00000073
0.30619701 0.37080668 0.00000073
0.32719667 0.37080668 0.00000073
0.34872499 0.37080668 0.00000073
0.37080668 0.37080668 0.00000073
0.39345832 0.37080668 0.00000073
0.41668964 0.37080668 0.00000073
0.44050448 0.37080668 0.00000073
0.46490155 0.37080668 0.00000073
0.48987504 0.37080668 0.00000073
0.51541517 0.37080668 0.00000073
0.54150860 0.37080668 0.00000073
0.56813884 0.37080668 0.00000073
0.59528662 0.37080668 0.00000073
0.62293018 0.37080668 0.00000073
0.65104561 0.37080668 0.00000073
0.67960709 0.37080668 0.00000073
0.70858716 0.37080668 0.00000073
0.73795697 0.37080668 0.00000073
0.00000073 0.39345832 0.00000073
0.00000073 0.39345832 0.00000073
0.00000073 0.39345832 0.00000073
0.01132704 0.39345832 0.00000073
0.07470674 0.39345832 0.00000073
0.10415079 0.39345832 0.00000073
0.12776445 0.39345832 0.00000073
0.14891568 0.39345832 0.00000073
0.16886327 0.39345832 0.00000073
0.18823550 0.39345832 0.00000073
0.20739821 0.39345832 0.00000073
0.22658603 0.39345832 0.00000073
0.24595948 0.39345832 0.00000073
0.26563322 0.39345832 0.00000073
0.28569148 0.39345832 0.00000073
0.30619701 0.39345832 0.00000073
0.32719667 0.39345832 0.00000073
0.34872499 0.39345832 0.00000073
0.37080668 0.39345832 0.00000073
0.39345832 0.39345832 0.00000073
0.41668964 0.39345832 0.00000073
0.44050448 0.39345832 0.00000073
0.46490155 0.39345832 0.00000073
0.48987504 0.39345832 0.00000073
0.51541517 0.39345832 0.00000073
0.54150860 0.39345832 0.00000073
0.56813884 0.39345832 0.00000073
0.59528662 0.39345832 0.00000073
0.62293018 0.39345832 0.00000073
0.65104561 0.39345832 0.00000073
0.67960709 0.39345832 0.00000073
0.70858716 0.39345832 0.00000073
0.73795697 0.39345832 0.00000073
0.00000073 0.41668964 0.00000073
0.00000073 0.41668964 0.00000073
0.00000073 0.41668964 0.00000073
0.01132704 0.41668964 0.00000073
0.07470674 0.41668964 0.00000073
0.10415079 0.41668964 0.00000073
0.12776445 0.41668964 0.00000073
0.14891568 0.41668964 0.00000073
0.16886327 0.41668964 0.00000073
0.18823550 0.41668964 0.00000073
0.20739821 0.41668964 0.00000073
0.22658603 0.41668964 0.00000073
0.24595948 0.41668964 0.00000073
0.26563322 0.41668964 0.00000073
0.28569148 0.41668964 0.00000073
0.30619701 0.41668964 0.00000073
0.32719667 0.41668964 0.00000073
0.34872499 0.41668964 0.00000073
0.37080668 0.41668964 0.00000073
0.39345832 0.41668964 0.00000073
0.41668964 0.41668964 0.00000073
0.44050448 0.41668964 0.00000073
0.46490155 0.41668964 0.00000073
0.48987504 0.41668964 0.00000073
0.51541517 0.41668964 0.00000073
0.54150860 0.41668964 0.00000073
0.56813884 0.41668964 0.00000073
0.59528662 0.41668964 0.00000073
0.62293018 0.41668964 0.00000073
0.65104561 0.41668964 0.00000073
0.67960709 0.41668964 0.00000073
0.70858716 0.41668964 0.00000073
0.73795697 0.41668964 0.00000073
0.00000073 0.44050448 0.00000073
0.00000073 0.44050448 0.00000073
0.00000073 0.44050448 0.00000073
0.01132704 0.44050448 0.00000073
0.07470674 0.44050448 0.00000073
0.10415079 0.44050448 0.00000073
0.12776445 0.44050448 0.00000073
0.14891568 0.44050448 0.00000073
0.16886327 0.44050448 0.00000073
0.18823550 0.44050448 0.00000073
0.20739821 0.44050448 0.00000073
0.22658603 0.44050448 0.00000073
0.24595948 0.44050448 0.00000073
0.26563322 0.44050448 0.00000073
0.28569148 0.44050448 0.00000073
0.30619701 0.44050448 0.00000073
0.32719667 0.44050448 0.00000073
0.34872499 0.44050448 0.00000073
0.37080668 0.44050448 0.00000073
0.39345832 0.44050448 0.00000073
0.41668964 0.44050448 0.00000073
0.44050448 0.44050448 0.00000073
0.46490155 0.44050448 0.00000073
0.48987504 0.44050448 0.00000073
0.51541517 0.44050448 0.00000073
0.54150860 0.44050448 0.00000073
0.56813884 0.44050448 0.00000073
