src/ffmpeg_scripts/luts/flog-experimental_1p00.cube
TITLE "flog-experimental_1p00"
LUT_3D_SIZE 5
# Fujifilm F-Log/Rec2020 -> PQ (EOTF Only)/Rec2020, CineEI Shift 1.00, Black Level 0.00% IRE, Input 109% -> Output 100% - Created with LUTCalc v4.01 by Ben Turley October 2020
0.00000073 0.00000073 0.00000073
0.37773689 0.00000073 0.00000073
0.61942607 0.00000073 0.00000073
0.86238646 0.00000073 0.00000073
1.00000000 0.00000073 0.00000073
0.00000073 0.37773689 0.00000073
0.37773689 0.37773689 0.00000073
0.61942607 0.37773689 0.00000073
0.86238646 0.37773689 0.00000073
1.00000000 0.37773689 0.00000073
0.00000073 0.61942607 0.00000073
0.37773689 0.61942607 0.00000073
0.61942607 0.61942607 0.00000073
0.86238646 0.61942607 0.00000073
1.00000000 0.61942607 0.00000073
0.00000073 0.86238646 0.00000073
0.37773689 0.86238646 0.00000073
0.61942607 0.86238646 0.00000073
0.86238646 0.86238646 0.00000073
1.00000000 0.86238646 0.00000073
0.00000073 1.00000000 0.00000073
0.37773689 1.00000000 0.00000073
0.61942607 1.00000000 0.00000073
0.86238646 1.00000000 0.00000073
1.00000000 1.00000000 0.00000073
0.00000073 0.00000073 0.37773689
0.37773689 0.00000073 0.37773689
0.61942607 0.00000073 0.37773689
0.86238646 0.00000073 0.37773689
1.00000000 0.00000073 0.37773689
0.00000073 0.37773689 0.37773689
0.37773689 0.37773689 0.37773689
0.61942607 0.37773689 0.37773689
0.86238646 0.37773689 0.37773689
1.00000000 0.37773689 0.37773689
0.00000073 0.61942607 0.37773689
0.37773689 0.61942607 0.37773689
0.61942607 0.61942607 0.37773689
0.86238646 0.61942607 0.37773689
1.00000000 0.61942607 0.37773689
0.00000073 0.86238646 0.37773689
0.37773689 0.86238646 0.37773689
0.61942607 0.86238646 0.37773689
0.86238646 0.86238646 0.37773689
1.00000000 0.86238646 0.37773689
0.00000073 1.00000000 0.37773689
0.37773689 1.00000000 0.37773689
0.61942607 1.00000000 0.37773689
0.86238646 1.00000000 0.37773689
1.00000000 1.00000000 0.37773689
0.00000073 0.00000073 0.61942607
0.37773689 0.00000073 0.61942607
0.61942607 0.00000073 0.61942607
0.86238646 0.00000073 0.61942607
1.00000000 0.00000073 0.61942607
0.00000073 0.37773689 0.61942607
0.37773689 0.37773689 0.61942607
0.61942607 0.37773689 0.61942607
0.86238646 0.37773689 0.61942607
1.00000000 0.37773689 0.61942607
0.00000073 0.61942607 0.61942607
0.37773689 0.61942607 0.61942607
0.61942607 0.61942607 0.61942607
0.86238646 0.61942607 0.61942607
1.00000000 0.61942607 0.61942607
0.00000073 0.86238646 0.61942607
0.37773689 0.86238646 0.61942607
0.61942607 0.86238646 0.61942607
0.86238646 0.86238646 0.61942607
1.00000000 0.86238646 0.61942607
0.00000073 1.00000000 0.61942607
0.37773689 1.00000000 0.61942607
0.61942607 1.00000000 0.61942607
0.86238646 1.00000000 0.61942607
1.00000000 1.00000000 0.61942607
0.00000073 0.00000073 0.86238646
0.37773689 0.00000073 0.86238646
0.61942607 0.00000073 0.86238646
0.86238646 0.00000073 0.86238646
1.00000000 0.00000073 0.86238646
0.00000073 0.37773689 0.86238646
0.37773689 0.37773689 0.86238646
0.61942607 0.37773689 0.86238646
0.86238646 0.37773689 0.86238646
1.00000000 0.37773689 0.86238646
0.00000073 0.61942607 0.86238646
0.37773689 0.61942607 0.86238646
0.61942607 0.61942607 0.86238646
0.86238646 0.61942607 0.86238646
1.00000000 0.61942607 0.86238646
0.00000073 0.86238646 0.86238646
0.37773689 0.86238646 0.86238646
0.61942607 0.86238646 0.86238646
0.86238646 0.86238646 0.86238646
1.00000000 0.86238646 0.86238646
0.00000073 1.00000000 0.86238646
0.37773689 1.00000000 0.86238646
0.61942607 1.00000000 0.86238646
0.86238646 1.00000000 0.86238646
1.00000000 1.00000000 0.86238646
0.00000073 0.00000073 1.00000000
0.37773689 0.00000073 1.00000000
0.61942607 0.00000073 1.00000000
0.86238646 0.00000073 1.00000000
1.00000000 0.00000073 1.00000000
0.00000073 0.37773689 1.00000000
0.37773689 0.37773689 1.00000000
0.61942607 0.37773689 1.00000000
0.86238646 0.37773689 1.00000000
1.00000000 0.37773689 1.00000000
0.00000073 0.61942607 1.00000000
0.37773689 0.61942607 1.00000000
0.61942607 0.61942607 1.00000000
0.86238646 0.61942607 1.00000000
1.00000000 0.61942607 1.00000000
0.00000073 0.86238646 1.00000000
0.37773689 0.86238646 1.00000000
0.61942607 0.86238646 1.00000000
0.86238646 0.86238646 1.00000000
1.00000000 0.86238646 1.00000000
0.00000073 1.00000000 1.00000000
0.37773689 1.00000000 1.00000000
0.61942607 1.00000000 1.00000000
0.86238646 1.00000000 1.00000000
1.00000000 1.00000000 1.00000000
