src/ffmpeg_scripts/luts/flog-experimental_2p33.cube
TITLE "flog-experimental_2p33"
LUT_3D_SIZE 33
# Fujifilm F-Log/Rec2020 -> PQ (EOTF Only)/Rec2020, CineEI Shift 2.33, Black Level 0.00% IRE, Input 109% -> Output 100% - Created with LUTCalc v4.01 by Ben Turley October 2020
0.00000073 0.00000073 0.00000073
0.00000073 0.00000073 0.00000073
0.00000073 0.00000073 0.00000073
0.06452425 0.00000073 0.00000073
0.27175912 0.00000073 0.00000073
0.34392838 0.00000073 0.00000073
0.39656403 0.00000073 0.00000073
0.44071525 0.00000073 0.00000073
0.48023241 0.00000073 0.00000073
0.51693532 0.00000073 0.00000073
0.55183094 0.00000073 0.00000073
0.58553275 0.00000073 0.00000073
0.61843870 0.00000073 0.00000073
0.65081785 0.00000073 0.00000073
0.68285687 0.00000073 0.00000073
0.71468702 0.00000073 0.00000073
0.74640070 0.00000073 0.00000073
0.77806220 0.00000073 0.00000073
0.80971495 0.00000073 0.00000073
0.84138651 0.00000073 0.00000073
0.87309232 0.00000073 0.00000073
0.90483836 0.00000073 0.00000073
0.93662324 0.00000073 0.00000073
0.96843979 0.00000073 0.00000073
1.00000000 0.00000073 0.00000073
1.00000000 0.00000073 0.00000073
1.00000000 0.00000073 0.00000073
1.00000000 0.00000073 0.00000073
1.00000000 0.00000073 0.00000073
1.00000000 0.00000073 0.00000073
1.00000000 0.00000073 0.00000073
1.00000000 0.00000073 0.00000073
1.00000000 0.00000073 0.00000073
0.00000073 0.00000073 0.00000073
0.00000073 0.00000073 0.00000073
0.00000073 0.00000073 0.00000073
0.06452425 0.00000073 0.00000073
0.27175912 0.00000073 0.00000073
0.34392838 0.00000073 0.00000073
0.39656403 0.00000073 0.00000073
0.44071525 0.00000073 0.00000073
0.48023241 0.00000073 0.00000073
0.51693532 0.00000073 0.00000073
0.55183094 0.00000073 0.00000073
0.58553275 0.00000073 0.00000073
0.61843870 0.00000073 0.00000073
0.65081785 0.00000073 0.00000073
0.68285687 0.00000073 0.00000073
0.71468702 0.00000073 0.00000073
0.74640070 0.00000073 0.00000073
0.77806220 0.00000073 0.00000073
0.80971495 0.00000073 0.00000073
0.84138651 0.00000073 0.00000073
0.87309232 0.00000073 0.00000073
0.90483836 0.00000073 0.00000073
0.93662324 0.00000073 0.00000073
0.96843979 0.00000073 0.00000073
1.00000000 0.00000073 0.00000073
1.00000000 0.00000073 0.00000073
1.00000000 0.00000073 0.00000073
1.00000000 0.00000073 0.00000073
1.00000000 0.00000073 0.00000073
1.00000000 0.00000073 0.00000073
1.00000000 0.00000073 0.00000073
1.00000000 0.00000073 0.00000073
1.00000000 0.00000073 0.00000073
0.00000073 0.00000073 0.00000073
0.00000073 0.00000073 0.00000073
0.00000073 0.00000073 0.00000073
0.06452425 0.00000073 0.00000073
0.27175912 0.00000073 0.00000073
0.34392838 0.00000073 0.00000073
0.39656403 0.00000073 0.00000073
0.44071525 0.00000073 0.00000073
0.48023241 0.00000073 0.00000073
0.51693532 0.00000073 0.00000073
0.55183094 0.00000073 0.00000073
0.58553275 0.00000073 0.00000073
0.61843870 0.00000073 0.00000073
0.65081785 0.00000073 0.00000073
0.68285687 0.00000073 0.00000073
0.71468702 0.00000073 0.00000073
0.74640070 0.00000073 0.00000073
0.77806220 0.00000073 0.00000073
0.80971495 0.00000073 0.00000073
0.84138651 0.00000073 0.00000073
0.87309232 0.00000073 0.00000073
0.90483836 0.00000073 0.00000073
0.93662324 0.00000073 0.00000073
0.96843979 0.00000073 0.00000073
1.00000000 0.00000073 0.00000073
1.00000000 0.00000073 0.00000073
1.00000000 0.00000073 0.00000073
1.00000000 0.00000073 0.00000073
1.00000000 0.00000073 0.00000073
1.00000000 0.00000073 0.00000073
1.00000000 0.00000073 0.00000073
1.00000000 0.00000073 0.00000073
1.00000000 0.00000073 0.00000073
0.00000073 0.06452425 0.00000073
0.00000073 0.06452425 0.00000073
0.00000073 0.06452425 0.00000073
0.06452425 0.06452425 0.00000073
0.27175912 0.06452425 0.00000073
0.34392838 0.06452425 0.00000073
0.39656403 0.06452425 0.00000073
0.44071525 0.06452425 0.00000073
0.48023241 0.06452425 0.00000073
0.51693532 0.06452425 0.00000073
0.55183094 0.06452425 0.00000073
0.58553275 0.06452425 0.00000073
0.61843870 0.06452425 0.00000073
0.65081785 0.06452425 0.00000073
0.68285687 0.06452425 0.00000073
0.71468702 0.06452425 0.00000073
0.74640070 0.06452425 0.00000073
0.77806220 0.06452425 0.00000073
0.80971495 0.06452425 0.00000073
0.84138651 0.06452425 0.00000073
0.87309232 0.06452425 0.00000073
0.90483836 0.06452425 0.00000073
0.93662324 0.06452425 0.00000073
0.96843979 0.06452425 0.00000073
1.00000000 0.06452425 0.00000073
1.00000000 0.06452425 0.00000073
1.00000000 0.06452425 0.00000073
1.00000000 0.06452425 0.00000073
1.00000000 0.06452425 0.00000073
1.00000000 0.06452425 0.00000073
1.00000000 0.06452425 0.00000073
1.00000000 0.06452425 0.00000073
1.00000000 0.06452425 0.00000073
0.00000073 0.27175912 0.00000073
0.00000073 0.27175912 0.00000073
0.00000073 0.27175912 0.00000073
0.06452425 0.27175912 0.00000073
0.27175912 0.27175912 0.00000073
0.34392838 0.27175912 0.00000073
0.39656403 0.27175912 0.00000073
0.44071525 0.27175912 0.00000073
0.48023241 0.27175912 0.00000073
0.51693532 0.27175912 0.00000073
0.55183094 0.27175912 0.00000073
0.58553275 0.27175912 0.00000073
0.61843870 0.27175912 0.00000073
0.65081785 0.27175912 0.00000073
0.68285687 0.27175912 0.00000073
0.71468702 0.27175912 0.00000073
0.74640070 0.27175912 0.00000073
0.77806220 0.27175912 0.00000073
0.80971495 0.27175912 0.00000073
0.84138651 0.27175912 0.00000073
0.87309232 0.27175912 0.00000073
0.90483836 0.27175912 0.00000073
0.93662324 0.27175912 0.00000073
0.96843979 0.27175912 0.00000073
1.00000000 0.27175912 0.00000073
1.00000000 0.27175912 0.00000073
1.00000000 0.27175912 0.00000073
1.00000000 0.27175912 0.00000073
1.00000000 0.27175912 0.00000073
1.00000000 0.27175912 0.00000073
1.00000000 0.27175912 0.00000073
1.00000000 0.27175912 0.00000073
1.00000000 0.27175912 0.00000073
0.00000073 0.34392838 0.00000073
0.00000073 0.34392838 0.00000073
0.00000073 0.34392838 0.00000073
0.06452425 0.34392838 0.00000073
0.27175912 0.34392838 0.00000073
0.34392838 0.34392838 0.00000073
0.39656403 0.34392838 0.00000073
0.44071525 0.34392838 0.00000073
0.48023241 0.34392838 0.00000073
0.51693532 0.34392838 0.00000073
0.55183094 0.34392838 0.00000073
0.58553275 0.34392838 0.00000073
0.61843870 0.34392838 0.00000073
0.65081785 0.34392838 0.00000073
0.68285687 0.34392838 0.00000073
0.71468702 0.34392838 0.00000073
0.74640070 0.34392838 0.00000073
0.77806220 0.34392838 0.00000073
0.80971495 0.34392838 0.00000073
0.84138651 0.34392838 0.00000073
0.87309232 0.34392838 0.00000073
0.90483836 0.34392838 0.00000073
0.93662324 0.34392838 0.00000073
0.96843979 0.34392838 0.00000073
1.00000000 0.34392838 0.00000073
1.00000000 0.34392838 0.00000073
1.00000000 0.34392838 0.00000073
1.00000000 0.34392838 0.00000073
1.00000000 0.34392838 0.00000073
1.00000000 0.34392838 0.00000073
1.00000000 0.34392838 0.00000073
1.00000000 0.34392838 0.00000073
1.00000000 0.34392838 0.00000073
0.00000073 0.39656403 0.00000073
0.00000073 0.39656403 0.00000073
0.00000073 0.39656403 0.00000073
0.06452425 0.39656403 0.00000073
0.27175912 0.39656403 0.00000073
0.34392838 0.39656403 0.00000073
0.39656403 0.39656403 0.00000073
0.44071525 0.39656403 0.00000073
0.48023241 0.39656403 0.00000073
0.51693532 0.39656403 0.00000073
0.55183094 0.39656403 0.00000073
0.58553275 0.39656403 0.00000073
0.61843870 0.39656403 0.00000073
0.65081785 0.39656403 0.00000073
0.68285687 0.39656403 0.00000073
0.71468702 0.39656403 0.00000073
0.74640070 0.39656403 0.00000073
0.77806220 0.39656403 0.00000073
0.80971495 0.39656403 0.00000073
0.84138651 0.39656403 0.00000073
0.87309232 0.39656403 0.00000073
0.90483836 0.39656403 0.00000073
0.93662324 0.39656403 0.00000073
0.96843979 0.39656403 0.00000073
1.00000000 0.39656403 0.00000073
1.00000000 0.39656403 0.00000073
1.00000000 0.39656403 0.00000073
1.00000000 0.39656403 0.00000073
1.00000000 0.39656403 0.00000073
1.00000000 0.39656403 0.00000073
1.00000000 0.39656403 0.00000073
1.00000000 0.39656403 0.00000073
1.00000000 0.39656403 0.00000073
0.00000073 0.44071525 0.00000073
0.00000073 0.44071525 0.00000073
0.00000073 0.44071525 0.00000073
0.06452425 0.44071525 0.00000073
0.27175912 0.44071525 0.00000073
0.34392838 0.44071525 0.00000073
0.39656403 0.44071525 0.00000073
0.44071525 0.44071525 0.00000073
0.48023241 0.44071525 0.00000073
0.51693532 0.44071525 0.00000073
0.55183094 0.44071525 0.00000073
0.58553275 0.44071525 0.00000073
0.61843870 0.44071525 0.00000073
0.65081785 0.44071525 0.00000073
0.68285687 0.44071525 0.00000073
0.71468702 0.44071525 0.00000073
0.74640070 0.44071525 0.00000073
0.77806220 0.44071525 0.00000073
0.80971495 0.44071525 0.00000073
0.84138651 0.44071525 0.00000073
0.87309232 0.44071525 0.00000073
0.90483836 0.44071525 0.00000073
0.93662324 0.44071525 0.00000073
0.96843979 0.44071525 0.00000073
1.00000000 0.44071525 0.00000073
1.00000000 0.44071525 0.00000073
1.00000000 0.44071525 0.00000073
1.00000000 0.44071525 0.00000073
1.00000000 0.44071525 0.00000073
1.00000000 0.44071525 0.00000073
1.00000000 0.44071525 0.00000073
1.00000000 0.44071525 0.00000073
1.00000000 0.44071525 0.00000073
0.00000073 0.48023241 0.00000073
0.00000073 0.48023241 0.00000073
0.00000073 0.48023241 0.00000073
0.06452425 0.48023241 0.00000073
0.27175912 0.48023241 0.00000073
0.34392838 0.48023241 0.00000073
0.39656403 0.48023241 0.00000073
0.44071525 0.48023241 0.00000073
0.48023241 0.48023241 0.00000073
0.51693532 0.48023241 0.00000073
0.55183094 0.48023241 0.00000073
0.58553275 0.48023241 0.00000073
0.61843870 0.48023241 0.00000073
0.65081785 0.48023241 0.00000073
0.68285687 0.48023241 0.00000073
0.71468702 0.48023241 0.00000073
0.74640070 0.48023241 0.00000073
0.77806220 0.48023241 0.00000073
0.80971495 0.48023241 0.00000073
0.84138651 0.48023241 0.00000073
0.87309232 0.48023241 0.00000073
0.90483836 0.48023241 0.00000073
0.93662324 0.48023241 0.00000073
0.96843979 0.48023241 0.00000073
1.00000000 0.48023241 0.00000073
1.00000000 0.48023241 0.00000073
1.00000000 0.48023241 0.00000073
1.00000000 0.48023241 0.00000073
1.00000000 0.48023241 0.00000073
1.00000000 0.48023241 0.00000073
1.00000000 0.48023241 0.00000073
1.00000000 0.48023241 0.00000073
1.00000000 0.48023241 0.00000073
0.00000073 0.51693532 0.00000073
0.00000073 0.51693532 0.00000073
0.00000073 0.51693532 0.00000073
0.06452425 0.51693532 0.00000073
0.27175912 0.51693532 0.00000073
0.34392838 0.51693532 0.00000073
0.39656403 0.51693532 0.00000073
0.44071525 0.51693532 0.00000073
0.48023241 0.51693532 0.00000073
0.51693532 0.51693532 0.00000073
0.55183094 0.51693532 0.00000073
0.58553275 0.51693532 0.00000073
0.61843870 0.51693532 0.00000073
0.65081785 0.51693532 0.00000073
0.68285687 0.51693532 0.00000073
0.71468702 0.51693532 0.00000073
0.74640070 0.51693532 0.00000073
0.77806220 0.51693532 0.00000073
0.80971495 0.51693532 0.00000073
0.84138651 0.51693532 0.00000073
0.87309232 0.51693532 0.00000073
0.90483836 0.51693532 0.00000073
0.93662324 0.51693532 0.00000073
0.96843979 0.51693532 0.00000073
1.00000000 0.51693532 0.00000073
1.00000000 0.51693532 0.00000073
1.00000000 0.51693532 0.00000073
1.00000000 0.51693532 0.00000073
1.00000000 0.51693532 0.00000073
1.00000000 0.51693532 0.00000073
1.00000000 0.51693532 0.00000073
1.00000000 0.51693532 0.00000073
1.00000000 0.51693532 0.00000073
0.00000073 0.55183094 0.00000073
0.00000073 0.55183094 0.00000073
0.00000073 0.55183094 0.00000073
0.06452425 0.55183094 0.00000073
0.27175912 0.55183094 0.00000073
0.34392838 0.55183094 0.00000073
0.39656403 0.55183094 0.00000073
0.44071525 0.55183094 0.00000073
0.48023241 0.55183094 0.00000073
0.51693532 0.55183094 0.00000073
0.55183094 0.55183094 0.00000073
0.58553275 0.55183094 0.00000073
0.61843870 0.55183094 0.00000073
0.65081785 0.55183094 0.00000073
0.68285687 0.55183094 0.00000073
0.71468702 0.55183094 0.00000073
0.74640070 0.55183094 0.00000073
0.77806220 0.55183094 0.00000073
0.80971495 0.55183094 0.00000073
0.84138651 0.55183094 0.00000073
0.87309232 0.55183094 0.00000073
0.90483836 0.55183094 0.00000073
0.93662324 0.55183094 0.00000073
0.96843979 0.55183094 0.00000073
1.00000000 0.55183094 0.00000073
1.00000000 0.55183094 0.00000073
1.00000000 0.55183094 0.00000073
1.00000000 0.55183094 0.00000073
1.00000000 0.55183094 0.00000073
1.00000000 0.55183094 0.00000073
1.00000000 0.55183094 0.00000073
1.00000000 0.55183094 0.00000073
1.00000000 0.55183094 0.00000073
0.00000073 0.58553275 0.00000073
0.00000073 0.58553275 0.00000073
0.00000073 0.58553275 0.00000073
0.06452425 0.58553275 0.00000073
0.27175912 0.58553275 0.00000073
0.34392838 0.58553275 0.00000073
0.39656403 0.58553275 0.00000073
0.44071525 0.58553275 0.00000073
0.48023241 0.58553275 0.00000073
0.51693532 0.58553275 0.00000073
0.55183094 0.58553275 0.00000073
0.58553275 0.58553275 0.00000073
0.61843870 0.58553275 0.00000073
0.65081785 0.58553275 0.00000073
0.68285687 0.58553275 0.00000073
0.71468702 0.58553275 0.00000073
0.74640070 0.58553275 0.00000073
0.77806220 0.58553275 0.00000073
0.80971495 0.58553275 0.00000073
0.84138651 0.58553275 0.00000073
0.87309232 0.58553275 0.00000073
0.90483836 0.58553275 0.00000073
0.93662324 0.58553275 0.00000073
0.96843979 0.58553275 0.00000073
1.00000000 0.58553275 0.00000073
1.00000000 0.58553275 0.00000073
1.00000000 0.58553275 0.00000073
1.00000000 0.58553275 0.00000073
1.00000000 0.58553275 0.00000073
1.00000000 0.58553275 0.00000073
1.00000000 0.58553275 0.00000073
1.00000000 0.58553275 0.00000073
1.00000000 0.58553275 0.00000073
0.00000073 0.61843870 0.00000073
0.00000073 0.61843870 0.00000073
0.00000073 0.61843870 0.00000073
0.06452425 0.61843870 0.00000073
0.27175912 0.61843870 0.00000073
0.34392838 0.61843870 0.00000073
0.39656403 0.61843870 0.00000073
0.44071525 0.61843870 0.00000073
0.48023241 0.61843870 0.00000073
0.51693532 0.61843870 0.00000073
0.55183094 0.61843870 0.00000073
0.58553275 0.61843870 0.00000073
0.61843870 0.61843870 0.00000073
0.65081785 0.61843870 0.00000073
0.68285687 0.61843870 0.00000073
0.71468702 0.61843870 0.00000073
0.74640070 0.61843870 0.00000073
0.77806220 0.61843870 0.00000073
0.80971495 0.61843870 0.00000073
0.84138651 0.61843870 0.00000073
0.87309232 0.61843870 0.00000073
0.90483836 0.61843870 0.00000073
0.93662324 0.61843870 0.00000073
0.96843979 0.61843870 0.00000073
1.00000000 0.61843870 0.00000073
1.00000000 0.61843870 0.00000073
1.00000000 0.61843870 0.00000073
1.00000000 0.61843870 0.00000073
1.00000000 0.61843870 0.00000073
1.00000000 0.61843870 0.00000073
1.00000000 0.61843870 0.00000073
1.00000000 0.61843870 0.00000073
1.00000000 0.61843870 0.00000073
0.00000073 0.65081785 0.00000073
0.00000073 0.65081785 0.00000073
0.00000073 0.65081785 0.00000073
0.06452425 0.65081785 0.00000073
0.27175912 0.65081785 0.00000073
0.34392838 0.65081785 0.00000073
0.39656403 0.65081785 0.00000073
0.44071525 0.65081785 0.00000073
0.48023241 0.65081785 0.00000073
0.51693532 0.65081785 0.00000073
0.55183094 0.65081785 0.00000073
0.58553275 0.65081785 0.00000073
0.61843870 0.65081785 0.00000073
0.65081785 0.65081785 0.00000073
0.68285687 0.65081785 0.00000073
0.71468702 0.65081785 0.00000073
0.74640070 0.65081785 0.00000073
0.77806220 0.65081785 0.00000073
0.80971495 0.65081785 0.00000073
0.84138651 0.65081785 0.00000073
0.87309232 0.65081785 0.00000073
0.90483836 0.65081785 0.00000073
0.93662324 0.65081785 0.00000073
0.96843979 0.65081785 0.00000073
1.00000000 0.65081785 0.00000073
1.00000000 0.65081785 0.00000073
1.00000000 0.65081785 0.00000073
1.00000000 0.65081785 0.00000073
1.00000000 0.65081785 0.00000073
1.00000000 0.65081785 0.00000073
1.00000000 0.65081785 0.00000073
1.00000000 0.65081785 0.00000073
1.00000000 0.65081785 0.00000073
0.00000073 0.68285687 0.00000073
0.00000073 0.68285687 0.00000073
0.00000073 0.68285687 0.00000073
0.06452425 0.68285687 0.00000073
0.27175912 0.68285687 0.00000073
0.34392838 0.68285687 0.00000073
0.39656403 0.68285687 0.00000073
0.44071525 0.68285687 0.00000073
0.48023241 0.68285687 0.00000073
0.51693532 0.68285687 0.00000073
0.55183094 0.68285687 0.00000073
0.58553275 0.68285687 0.00000073
0.61843870 0.68285687 0.00000073
0.65081785 0.68285687 0.00000073
0.68285687 0.68285687 0.00000073
0.71468702 0.68285687 0.00000073
0.74640070 0.68285687 0.00000073
0.77806220 0.68285687 0.00000073
0.80971495 0.68285687 0.00000073
0.84138651 0.68285687 0.00000073
0.87309232 0.68285687 0.00000073
0.90483836 0.68285687 0.00000073
0.93662324 0.68285687 0.00000073
0.96843979 0.68285687 0.00000073
1.00000000 0.68285687 0.00000073
1.00000000 0.68285687 0.00000073
1.00000000 0.68285687 0.00000073
1.00000000 0.68285687 0.00000073
1.00000000 0.68285687 0.00000073
1.00000000 0.68285687 0.00000073
1.00000000 0.68285687 0.00000073
1.00000000 0.68285687 0.00000073
1.00000000 0.68285687 0.00000073
0.00000073 0.71468702 0.00000073
0.00000073 0.71468702 0.00000073
0.00000073 0.71468702 0.00000073
0.06452425 0.71468702 0.00000073
0.27175912 0.71468702 0.00000073
0.34392838 0.71468702 0.00000073
0.39656403 0.71468702 0.00000073
0.44071525 0.71468702 0.00000073
0.48023241 0.71468702 0.00000073
0.51693532 0.71468702 0.00000073
0.55183094 0.71468702 0.00000073
0.58553275 0.71468702 0.00000073
0.61843870 0.71468702 0.00000073
0.65081785 0.71468702 0.00000073
0.68285687 0.71468702 0.00000073
0.71468702 0.71468702 0.00000073
0.74640070 0.71468702 0.00000073
0.77806220 0.71468702 0.00000073
0.80971495 0.71468702 0.00000073
0.84138651 0.71468702 0.00000073
0.87309232 0.71468702 0.00000073
0.90483836 0.71468702 0.00000073
0.93662324 0.71468702 0.00000073
0.96843979 0.71468702 0.00000073
1.00000000 0.71468702 0.00000073
1.00000000 0.71468702 0.00000073
1.00000000 0.71468702 0.00000073
1.00000000 0.71468702 0.00000073
1.00000000 0.71468702 0.00000073
1.00000000 0.71468702 0.00000073
1.00000000 0.71468702 0.00000073
1.00000000 0.71468702 0.00000073
1.00000000 0.71468702 0.00000073
0.00000073 0.74640070 0.00000073
0.00000073 0.74640070 0.00000073
0.00000073 0.74640070 0.00000073
0.06452425 0.74640070 0.00000073
0.27175912 0.74640070 0.00000073
0.34392838 0.74640070 0.00000073
0.39656403 0.74640070 0.00000073
0.44071525 0.74640070 0.00000073
0.48023241 0.74640070 0.00000073
0.51693532 0.74640070 0.00000073
0.55183094 0.74640070 0.00000073
0.58553275 0.74640070 0.00000073
0.61843870 0.74640070 0.00000073
0.65081785 0.74640070 0.00000073
0.68285687 0.74640070 0.00000073
0.71468702 0.74640070 0.00000073
0.74640070 0.74640070 0.00000073
0.77806220 0.74640070 0.00000073
0.80971495 0.74640070 0.00000073
0.84138651 0.74640070 0.00000073
0.87309232 0.74640070 0.00000073
0.90483836 0.74640070 0.00000073
0.93662324 0.74640070 0.00000073
0.96843979 0.74640070 0.00000073
1.00000000 0.74640070 0.00000073
1.00000000 0.74640070 0.00000073
1.00000000 0.74640070 0.00000073
1.00000000 0.74640070 0.00000073
1.00000000 0.74640070 0.00000073
1.00000000 0.74640070 0.00000073
1.00000000 0.74640070 0.00000073
1.00000000 0.74640070 0.00000073
1.00000000 0.74640070 0.00000073
0.00000073 0.77806220 0.00000073
0.00000073 0.77806220 0.00000073
0.00000073 0.77806220 0.00000073
0.06452425 0.77806220 0.00000073
0.27175912 0.77806220 0.00000073
0.34392838 0.77806220 0.00000073
0.39656403 0.77806220 0.00000073
0.44071525 0.77806220 0.00000073
0.48023241 0.77806220 0.00000073
0.51693532 0.77806220 0.00000073
0.55183094 0.77806220 0.00000073
0.58553275 0.77806220 0.00000073
0.61843870 0.77806220 0.00000073
0.65081785 0.77806220 0.00000073
0.68285687 0.77806220 0.00000073
0.71468702 0.77806220 0.00000073
0.74640070 0.77806220 0.00000073
0.77806220 0.77806220 0.00000073
0.80971495 0.77806220 0.00000073
0.84138651 0.77806220 0.00000073
0.87309232 0.77806220 0.00000073
0.90483836 0.77806220 0.00000073
0.93662324 0.77806220 0.00000073
0.96843979 0.77806220 0.00000073
1.00000000 0.77806220 0.00000073
1.00000000 0.77806220 0.00000073
1.00000000 0.77806220 0.00000073
1.00000000 0.77806220 0.00000073
1.00000000 0.77806220 0.00000073
1.00000000 0.77806220 0.00000073
1.00000000 0.77806220 0.00000073
1.00000000 0.77806220 0.00000073
1.00000000 0.77806220 0.00000073
0.00000073 0.80971495 0.00000073
0.00000073 0.80971495 0.00000073
0.00000073 0.80971495 0.00000073
0.06452425 0.80971495 0.00000073
0.27175912 0.80971495 0.00000073
0.34392838 0.80971495 0.00000073
0.39656403 0.80971495 0.00000073
0.44071525 0.80971495 0.00000073
0.48023241 0.80971495 0.00000073
0.51693532 0.80971495 0.00000073
0.55183094 0.80971495 0.00000073
0.58553275 0.80971495 0.00000073
0.61843870 0.80971495 0.00000073
0.65081785 0.80971495 0.00000073
0.68285687 0.80971495 0.00000073
0.71468702 0.80971495 0.00000073
0.74640070 0.80971495 0.00000073
0.77806220 0.80971495 0.00000073
0.80971495 0.80971495 0.00000073
0.84138651 0.80971495 0.00000073
0.87309232 0.80971495 0.00000073
0.90483836 0.80971495 0.00000073
0.93662324 0.80971495 0.00000073
0.96843979 0.80971495 0.00000073
1.00000000 0.80971495 0.00000073
1.00000000 0.80971495 0.00000073
1.00000000 0.80971495 0.00000073
1.00000000 0.80971495 0.00000073
1.00000000 0.80971495 0.00000073
1.00000000 0.80971495 0.00000073
1.00000000 0.80971495 0.00000073
1.00000000 0.80971495 0.00000073
1.00000000 0.80971495 0.00000073
0.00000073 0.84138651 0.00000073
0.00000073 0.84138651 0.00000073
0.00000073 0.84138651 0.00000073
0.06452425 0.84138651 0.00000073
0.27175912 0.84138651 0.00000073
0.34392838 0.84138651 0.00000073
0.39656403 0.84138651 0.00000073
0.44071525 0.84138651 0.00000073
0.48023241 0.84138651 0.00000073
0.51693532 0.84138651 0.00000073
0.55183094 0.84138651 0.00000073
0.58553275 0.84138651 0.00000073
0.61843870 0.84138651 0.00000073
0.65081785 0.84138651 0.00000073
0.68285687 0.84138651 0.00000073
0.71468702 0.84138651 0.00000073
0.74640070 0.84138651 0.00000073
0.77806220 0.84138651 0.00000073
0.80971495 0.84138651 0.00000073
0.84138651 0.84138651 0.00000073
0.87309232 0.84138651 0.00000073
0.90483836 0.84138651 0.00000073
0.93662324 0.84138651 0.00000073
0.96843979 0.84138651 0.00000073
1.00000000 0.84138651 0.00000073
1.00000000 0.84138651 0.00000073
1.00000000 0.84138651 0.00000073
1.00000000 0.84138651 0.00000073
1.00000000 0.84138651 0.00000073
1.00000000 0.84138651 0.00000073
1.00000000 0.84138651 0.00000073
1.00000000 0.84138651 0.00000073
1.00000000 0.84138651 0.00000073
0.00000073 0.87309232 0.00000073
0.00000073 0.87309232 0.00000073
0.00000073 0.87309232 0.00000073
0.06452425 0.87309232 0.00000073
0.27175912 0.87309232 0.00000073
0.34392838 0.87309232 0.00000073
0.39656403 0.87309232 0.00000073
0.44071525 0.87309232 0.00000073
0.48023241 0.87309232 0.00000073
0.51693532 0.87309232 0.00000073
0.55183094 0.87309232 0.00000073
0.58553275 0.87309232 0.00000073
0.61843870 0.87309232 0.00000073
0.65081785 0.87309232 0.00000073
0.68285687 0.87309232 0.00000073
0.71468702 0.87309232 0.00000073
0.74640070 0.87309232 0.00000073
0.77806220 0.87309232 0.00000073
0.80971495 0.87309232 0.00000073
0.84138651 0.87309232 0.00000073
0.87309232 0.87309232 0.00000073
0.90483836 0.87309232 0.00000073
0.93662324 0.87309232 0.00000073
0.96843979 0.87309232 0.00000073
1.00000000 0.87309232 0.00000073
1.00000000 0.87309232 0.00000073
1.00000000 0.87309232 0.00000073
1.00000000 0.87309232 0.00000073
1.00000000 0.87309232 0.00000073
1.00000000 0.87309232 0.00000073
1.00000000 0.87309232 0.00000073
1.00000000 0.87309232 0.00000073
1.00000000 0.87309232 0.00000073
0.00000073 0.90483836 0.00000073
0.00000073 0.90483836 0.00000073
0.00000073 0.90483836 0.00000073
0.06452425 0.90483836 0.00000073
0.27175912 0.90483836 0.00000073
0.34392838 0.90483836 0.00000073
0.39656403 0.90483836 0.00000073
0.44071525 0.90483836 0.00000073
0.48023241 0.90483836 0.00000073
0.51693532 0.90483836 0.00000073
0.55183094 0.90483836 0.00000073
0.58553275 0.90483836 0.00000073
0.61843870 0.90483836 0.00000073
0.65081785 0.90483836 0.00000073
0.68285687 0.90483836 0.00000073
0.71468702 0.90483836 0.00000073
0.74640070 0.90483836 0.00000073
0.77806220 0.90483836 0.00000073
0.80971495 0.90483836 0.00000073
0.84138651 0.90483836 0.00000073
0.87309232 0.90483836 0.00000073
0.90483836 0.90483836 0.00000073
0.93662324 0.90483836 0.00000073
0.96843979 0.90483836 0.00000073
1.00000000 0.90483836 0.00000073
1.00000000 0.90483836 0.00000073
1.00000000 0.90483836 0.00000073
