src/ffmpeg_scripts/luts/flog-smpte2084_0p33.cube
TITLE "flog-smpte2084_0p33"
LUT_3D_SIZE 33
# Fujifilm F-Log/Rec2020 -> PQ (EOTF Only)/Rec2020, CineEI Shift 0.33, Black Level 0.00% IRE, Input 109% -> Output 109% - Created with LUTCalc v4.01 by Ben Turley October 2020
0.06256172 0.06256172 0.06256172
0.06256172 0.06256172 0.06256172
0.06256172 0.06256172 0.06256172
0.08334342 0.06256172 0.06256172
0.16804927 0.06256172 0.06256172
0.20119840 0.06256172 0.06256172
0.22627114 0.06256172 0.06256172
0.24783197 0.06256172 0.06256172
0.26751310 0.06256172 0.06256172
0.28610011 0.06256172 0.06256172
0.30403436 0.06256172 0.06256172
0.32158849 0.06256172 0.06256172
0.33894155 0.06256172 0.06256172
0.35621599 0.06256172 0.06256172
0.37349755 0.06256172 0.06256172
0.39084690 0.06256172 0.06256172
0.40830684 0.06256172 0.06256172
0.42590690 0.06256172 0.06256172
0.44366659 0.06256172 0.06256172
0.46159760 0.06256172 0.06256172
0.47970540 0.06256172 0.06256172
0.49799053 0.06256172 0.06256172
0.51644951 0.06256172 0.06256172
0.53507560 0.06256172 0.06256172
0.55385942 0.06256172 0.06256172
0.57278943 0.06256172 0.06256172
0.59185238 0.06256172 0.06256172
0.61103362 0.06256172 0.06256172
0.63031746 0.06256172 0.06256172
0.64968739 0.06256172 0.06256172
0.66912629 0.06256172 0.06256172
0.68861669 0.06256172 0.06256172
0.70814088 0.06256172 0.06256172
0.06256172 0.06256172 0.06256172
0.06256172 0.06256172 0.06256172
0.06256172 0.06256172 0.06256172
0.08334342 0.06256172 0.06256172
0.16804927 0.06256172 0.06256172
0.20119840 0.06256172 0.06256172
0.22627114 0.06256172 0.06256172
0.24783197 0.06256172 0.06256172
0.26751310 0.06256172 0.06256172
0.28610011 0.06256172 0.06256172
0.30403436 0.06256172 0.06256172
0.32158849 0.06256172 0.06256172
0.33894155 0.06256172 0.06256172
0.35621599 0.06256172 0.06256172
0.37349755 0.06256172 0.06256172
0.39084690 0.06256172 0.06256172
0.40830684 0.06256172 0.06256172
0.42590690 0.06256172 0.06256172
0.44366659 0.06256172 0.06256172
0.46159760 0.06256172 0.06256172
0.47970540 0.06256172 0.06256172
0.49799053 0.06256172 0.06256172
0.51644951 0.06256172 0.06256172
0.53507560 0.06256172 0.06256172
0.55385942 0.06256172 0.06256172
0.57278943 0.06256172 0.06256172
0.59185238 0.06256172 0.06256172
0.61103362 0.06256172 0.06256172
0.63031746 0.06256172 0.06256172
0.64968739 0.06256172 0.06256172
0.66912629 0.06256172 0.06256172
0.68861669 0.06256172 0.06256172
0.70814088 0.06256172 0.06256172
0.06256172 0.06256172 0.06256172
0.06256172 0.06256172 0.06256172
0.06256172 0.06256172 0.06256172
0.08334342 0.06256172 0.06256172
0.16804927 0.06256172 0.06256172
0.20119840 0.06256172 0.06256172
0.22627114 0.06256172 0.06256172
0.24783197 0.06256172 0.06256172
0.26751310 0.06256172 0.06256172
0.28610011 0.06256172 0.06256172
0.30403436 0.06256172 0.06256172
0.32158849 0.06256172 0.06256172
0.33894155 0.06256172 0.06256172
0.35621599 0.06256172 0.06256172
0.37349755 0.06256172 0.06256172
0.39084690 0.06256172 0.06256172
0.40830684 0.06256172 0.06256172
0.42590690 0.06256172 0.06256172
0.44366659 0.06256172 0.06256172
0.46159760 0.06256172 0.06256172
0.47970540 0.06256172 0.06256172
0.49799053 0.06256172 0.06256172
0.51644951 0.06256172 0.06256172
0.53507560 0.06256172 0.06256172
0.55385942 0.06256172 0.06256172
0.57278943 0.06256172 0.06256172
0.59185238 0.06256172 0.06256172
0.61103362 0.06256172 0.06256172
0.63031746 0.06256172 0.06256172
0.64968739 0.06256172 0.06256172
0.66912629 0.06256172 0.06256172
0.68861669 0.06256172 0.06256172
0.70814088 0.06256172 0.06256172
0.06256172 0.08334342 0.06256172
0.06256172 0.08334342 0.06256172
0.06256172 0.08334342 0.06256172
0.08334342 0.08334342 0.06256172
0.16804927 0.08334342 0.06256172
0.20119840 0.08334342 0.06256172
0.22627114 0.08334342 0.06256172
0.24783197 0.08334342 0.06256172
0.26751310 0.08334342 0.06256172
0.28610011 0.08334342 0.06256172
0.30403436 0.08334342 0.06256172
0.32158849 0.08334342 0.06256172
0.33894155 0.08334342 0.06256172
0.35621599 0.08334342 0.06256172
0.37349755 0.08334342 0.06256172
0.39084690 0.08334342 0.06256172
0.40830684 0.08334342 0.06256172
0.42590690 0.08334342 0.06256172
0.44366659 0.08334342 0.06256172
0.46159760 0.08334342 0.06256172
0.47970540 0.08334342 0.06256172
0.49799053 0.08334342 0.06256172
0.51644951 0.08334342 0.06256172
0.53507560 0.08334342 0.06256172
0.55385942 0.08334342 0.06256172
0.57278943 0.08334342 0.06256172
0.59185238 0.08334342 0.06256172
0.61103362 0.08334342 0.06256172
0.63031746 0.08334342 0.06256172
0.64968739 0.08334342 0.06256172
0.66912629 0.08334342 0.06256172
0.68861669 0.08334342 0.06256172
0.70814088 0.08334342 0.06256172
0.06256172 0.16804927 0.06256172
0.06256172 0.16804927 0.06256172
0.06256172 0.16804927 0.06256172
0.08334342 0.16804927 0.06256172
0.16804927 0.16804927 0.06256172
0.20119840 0.16804927 0.06256172
0.22627114 0.16804927 0.06256172
0.24783197 0.16804927 0.06256172
0.26751310 0.16804927 0.06256172
0.28610011 0.16804927 0.06256172
0.30403436 0.16804927 0.06256172
0.32158849 0.16804927 0.06256172
0.33894155 0.16804927 0.06256172
0.35621599 0.16804927 0.06256172
0.37349755 0.16804927 0.06256172
0.39084690 0.16804927 0.06256172
0.40830684 0.16804927 0.06256172
0.42590690 0.16804927 0.06256172
0.44366659 0.16804927 0.06256172
0.46159760 0.16804927 0.06256172
0.47970540 0.16804927 0.06256172
0.49799053 0.16804927 0.06256172
0.51644951 0.16804927 0.06256172
0.53507560 0.16804927 0.06256172
0.55385942 0.16804927 0.06256172
0.57278943 0.16804927 0.06256172
0.59185238 0.16804927 0.06256172
0.61103362 0.16804927 0.06256172
0.63031746 0.16804927 0.06256172
0.64968739 0.16804927 0.06256172
0.66912629 0.16804927 0.06256172
0.68861669 0.16804927 0.06256172
0.70814088 0.16804927 0.06256172
0.06256172 0.20119840 0.06256172
0.06256172 0.20119840 0.06256172
0.06256172 0.20119840 0.06256172
0.08334342 0.20119840 0.06256172
0.16804927 0.20119840 0.06256172
0.20119840 0.20119840 0.06256172
0.22627114 0.20119840 0.06256172
0.24783197 0.20119840 0.06256172
0.26751310 0.20119840 0.06256172
0.28610011 0.20119840 0.06256172
0.30403436 0.20119840 0.06256172
0.32158849 0.20119840 0.06256172
0.33894155 0.20119840 0.06256172
0.35621599 0.20119840 0.06256172
0.37349755 0.20119840 0.06256172
0.39084690 0.20119840 0.06256172
0.40830684 0.20119840 0.06256172
0.42590690 0.20119840 0.06256172
0.44366659 0.20119840 0.06256172
0.46159760 0.20119840 0.06256172
0.47970540 0.20119840 0.06256172
0.49799053 0.20119840 0.06256172
0.51644951 0.20119840 0.06256172
0.53507560 0.20119840 0.06256172
0.55385942 0.20119840 0.06256172
0.57278943 0.20119840 0.06256172
0.59185238 0.20119840 0.06256172
0.61103362 0.20119840 0.06256172
0.63031746 0.20119840 0.06256172
0.64968739 0.20119840 0.06256172
0.66912629 0.20119840 0.06256172
0.68861669 0.20119840 0.06256172
0.70814088 0.20119840 0.06256172
0.06256172 0.22627114 0.06256172
0.06256172 0.22627114 0.06256172
0.06256172 0.22627114 0.06256172
0.08334342 0.22627114 0.06256172
0.16804927 0.22627114 0.06256172
0.20119840 0.22627114 0.06256172
0.22627114 0.22627114 0.06256172
0.24783197 0.22627114 0.06256172
0.26751310 0.22627114 0.06256172
0.28610011 0.22627114 0.06256172
0.30403436 0.22627114 0.06256172
0.32158849 0.22627114 0.06256172
0.33894155 0.22627114 0.06256172
0.35621599 0.22627114 0.06256172
0.37349755 0.22627114 0.06256172
0.39084690 0.22627114 0.06256172
0.40830684 0.22627114 0.06256172
0.42590690 0.22627114 0.06256172
0.44366659 0.22627114 0.06256172
0.46159760 0.22627114 0.06256172
0.47970540 0.22627114 0.06256172
0.49799053 0.22627114 0.06256172
0.51644951 0.22627114 0.06256172
0.53507560 0.22627114 0.06256172
0.55385942 0.22627114 0.06256172
0.57278943 0.22627114 0.06256172
0.59185238 0.22627114 0.06256172
0.61103362 0.22627114 0.06256172
0.63031746 0.22627114 0.06256172
0.64968739 0.22627114 0.06256172
0.66912629 0.22627114 0.06256172
0.68861669 0.22627114 0.06256172
0.70814088 0.22627114 0.06256172
0.06256172 0.24783197 0.06256172
0.06256172 0.24783197 0.06256172
0.06256172 0.24783197 0.06256172
0.08334342 0.24783197 0.06256172
0.16804927 0.24783197 0.06256172
0.20119840 0.24783197 0.06256172
0.22627114 0.24783197 0.06256172
0.24783197 0.24783197 0.06256172
0.26751310 0.24783197 0.06256172
0.28610011 0.24783197 0.06256172
0.30403436 0.24783197 0.06256172
0.32158849 0.24783197 0.06256172
0.33894155 0.24783197 0.06256172
0.35621599 0.24783197 0.06256172
0.37349755 0.24783197 0.06256172
0.39084690 0.24783197 0.06256172
0.40830684 0.24783197 0.06256172
0.42590690 0.24783197 0.06256172
0.44366659 0.24783197 0.06256172
0.46159760 0.24783197 0.06256172
0.47970540 0.24783197 0.06256172
0.49799053 0.24783197 0.06256172
0.51644951 0.24783197 0.06256172
0.53507560 0.24783197 0.06256172
0.55385942 0.24783197 0.06256172
0.57278943 0.24783197 0.06256172
0.59185238 0.24783197 0.06256172
0.61103362 0.24783197 0.06256172
0.63031746 0.24783197 0.06256172
0.64968739 0.24783197 0.06256172
0.66912629 0.24783197 0.06256172
0.68861669 0.24783197 0.06256172
0.70814088 0.24783197 0.06256172
0.06256172 0.26751310 0.06256172
0.06256172 0.26751310 0.06256172
0.06256172 0.26751310 0.06256172
0.08334342 0.26751310 0.06256172
0.16804927 0.26751310 0.06256172
0.20119840 0.26751310 0.06256172
0.22627114 0.26751310 0.06256172
0.24783197 0.26751310 0.06256172
0.26751310 0.26751310 0.06256172
0.28610011 0.26751310 0.06256172
0.30403436 0.26751310 0.06256172
0.32158849 0.26751310 0.06256172
0.33894155 0.26751310 0.06256172
0.35621599 0.26751310 0.06256172
0.37349755 0.26751310 0.06256172
0.39084690 0.26751310 0.06256172
0.40830684 0.26751310 0.06256172
0.42590690 0.26751310 0.06256172
0.44366659 0.26751310 0.06256172
0.46159760 0.26751310 0.06256172
0.47970540 0.26751310 0.06256172
0.49799053 0.26751310 0.06256172
0.51644951 0.26751310 0.06256172
0.53507560 0.26751310 0.06256172
0.55385942 0.26751310 0.06256172
0.57278943 0.26751310 0.06256172
0.59185238 0.26751310 0.06256172
0.61103362 0.26751310 0.06256172
0.63031746 0.26751310 0.06256172
0.64968739 0.26751310 0.06256172
0.66912629 0.26751310 0.06256172
0.68861669 0.26751310 0.06256172
0.70814088 0.26751310 0.06256172
0.06256172 0.28610011 0.06256172
0.06256172 0.28610011 0.06256172
0.06256172 0.28610011 0.06256172
0.08334342 0.28610011 0.06256172
0.16804927 0.28610011 0.06256172
0.20119840 0.28610011 0.06256172
0.22627114 0.28610011 0.06256172
0.24783197 0.28610011 0.06256172
0.26751310 0.28610011 0.06256172
0.28610011 0.28610011 0.06256172
0.30403436 0.28610011 0.06256172
0.32158849 0.28610011 0.06256172
0.33894155 0.28610011 0.06256172
0.35621599 0.28610011 0.06256172
0.37349755 0.28610011 0.06256172
0.39084690 0.28610011 0.06256172
0.40830684 0.28610011 0.06256172
0.42590690 0.28610011 0.06256172
0.44366659 0.28610011 0.06256172
0.46159760 0.28610011 0.06256172
0.47970540 0.28610011 0.06256172
0.49799053 0.28610011 0.06256172
0.51644951 0.28610011 0.06256172
0.53507560 0.28610011 0.06256172
0.55385942 0.28610011 0.06256172
0.57278943 0.28610011 0.06256172
0.59185238 0.28610011 0.06256172
0.61103362 0.28610011 0.06256172
0.63031746 0.28610011 0.06256172
0.64968739 0.28610011 0.06256172
0.66912629 0.28610011 0.06256172
0.68861669 0.28610011 0.06256172
0.70814088 0.28610011 0.06256172
0.06256172 0.30403436 0.06256172
0.06256172 0.30403436 0.06256172
0.06256172 0.30403436 0.06256172
0.08334342 0.30403436 0.06256172
0.16804927 0.30403436 0.06256172
0.20119840 0.30403436 0.06256172
0.22627114 0.30403436 0.06256172
0.24783197 0.30403436 0.06256172
0.26751310 0.30403436 0.06256172
0.28610011 0.30403436 0.06256172
0.30403436 0.30403436 0.06256172
0.32158849 0.30403436 0.06256172
0.33894155 0.30403436 0.06256172
0.35621599 0.30403436 0.06256172
0.37349755 0.30403436 0.06256172
0.39084690 0.30403436 0.06256172
0.40830684 0.30403436 0.06256172
0.42590690 0.30403436 0.06256172
0.44366659 0.30403436 0.06256172
0.46159760 0.30403436 0.06256172
0.47970540 0.30403436 0.06256172
0.49799053 0.30403436 0.06256172
0.51644951 0.30403436 0.06256172
0.53507560 0.30403436 0.06256172
0.55385942 0.30403436 0.06256172
0.57278943 0.30403436 0.06256172
0.59185238 0.30403436 0.06256172
0.61103362 0.30403436 0.06256172
0.63031746 0.30403436 0.06256172
0.64968739 0.30403436 0.06256172
0.66912629 0.30403436 0.06256172
0.68861669 0.30403436 0.06256172
0.70814088 0.30403436 0.06256172
0.06256172 0.32158849 0.06256172
0.06256172 0.32158849 0.06256172
0.06256172 0.32158849 0.06256172
0.08334342 0.32158849 0.06256172
0.16804927 0.32158849 0.06256172
0.20119840 0.32158849 0.06256172
0.22627114 0.32158849 0.06256172
0.24783197 0.32158849 0.06256172
0.26751310 0.32158849 0.06256172
0.28610011 0.32158849 0.06256172
0.30403436 0.32158849 0.06256172
0.32158849 0.32158849 0.06256172
0.33894155 0.32158849 0.06256172
0.35621599 0.32158849 0.06256172
0.37349755 0.32158849 0.06256172
0.39084690 0.32158849 0.06256172
0.40830684 0.32158849 0.06256172
0.42590690 0.32158849 0.06256172
0.44366659 0.32158849 0.06256172
0.46159760 0.32158849 0.06256172
0.47970540 0.32158849 0.06256172
0.49799053 0.32158849 0.06256172
0.51644951 0.32158849 0.06256172
0.53507560 0.32158849 0.06256172
0.55385942 0.32158849 0.06256172
0.57278943 0.32158849 0.06256172
0.59185238 0.32158849 0.06256172
0.61103362 0.32158849 0.06256172
0.63031746 0.32158849 0.06256172
0.64968739 0.32158849 0.06256172
0.66912629 0.32158849 0.06256172
0.68861669 0.32158849 0.06256172
0.70814088 0.32158849 0.06256172
0.06256172 0.33894155 0.06256172
0.06256172 0.33894155 0.06256172
0.06256172 0.33894155 0.06256172
0.08334342 0.33894155 0.06256172
0.16804927 0.33894155 0.06256172
0.20119840 0.33894155 0.06256172
0.22627114 0.33894155 0.06256172
0.24783197 0.33894155 0.06256172
0.26751310 0.33894155 0.06256172
0.28610011 0.33894155 0.06256172
0.30403436 0.33894155 0.06256172
0.32158849 0.33894155 0.06256172
0.33894155 0.33894155 0.06256172
0.35621599 0.33894155 0.06256172
0.37349755 0.33894155 0.06256172
0.39084690 0.33894155 0.06256172
0.40830684 0.33894155 0.06256172
0.42590690 0.33894155 0.06256172
0.44366659 0.33894155 0.06256172
0.46159760 0.33894155 0.06256172
0.47970540 0.33894155 0.06256172
0.49799053 0.33894155 0.06256172
0.51644951 0.33894155 0.06256172
0.53507560 0.33894155 0.06256172
0.55385942 0.33894155 0.06256172
0.57278943 0.33894155 0.06256172
0.59185238 0.33894155 0.06256172
0.61103362 0.33894155 0.06256172
0.63031746 0.33894155 0.06256172
0.64968739 0.33894155 0.06256172
0.66912629 0.33894155 0.06256172
0.68861669 0.33894155 0.06256172
0.70814088 0.33894155 0.06256172
0.06256172 0.35621599 0.06256172
0.06256172 0.35621599 0.06256172
0.06256172 0.35621599 0.06256172
0.08334342 0.35621599 0.06256172
0.16804927 0.35621599 0.06256172
0.20119840 0.35621599 0.06256172
0.22627114 0.35621599 0.06256172
0.24783197 0.35621599 0.06256172
0.26751310 0.35621599 0.06256172
0.28610011 0.35621599 0.06256172
0.30403436 0.35621599 0.06256172
0.32158849 0.35621599 0.06256172
0.33894155 0.35621599 0.06256172
0.35621599 0.35621599 0.06256172
0.37349755 0.35621599 0.06256172
0.39084690 0.35621599 0.06256172
0.40830684 0.35621599 0.06256172
0.42590690 0.35621599 0.06256172
0.44366659 0.35621599 0.06256172
0.46159760 0.35621599 0.06256172
0.47970540 0.35621599 0.06256172
0.49799053 0.35621599 0.06256172
0.51644951 0.35621599 0.06256172
0.53507560 0.35621599 0.06256172
0.55385942 0.35621599 0.06256172
0.57278943 0.35621599 0.06256172
0.59185238 0.35621599 0.06256172
0.61103362 0.35621599 0.06256172
0.63031746 0.35621599 0.06256172
0.64968739 0.35621599 0.06256172
0.66912629 0.35621599 0.06256172
0.68861669 0.35621599 0.06256172
0.70814088 0.35621599 0.06256172
0.06256172 0.37349755 0.06256172
0.06256172 0.37349755 0.06256172
0.06256172 0.37349755 0.06256172
0.08334342 0.37349755 0.06256172
0.16804927 0.37349755 0.06256172
0.20119840 0.37349755 0.06256172
0.22627114 0.37349755 0.06256172
0.24783197 0.37349755 0.06256172
0.26751310 0.37349755 0.06256172
0.28610011 0.37349755 0.06256172
0.30403436 0.37349755 0.06256172
0.32158849 0.37349755 0.06256172
0.33894155 0.37349755 0.06256172
0.35621599 0.37349755 0.06256172
0.37349755 0.37349755 0.06256172
0.39084690 0.37349755 0.06256172
0.40830684 0.37349755 0.06256172
0.42590690 0.37349755 0.06256172
0.44366659 0.37349755 0.06256172
0.46159760 0.37349755 0.06256172
0.47970540 0.37349755 0.06256172
0.49799053 0.37349755 0.06256172
0.51644951 0.37349755 0.06256172
0.53507560 0.37349755 0.06256172
0.55385942 0.37349755 0.06256172
0.57278943 0.37349755 0.06256172
0.59185238 0.37349755 0.06256172
0.61103362 0.37349755 0.06256172
0.63031746 0.37349755 0.06256172
0.64968739 0.37349755 0.06256172
0.66912629 0.37349755 0.06256172
0.68861669 0.37349755 0.06256172
0.70814088 0.37349755 0.06256172
0.06256172 0.39084690 0.06256172
0.06256172 0.39084690 0.06256172
0.06256172 0.39084690 0.06256172
0.08334342 0.39084690 0.06256172
0.16804927 0.39084690 0.06256172
0.20119840 0.39084690 0.06256172
0.22627114 0.39084690 0.06256172
0.24783197 0.39084690 0.06256172
0.26751310 0.39084690 0.06256172
0.28610011 0.39084690 0.06256172
0.30403436 0.39084690 0.06256172
0.32158849 0.39084690 0.06256172
0.33894155 0.39084690 0.06256172
0.35621599 0.39084690 0.06256172
0.37349755 0.39084690 0.06256172
0.39084690 0.39084690 0.06256172
0.40830684 0.39084690 0.06256172
0.42590690 0.39084690 0.06256172
0.44366659 0.39084690 0.06256172
0.46159760 0.39084690 0.06256172
0.47970540 0.39084690 0.06256172
0.49799053 0.39084690 0.06256172
0.51644951 0.39084690 0.06256172
0.53507560 0.39084690 0.06256172
0.55385942 0.39084690 0.06256172
0.57278943 0.39084690 0.06256172
0.59185238 0.39084690 0.06256172
0.61103362 0.39084690 0.06256172
0.63031746 0.39084690 0.06256172
0.64968739 0.39084690 0.06256172
0.66912629 0.39084690 0.06256172
0.68861669 0.39084690 0.06256172
0.70814088 0.39084690 0.06256172
0.06256172 0.40830684 0.06256172
0.06256172 0.40830684 0.06256172
0.06256172 0.40830684 0.06256172
0.08334342 0.40830684 0.06256172
0.16804927 0.40830684 0.06256172
0.20119840 0.40830684 0.06256172
0.22627114 0.40830684 0.06256172
0.24783197 0.40830684 0.06256172
0.26751310 0.40830684 0.06256172
0.28610011 0.40830684 0.06256172
0.30403436 0.40830684 0.06256172
0.32158849 0.40830684 0.06256172
0.33894155 0.40830684 0.06256172
0.35621599 0.40830684 0.06256172
0.37349755 0.40830684 0.06256172
0.39084690 0.40830684 0.06256172
0.40830684 0.40830684 0.06256172
0.42590690 0.40830684 0.06256172
0.44366659 0.40830684 0.06256172
0.46159760 0.40830684 0.06256172
0.47970540 0.40830684 0.06256172
0.49799053 0.40830684 0.06256172
0.51644951 0.40830684 0.06256172
0.53507560 0.40830684 0.06256172
0.55385942 0.40830684 0.06256172
0.57278943 0.40830684 0.06256172
0.59185238 0.40830684 0.06256172
0.61103362 0.40830684 0.06256172
0.63031746 0.40830684 0.06256172
0.64968739 0.40830684 0.06256172
0.66912629 0.40830684 0.06256172
0.68861669 0.40830684 0.06256172
0.70814088 0.40830684 0.06256172
0.06256172 0.42590690 0.06256172
0.06256172 0.42590690 0.06256172
0.06256172 0.42590690 0.06256172
0.08334342 0.42590690 0.06256172
0.16804927 0.42590690 0.06256172
0.20119840 0.42590690 0.06256172
0.22627114 0.42590690 0.06256172
0.24783197 0.42590690 0.06256172
0.26751310 0.42590690 0.06256172
0.28610011 0.42590690 0.06256172
0.30403436 0.42590690 0.06256172
0.32158849 0.42590690 0.06256172
0.33894155 0.42590690 0.06256172
0.35621599 0.42590690 0.06256172
0.37349755 0.42590690 0.06256172
0.39084690 0.42590690 0.06256172
0.40830684 0.42590690 0.06256172
0.42590690 0.42590690 0.06256172
0.44366659 0.42590690 0.06256172
0.46159760 0.42590690 0.06256172
0.47970540 0.42590690 0.06256172
0.49799053 0.42590690 0.06256172
0.51644951 0.42590690 0.06256172
0.53507560 0.42590690 0.06256172
0.55385942 0.42590690 0.06256172
0.57278943 0.42590690 0.06256172
0.59185238 0.42590690 0.06256172
0.61103362 0.42590690 0.06256172
0.63031746 0.42590690 0.06256172
0.64968739 0.42590690 0.06256172
0.66912629 0.42590690 0.06256172
0.68861669 0.42590690 0.06256172
0.70814088 0.42590690 0.06256172
0.06256172 0.44366659 0.06256172
0.06256172 0.44366659 0.06256172
0.06256172 0.44366659 0.06256172
0.08334342 0.44366659 0.06256172
0.16804927 0.44366659 0.06256172
0.20119840 0.44366659 0.06256172
0.22627114 0.44366659 0.06256172
0.24783197 0.44366659 0.06256172
0.26751310 0.44366659 0.06256172
0.28610011 0.44366659 0.06256172
0.30403436 0.44366659 0.06256172
0.32158849 0.44366659 0.06256172
0.33894155 0.44366659 0.06256172
0.35621599 0.44366659 0.06256172
0.37349755 0.44366659 0.06256172
0.39084690 0.44366659 0.06256172
0.40830684 0.44366659 0.06256172
0.42590690 0.44366659 0.06256172
0.44366659 0.44366659 0.06256172
0.46159760 0.44366659 0.06256172
0.47970540 0.44366659 0.06256172
0.49799053 0.44366659 0.06256172
0.51644951 0.44366659 0.06256172
0.53507560 0.44366659 0.06256172
0.55385942 0.44366659 0.06256172
0.57278943 0.44366659 0.06256172
0.59185238 0.44366659 0.06256172
0.61103362 0.44366659 0.06256172
0.63031746 0.44366659 0.06256172
0.64968739 0.44366659 0.06256172
0.66912629 0.44366659 0.06256172
0.68861669 0.44366659 0.06256172
0.70814088 0.44366659 0.06256172
0.06256172 0.46159760 0.06256172
0.06256172 0.46159760 0.06256172
0.06256172 0.46159760 0.06256172
0.08334342 0.46159760 0.06256172
0.16804927 0.46159760 0.06256172
0.20119840 0.46159760 0.06256172
0.22627114 0.46159760 0.06256172
0.24783197 0.46159760 0.06256172
0.26751310 0.46159760 0.06256172
0.28610011 0.46159760 0.06256172
0.30403436 0.46159760 0.06256172
0.32158849 0.46159760 0.06256172
0.33894155 0.46159760 0.06256172
0.35621599 0.46159760 0.06256172
0.37349755 0.46159760 0.06256172
0.39084690 0.46159760 0.06256172
0.40830684 0.46159760 0.06256172
0.42590690 0.46159760 0.06256172
0.44366659 0.46159760 0.06256172
0.46159760 0.46159760 0.06256172
0.47970540 0.46159760 0.06256172
0.49799053 0.46159760 0.06256172
0.51644951 0.46159760 0.06256172
0.53507560 0.46159760 0.06256172
0.55385942 0.46159760 0.06256172
0.57278943 0.46159760 0.06256172
0.59185238 0.46159760 0.06256172
0.61103362 0.46159760 0.06256172
0.63031746 0.46159760 0.06256172
0.64968739 0.46159760 0.06256172
0.66912629 0.46159760 0.06256172
0.68861669 0.46159760 0.06256172
0.70814088 0.46159760 0.06256172
0.06256172 0.47970540 0.06256172
0.06256172 0.47970540 0.06256172
0.06256172 0.47970540 0.06256172
0.08334342 0.47970540 0.06256172
0.16804927 0.47970540 0.06256172
0.20119840 0.47970540 0.06256172
0.22627114 0.47970540 0.06256172
0.24783197 0.47970540 0.06256172
0.26751310 0.47970540 0.06256172
0.28610011 0.47970540 0.06256172
0.30403436 0.47970540 0.06256172
0.32158849 0.47970540 0.06256172
0.33894155 0.47970540 0.06256172
0.35621599 0.47970540 0.06256172
0.37349755 0.47970540 0.06256172
0.39084690 0.47970540 0.06256172
0.40830684 0.47970540 0.06256172
0.42590690 0.47970540 0.06256172
0.44366659 0.47970540 0.06256172
0.46159760 0.47970540 0.06256172
0.47970540 0.47970540 0.06256172
0.49799053 0.47970540 0.06256172
0.51644951 0.47970540 0.06256172
0.53507560 0.47970540 0.06256172
0.55385942 0.47970540 0.06256172
0.57278943 0.47970540 0.06256172
0.59185238 0.47970540 0.06256172
0.61103362 0.47970540 0.06256172
0.63031746 0.47970540 0.06256172
0.64968739 0.47970540 0.06256172
0.66912629 0.47970540 0.06256172
0.68861669 0.47970540 0.06256172
0.70814088 0.47970540 0.06256172
0.06256172 0.49799053 0.06256172
0.06256172 0.49799053 0.06256172
0.06256172 0.49799053 0.06256172
0.08334342 0.49799053 0.06256172
0.16804927 0.49799053 0.06256172
0.20119840 0.49799053 0.06256172
0.22627114 0.49799053 0.06256172
0.24783197 0.49799053 0.06256172
0.26751310 0.49799053 0.06256172
0.28610011 0.49799053 0.06256172
0.30403436 0.49799053 0.06256172
0.32158849 0.49799053 0.06256172
0.33894155 0.49799053 0.06256172
0.35621599 0.49799053 0.06256172
0.37349755 0.49799053 0.06256172
0.39084690 0.49799053 0.06256172
0.40830684 0.49799053 0.06256172
0.42590690 0.49799053 0.06256172
0.44366659 0.49799053 0.06256172
0.46159760 0.49799053 0.06256172
0.47970540 0.49799053 0.06256172
0.49799053 0.49799053 0.06256172
0.51644951 0.49799053 0.06256172
0.53507560 0.49799053 0.06256172
0.55385942 0.49799053 0.06256172
0.57278943 0.49799053 0.06256172
0.59185238 0.49799053 0.06256172
