src/ffmpeg_scripts/luts/flog-experimental_3p00.cube
TITLE "flog-experimental_3p00"
LUT_3D_SIZE 9
# Fujifilm F-Log/Rec2020 -> PQ (EOTF Only)/Rec2020, CineEI Shift 3.00, Black Level 0.00% IRE, Input 109% -> Output 100% - Created with LUTCalc v4.01 by Ben Turley October 2020
0.00000073 0.00000073 0.00000073
0.31268672 0.00000073 0.00000073
0.53626345 0.00000073 0.00000073
0.68082532 0.00000073 0.00000073
0.81272979 0.00000073 0.00000073
0.94179297 0.00000073 0.00000073
1.00000000 0.00000073 0.00000073
1.00000000 0.00000073 0.00000073
1.00000000 0.00000073 0.00000073
0.00000073 0.31268672 0.00000073
0.31268672 0.31268672 0.00000073
0.53626345 0.31268672 0.00000073
0.68082532 0.31268672 0.00000073
0.81272979 0.31268672 0.00000073
0.94179297 0.31268672 0.00000073
1.00000000 0.31268672 0.00000073
1.00000000 0.31268672 0.00000073
1.00000000 0.31268672 0.00000073
0.00000073 0.53626345 0.00000073
0.31268672 0.53626345 0.00000073
0.53626345 0.53626345 0.00000073
0.68082532 0.53626345 0.00000073
0.81272979 0.53626345 0.00000073
0.94179297 0.53626345 0.00000073
1.00000000 0.53626345 0.00000073
1.00000000 0.53626345 0.00000073
1.00000000 0.53626345 0.00000073
0.00000073 0.68082532 0.00000073
0.31268672 0.68082532 0.00000073
0.53626345 0.68082532 0.00000073
0.68082532 0.68082532 0.00000073
0.81272979 0.68082532 0.00000073
0.94179297 0.68082532 0.00000073
1.00000000 0.68082532 0.00000073
1.00000000 0.68082532 0.00000073
1.00000000 0.68082532 0.00000073
0.00000073 0.81272979 0.00000073
0.31268672 0.81272979 0.00000073
0.53626345 0.81272979 0.00000073
0.68082532 0.81272979 0.00000073
0.81272979 0.81272979 0.00000073
0.94179297 0.81272979 0.00000073
1.00000000 0.81272979 0.00000073
1.00000000 0.81272979 0.00000073
1.00000000 0.81272979 0.00000073
0.00000073 0.94179297 0.00000073
0.31268672 0.94179297 0.00000073
0.53626345 0.94179297 0.00000073
0.68082532 0.94179297 0.00000073
0.81272979 0.94179297 0.00000073
0.94179297 0.94179297 0.00000073
1.00000000 0.94179297 0.00000073
1.00000000 0.94179297 0.00000073
1.00000000 0.94179297 0.00000073
0.00000073 1.00000000 0.00000073
0.31268672 1.00000000 0.00000073
0.53626345 1.00000000 0.00000073
0.68082532 1.00000000 0.00000073
0.81272979 1.00000000 0.00000073
0.94179297 1.00000000 0.00000073
1.00000000 1.00000000 0.00000073
1.00000000 1.00000000 0.00000073
1.00000000 1.00000000 0.00000073
0.00000073 1.00000000 0.00000073
0.31268672 1.00000000 0.00000073
0.53626345 1.00000000 0.00000073
0.68082532 1.00000000 0.00000073
0.81272979 1.00000000 0.00000073
0.94179297 1.00000000 0.00000073
1.00000000 1.00000000 0.00000073
1.00000000 1.00000000 0.00000073
1.00000000 1.00000000 0.00000073
0.00000073 1.00000000 0.00000073
0.31268672 1.00000000 0.00000073
0.53626345 1.00000000 0.00000073
0.68082532 1.00000000 0.00000073
0.81272979 1.00000000 0.00000073
0.94179297 1.00000000 0.00000073
1.00000000 1.00000000 0.00000073
1.00000000 1.00000000 0.00000073
1.00000000 1.00000000 0.00000073
0.00000073 0.00000073 0.31268672
0.31268672 0.00000073 0.31268672
0.53626345 0.00000073 0.31268672
0.68082532 0.00000073 0.31268672
0.81272979 0.00000073 0.31268672
0.94179297 0.00000073 0.31268672
1.00000000 0.00000073 0.31268672
1.00000000 0.00000073 0.31268672
1.00000000 0.00000073 0.31268672
0.00000073 0.31268672 0.31268672
0.31268672 0.31268672 0.31268672
0.53626345 0.31268672 0.31268672
0.68082532 0.31268672 0.31268672
0.81272979 0.31268672 0.31268672
0.94179297 0.31268672 0.31268672
1.00000000 0.31268672 0.31268672
1.00000000 0.31268672 0.31268672
1.00000000 0.31268672 0.31268672
0.00000073 0.53626345 0.31268672
0.31268672 0.53626345 0.31268672
0.53626345 0.53626345 0.31268672
0.68082532 0.53626345 0.31268672
0.81272979 0.53626345 0.31268672
0.94179297 0.53626345 0.31268672
1.00000000 0.53626345 0.31268672
1.00000000 0.53626345 0.31268672
1.00000000 0.53626345 0.31268672
0.00000073 0.68082532 0.31268672
0.31268672 0.68082532 0.31268672
0.53626345 0.68082532 0.31268672
0.68082532 0.68082532 0.31268672
0.81272979 0.68082532 0.31268672
0.94179297 0.68082532 0.31268672
1.00000000 0.68082532 0.31268672
1.00000000 0.68082532 0.31268672
1.00000000 0.68082532 0.31268672
0.00000073 0.81272979 0.31268672
0.31268672 0.81272979 0.31268672
0.53626345 0.81272979 0.31268672
0.68082532 0.81272979 0.31268672
0.81272979 0.81272979 0.31268672
0.94179297 0.81272979 0.31268672
1.00000000 0.81272979 0.31268672
1.00000000 0.81272979 0.31268672
1.00000000 0.81272979 0.31268672
0.00000073 0.94179297 0.31268672
0.31268672 0.94179297 0.31268672
0.53626345 0.94179297 0.31268672
0.68082532 0.94179297 0.31268672
0.81272979 0.94179297 0.31268672
0.94179297 0.94179297 0.31268672
1.00000000 0.94179297 0.31268672
1.00000000 0.94179297 0.31268672
1.00000000 0.94179297 0.31268672
0.00000073 1.00000000 0.31268672
0.31268672 1.00000000 0.31268672
0.53626345 1.00000000 0.31268672
0.68082532 1.00000000 0.31268672
0.81272979 1.00000000 0.31268672
0.94179297 1.00000000 0.31268672
1.00000000 1.00000000 0.31268672
1.00000000 1.00000000 0.31268672
1.00000000 1.00000000 0.31268672
0.00000073 1.00000000 0.31268672
0.31268672 1.00000000 0.31268672
0.53626345 1.00000000 0.31268672
0.68082532 1.00000000 0.31268672
0.81272979 1.00000000 0.31268672
0.94179297 1.00000000 0.31268672
1.00000000 1.00000000 0.31268672
1.00000000 1.00000000 0.31268672
1.00000000 1.00000000 0.31268672
0.00000073 1.00000000 0.31268672
0.31268672 1.00000000 0.31268672
0.53626345 1.00000000 0.31268672
0.68082532 1.00000000 0.31268672
0.81272979 1.00000000 0.31268672
0.94179297 1.00000000 0.31268672
1.00000000 1.00000000 0.31268672
1.00000000 1.00000000 0.31268672
1.00000000 1.00000000 0.31268672
0.00000073 0.00000073 0.53626345
0.31268672 0.00000073 0.53626345
0.53626345 0.00000073 0.53626345
0.68082532 0.00000073 0.53626345
0.81272979 0.00000073 0.53626345
0.94179297 0.00000073 0.53626345
1.00000000 0.00000073 0.53626345
1.00000000 0.00000073 0.53626345
1.00000000 0.00000073 0.53626345
0.00000073 0.31268672 0.53626345
0.31268672 0.31268672 0.53626345
0.53626345 0.31268672 0.53626345
0.68082532 0.31268672 0.53626345
0.81272979 0.31268672 0.53626345
0.94179297 0.31268672 0.53626345
1.00000000 0.31268672 0.53626345
1.00000000 0.31268672 0.53626345
1.00000000 0.31268672 0.53626345
0.00000073 0.53626345 0.53626345
0.31268672 0.53626345 0.53626345
0.53626345 0.53626345 0.53626345
0.68082532 0.53626345 0.53626345
0.81272979 0.53626345 0.53626345
0.94179297 0.53626345 0.53626345
1.00000000 0.53626345 0.53626345
1.00000000 0.53626345 0.53626345
1.00000000 0.53626345 0.53626345
0.00000073 0.68082532 0.53626345
0.31268672 0.68082532 0.53626345
0.53626345 0.68082532 0.53626345
0.68082532 0.68082532 0.53626345
0.81272979 0.68082532 0.53626345
0.94179297 0.68082532 0.53626345
1.00000000 0.68082532 0.53626345
1.00000000 0.68082532 0.53626345
1.00000000 0.68082532 0.53626345
0.00000073 0.81272979 0.53626345
0.31268672 0.81272979 0.53626345
0.53626345 0.81272979 0.53626345
0.68082532 0.81272979 0.53626345
0.81272979 0.81272979 0.53626345
0.94179297 0.81272979 0.53626345
1.00000000 0.81272979 0.53626345
1.00000000 0.81272979 0.53626345
1.00000000 0.81272979 0.53626345
0.00000073 0.94179297 0.53626345
0.31268672 0.94179297 0.53626345
0.53626345 0.94179297 0.53626345
0.68082532 0.94179297 0.53626345
0.81272979 0.94179297 0.53626345
0.94179297 0.94179297 0.53626345
1.00000000 0.94179297 0.53626345
1.00000000 0.94179297 0.53626345
1.00000000 0.94179297 0.53626345
0.00000073 1.00000000 0.53626345
0.31268672 1.00000000 0.53626345
0.53626345 1.00000000 0.53626345
0.68082532 1.00000000 0.53626345
0.81272979 1.00000000 0.53626345
0.94179297 1.00000000 0.53626345
1.00000000 1.00000000 0.53626345
1.00000000 1.00000000 0.53626345
1.00000000 1.00000000 0.53626345
0.00000073 1.00000000 0.53626345
0.31268672 1.00000000 0.53626345
0.53626345 1.00000000 0.53626345
0.68082532 1.00000000 0.53626345
0.81272979 1.00000000 0.53626345
0.94179297 1.00000000 0.53626345
1.00000000 1.00000000 0.53626345
1.00000000 1.00000000 0.53626345
1.00000000 1.00000000 0.53626345
0.00000073 1.00000000 0.53626345
0.31268672 1.00000000 0.53626345
0.53626345 1.00000000 0.53626345
0.68082532 1.00000000 0.53626345
0.81272979 1.00000000 0.53626345
0.94179297 1.00000000 0.53626345
1.00000000 1.00000000 0.53626345
1.00000000 1.00000000 0.53626345
1.00000000 1.00000000 0.53626345
0.00000073 0.00000073 0.68082532
0.31268672 0.00000073 0.68082532
0.53626345 0.00000073 0.68082532
0.68082532 0.00000073 0.68082532
0.81272979 0.00000073 0.68082532
0.94179297 0.00000073 0.68082532
1.00000000 0.00000073 0.68082532
1.00000000 0.00000073 0.68082532
1.00000000 0.00000073 0.68082532
0.00000073 0.31268672 0.68082532
0.31268672 0.31268672 0.68082532
0.53626345 0.31268672 0.68082532
0.68082532 0.31268672 0.68082532
0.81272979 0.31268672 0.68082532
0.94179297 0.31268672 0.68082532
1.00000000 0.31268672 0.68082532
1.00000000 0.31268672 0.68082532
1.00000000 0.31268672 0.68082532
0.00000073 0.53626345 0.68082532
0.31268672 0.53626345 0.68082532
0.53626345 0.53626345 0.68082532
0.68082532 0.53626345 0.68082532
0.81272979 0.53626345 0.68082532
0.94179297 0.53626345 0.68082532
1.00000000 0.53626345 0.68082532
1.00000000 0.53626345 0.68082532
1.00000000 0.53626345 0.68082532
0.00000073 0.68082532 0.68082532
0.31268672 0.68082532 0.68082532
0.53626345 0.68082532 0.68082532
0.68082532 0.68082532 0.68082532
0.81272979 0.68082532 0.68082532
0.94179297 0.68082532 0.68082532
1.00000000 0.68082532 0.68082532
1.00000000 0.68082532 0.68082532
1.00000000 0.68082532 0.68082532
0.00000073 0.81272979 0.68082532
0.31268672 0.81272979 0.68082532
0.53626345 0.81272979 0.68082532
0.68082532 0.81272979 0.68082532
0.81272979 0.81272979 0.68082532
0.94179297 0.81272979 0.68082532
1.00000000 0.81272979 0.68082532
1.00000000 0.81272979 0.68082532
1.00000000 0.81272979 0.68082532
0.00000073 0.94179297 0.68082532
0.31268672 0.94179297 0.68082532
0.53626345 0.94179297 0.68082532
0.68082532 0.94179297 0.68082532
0.81272979 0.94179297 0.68082532
0.94179297 0.94179297 0.68082532
1.00000000 0.94179297 0.68082532
1.00000000 0.94179297 0.68082532
1.00000000 0.94179297 0.68082532
0.00000073 1.00000000 0.68082532
0.31268672 1.00000000 0.68082532
0.53626345 1.00000000 0.68082532
0.68082532 1.00000000 0.68082532
0.81272979 1.00000000 0.68082532
0.94179297 1.00000000 0.68082532
1.00000000 1.00000000 0.68082532
1.00000000 1.00000000 0.68082532
1.00000000 1.00000000 0.68082532
0.00000073 1.00000000 0.68082532
0.31268672 1.00000000 0.68082532
0.53626345 1.00000000 0.68082532
0.68082532 1.00000000 0.68082532
0.81272979 1.00000000 0.68082532
0.94179297 1.00000000 0.68082532
1.00000000 1.00000000 0.68082532
1.00000000 1.00000000 0.68082532
1.00000000 1.00000000 0.68082532
0.00000073 1.00000000 0.68082532
0.31268672 1.00000000 0.68082532
0.53626345 1.00000000 0.68082532
0.68082532 1.00000000 0.68082532
0.81272979 1.00000000 0.68082532
0.94179297 1.00000000 0.68082532
1.00000000 1.00000000 0.68082532
1.00000000 1.00000000 0.68082532
1.00000000 1.00000000 0.68082532
0.00000073 0.00000073 0.81272979
0.31268672 0.00000073 0.81272979
0.53626345 0.00000073 0.81272979
0.68082532 0.00000073 0.81272979
0.81272979 0.00000073 0.81272979
0.94179297 0.00000073 0.81272979
1.00000000 0.00000073 0.81272979
1.00000000 0.00000073 0.81272979
1.00000000 0.00000073 0.81272979
0.00000073 0.31268672 0.81272979
0.31268672 0.31268672 0.81272979
0.53626345 0.31268672 0.81272979
0.68082532 0.31268672 0.81272979
0.81272979 0.31268672 0.81272979
0.94179297 0.31268672 0.81272979
1.00000000 0.31268672 0.81272979
1.00000000 0.31268672 0.81272979
1.00000000 0.31268672 0.81272979
0.00000073 0.53626345 0.81272979
0.31268672 0.53626345 0.81272979
0.53626345 0.53626345 0.81272979
0.68082532 0.53626345 0.81272979
0.81272979 0.53626345 0.81272979
0.94179297 0.53626345 0.81272979
1.00000000 0.53626345 0.81272979
1.00000000 0.53626345 0.81272979
1.00000000 0.53626345 0.81272979
0.00000073 0.68082532 0.81272979
0.31268672 0.68082532 0.81272979
0.53626345 0.68082532 0.81272979
0.68082532 0.68082532 0.81272979
0.81272979 0.68082532 0.81272979
0.94179297 0.68082532 0.81272979
1.00000000 0.68082532 0.81272979
1.00000000 0.68082532 0.81272979
1.00000000 0.68082532 0.81272979
0.00000073 0.81272979 0.81272979
0.31268672 0.81272979 0.81272979
0.53626345 0.81272979 0.81272979
0.68082532 0.81272979 0.81272979
0.81272979 0.81272979 0.81272979
0.94179297 0.81272979 0.81272979
1.00000000 0.81272979 0.81272979
1.00000000 0.81272979 0.81272979
1.00000000 0.81272979 0.81272979
0.00000073 0.94179297 0.81272979
0.31268672 0.94179297 0.81272979
0.53626345 0.94179297 0.81272979
0.68082532 0.94179297 0.81272979
0.81272979 0.94179297 0.81272979
0.94179297 0.94179297 0.81272979
1.00000000 0.94179297 0.81272979
1.00000000 0.94179297 0.81272979
1.00000000 0.94179297 0.81272979
0.00000073 1.00000000 0.81272979
0.31268672 1.00000000 0.81272979
0.53626345 1.00000000 0.81272979
0.68082532 1.00000000 0.81272979
0.81272979 1.00000000 0.81272979
0.94179297 1.00000000 0.81272979
1.00000000 1.00000000 0.81272979
1.00000000 1.00000000 0.81272979
1.00000000 1.00000000 0.81272979
0.00000073 1.00000000 0.81272979
0.31268672 1.00000000 0.81272979
0.53626345 1.00000000 0.81272979
0.68082532 1.00000000 0.81272979
0.81272979 1.00000000 0.81272979
0.94179297 1.00000000 0.81272979
1.00000000 1.00000000 0.81272979
1.00000000 1.00000000 0.81272979
1.00000000 1.00000000 0.81272979
0.00000073 1.00000000 0.81272979
0.31268672 1.00000000 0.81272979
0.53626345 1.00000000 0.81272979
0.68082532 1.00000000 0.81272979
0.81272979 1.00000000 0.81272979
0.94179297 1.00000000 0.81272979
1.00000000 1.00000000 0.81272979
1.00000000 1.00000000 0.81272979
1.00000000 1.00000000 0.81272979
0.00000073 0.00000073 0.94179297
0.31268672 0.00000073 0.94179297
0.53626345 0.00000073 0.94179297
0.68082532 0.00000073 0.94179297
0.81272979 0.00000073 0.94179297
0.94179297 0.00000073 0.94179297
1.00000000 0.00000073 0.94179297
1.00000000 0.00000073 0.94179297
1.00000000 0.00000073 0.94179297
0.00000073 0.31268672 0.94179297
0.31268672 0.31268672 0.94179297
0.53626345 0.31268672 0.94179297
0.68082532 0.31268672 0.94179297
0.81272979 0.31268672 0.94179297
0.94179297 0.31268672 0.94179297
1.00000000 0.31268672 0.94179297
1.00000000 0.31268672 0.94179297
1.00000000 0.31268672 0.94179297
0.00000073 0.53626345 0.94179297
0.31268672 0.53626345 0.94179297
0.53626345 0.53626345 0.94179297
0.68082532 0.53626345 0.94179297
0.81272979 0.53626345 0.94179297
0.94179297 0.53626345 0.94179297
1.00000000 0.53626345 0.94179297
1.00000000 0.53626345 0.94179297
1.00000000 0.53626345 0.94179297
0.00000073 0.68082532 0.94179297
0.31268672 0.68082532 0.94179297
0.53626345 0.68082532 0.94179297
0.68082532 0.68082532 0.94179297
0.81272979 0.68082532 0.94179297
0.94179297 0.68082532 0.94179297
1.00000000 0.68082532 0.94179297
1.00000000 0.68082532 0.94179297
1.00000000 0.68082532 0.94179297
0.00000073 0.81272979 0.94179297
0.31268672 0.81272979 0.94179297
0.53626345 0.81272979 0.94179297
0.68082532 0.81272979 0.94179297
0.81272979 0.81272979 0.94179297
0.94179297 0.81272979 0.94179297
1.00000000 0.81272979 0.94179297
1.00000000 0.81272979 0.94179297
1.00000000 0.81272979 0.94179297
0.00000073 0.94179297 0.94179297
0.31268672 0.94179297 0.94179297
0.53626345 0.94179297 0.94179297
0.68082532 0.94179297 0.94179297
0.81272979 0.94179297 0.94179297
0.94179297 0.94179297 0.94179297
1.00000000 0.94179297 0.94179297
1.00000000 0.94179297 0.94179297
1.00000000 0.94179297 0.94179297
0.00000073 1.00000000 0.94179297
0.31268672 1.00000000 0.94179297
0.53626345 1.00000000 0.94179297
0.68082532 1.00000000 0.94179297
0.81272979 1.00000000 0.94179297
0.94179297 1.00000000 0.94179297
1.00000000 1.00000000 0.94179297
1.00000000 1.00000000 0.94179297
1.00000000 1.00000000 0.94179297
0.00000073 1.00000000 0.94179297
0.31268672 1.00000000 0.94179297
0.53626345 1.00000000 0.94179297
0.68082532 1.00000000 0.94179297
0.81272979 1.00000000 0.94179297
0.94179297 1.00000000 0.94179297
1.00000000 1.00000000 0.94179297
1.00000000 1.00000000 0.94179297
1.00000000 1.00000000 0.94179297
0.00000073 1.00000000 0.94179297
0.31268672 1.00000000 0.94179297
0.53626345 1.00000000 0.94179297
0.68082532 1.00000000 0.94179297
0.81272979 1.00000000 0.94179297
0.94179297 1.00000000 0.94179297
1.00000000 1.00000000 0.94179297
1.00000000 1.00000000 0.94179297
1.00000000 1.00000000 0.94179297
0.00000073 0.00000073 1.00000000
0.31268672 0.00000073 1.00000000
0.53626345 0.00000073 1.00000000
0.68082532 0.00000073 1.00000000
0.81272979 0.00000073 1.00000000
0.94179297 0.00000073 1.00000000
1.00000000 0.00000073 1.00000000
1.00000000 0.00000073 1.00000000
1.00000000 0.00000073 1.00000000
0.00000073 0.31268672 1.00000000
0.31268672 0.31268672 1.00000000
0.53626345 0.31268672 1.00000000
0.68082532 0.31268672 1.00000000
0.81272979 0.31268672 1.00000000
0.94179297 0.31268672 1.00000000
1.00000000 0.31268672 1.00000000
1.00000000 0.31268672 1.00000000
1.00000000 0.31268672 1.00000000
0.00000073 0.53626345 1.00000000
0.31268672 0.53626345 1.00000000
0.53626345 0.53626345 1.00000000
0.68082532 0.53626345 1.00000000
0.81272979 0.53626345 1.00000000
0.94179297 0.53626345 1.00000000
1.00000000 0.53626345 1.00000000
1.00000000 0.53626345 1.00000000
1.00000000 0.53626345 1.00000000
0.00000073 0.68082532 1.00000000
0.31268672 0.68082532 1.00000000
0.53626345 0.68082532 1.00000000
0.68082532 0.68082532 1.00000000
0.81272979 0.68082532 1.00000000
0.94179297 0.68082532 1.00000000
1.00000000 0.68082532 1.00000000
1.00000000 0.68082532 1.00000000
1.00000000 0.68082532 1.00000000
0.00000073 0.81272979 1.00000000
0.31268672 0.81272979 1.00000000
0.53626345 0.81272979 1.00000000
0.68082532 0.81272979 1.00000000
0.81272979 0.81272979 1.00000000
0.94179297 0.81272979 1.00000000
1.00000000 0.81272979 1.00000000
1.00000000 0.81272979 1.00000000
1.00000000 0.81272979 1.00000000
0.00000073 0.94179297 1.00000000
0.31268672 0.94179297 1.00000000
0.53626345 0.94179297 1.00000000
0.68082532 0.94179297 1.00000000
0.81272979 0.94179297 1.00000000
0.94179297 0.94179297 1.00000000
1.00000000 0.94179297 1.00000000
1.00000000 0.94179297 1.00000000
1.00000000 0.94179297 1.00000000
0.00000073 1.00000000 1.00000000
0.31268672 1.00000000 1.00000000
0.53626345 1.00000000 1.00000000
0.68082532 1.00000000 1.00000000
0.81272979 1.00000000 1.00000000
0.94179297 1.00000000 1.00000000
1.00000000 1.00000000 1.00000000
1.00000000 1.00000000 1.00000000
1.00000000 1.00000000 1.00000000
0.00000073 1.00000000 1.00000000
0.31268672 1.00000000 1.00000000
0.53626345 1.00000000 1.00000000
0.68082532 1.00000000 1.00000000
0.81272979 1.00000000 1.00000000
0.94179297 1.00000000 1.00000000
1.00000000 1.00000000 1.00000000
1.00000000 1.00000000 1.00000000
1.00000000 1.00000000 1.00000000
0.00000073 1.00000000 1.00000000
0.31268672 1.00000000 1.00000000
0.53626345 1.00000000 1.00000000
0.68082532 1.00000000 1.00000000
0.81272979 1.00000000 1.00000000
0.94179297 1.00000000 1.00000000
1.00000000 1.00000000 1.00000000
1.00000000 1.00000000 1.00000000
1.00000000 1.00000000 1.00000000
0.00000073 0.00000073 1.00000000
0.31268672 0.00000073 1.00000000
0.53626345 0.00000073 1.00000000
0.68082532 0.00000073 1.00000000
0.81272979 0.00000073 1.00000000
0.94179297 0.00000073 1.00000000
1.00000000 0.00000073 1.00000000
1.00000000 0.00000073 1.00000000
1.00000000 0.00000073 1.00000000
0.00000073 0.31268672 1.00000000
0.31268672 0.31268672 1.00000000
0.53626345 0.31268672 1.00000000
0.68082532 0.31268672 1.00000000
0.81272979 0.31268672 1.00000000
0.94179297 0.31268672 1.00000000
1.00000000 0.31268672 1.00000000
1.00000000 0.31268672 1.00000000
1.00000000 0.31268672 1.00000000
0.00000073 0.53626345 1.00000000
0.31268672 0.53626345 1.00000000
0.53626345 0.53626345 1.00000000
0.68082532 0.53626345 1.00000000
0.81272979 0.53626345 1.00000000
0.94179297 0.53626345 1.00000000
1.00000000 0.53626345 1.00000000
1.00000000 0.53626345 1.00000000
1.00000000 0.53626345 1.00000000
0.00000073 0.68082532 1.00000000
0.31268672 0.68082532 1.00000000
0.53626345 0.68082532 1.00000000
0.68082532 0.68082532 1.00000000
0.81272979 0.68082532 1.00000000
0.94179297 0.68082532 1.00000000
1.00000000 0.68082532 1.00000000
1.00000000 0.68082532 1.00000000
1.00000000 0.68082532 1.00000000
0.00000073 0.81272979 1.00000000
0.31268672 0.81272979 1.00000000
0.53626345 0.81272979 1.00000000
0.68082532 0.81272979 1.00000000
0.81272979 0.81272979 1.00000000
0.94179297 0.81272979 1.00000000
1.00000000 0.81272979 1.00000000
1.00000000 0.81272979 1.00000000
1.00000000 0.81272979 1.00000000
0.00000073 0.94179297 1.00000000
0.31268672 0.94179297 1.00000000
0.53626345 0.94179297 1.00000000
0.68082532 0.94179297 1.00000000
0.81272979 0.94179297 1.00000000
0.94179297 0.94179297 1.00000000
1.00000000 0.94179297 1.00000000
1.00000000 0.94179297 1.00000000
1.00000000 0.94179297 1.00000000
0.00000073 1.00000000 1.00000000
0.31268672 1.00000000 1.00000000
0.53626345 1.00000000 1.00000000
0.68082532 1.00000000 1.00000000
0.81272979 1.00000000 1.00000000
0.94179297 1.00000000 1.00000000
1.00000000 1.00000000 1.00000000
1.00000000 1.00000000 1.00000000
1.00000000 1.00000000 1.00000000
0.00000073 1.00000000 1.00000000
0.31268672 1.00000000 1.00000000
0.53626345 1.00000000 1.00000000
0.68082532 1.00000000 1.00000000
0.81272979 1.00000000 1.00000000
0.94179297 1.00000000 1.00000000
1.00000000 1.00000000 1.00000000
1.00000000 1.00000000 1.00000000
1.00000000 1.00000000 1.00000000
0.00000073 1.00000000 1.00000000
0.31268672 1.00000000 1.00000000
0.53626345 1.00000000 1.00000000
0.68082532 1.00000000 1.00000000
0.81272979 1.00000000 1.00000000
0.94179297 1.00000000 1.00000000
1.00000000 1.00000000 1.00000000
1.00000000 1.00000000 1.00000000
1.00000000 1.00000000 1.00000000
0.00000073 0.00000073 1.00000000
0.31268672 0.00000073 1.00000000
0.53626345 0.00000073 1.00000000
0.68082532 0.00000073 1.00000000
0.81272979 0.00000073 1.00000000
0.94179297 0.00000073 1.00000000
1.00000000 0.00000073 1.00000000
1.00000000 0.00000073 1.00000000
1.00000000 0.00000073 1.00000000
0.00000073 0.31268672 1.00000000
0.31268672 0.31268672 1.00000000
0.53626345 0.31268672 1.00000000
0.68082532 0.31268672 1.00000000
0.81272979 0.31268672 1.00000000
0.94179297 0.31268672 1.00000000
1.00000000 0.31268672 1.00000000
1.00000000 0.31268672 1.00000000
1.00000000 0.31268672 1.00000000
0.00000073 0.53626345 1.00000000
0.31268672 0.53626345 1.00000000
0.53626345 0.53626345 1.00000000
0.68082532 0.53626345 1.00000000
0.81272979 0.53626345 1.00000000
0.94179297 0.53626345 1.00000000
1.00000000 0.53626345 1.00000000
1.00000000 0.53626345 1.00000000
1.00000000 0.53626345 1.00000000
0.00000073 0.68082532 1.00000000
0.31268672 0.68082532 1.00000000
0.53626345 0.68082532 1.00000000
0.68082532 0.68082532 1.00000000
0.81272979 0.68082532 1.00000000
0.94179297 0.68082532 1.00000000
1.00000000 0.68082532 1.00000000
1.00000000 0.68082532 1.00000000
1.00000000 0.68082532 1.00000000
0.00000073 0.81272979 1.00000000
0.31268672 0.81272979 1.00000000
0.53626345 0.81272979 1.00000000
0.68082532 0.81272979 1.00000000
0.81272979 0.81272979 1.00000000
0.94179297 0.81272979 1.00000000
1.00000000 0.81272979 1.00000000
1.00000000 0.81272979 1.00000000
1.00000000 0.81272979 1.00000000
0.00000073 0.94179297 1.00000000
0.31268672 0.94179297 1.00000000
0.53626345 0.94179297 1.00000000
0.68082532 0.94179297 1.00000000
0.81272979 0.94179297 1.00000000
0.94179297 0.94179297 1.00000000
1.00000000 0.94179297 1.00000000
1.00000000 0.94179297 1.00000000
1.00000000 0.94179297 1.00000000
0.00000073 1.00000000 1.00000000
0.31268672 1.00000000 1.00000000
0.53626345 1.00000000 1.00000000
0.68082532 1.00000000 1.00000000
0.81272979 1.00000000 1.00000000
0.94179297 1.00000000 1.00000000
1.00000000 1.00000000 1.00000000
1.00000000 1.00000000 1.00000000
1.00000000 1.00000000 1.00000000
0.00000073 1.00000000 1.00000000
0.31268672 1.00000000 1.00000000
0.53626345 1.00000000 1.00000000
0.68082532 1.00000000 1.00000000
0.81272979 1.00000000 1.00000000
0.94179297 1.00000000 1.00000000
1.00000000 1.00000000 1.00000000
1.00000000 1.00000000 1.00000000
1.00000000 1.00000000 1.00000000
0.00000073 1.00000000 1.00000000
0.31268672 1.00000000 1.00000000
0.53626345 1.00000000 1.00000000
0.68082532 1.00000000 1.00000000
0.81272979 1.00000000 1.00000000
0.94179297 1.00000000 1.00000000
1.00000000 1.00000000 1.00000000
1.00000000 1.00000000 1.00000000
1.00000000 1.00000000 1.00000000
