src/ffmpeg_scripts/luts/flog-experimental_-1p00.cube
TITLE "flog-experimental_-1p00"
LUT_3D_SIZE 33
# Fujifilm F-Log/Rec2020 -> PQ (EOTF Only)/Rec2020, CineEI Shift -1.00, Black Level 0.00% IRE, Input 109% -> Output 100% - Created with LUTCalc v4.01 by Ben Turley October 2020
0.00000073 0.00000073 0.00000073
0.00000073 0.00000073 0.00000073
0.00000073 0.00000073 0.00000073
0.02104408 0.00000073 0.00000073
0.12052584 0.00000073 0.00000073
0.16259187 0.00000073 0.00000073
0.19523472 0.00000073 0.00000073
0.22380706 0.00000073 0.00000073
0.25025914 0.00000073 0.00000073
0.27554326 0.00000073 0.00000073
0.30020169 0.00000073 0.00000073
0.32457387 0.00000073 0.00000073
0.34888584 0.00000073 0.00000073
0.37329437 0.00000073 0.00000073
0.39791086 0.00000073 0.00000073
0.42281531 0.00000073 0.00000073
0.44806496 0.00000073 0.00000073
0.47369992 0.00000073 0.00000073
0.49974703 0.00000073 0.00000073
0.52622251 0.00000073 0.00000073
0.55313401 0.00000073 0.00000073
0.58048212 0.00000073 0.00000073
0.60826147 0.00000073 0.00000073
0.63646179 0.00000073 0.00000073
0.66506860 0.00000073 0.00000073
0.69406391 0.00000073 0.00000073
0.72342675 0.00000073 0.00000073
0.75313370 0.00000073 0.00000073
0.78315928 0.00000073 0.00000073
0.81347633 0.00000073 0.00000073
0.84405636 0.00000073 0.00000073
0.87486984 0.00000073 0.00000073
0.90588648 0.00000073 0.00000073
0.00000073 0.00000073 0.00000073
0.00000073 0.00000073 0.00000073
0.00000073 0.00000073 0.00000073
0.02104408 0.00000073 0.00000073
0.12052584 0.00000073 0.00000073
0.16259187 0.00000073 0.00000073
0.19523472 0.00000073 0.00000073
0.22380706 0.00000073 0.00000073
0.25025914 0.00000073 0.00000073
0.27554326 0.00000073 0.00000073
0.30020169 0.00000073 0.00000073
0.32457387 0.00000073 0.00000073
0.34888584 0.00000073 0.00000073
0.37329437 0.00000073 0.00000073
0.39791086 0.00000073 0.00000073
0.42281531 0.00000073 0.00000073
0.44806496 0.00000073 0.00000073
0.47369992 0.00000073 0.00000073
0.49974703 0.00000073 0.00000073
0.52622251 0.00000073 0.00000073
0.55313401 0.00000073 0.00000073
0.58048212 0.00000073 0.00000073
0.60826147 0.00000073 0.00000073
0.63646179 0.00000073 0.00000073
0.66506860 0.00000073 0.00000073
0.69406391 0.00000073 0.00000073
0.72342675 0.00000073 0.00000073
0.75313370 0.00000073 0.00000073
0.78315928 0.00000073 0.00000073
0.81347633 0.00000073 0.00000073
0.84405636 0.00000073 0.00000073
0.87486984 0.00000073 0.00000073
0.90588648 0.00000073 0.00000073
0.00000073 0.00000073 0.00000073
0.00000073 0.00000073 0.00000073
0.00000073 0.00000073 0.00000073
0.02104408 0.00000073 0.00000073
0.12052584 0.00000073 0.00000073
0.16259187 0.00000073 0.00000073
0.19523472 0.00000073 0.00000073
0.22380706 0.00000073 0.00000073
0.25025914 0.00000073 0.00000073
0.27554326 0.00000073 0.00000073
0.30020169 0.00000073 0.00000073
0.32457387 0.00000073 0.00000073
0.34888584 0.00000073 0.00000073
0.37329437 0.00000073 0.00000073
0.39791086 0.00000073 0.00000073
0.42281531 0.00000073 0.00000073
0.44806496 0.00000073 0.00000073
0.47369992 0.00000073 0.00000073
0.49974703 0.00000073 0.00000073
0.52622251 0.00000073 0.00000073
0.55313401 0.00000073 0.00000073
0.58048212 0.00000073 0.00000073
0.60826147 0.00000073 0.00000073
0.63646179 0.00000073 0.00000073
0.66506860 0.00000073 0.00000073
0.69406391 0.00000073 0.00000073
0.72342675 0.00000073 0.00000073
0.75313370 0.00000073 0.00000073
0.78315928 0.00000073 0.00000073
0.81347633 0.00000073 0.00000073
0.84405636 0.00000073 0.00000073
0.87486984 0.00000073 0.00000073
0.90588648 0.00000073 0.00000073
0.00000073 0.02104408 0.00000073
0.00000073 0.02104408 0.00000073
0.00000073 0.02104408 0.00000073
0.02104408 0.02104408 0.00000073
0.12052584 0.02104408 0.00000073
0.16259187 0.02104408 0.00000073
0.19523472 0.02104408 0.00000073
0.22380706 0.02104408 0.00000073
0.25025914 0.02104408 0.00000073
0.27554326 0.02104408 0.00000073
0.30020169 0.02104408 0.00000073
0.32457387 0.02104408 0.00000073
0.34888584 0.02104408 0.00000073
0.37329437 0.02104408 0.00000073
0.39791086 0.02104408 0.00000073
0.42281531 0.02104408 0.00000073
0.44806496 0.02104408 0.00000073
0.47369992 0.02104408 0.00000073
0.49974703 0.02104408 0.00000073
0.52622251 0.02104408 0.00000073
0.55313401 0.02104408 0.00000073
0.58048212 0.02104408 0.00000073
0.60826147 0.02104408 0.00000073
0.63646179 0.02104408 0.00000073
0.66506860 0.02104408 0.00000073
0.69406391 0.02104408 0.00000073
0.72342675 0.02104408 0.00000073
0.75313370 0.02104408 0.00000073
0.78315928 0.02104408 0.00000073
0.81347633 0.02104408 0.00000073
0.84405636 0.02104408 0.00000073
0.87486984 0.02104408 0.00000073
0.90588648 0.02104408 0.00000073
0.00000073 0.12052584 0.00000073
0.00000073 0.12052584 0.00000073
0.00000073 0.12052584 0.00000073
0.02104408 0.12052584 0.00000073
0.12052584 0.12052584 0.00000073
0.16259187 0.12052584 0.00000073
0.19523472 0.12052584 0.00000073
0.22380706 0.12052584 0.00000073
0.25025914 0.12052584 0.00000073
0.27554326 0.12052584 0.00000073
0.30020169 0.12052584 0.00000073
0.32457387 0.12052584 0.00000073
0.34888584 0.12052584 0.00000073
0.37329437 0.12052584 0.00000073
0.39791086 0.12052584 0.00000073
0.42281531 0.12052584 0.00000073
0.44806496 0.12052584 0.00000073
0.47369992 0.12052584 0.00000073
0.49974703 0.12052584 0.00000073
0.52622251 0.12052584 0.00000073
0.55313401 0.12052584 0.00000073
0.58048212 0.12052584 0.00000073
0.60826147 0.12052584 0.00000073
0.63646179 0.12052584 0.00000073
0.66506860 0.12052584 0.00000073
0.69406391 0.12052584 0.00000073
0.72342675 0.12052584 0.00000073
0.75313370 0.12052584 0.00000073
0.78315928 0.12052584 0.00000073
0.81347633 0.12052584 0.00000073
0.84405636 0.12052584 0.00000073
0.87486984 0.12052584 0.00000073
0.90588648 0.12052584 0.00000073
0.00000073 0.16259187 0.00000073
0.00000073 0.16259187 0.00000073
0.00000073 0.16259187 0.00000073
0.02104408 0.16259187 0.00000073
0.12052584 0.16259187 0.00000073
0.16259187 0.16259187 0.00000073
0.19523472 0.16259187 0.00000073
0.22380706 0.16259187 0.00000073
0.25025914 0.16259187 0.00000073
0.27554326 0.16259187 0.00000073
0.30020169 0.16259187 0.00000073
0.32457387 0.16259187 0.00000073
0.34888584 0.16259187 0.00000073
0.37329437 0.16259187 0.00000073
0.39791086 0.16259187 0.00000073
0.42281531 0.16259187 0.00000073
0.44806496 0.16259187 0.00000073
0.47369992 0.16259187 0.00000073
0.49974703 0.16259187 0.00000073
0.52622251 0.16259187 0.00000073
0.55313401 0.16259187 0.00000073
0.58048212 0.16259187 0.00000073
0.60826147 0.16259187 0.00000073
0.63646179 0.16259187 0.00000073
0.66506860 0.16259187 0.00000073
0.69406391 0.16259187 0.00000073
0.72342675 0.16259187 0.00000073
0.75313370 0.16259187 0.00000073
0.78315928 0.16259187 0.00000073
0.81347633 0.16259187 0.00000073
0.84405636 0.16259187 0.00000073
0.87486984 0.16259187 0.00000073
0.90588648 0.16259187 0.00000073
0.00000073 0.19523472 0.00000073
0.00000073 0.19523472 0.00000073
0.00000073 0.19523472 0.00000073
0.02104408 0.19523472 0.00000073
0.12052584 0.19523472 0.00000073
0.16259187 0.19523472 0.00000073
0.19523472 0.19523472 0.00000073
0.22380706 0.19523472 0.00000073
0.25025914 0.19523472 0.00000073
0.27554326 0.19523472 0.00000073
0.30020169 0.19523472 0.00000073
0.32457387 0.19523472 0.00000073
0.34888584 0.19523472 0.00000073
0.37329437 0.19523472 0.00000073
0.39791086 0.19523472 0.00000073
0.42281531 0.19523472 0.00000073
0.44806496 0.19523472 0.00000073
0.47369992 0.19523472 0.00000073
0.49974703 0.19523472 0.00000073
0.52622251 0.19523472 0.00000073
0.55313401 0.19523472 0.00000073
0.58048212 0.19523472 0.00000073
0.60826147 0.19523472 0.00000073
0.63646179 0.19523472 0.00000073
0.66506860 0.19523472 0.00000073
0.69406391 0.19523472 0.00000073
0.72342675 0.19523472 0.00000073
0.75313370 0.19523472 0.00000073
0.78315928 0.19523472 0.00000073
0.81347633 0.19523472 0.00000073
0.84405636 0.19523472 0.00000073
0.87486984 0.19523472 0.00000073
0.90588648 0.19523472 0.00000073
0.00000073 0.22380706 0.00000073
0.00000073 0.22380706 0.00000073
0.00000073 0.22380706 0.00000073
0.02104408 0.22380706 0.00000073
0.12052584 0.22380706 0.00000073
0.16259187 0.22380706 0.00000073
0.19523472 0.22380706 0.00000073
0.22380706 0.22380706 0.00000073
0.25025914 0.22380706 0.00000073
0.27554326 0.22380706 0.00000073
0.30020169 0.22380706 0.00000073
0.32457387 0.22380706 0.00000073
0.34888584 0.22380706 0.00000073
0.37329437 0.22380706 0.00000073
0.39791086 0.22380706 0.00000073
0.42281531 0.22380706 0.00000073
0.44806496 0.22380706 0.00000073
0.47369992 0.22380706 0.00000073
0.49974703 0.22380706 0.00000073
0.52622251 0.22380706 0.00000073
0.55313401 0.22380706 0.00000073
0.58048212 0.22380706 0.00000073
0.60826147 0.22380706 0.00000073
0.63646179 0.22380706 0.00000073
0.66506860 0.22380706 0.00000073
0.69406391 0.22380706 0.00000073
0.72342675 0.22380706 0.00000073
0.75313370 0.22380706 0.00000073
0.78315928 0.22380706 0.00000073
0.81347633 0.22380706 0.00000073
0.84405636 0.22380706 0.00000073
0.87486984 0.22380706 0.00000073
0.90588648 0.22380706 0.00000073
0.00000073 0.25025914 0.00000073
0.00000073 0.25025914 0.00000073
0.00000073 0.25025914 0.00000073
0.02104408 0.25025914 0.00000073
0.12052584 0.25025914 0.00000073
0.16259187 0.25025914 0.00000073
0.19523472 0.25025914 0.00000073
0.22380706 0.25025914 0.00000073
0.25025914 0.25025914 0.00000073
0.27554326 0.25025914 0.00000073
0.30020169 0.25025914 0.00000073
0.32457387 0.25025914 0.00000073
0.34888584 0.25025914 0.00000073
0.37329437 0.25025914 0.00000073
0.39791086 0.25025914 0.00000073
0.42281531 0.25025914 0.00000073
0.44806496 0.25025914 0.00000073
0.47369992 0.25025914 0.00000073
0.49974703 0.25025914 0.00000073
0.52622251 0.25025914 0.00000073
0.55313401 0.25025914 0.00000073
0.58048212 0.25025914 0.00000073
0.60826147 0.25025914 0.00000073
0.63646179 0.25025914 0.00000073
0.66506860 0.25025914 0.00000073
0.69406391 0.25025914 0.00000073
0.72342675 0.25025914 0.00000073
0.75313370 0.25025914 0.00000073
0.78315928 0.25025914 0.00000073
0.81347633 0.25025914 0.00000073
0.84405636 0.25025914 0.00000073
0.87486984 0.25025914 0.00000073
0.90588648 0.25025914 0.00000073
0.00000073 0.27554326 0.00000073
0.00000073 0.27554326 0.00000073
0.00000073 0.27554326 0.00000073
0.02104408 0.27554326 0.00000073
0.12052584 0.27554326 0.00000073
0.16259187 0.27554326 0.00000073
0.19523472 0.27554326 0.00000073
0.22380706 0.27554326 0.00000073
0.25025914 0.27554326 0.00000073
0.27554326 0.27554326 0.00000073
0.30020169 0.27554326 0.00000073
0.32457387 0.27554326 0.00000073
0.34888584 0.27554326 0.00000073
0.37329437 0.27554326 0.00000073
0.39791086 0.27554326 0.00000073
0.42281531 0.27554326 0.00000073
0.44806496 0.27554326 0.00000073
0.47369992 0.27554326 0.00000073
0.49974703 0.27554326 0.00000073
0.52622251 0.27554326 0.00000073
0.55313401 0.27554326 0.00000073
0.58048212 0.27554326 0.00000073
0.60826147 0.27554326 0.00000073
0.63646179 0.27554326 0.00000073
0.66506860 0.27554326 0.00000073
0.69406391 0.27554326 0.00000073
0.72342675 0.27554326 0.00000073
0.75313370 0.27554326 0.00000073
0.78315928 0.27554326 0.00000073
0.81347633 0.27554326 0.00000073
0.84405636 0.27554326 0.00000073
0.87486984 0.27554326 0.00000073
0.90588648 0.27554326 0.00000073
0.00000073 0.30020169 0.00000073
0.00000073 0.30020169 0.00000073
0.00000073 0.30020169 0.00000073
0.02104408 0.30020169 0.00000073
0.12052584 0.30020169 0.00000073
0.16259187 0.30020169 0.00000073
0.19523472 0.30020169 0.00000073
0.22380706 0.30020169 0.00000073
0.25025914 0.30020169 0.00000073
0.27554326 0.30020169 0.00000073
0.30020169 0.30020169 0.00000073
0.32457387 0.30020169 0.00000073
0.34888584 0.30020169 0.00000073
0.37329437 0.30020169 0.00000073
0.39791086 0.30020169 0.00000073
0.42281531 0.30020169 0.00000073
0.44806496 0.30020169 0.00000073
0.47369992 0.30020169 0.00000073
0.49974703 0.30020169 0.00000073
0.52622251 0.30020169 0.00000073
0.55313401 0.30020169 0.00000073
0.58048212 0.30020169 0.00000073
0.60826147 0.30020169 0.00000073
0.63646179 0.30020169 0.00000073
0.66506860 0.30020169 0.00000073
0.69406391 0.30020169 0.00000073
0.72342675 0.30020169 0.00000073
0.75313370 0.30020169 0.00000073
0.78315928 0.30020169 0.00000073
0.81347633 0.30020169 0.00000073
0.84405636 0.30020169 0.00000073
0.87486984 0.30020169 0.00000073
0.90588648 0.30020169 0.00000073
0.00000073 0.32457387 0.00000073
0.00000073 0.32457387 0.00000073
0.00000073 0.32457387 0.00000073
0.02104408 0.32457387 0.00000073
0.12052584 0.32457387 0.00000073
0.16259187 0.32457387 0.00000073
0.19523472 0.32457387 0.00000073
0.22380706 0.32457387 0.00000073
0.25025914 0.32457387 0.00000073
0.27554326 0.32457387 0.00000073
0.30020169 0.32457387 0.00000073
0.32457387 0.32457387 0.00000073
0.34888584 0.32457387 0.00000073
0.37329437 0.32457387 0.00000073
0.39791086 0.32457387 0.00000073
0.42281531 0.32457387 0.00000073
0.44806496 0.32457387 0.00000073
0.47369992 0.32457387 0.00000073
0.49974703 0.32457387 0.00000073
0.52622251 0.32457387 0.00000073
0.55313401 0.32457387 0.00000073
0.58048212 0.32457387 0.00000073
0.60826147 0.32457387 0.00000073
0.63646179 0.32457387 0.00000073
0.66506860 0.32457387 0.00000073
0.69406391 0.32457387 0.00000073
0.72342675 0.32457387 0.00000073
0.75313370 0.32457387 0.00000073
0.78315928 0.32457387 0.00000073
0.81347633 0.32457387 0.00000073
0.84405636 0.32457387 0.00000073
0.87486984 0.32457387 0.00000073
0.90588648 0.32457387 0.00000073
0.00000073 0.34888584 0.00000073
0.00000073 0.34888584 0.00000073
0.00000073 0.34888584 0.00000073
0.02104408 0.34888584 0.00000073
0.12052584 0.34888584 0.00000073
0.16259187 0.34888584 0.00000073
0.19523472 0.34888584 0.00000073
0.22380706 0.34888584 0.00000073
0.25025914 0.34888584 0.00000073
0.27554326 0.34888584 0.00000073
0.30020169 0.34888584 0.00000073
0.32457387 0.34888584 0.00000073
0.34888584 0.34888584 0.00000073
0.37329437 0.34888584 0.00000073
0.39791086 0.34888584 0.00000073
0.42281531 0.34888584 0.00000073
0.44806496 0.34888584 0.00000073
0.47369992 0.34888584 0.00000073
0.49974703 0.34888584 0.00000073
0.52622251 0.34888584 0.00000073
0.55313401 0.34888584 0.00000073
0.58048212 0.34888584 0.00000073
0.60826147 0.34888584 0.00000073
0.63646179 0.34888584 0.00000073
0.66506860 0.34888584 0.00000073
0.69406391 0.34888584 0.00000073
0.72342675 0.34888584 0.00000073
0.75313370 0.34888584 0.00000073
0.78315928 0.34888584 0.00000073
0.81347633 0.34888584 0.00000073
0.84405636 0.34888584 0.00000073
0.87486984 0.34888584 0.00000073
0.90588648 0.34888584 0.00000073
0.00000073 0.37329437 0.00000073
0.00000073 0.37329437 0.00000073
0.00000073 0.37329437 0.00000073
0.02104408 0.37329437 0.00000073
0.12052584 0.37329437 0.00000073
0.16259187 0.37329437 0.00000073
0.19523472 0.37329437 0.00000073
0.22380706 0.37329437 0.00000073
0.25025914 0.37329437 0.00000073
0.27554326 0.37329437 0.00000073
0.30020169 0.37329437 0.00000073
0.32457387 0.37329437 0.00000073
0.34888584 0.37329437 0.00000073
0.37329437 0.37329437 0.00000073
0.39791086 0.37329437 0.00000073
0.42281531 0.37329437 0.00000073
0.44806496 0.37329437 0.00000073
0.47369992 0.37329437 0.00000073
0.49974703 0.37329437 0.00000073
0.52622251 0.37329437 0.00000073
0.55313401 0.37329437 0.00000073
0.58048212 0.37329437 0.00000073
0.60826147 0.37329437 0.00000073
0.63646179 0.37329437 0.00000073
0.66506860 0.37329437 0.00000073
0.69406391 0.37329437 0.00000073
0.72342675 0.37329437 0.00000073
0.75313370 0.37329437 0.00000073
0.78315928 0.37329437 0.00000073
0.81347633 0.37329437 0.00000073
0.84405636 0.37329437 0.00000073
0.87486984 0.37329437 0.00000073
0.90588648 0.37329437 0.00000073
0.00000073 0.39791086 0.00000073
0.00000073 0.39791086 0.00000073
0.00000073 0.39791086 0.00000073
0.02104408 0.39791086 0.00000073
0.12052584 0.39791086 0.00000073
0.16259187 0.39791086 0.00000073
0.19523472 0.39791086 0.00000073
0.22380706 0.39791086 0.00000073
0.25025914 0.39791086 0.00000073
0.27554326 0.39791086 0.00000073
0.30020169 0.39791086 0.00000073
0.32457387 0.39791086 0.00000073
0.34888584 0.39791086 0.00000073
0.37329437 0.39791086 0.00000073
0.39791086 0.39791086 0.00000073
0.42281531 0.39791086 0.00000073
0.44806496 0.39791086 0.00000073
0.47369992 0.39791086 0.00000073
0.49974703 0.39791086 0.00000073
0.52622251 0.39791086 0.00000073
0.55313401 0.39791086 0.00000073
0.58048212 0.39791086 0.00000073
0.60826147 0.39791086 0.00000073
0.63646179 0.39791086 0.00000073
0.66506860 0.39791086 0.00000073
0.69406391 0.39791086 0.00000073
0.72342675 0.39791086 0.00000073
0.75313370 0.39791086 0.00000073
0.78315928 0.39791086 0.00000073
0.81347633 0.39791086 0.00000073
0.84405636 0.39791086 0.00000073
0.87486984 0.39791086 0.00000073
0.90588648 0.39791086 0.00000073
0.00000073 0.42281531 0.00000073
0.00000073 0.42281531 0.00000073
0.00000073 0.42281531 0.00000073
0.02104408 0.42281531 0.00000073
0.12052584 0.42281531 0.00000073
0.16259187 0.42281531 0.00000073
0.19523472 0.42281531 0.00000073
0.22380706 0.42281531 0.00000073
0.25025914 0.42281531 0.00000073
0.27554326 0.42281531 0.00000073
0.30020169 0.42281531 0.00000073
0.32457387 0.42281531 0.00000073
0.34888584 0.42281531 0.00000073
0.37329437 0.42281531 0.00000073
0.39791086 0.42281531 0.00000073
0.42281531 0.42281531 0.00000073
0.44806496 0.42281531 0.00000073
0.47369992 0.42281531 0.00000073
0.49974703 0.42281531 0.00000073
0.52622251 0.42281531 0.00000073
0.55313401 0.42281531 0.00000073
0.58048212 0.42281531 0.00000073
0.60826147 0.42281531 0.00000073
0.63646179 0.42281531 0.00000073
0.66506860 0.42281531 0.00000073
0.69406391 0.42281531 0.00000073
0.72342675 0.42281531 0.00000073
0.75313370 0.42281531 0.00000073
0.78315928 0.42281531 0.00000073
0.81347633 0.42281531 0.00000073
0.84405636 0.42281531 0.00000073
0.87486984 0.42281531 0.00000073
0.90588648 0.42281531 0.00000073
0.00000073 0.44806496 0.00000073
0.00000073 0.44806496 0.00000073
0.00000073 0.44806496 0.00000073
0.02104408 0.44806496 0.00000073
0.12052584 0.44806496 0.00000073
0.16259187 0.44806496 0.00000073
0.19523472 0.44806496 0.00000073
0.22380706 0.44806496 0.00000073
0.25025914 0.44806496 0.00000073
0.27554326 0.44806496 0.00000073
0.30020169 0.44806496 0.00000073
0.32457387 0.44806496 0.00000073
0.34888584 0.44806496 0.00000073
0.37329437 0.44806496 0.00000073
0.39791086 0.44806496 0.00000073
0.42281531 0.44806496 0.00000073
0.44806496 0.44806496 0.00000073
0.47369992 0.44806496 0.00000073
0.49974703 0.44806496 0.00000073
0.52622251 0.44806496 0.00000073
0.55313401 0.44806496 0.00000073
0.58048212 0.44806496 0.00000073
0.60826147 0.44806496 0.00000073
0.63646179 0.44806496 0.00000073
0.66506860 0.44806496 0.00000073
0.69406391 0.44806496 0.00000073
0.72342675 0.44806496 0.00000073
0.75313370 0.44806496 0.00000073
0.78315928 0.44806496 0.00000073
0.81347633 0.44806496 0.00000073
0.84405636 0.44806496 0.00000073
0.87486984 0.44806496 0.00000073
0.90588648 0.44806496 0.00000073
0.00000073 0.47369992 0.00000073
0.00000073 0.47369992 0.00000073
0.00000073 0.47369992 0.00000073
0.02104408 0.47369992 0.00000073
0.12052584 0.47369992 0.00000073
0.16259187 0.47369992 0.00000073
0.19523472 0.47369992 0.00000073
0.22380706 0.47369992 0.00000073
0.25025914 0.47369992 0.00000073
0.27554326 0.47369992 0.00000073
0.30020169 0.47369992 0.00000073
0.32457387 0.47369992 0.00000073
0.34888584 0.47369992 0.00000073
0.37329437 0.47369992 0.00000073
0.39791086 0.47369992 0.00000073
0.42281531 0.47369992 0.00000073
0.44806496 0.47369992 0.00000073
0.47369992 0.47369992 0.00000073
0.49974703 0.47369992 0.00000073
0.52622251 0.47369992 0.00000073
0.55313401 0.47369992 0.00000073
0.58048212 0.47369992 0.00000073
0.60826147 0.47369992 0.00000073
0.63646179 0.47369992 0.00000073
0.66506860 0.47369992 0.00000073
0.69406391 0.47369992 0.00000073
0.72342675 0.47369992 0.00000073
0.75313370 0.47369992 0.00000073
0.78315928 0.47369992 0.00000073
0.81347633 0.47369992 0.00000073
0.84405636 0.47369992 0.00000073
0.87486984 0.47369992 0.00000073
0.90588648 0.47369992 0.00000073
0.00000073 0.49974703 0.00000073
0.00000073 0.49974703 0.00000073
0.00000073 0.49974703 0.00000073
0.02104408 0.49974703 0.00000073
0.12052584 0.49974703 0.00000073
0.16259187 0.49974703 0.00000073
0.19523472 0.49974703 0.00000073
0.22380706 0.49974703 0.00000073
0.25025914 0.49974703 0.00000073
0.27554326 0.49974703 0.00000073
0.30020169 0.49974703 0.00000073
0.32457387 0.49974703 0.00000073
0.34888584 0.49974703 0.00000073
0.37329437 0.49974703 0.00000073
0.39791086 0.49974703 0.00000073
0.42281531 0.49974703 0.00000073
0.44806496 0.49974703 0.00000073
0.47369992 0.49974703 0.00000073
0.49974703 0.49974703 0.00000073
0.52622251 0.49974703 0.00000073
0.55313401 0.49974703 0.00000073
0.58048212 0.49974703 0.00000073
0.60826147 0.49974703 0.00000073
0.63646179 0.49974703 0.00000073
0.66506860 0.49974703 0.00000073
0.69406391 0.49974703 0.00000073
0.72342675 0.49974703 0.00000073
0.75313370 0.49974703 0.00000073
0.78315928 0.49974703 0.00000073
0.81347633 0.49974703 0.00000073
0.84405636 0.49974703 0.00000073
0.87486984 0.49974703 0.00000073
0.90588648 0.49974703 0.00000073
0.00000073 0.52622251 0.00000073
0.00000073 0.52622251 0.00000073
0.00000073 0.52622251 0.00000073
0.02104408 0.52622251 0.00000073
0.12052584 0.52622251 0.00000073
0.16259187 0.52622251 0.00000073
0.19523472 0.52622251 0.00000073
0.22380706 0.52622251 0.00000073
0.25025914 0.52622251 0.00000073
0.27554326 0.52622251 0.00000073
0.30020169 0.52622251 0.00000073
0.32457387 0.52622251 0.00000073
0.34888584 0.52622251 0.00000073
0.37329437 0.52622251 0.00000073
0.39791086 0.52622251 0.00000073
0.42281531 0.52622251 0.00000073
0.44806496 0.52622251 0.00000073
0.47369992 0.52622251 0.00000073
0.49974703 0.52622251 0.00000073
0.52622251 0.52622251 0.00000073
0.55313401 0.52622251 0.00000073
0.58048212 0.52622251 0.00000073
0.60826147 0.52622251 0.00000073
0.63646179 0.52622251 0.00000073
0.66506860 0.52622251 0.00000073
0.69406391 0.52622251 0.00000073
0.72342675 0.52622251 0.00000073
0.75313370 0.52622251 0.00000073
0.78315928 0.52622251 0.00000073
0.81347633 0.52622251 0.00000073
0.84405636 0.52622251 0.00000073
0.87486984 0.52622251 0.00000073
0.90588648 0.52622251 0.00000073
0.00000073 0.55313401 0.00000073
0.00000073 0.55313401 0.00000073
0.00000073 0.55313401 0.00000073
0.02104408 0.55313401 0.00000073
0.12052584 0.55313401 0.00000073
0.16259187 0.55313401 0.00000073
0.19523472 0.55313401 0.00000073
0.22380706 0.55313401 0.00000073
0.25025914 0.55313401 0.00000073
0.27554326 0.55313401 0.00000073
0.30020169 0.55313401 0.00000073
0.32457387 0.55313401 0.00000073
0.34888584 0.55313401 0.00000073
0.37329437 0.55313401 0.00000073
0.39791086 0.55313401 0.00000073
0.42281531 0.55313401 0.00000073
0.44806496 0.55313401 0.00000073
0.47369992 0.55313401 0.00000073
0.49974703 0.55313401 0.00000073
0.52622251 0.55313401 0.00000073
0.55313401 0.55313401 0.00000073
0.58048212 0.55313401 0.00000073
0.60826147 0.55313401 0.00000073
0.63646179 0.55313401 0.00000073
0.66506860 0.55313401 0.00000073
0.69406391 0.55313401 0.00000073
0.72342675 0.55313401 0.00000073
0.75313370 0.55313401 0.00000073
0.78315928 0.55313401 0.00000073
0.81347633 0.55313401 0.00000073
0.84405636 0.55313401 0.00000073
0.87486984 0.55313401 0.00000073
0.90588648 0.55313401 0.00000073
0.00000073 0.58048212 0.00000073
0.00000073 0.58048212 0.00000073
0.00000073 0.58048212 0.00000073
0.02104408 0.58048212 0.00000073
0.12052584 0.58048212 0.00000073
0.16259187 0.58048212 0.00000073
0.19523472 0.58048212 0.00000073
0.22380706 0.58048212 0.00000073
0.25025914 0.58048212 0.00000073
0.27554326 0.58048212 0.00000073
0.30020169 0.58048212 0.00000073
0.32457387 0.58048212 0.00000073
0.34888584 0.58048212 0.00000073
0.37329437 0.58048212 0.00000073
0.39791086 0.58048212 0.00000073
0.42281531 0.58048212 0.00000073
0.44806496 0.58048212 0.00000073
0.47369992 0.58048212 0.00000073
0.49974703 0.58048212 0.00000073
0.52622251 0.58048212 0.00000073
0.55313401 0.58048212 0.00000073
0.58048212 0.58048212 0.00000073
0.60826147 0.58048212 0.00000073
0.63646179 0.58048212 0.00000073
0.66506860 0.58048212 0.00000073
0.69406391 0.58048212 0.00000073
0.72342675 0.58048212 0.00000073
