src/ffmpeg_scripts/luts/flog-smpte2084_3p67.cube
TITLE "flog-smpte2084_3p67"
LUT_3D_SIZE 5
# Fujifilm F-Log/Rec2020 -> PQ (EOTF Only)/Rec2020, CineEI Shift 3.67, Black Level 0.00% IRE, Input 109% -> Output 109% - Created with LUTCalc v4.01 by Ben Turley October 2020
0.06256172 0.06256172 0.06256172
0.43037236 0.06256172 0.06256172
0.60669528 0.06256172 0.06256172
0.76700534 0.06256172 0.06256172
0.91886608 0.06256172 0.06256172
0.06256172 0.43037236 0.06256172
0.43037236 0.43037236 0.06256172
0.60669528 0.43037236 0.06256172
0.76700534 0.43037236 0.06256172
0.91886608 0.43037236 0.06256172
0.06256172 0.60669528 0.06256172
0.43037236 0.60669528 0.06256172
0.60669528 0.60669528 0.06256172
0.76700534 0.60669528 0.06256172
0.91886608 0.60669528 0.06256172
0.06256172 0.76700534 0.06256172
0.43037236 0.76700534 0.06256172
0.60669528 0.76700534 0.06256172
0.76700534 0.76700534 0.06256172
0.91886608 0.76700534 0.06256172
0.06256172 0.91886608 0.06256172
0.43037236 0.91886608 0.06256172
0.60669528 0.91886608 0.06256172
0.76700534 0.91886608 0.06256172
0.91886608 0.91886608 0.06256172
0.06256172 0.06256172 0.43037236
0.43037236 0.06256172 0.43037236
0.60669528 0.06256172 0.43037236
0.76700534 0.06256172 0.43037236
0.91886608 0.06256172 0.43037236
0.06256172 0.43037236 0.43037236
0.43037236 0.43037236 0.43037236
0.60669528 0.43037236 0.43037236
0.76700534 0.43037236 0.43037236
0.91886608 0.43037236 0.43037236
0.06256172 0.60669528 0.43037236
0.43037236 0.60669528 0.43037236
0.60669528 0.60669528 0.43037236
0.76700534 0.60669528 0.43037236
0.91886608 0.60669528 0.43037236
0.06256172 0.76700534 0.43037236
0.43037236 0.76700534 0.43037236
0.60669528 0.76700534 0.43037236
0.76700534 0.76700534 0.43037236
0.91886608 0.76700534 0.43037236
0.06256172 0.91886608 0.43037236
0.43037236 0.91886608 0.43037236
0.60669528 0.91886608 0.43037236
0.76700534 0.91886608 0.43037236
0.91886608 0.91886608 0.43037236
0.06256172 0.06256172 0.60669528
0.43037236 0.06256172 0.60669528
0.60669528 0.06256172 0.60669528
0.76700534 0.06256172 0.60669528
0.91886608 0.06256172 0.60669528
0.06256172 0.43037236 0.60669528
0.43037236 0.43037236 0.60669528
0.60669528 0.43037236 0.60669528
0.76700534 0.43037236 0.60669528
0.91886608 0.43037236 0.60669528
0.06256172 0.60669528 0.60669528
0.43037236 0.60669528 0.60669528
0.60669528 0.60669528 0.60669528
0.76700534 0.60669528 0.60669528
0.91886608 0.60669528 0.60669528
0.06256172 0.76700534 0.60669528
0.43037236 0.76700534 0.60669528
0.60669528 0.76700534 0.60669528
0.76700534 0.76700534 0.60669528
0.91886608 0.76700534 0.60669528
0.06256172 0.91886608 0.60669528
0.43037236 0.91886608 0.60669528
0.60669528 0.91886608 0.60669528
0.76700534 0.91886608 0.60669528
0.91886608 0.91886608 0.60669528
0.06256172 0.06256172 0.76700534
0.43037236 0.06256172 0.76700534
0.60669528 0.06256172 0.76700534
0.76700534 0.06256172 0.76700534
0.91886608 0.06256172 0.76700534
0.06256172 0.43037236 0.76700534
0.43037236 0.43037236 0.76700534
0.60669528 0.43037236 0.76700534
0.76700534 0.43037236 0.76700534
0.91886608 0.43037236 0.76700534
0.06256172 0.60669528 0.76700534
0.43037236 0.60669528 0.76700534
0.60669528 0.60669528 0.76700534
0.76700534 0.60669528 0.76700534
0.91886608 0.60669528 0.76700534
0.06256172 0.76700534 0.76700534
0.43037236 0.76700534 0.76700534
0.60669528 0.76700534 0.76700534
0.76700534 0.76700534 0.76700534
0.91886608 0.76700534 0.76700534
0.06256172 0.91886608 0.76700534
0.43037236 0.91886608 0.76700534
0.60669528 0.91886608 0.76700534
0.76700534 0.91886608 0.76700534
0.91886608 0.91886608 0.76700534
0.06256172 0.06256172 0.91886608
0.43037236 0.06256172 0.91886608
0.60669528 0.06256172 0.91886608
0.76700534 0.06256172 0.91886608
0.91886608 0.06256172 0.91886608
0.06256172 0.43037236 0.91886608
0.43037236 0.43037236 0.91886608
0.60669528 0.43037236 0.91886608
0.76700534 0.43037236 0.91886608
0.91886608 0.43037236 0.91886608
0.06256172 0.60669528 0.91886608
0.43037236 0.60669528 0.91886608
0.60669528 0.60669528 0.91886608
0.76700534 0.60669528 0.91886608
0.91886608 0.60669528 0.91886608
0.06256172 0.76700534 0.91886608
0.43037236 0.76700534 0.91886608
0.60669528 0.76700534 0.91886608
0.76700534 0.76700534 0.91886608
0.91886608 0.76700534 0.91886608
0.06256172 0.91886608 0.91886608
0.43037236 0.91886608 0.91886608
0.60669528 0.91886608 0.91886608
0.76700534 0.91886608 0.91886608
0.91886608 0.91886608 0.91886608
