src/ffmpeg_scripts/luts/flog-experimental_-3p33.cube
TITLE "flog-experimental_-3p33"
LUT_3D_SIZE 33
# Fujifilm F-Log/Rec2020 -> PQ (EOTF Only)/Rec2020, CineEI Shift -3.33, Black Level 0.00% IRE, Input 109% -> Output 100% - Created with LUTCalc v4.01 by Ben Turley October 2020
0.00000073 0.00000073 0.00000073
0.00000073 0.00000073 0.00000073
0.00000073 0.00000073 0.00000073
0.00876286 0.00000073 0.00000073
0.06088148 0.00000073 0.00000073
0.08598732 0.00000073 0.00000073
0.10639117 0.00000073 0.00000073
0.12483988 0.00000073 0.00000073
0.14237144 0.00000073 0.00000073
0.15950929 0.00000073 0.00000073
0.17656170 0.00000073 0.00000073
0.19372893 0.00000073 0.00000073
0.21115001 0.00000073 0.00000073
0.22892588 0.00000073 0.00000073
0.24713211 0.00000073 0.00000073
0.26582617 0.00000073 0.00000073
0.28505206 0.00000073 0.00000073
0.30484318 0.00000073 0.00000073
0.32522436 0.00000073 0.00000073
0.34621327 0.00000073 0.00000073
0.36782138 0.00000073 0.00000073
0.39005479 0.00000073 0.00000073
0.41291480 0.00000073 0.00000073
0.43639841 0.00000073 0.00000073
0.46049877 0.00000073 0.00000073
0.48520550 0.00000073 0.00000073
0.51050503 0.00000073 0.00000073
0.53638093 0.00000073 0.00000073
0.56281414 0.00000073 0.00000073
0.58978323 0.00000073 0.00000073
0.61726468 0.00000073 0.00000073
0.64523311 0.00000073 0.00000073
0.67366146 0.00000073 0.00000073
0.00000073 0.00000073 0.00000073
0.00000073 0.00000073 0.00000073
0.00000073 0.00000073 0.00000073
0.00876286 0.00000073 0.00000073
0.06088148 0.00000073 0.00000073
0.08598732 0.00000073 0.00000073
0.10639117 0.00000073 0.00000073
0.12483988 0.00000073 0.00000073
0.14237144 0.00000073 0.00000073
0.15950929 0.00000073 0.00000073
0.17656170 0.00000073 0.00000073
0.19372893 0.00000073 0.00000073
0.21115001 0.00000073 0.00000073
0.22892588 0.00000073 0.00000073
0.24713211 0.00000073 0.00000073
0.26582617 0.00000073 0.00000073
0.28505206 0.00000073 0.00000073
0.30484318 0.00000073 0.00000073
0.32522436 0.00000073 0.00000073
0.34621327 0.00000073 0.00000073
0.36782138 0.00000073 0.00000073
0.39005479 0.00000073 0.00000073
0.41291480 0.00000073 0.00000073
0.43639841 0.00000073 0.00000073
0.46049877 0.00000073 0.00000073
0.48520550 0.00000073 0.00000073
0.51050503 0.00000073 0.00000073
0.53638093 0.00000073 0.00000073
0.56281414 0.00000073 0.00000073
0.58978323 0.00000073 0.00000073
0.61726468 0.00000073 0.00000073
0.64523311 0.00000073 0.00000073
0.67366146 0.00000073 0.00000073
0.00000073 0.00000073 0.00000073
0.00000073 0.00000073 0.00000073
0.00000073 0.00000073 0.00000073
0.00876286 0.00000073 0.00000073
0.06088148 0.00000073 0.00000073
0.08598732 0.00000073 0.00000073
0.10639117 0.00000073 0.00000073
0.12483988 0.00000073 0.00000073
0.14237144 0.00000073 0.00000073
0.15950929 0.00000073 0.00000073
0.17656170 0.00000073 0.00000073
0.19372893 0.00000073 0.00000073
0.21115001 0.00000073 0.00000073
0.22892588 0.00000073 0.00000073
0.24713211 0.00000073 0.00000073
0.26582617 0.00000073 0.00000073
0.28505206 0.00000073 0.00000073
0.30484318 0.00000073 0.00000073
0.32522436 0.00000073 0.00000073
0.34621327 0.00000073 0.00000073
0.36782138 0.00000073 0.00000073
0.39005479 0.00000073 0.00000073
0.41291480 0.00000073 0.00000073
0.43639841 0.00000073 0.00000073
0.46049877 0.00000073 0.00000073
0.48520550 0.00000073 0.00000073
0.51050503 0.00000073 0.00000073
0.53638093 0.00000073 0.00000073
0.56281414 0.00000073 0.00000073
0.58978323 0.00000073 0.00000073
0.61726468 0.00000073 0.00000073
0.64523311 0.00000073 0.00000073
0.67366146 0.00000073 0.00000073
0.00000073 0.00876286 0.00000073
0.00000073 0.00876286 0.00000073
0.00000073 0.00876286 0.00000073
0.00876286 0.00876286 0.00000073
0.06088148 0.00876286 0.00000073
0.08598732 0.00876286 0.00000073
0.10639117 0.00876286 0.00000073
0.12483988 0.00876286 0.00000073
0.14237144 0.00876286 0.00000073
0.15950929 0.00876286 0.00000073
0.17656170 0.00876286 0.00000073
0.19372893 0.00876286 0.00000073
0.21115001 0.00876286 0.00000073
0.22892588 0.00876286 0.00000073
0.24713211 0.00876286 0.00000073
0.26582617 0.00876286 0.00000073
0.28505206 0.00876286 0.00000073
0.30484318 0.00876286 0.00000073
0.32522436 0.00876286 0.00000073
0.34621327 0.00876286 0.00000073
0.36782138 0.00876286 0.00000073
0.39005479 0.00876286 0.00000073
0.41291480 0.00876286 0.00000073
0.43639841 0.00876286 0.00000073
0.46049877 0.00876286 0.00000073
0.48520550 0.00876286 0.00000073
0.51050503 0.00876286 0.00000073
0.53638093 0.00876286 0.00000073
0.56281414 0.00876286 0.00000073
0.58978323 0.00876286 0.00000073
0.61726468 0.00876286 0.00000073
0.64523311 0.00876286 0.00000073
0.67366146 0.00876286 0.00000073
0.00000073 0.06088148 0.00000073
0.00000073 0.06088148 0.00000073
0.00000073 0.06088148 0.00000073
0.00876286 0.06088148 0.00000073
0.06088148 0.06088148 0.00000073
0.08598732 0.06088148 0.00000073
0.10639117 0.06088148 0.00000073
0.12483988 0.06088148 0.00000073
0.14237144 0.06088148 0.00000073
0.15950929 0.06088148 0.00000073
0.17656170 0.06088148 0.00000073
0.19372893 0.06088148 0.00000073
0.21115001 0.06088148 0.00000073
0.22892588 0.06088148 0.00000073
0.24713211 0.06088148 0.00000073
0.26582617 0.06088148 0.00000073
0.28505206 0.06088148 0.00000073
0.30484318 0.06088148 0.00000073
0.32522436 0.06088148 0.00000073
0.34621327 0.06088148 0.00000073
0.36782138 0.06088148 0.00000073
0.39005479 0.06088148 0.00000073
0.41291480 0.06088148 0.00000073
0.43639841 0.06088148 0.00000073
0.46049877 0.06088148 0.00000073
0.48520550 0.06088148 0.00000073
0.51050503 0.06088148 0.00000073
0.53638093 0.06088148 0.00000073
0.56281414 0.06088148 0.00000073
0.58978323 0.06088148 0.00000073
0.61726468 0.06088148 0.00000073
0.64523311 0.06088148 0.00000073
0.67366146 0.06088148 0.00000073
0.00000073 0.08598732 0.00000073
0.00000073 0.08598732 0.00000073
0.00000073 0.08598732 0.00000073
0.00876286 0.08598732 0.00000073
0.06088148 0.08598732 0.00000073
0.08598732 0.08598732 0.00000073
0.10639117 0.08598732 0.00000073
0.12483988 0.08598732 0.00000073
0.14237144 0.08598732 0.00000073
0.15950929 0.08598732 0.00000073
0.17656170 0.08598732 0.00000073
0.19372893 0.08598732 0.00000073
0.21115001 0.08598732 0.00000073
0.22892588 0.08598732 0.00000073
0.24713211 0.08598732 0.00000073
0.26582617 0.08598732 0.00000073
0.28505206 0.08598732 0.00000073
0.30484318 0.08598732 0.00000073
0.32522436 0.08598732 0.00000073
0.34621327 0.08598732 0.00000073
0.36782138 0.08598732 0.00000073
0.39005479 0.08598732 0.00000073
0.41291480 0.08598732 0.00000073
0.43639841 0.08598732 0.00000073
0.46049877 0.08598732 0.00000073
0.48520550 0.08598732 0.00000073
0.51050503 0.08598732 0.00000073
0.53638093 0.08598732 0.00000073
0.56281414 0.08598732 0.00000073
0.58978323 0.08598732 0.00000073
0.61726468 0.08598732 0.00000073
0.64523311 0.08598732 0.00000073
0.67366146 0.08598732 0.00000073
0.00000073 0.10639117 0.00000073
0.00000073 0.10639117 0.00000073
0.00000073 0.10639117 0.00000073
0.00876286 0.10639117 0.00000073
0.06088148 0.10639117 0.00000073
0.08598732 0.10639117 0.00000073
0.10639117 0.10639117 0.00000073
0.12483988 0.10639117 0.00000073
0.14237144 0.10639117 0.00000073
0.15950929 0.10639117 0.00000073
0.17656170 0.10639117 0.00000073
0.19372893 0.10639117 0.00000073
0.21115001 0.10639117 0.00000073
0.22892588 0.10639117 0.00000073
0.24713211 0.10639117 0.00000073
0.26582617 0.10639117 0.00000073
0.28505206 0.10639117 0.00000073
0.30484318 0.10639117 0.00000073
0.32522436 0.10639117 0.00000073
0.34621327 0.10639117 0.00000073
0.36782138 0.10639117 0.00000073
0.39005479 0.10639117 0.00000073
0.41291480 0.10639117 0.00000073
0.43639841 0.10639117 0.00000073
0.46049877 0.10639117 0.00000073
0.48520550 0.10639117 0.00000073
0.51050503 0.10639117 0.00000073
0.53638093 0.10639117 0.00000073
0.56281414 0.10639117 0.00000073
0.58978323 0.10639117 0.00000073
0.61726468 0.10639117 0.00000073
0.64523311 0.10639117 0.00000073
0.67366146 0.10639117 0.00000073
0.00000073 0.12483988 0.00000073
0.00000073 0.12483988 0.00000073
0.00000073 0.12483988 0.00000073
0.00876286 0.12483988 0.00000073
0.06088148 0.12483988 0.00000073
0.08598732 0.12483988 0.00000073
0.10639117 0.12483988 0.00000073
0.12483988 0.12483988 0.00000073
0.14237144 0.12483988 0.00000073
0.15950929 0.12483988 0.00000073
0.17656170 0.12483988 0.00000073
0.19372893 0.12483988 0.00000073
0.21115001 0.12483988 0.00000073
0.22892588 0.12483988 0.00000073
0.24713211 0.12483988 0.00000073
0.26582617 0.12483988 0.00000073
0.28505206 0.12483988 0.00000073
0.30484318 0.12483988 0.00000073
0.32522436 0.12483988 0.00000073
0.34621327 0.12483988 0.00000073
0.36782138 0.12483988 0.00000073
0.39005479 0.12483988 0.00000073
0.41291480 0.12483988 0.00000073
0.43639841 0.12483988 0.00000073
0.46049877 0.12483988 0.00000073
0.48520550 0.12483988 0.00000073
0.51050503 0.12483988 0.00000073
0.53638093 0.12483988 0.00000073
0.56281414 0.12483988 0.00000073
0.58978323 0.12483988 0.00000073
0.61726468 0.12483988 0.00000073
0.64523311 0.12483988 0.00000073
0.67366146 0.12483988 0.00000073
0.00000073 0.14237144 0.00000073
0.00000073 0.14237144 0.00000073
0.00000073 0.14237144 0.00000073
0.00876286 0.14237144 0.00000073
0.06088148 0.14237144 0.00000073
0.08598732 0.14237144 0.00000073
0.10639117 0.14237144 0.00000073
0.12483988 0.14237144 0.00000073
0.14237144 0.14237144 0.00000073
0.15950929 0.14237144 0.00000073
0.17656170 0.14237144 0.00000073
0.19372893 0.14237144 0.00000073
0.21115001 0.14237144 0.00000073
0.22892588 0.14237144 0.00000073
0.24713211 0.14237144 0.00000073
0.26582617 0.14237144 0.00000073
0.28505206 0.14237144 0.00000073
0.30484318 0.14237144 0.00000073
0.32522436 0.14237144 0.00000073
0.34621327 0.14237144 0.00000073
0.36782138 0.14237144 0.00000073
0.39005479 0.14237144 0.00000073
0.41291480 0.14237144 0.00000073
0.43639841 0.14237144 0.00000073
0.46049877 0.14237144 0.00000073
0.48520550 0.14237144 0.00000073
0.51050503 0.14237144 0.00000073
0.53638093 0.14237144 0.00000073
0.56281414 0.14237144 0.00000073
0.58978323 0.14237144 0.00000073
0.61726468 0.14237144 0.00000073
0.64523311 0.14237144 0.00000073
0.67366146 0.14237144 0.00000073
0.00000073 0.15950929 0.00000073
0.00000073 0.15950929 0.00000073
0.00000073 0.15950929 0.00000073
0.00876286 0.15950929 0.00000073
0.06088148 0.15950929 0.00000073
0.08598732 0.15950929 0.00000073
0.10639117 0.15950929 0.00000073
0.12483988 0.15950929 0.00000073
0.14237144 0.15950929 0.00000073
0.15950929 0.15950929 0.00000073
0.17656170 0.15950929 0.00000073
0.19372893 0.15950929 0.00000073
0.21115001 0.15950929 0.00000073
0.22892588 0.15950929 0.00000073
0.24713211 0.15950929 0.00000073
0.26582617 0.15950929 0.00000073
0.28505206 0.15950929 0.00000073
0.30484318 0.15950929 0.00000073
0.32522436 0.15950929 0.00000073
0.34621327 0.15950929 0.00000073
0.36782138 0.15950929 0.00000073
0.39005479 0.15950929 0.00000073
0.41291480 0.15950929 0.00000073
0.43639841 0.15950929 0.00000073
0.46049877 0.15950929 0.00000073
0.48520550 0.15950929 0.00000073
0.51050503 0.15950929 0.00000073
0.53638093 0.15950929 0.00000073
0.56281414 0.15950929 0.00000073
0.58978323 0.15950929 0.00000073
0.61726468 0.15950929 0.00000073
0.64523311 0.15950929 0.00000073
0.67366146 0.15950929 0.00000073
0.00000073 0.17656170 0.00000073
0.00000073 0.17656170 0.00000073
0.00000073 0.17656170 0.00000073
0.00876286 0.17656170 0.00000073
0.06088148 0.17656170 0.00000073
0.08598732 0.17656170 0.00000073
0.10639117 0.17656170 0.00000073
0.12483988 0.17656170 0.00000073
0.14237144 0.17656170 0.00000073
0.15950929 0.17656170 0.00000073
0.17656170 0.17656170 0.00000073
0.19372893 0.17656170 0.00000073
0.21115001 0.17656170 0.00000073
0.22892588 0.17656170 0.00000073
0.24713211 0.17656170 0.00000073
0.26582617 0.17656170 0.00000073
0.28505206 0.17656170 0.00000073
0.30484318 0.17656170 0.00000073
0.32522436 0.17656170 0.00000073
0.34621327 0.17656170 0.00000073
0.36782138 0.17656170 0.00000073
0.39005479 0.17656170 0.00000073
0.41291480 0.17656170 0.00000073
0.43639841 0.17656170 0.00000073
0.46049877 0.17656170 0.00000073
0.48520550 0.17656170 0.00000073
0.51050503 0.17656170 0.00000073
0.53638093 0.17656170 0.00000073
0.56281414 0.17656170 0.00000073
0.58978323 0.17656170 0.00000073
0.61726468 0.17656170 0.00000073
0.64523311 0.17656170 0.00000073
0.67366146 0.17656170 0.00000073
0.00000073 0.19372893 0.00000073
0.00000073 0.19372893 0.00000073
0.00000073 0.19372893 0.00000073
0.00876286 0.19372893 0.00000073
0.06088148 0.19372893 0.00000073
0.08598732 0.19372893 0.00000073
0.10639117 0.19372893 0.00000073
0.12483988 0.19372893 0.00000073
0.14237144 0.19372893 0.00000073
0.15950929 0.19372893 0.00000073
0.17656170 0.19372893 0.00000073
0.19372893 0.19372893 0.00000073
0.21115001 0.19372893 0.00000073
0.22892588 0.19372893 0.00000073
0.24713211 0.19372893 0.00000073
0.26582617 0.19372893 0.00000073
0.28505206 0.19372893 0.00000073
0.30484318 0.19372893 0.00000073
0.32522436 0.19372893 0.00000073
0.34621327 0.19372893 0.00000073
0.36782138 0.19372893 0.00000073
0.39005479 0.19372893 0.00000073
0.41291480 0.19372893 0.00000073
0.43639841 0.19372893 0.00000073
0.46049877 0.19372893 0.00000073
0.48520550 0.19372893 0.00000073
0.51050503 0.19372893 0.00000073
0.53638093 0.19372893 0.00000073
0.56281414 0.19372893 0.00000073
0.58978323 0.19372893 0.00000073
0.61726468 0.19372893 0.00000073
0.64523311 0.19372893 0.00000073
0.67366146 0.19372893 0.00000073
0.00000073 0.21115001 0.00000073
0.00000073 0.21115001 0.00000073
0.00000073 0.21115001 0.00000073
0.00876286 0.21115001 0.00000073
0.06088148 0.21115001 0.00000073
0.08598732 0.21115001 0.00000073
0.10639117 0.21115001 0.00000073
0.12483988 0.21115001 0.00000073
0.14237144 0.21115001 0.00000073
0.15950929 0.21115001 0.00000073
0.17656170 0.21115001 0.00000073
0.19372893 0.21115001 0.00000073
0.21115001 0.21115001 0.00000073
0.22892588 0.21115001 0.00000073
0.24713211 0.21115001 0.00000073
0.26582617 0.21115001 0.00000073
0.28505206 0.21115001 0.00000073
0.30484318 0.21115001 0.00000073
0.32522436 0.21115001 0.00000073
0.34621327 0.21115001 0.00000073
0.36782138 0.21115001 0.00000073
0.39005479 0.21115001 0.00000073
0.41291480 0.21115001 0.00000073
0.43639841 0.21115001 0.00000073
0.46049877 0.21115001 0.00000073
0.48520550 0.21115001 0.00000073
0.51050503 0.21115001 0.00000073
0.53638093 0.21115001 0.00000073
0.56281414 0.21115001 0.00000073
0.58978323 0.21115001 0.00000073
0.61726468 0.21115001 0.00000073
0.64523311 0.21115001 0.00000073
0.67366146 0.21115001 0.00000073
0.00000073 0.22892588 0.00000073
0.00000073 0.22892588 0.00000073
0.00000073 0.22892588 0.00000073
0.00876286 0.22892588 0.00000073
0.06088148 0.22892588 0.00000073
0.08598732 0.22892588 0.00000073
0.10639117 0.22892588 0.00000073
0.12483988 0.22892588 0.00000073
0.14237144 0.22892588 0.00000073
0.15950929 0.22892588 0.00000073
0.17656170 0.22892588 0.00000073
0.19372893 0.22892588 0.00000073
0.21115001 0.22892588 0.00000073
0.22892588 0.22892588 0.00000073
0.24713211 0.22892588 0.00000073
0.26582617 0.22892588 0.00000073
0.28505206 0.22892588 0.00000073
0.30484318 0.22892588 0.00000073
0.32522436 0.22892588 0.00000073
0.34621327 0.22892588 0.00000073
0.36782138 0.22892588 0.00000073
0.39005479 0.22892588 0.00000073
0.41291480 0.22892588 0.00000073
0.43639841 0.22892588 0.00000073
0.46049877 0.22892588 0.00000073
0.48520550 0.22892588 0.00000073
0.51050503 0.22892588 0.00000073
0.53638093 0.22892588 0.00000073
0.56281414 0.22892588 0.00000073
0.58978323 0.22892588 0.00000073
0.61726468 0.22892588 0.00000073
0.64523311 0.22892588 0.00000073
0.67366146 0.22892588 0.00000073
0.00000073 0.24713211 0.00000073
0.00000073 0.24713211 0.00000073
0.00000073 0.24713211 0.00000073
0.00876286 0.24713211 0.00000073
0.06088148 0.24713211 0.00000073
0.08598732 0.24713211 0.00000073
0.10639117 0.24713211 0.00000073
0.12483988 0.24713211 0.00000073
0.14237144 0.24713211 0.00000073
0.15950929 0.24713211 0.00000073
0.17656170 0.24713211 0.00000073
0.19372893 0.24713211 0.00000073
0.21115001 0.24713211 0.00000073
0.22892588 0.24713211 0.00000073
0.24713211 0.24713211 0.00000073
0.26582617 0.24713211 0.00000073
0.28505206 0.24713211 0.00000073
0.30484318 0.24713211 0.00000073
0.32522436 0.24713211 0.00000073
0.34621327 0.24713211 0.00000073
0.36782138 0.24713211 0.00000073
0.39005479 0.24713211 0.00000073
0.41291480 0.24713211 0.00000073
0.43639841 0.24713211 0.00000073
0.46049877 0.24713211 0.00000073
0.48520550 0.24713211 0.00000073
0.51050503 0.24713211 0.00000073
0.53638093 0.24713211 0.00000073
0.56281414 0.24713211 0.00000073
0.58978323 0.24713211 0.00000073
0.61726468 0.24713211 0.00000073
0.64523311 0.24713211 0.00000073
0.67366146 0.24713211 0.00000073
0.00000073 0.26582617 0.00000073
0.00000073 0.26582617 0.00000073
0.00000073 0.26582617 0.00000073
0.00876286 0.26582617 0.00000073
0.06088148 0.26582617 0.00000073
0.08598732 0.26582617 0.00000073
0.10639117 0.26582617 0.00000073
0.12483988 0.26582617 0.00000073
0.14237144 0.26582617 0.00000073
0.15950929 0.26582617 0.00000073
0.17656170 0.26582617 0.00000073
0.19372893 0.26582617 0.00000073
0.21115001 0.26582617 0.00000073
0.22892588 0.26582617 0.00000073
0.24713211 0.26582617 0.00000073
0.26582617 0.26582617 0.00000073
0.28505206 0.26582617 0.00000073
0.30484318 0.26582617 0.00000073
0.32522436 0.26582617 0.00000073
0.34621327 0.26582617 0.00000073
0.36782138 0.26582617 0.00000073
0.39005479 0.26582617 0.00000073
0.41291480 0.26582617 0.00000073
0.43639841 0.26582617 0.00000073
0.46049877 0.26582617 0.00000073
0.48520550 0.26582617 0.00000073
0.51050503 0.26582617 0.00000073
0.53638093 0.26582617 0.00000073
0.56281414 0.26582617 0.00000073
0.58978323 0.26582617 0.00000073
0.61726468 0.26582617 0.00000073
0.64523311 0.26582617 0.00000073
0.67366146 0.26582617 0.00000073
0.00000073 0.28505206 0.00000073
0.00000073 0.28505206 0.00000073
0.00000073 0.28505206 0.00000073
0.00876286 0.28505206 0.00000073
0.06088148 0.28505206 0.00000073
0.08598732 0.28505206 0.00000073
0.10639117 0.28505206 0.00000073
0.12483988 0.28505206 0.00000073
0.14237144 0.28505206 0.00000073
0.15950929 0.28505206 0.00000073
0.17656170 0.28505206 0.00000073
0.19372893 0.28505206 0.00000073
0.21115001 0.28505206 0.00000073
0.22892588 0.28505206 0.00000073
0.24713211 0.28505206 0.00000073
0.26582617 0.28505206 0.00000073
0.28505206 0.28505206 0.00000073
0.30484318 0.28505206 0.00000073
0.32522436 0.28505206 0.00000073
0.34621327 0.28505206 0.00000073
0.36782138 0.28505206 0.00000073
0.39005479 0.28505206 0.00000073
0.41291480 0.28505206 0.00000073
0.43639841 0.28505206 0.00000073
0.46049877 0.28505206 0.00000073
0.48520550 0.28505206 0.00000073
0.51050503 0.28505206 0.00000073
0.53638093 0.28505206 0.00000073
0.56281414 0.28505206 0.00000073
0.58978323 0.28505206 0.00000073
0.61726468 0.28505206 0.00000073
0.64523311 0.28505206 0.00000073
0.67366146 0.28505206 0.00000073
0.00000073 0.30484318 0.00000073
0.00000073 0.30484318 0.00000073
0.00000073 0.30484318 0.00000073
0.00876286 0.30484318 0.00000073
0.06088148 0.30484318 0.00000073
0.08598732 0.30484318 0.00000073
0.10639117 0.30484318 0.00000073
0.12483988 0.30484318 0.00000073
0.14237144 0.30484318 0.00000073
0.15950929 0.30484318 0.00000073
0.17656170 0.30484318 0.00000073
0.19372893 0.30484318 0.00000073
0.21115001 0.30484318 0.00000073
0.22892588 0.30484318 0.00000073
0.24713211 0.30484318 0.00000073
0.26582617 0.30484318 0.00000073
0.28505206 0.30484318 0.00000073
0.30484318 0.30484318 0.00000073
0.32522436 0.30484318 0.00000073
0.34621327 0.30484318 0.00000073
0.36782138 0.30484318 0.00000073
0.39005479 0.30484318 0.00000073
0.41291480 0.30484318 0.00000073
0.43639841 0.30484318 0.00000073
0.46049877 0.30484318 0.00000073
0.48520550 0.30484318 0.00000073
0.51050503 0.30484318 0.00000073
0.53638093 0.30484318 0.00000073
0.56281414 0.30484318 0.00000073
0.58978323 0.30484318 0.00000073
0.61726468 0.30484318 0.00000073
0.64523311 0.30484318 0.00000073
0.67366146 0.30484318 0.00000073
0.00000073 0.32522436 0.00000073
0.00000073 0.32522436 0.00000073
0.00000073 0.32522436 0.00000073
0.00876286 0.32522436 0.00000073
0.06088148 0.32522436 0.00000073
0.08598732 0.32522436 0.00000073
0.10639117 0.32522436 0.00000073
0.12483988 0.32522436 0.00000073
0.14237144 0.32522436 0.00000073
0.15950929 0.32522436 0.00000073
0.17656170 0.32522436 0.00000073
0.19372893 0.32522436 0.00000073
0.21115001 0.32522436 0.00000073
0.22892588 0.32522436 0.00000073
0.24713211 0.32522436 0.00000073
0.26582617 0.32522436 0.00000073
0.28505206 0.32522436 0.00000073
0.30484318 0.32522436 0.00000073
0.32522436 0.32522436 0.00000073
0.34621327 0.32522436 0.00000073
0.36782138 0.32522436 0.00000073
0.39005479 0.32522436 0.00000073
0.41291480 0.32522436 0.00000073
0.43639841 0.32522436 0.00000073
0.46049877 0.32522436 0.00000073
0.48520550 0.32522436 0.00000073
0.51050503 0.32522436 0.00000073
0.53638093 0.32522436 0.00000073
0.56281414 0.32522436 0.00000073
0.58978323 0.32522436 0.00000073
0.61726468 0.32522436 0.00000073
0.64523311 0.32522436 0.00000073
0.67366146 0.32522436 0.00000073
0.00000073 0.34621327 0.00000073
0.00000073 0.34621327 0.00000073
0.00000073 0.34621327 0.00000073
0.00876286 0.34621327 0.00000073
0.06088148 0.34621327 0.00000073
0.08598732 0.34621327 0.00000073
0.10639117 0.34621327 0.00000073
0.12483988 0.34621327 0.00000073
0.14237144 0.34621327 0.00000073
0.15950929 0.34621327 0.00000073
0.17656170 0.34621327 0.00000073
0.19372893 0.34621327 0.00000073
0.21115001 0.34621327 0.00000073
0.22892588 0.34621327 0.00000073
0.24713211 0.34621327 0.00000073
0.26582617 0.34621327 0.00000073
0.28505206 0.34621327 0.00000073
0.30484318 0.34621327 0.00000073
0.32522436 0.34621327 0.00000073
0.34621327 0.34621327 0.00000073
0.36782138 0.34621327 0.00000073
0.39005479 0.34621327 0.00000073
0.41291480 0.34621327 0.00000073
0.43639841 0.34621327 0.00000073
0.46049877 0.34621327 0.00000073
0.48520550 0.34621327 0.00000073
0.51050503 0.34621327 0.00000073
0.53638093 0.34621327 0.00000073
0.56281414 0.34621327 0.00000073
0.58978323 0.34621327 0.00000073
0.61726468 0.34621327 0.00000073
0.64523311 0.34621327 0.00000073
0.67366146 0.34621327 0.00000073
0.00000073 0.36782138 0.00000073
0.00000073 0.36782138 0.00000073
0.00000073 0.36782138 0.00000073
0.00876286 0.36782138 0.00000073
0.06088148 0.36782138 0.00000073
0.08598732 0.36782138 0.00000073
0.10639117 0.36782138 0.00000073
0.12483988 0.36782138 0.00000073
0.14237144 0.36782138 0.00000073
0.15950929 0.36782138 0.00000073
0.17656170 0.36782138 0.00000073
0.19372893 0.36782138 0.00000073
0.21115001 0.36782138 0.00000073
0.22892588 0.36782138 0.00000073
0.24713211 0.36782138 0.00000073
0.26582617 0.36782138 0.00000073
0.28505206 0.36782138 0.00000073
0.30484318 0.36782138 0.00000073
0.32522436 0.36782138 0.00000073
0.34621327 0.36782138 0.00000073
0.36782138 0.36782138 0.00000073
0.39005479 0.36782138 0.00000073
0.41291480 0.36782138 0.00000073
0.43639841 0.36782138 0.00000073
0.46049877 0.36782138 0.00000073
0.48520550 0.36782138 0.00000073
0.51050503 0.36782138 0.00000073
0.53638093 0.36782138 0.00000073
0.56281414 0.36782138 0.00000073
0.58978323 0.36782138 0.00000073
0.61726468 0.36782138 0.00000073
0.64523311 0.36782138 0.00000073
0.67366146 0.36782138 0.00000073
0.00000073 0.39005479 0.00000073
0.00000073 0.39005479 0.00000073
0.00000073 0.39005479 0.00000073
0.00876286 0.39005479 0.00000073
0.06088148 0.39005479 0.00000073
0.08598732 0.39005479 0.00000073
0.10639117 0.39005479 0.00000073
0.12483988 0.39005479 0.00000073
0.14237144 0.39005479 0.00000073
0.15950929 0.39005479 0.00000073
0.17656170 0.39005479 0.00000073
0.19372893 0.39005479 0.00000073
0.21115001 0.39005479 0.00000073
0.22892588 0.39005479 0.00000073
0.24713211 0.39005479 0.00000073
0.26582617 0.39005479 0.00000073
0.28505206 0.39005479 0.00000073
0.30484318 0.39005479 0.00000073
0.32522436 0.39005479 0.00000073
0.34621327 0.39005479 0.00000073
0.36782138 0.39005479 0.00000073
0.39005479 0.39005479 0.00000073
0.41291480 0.39005479 0.00000073
0.43639841 0.39005479 0.00000073
0.46049877 0.39005479 0.00000073
0.48520550 0.39005479 0.00000073
0.51050503 0.39005479 0.00000073
