src/ffmpeg_scripts/luts/flog-smpte2084_3p00.cube
TITLE "flog-smpte2084_3p00"
LUT_3D_SIZE 33
# Fujifilm F-Log/Rec2020 -> PQ (EOTF Only)/Rec2020, CineEI Shift 3.00, Black Level 0.00% IRE, Input 109% -> Output 109% - Created with LUTCalc v4.01 by Ben Turley October 2020
0.06256172 0.06256172 0.06256172
0.06256172 0.06256172 0.06256172
0.06256172 0.06256172 0.06256172
0.11138935 0.06256172 0.06256172
0.25580167 0.06256172 0.06256172
0.30419719 0.06256172 0.06256172
0.33909179 0.06256172 0.06256172
0.36813526 0.06256172 0.06256172
0.39397210 0.06256172 0.06256172
0.41784544 0.06256172 0.06256172
0.44044031 0.06256172 0.06256172
0.46217260 0.06256172 0.06256172
0.48331134 0.06256172 0.06256172
0.50403802 0.06256172 0.06256172
0.52447844 0.06256172 0.06256172
0.54472106 0.06256172 0.06256172
0.56482830 0.06256172 0.06256172
0.58484387 0.06256172 0.06256172
0.60479760 0.06256172 0.06256172
0.62470893 0.06256172 0.06256172
0.64458935 0.06256172 0.06256172
0.66444423 0.06256172 0.06256172
0.68427419 0.06256172 0.06256172
0.70407619 0.06256172 0.06256172
0.72384433 0.06256172 0.06256172
0.74357057 0.06256172 0.06256172
0.76324522 0.06256172 0.06256172
0.78285739 0.06256172 0.06256172
0.80239536 0.06256172 0.06256172
0.82184686 0.06256172 0.06256172
0.84119930 0.06256172 0.06256172
0.86044000 0.06256172 0.06256172
0.87955630 0.06256172 0.06256172
0.06256172 0.06256172 0.06256172
0.06256172 0.06256172 0.06256172
0.06256172 0.06256172 0.06256172
0.11138935 0.06256172 0.06256172
0.25580167 0.06256172 0.06256172
0.30419719 0.06256172 0.06256172
0.33909179 0.06256172 0.06256172
0.36813526 0.06256172 0.06256172
0.39397210 0.06256172 0.06256172
0.41784544 0.06256172 0.06256172
0.44044031 0.06256172 0.06256172
0.46217260 0.06256172 0.06256172
0.48331134 0.06256172 0.06256172
0.50403802 0.06256172 0.06256172
0.52447844 0.06256172 0.06256172
0.54472106 0.06256172 0.06256172
0.56482830 0.06256172 0.06256172
0.58484387 0.06256172 0.06256172
0.60479760 0.06256172 0.06256172
0.62470893 0.06256172 0.06256172
0.64458935 0.06256172 0.06256172
0.66444423 0.06256172 0.06256172
0.68427419 0.06256172 0.06256172
0.70407619 0.06256172 0.06256172
0.72384433 0.06256172 0.06256172
0.74357057 0.06256172 0.06256172
0.76324522 0.06256172 0.06256172
0.78285739 0.06256172 0.06256172
0.80239536 0.06256172 0.06256172
0.82184686 0.06256172 0.06256172
0.84119930 0.06256172 0.06256172
0.86044000 0.06256172 0.06256172
0.87955630 0.06256172 0.06256172
0.06256172 0.06256172 0.06256172
0.06256172 0.06256172 0.06256172
0.06256172 0.06256172 0.06256172
0.11138935 0.06256172 0.06256172
0.25580167 0.06256172 0.06256172
0.30419719 0.06256172 0.06256172
0.33909179 0.06256172 0.06256172
0.36813526 0.06256172 0.06256172
0.39397210 0.06256172 0.06256172
0.41784544 0.06256172 0.06256172
0.44044031 0.06256172 0.06256172
0.46217260 0.06256172 0.06256172
0.48331134 0.06256172 0.06256172
0.50403802 0.06256172 0.06256172
0.52447844 0.06256172 0.06256172
0.54472106 0.06256172 0.06256172
0.56482830 0.06256172 0.06256172
0.58484387 0.06256172 0.06256172
0.60479760 0.06256172 0.06256172
0.62470893 0.06256172 0.06256172
0.64458935 0.06256172 0.06256172
0.66444423 0.06256172 0.06256172
0.68427419 0.06256172 0.06256172
0.70407619 0.06256172 0.06256172
0.72384433 0.06256172 0.06256172
0.74357057 0.06256172 0.06256172
0.76324522 0.06256172 0.06256172
0.78285739 0.06256172 0.06256172
0.80239536 0.06256172 0.06256172
0.82184686 0.06256172 0.06256172
0.84119930 0.06256172 0.06256172
0.86044000 0.06256172 0.06256172
0.87955630 0.06256172 0.06256172
0.06256172 0.11138935 0.06256172
0.06256172 0.11138935 0.06256172
0.06256172 0.11138935 0.06256172
0.11138935 0.11138935 0.06256172
0.25580167 0.11138935 0.06256172
0.30419719 0.11138935 0.06256172
0.33909179 0.11138935 0.06256172
0.36813526 0.11138935 0.06256172
0.39397210 0.11138935 0.06256172
0.41784544 0.11138935 0.06256172
0.44044031 0.11138935 0.06256172
0.46217260 0.11138935 0.06256172
0.48331134 0.11138935 0.06256172
0.50403802 0.11138935 0.06256172
0.52447844 0.11138935 0.06256172
0.54472106 0.11138935 0.06256172
0.56482830 0.11138935 0.06256172
0.58484387 0.11138935 0.06256172
0.60479760 0.11138935 0.06256172
0.62470893 0.11138935 0.06256172
0.64458935 0.11138935 0.06256172
0.66444423 0.11138935 0.06256172
0.68427419 0.11138935 0.06256172
0.70407619 0.11138935 0.06256172
0.72384433 0.11138935 0.06256172
0.74357057 0.11138935 0.06256172
0.76324522 0.11138935 0.06256172
0.78285739 0.11138935 0.06256172
0.80239536 0.11138935 0.06256172
0.82184686 0.11138935 0.06256172
0.84119930 0.11138935 0.06256172
0.86044000 0.11138935 0.06256172
0.87955630 0.11138935 0.06256172
0.06256172 0.25580167 0.06256172
0.06256172 0.25580167 0.06256172
0.06256172 0.25580167 0.06256172
0.11138935 0.25580167 0.06256172
0.25580167 0.25580167 0.06256172
0.30419719 0.25580167 0.06256172
0.33909179 0.25580167 0.06256172
0.36813526 0.25580167 0.06256172
0.39397210 0.25580167 0.06256172
0.41784544 0.25580167 0.06256172
0.44044031 0.25580167 0.06256172
0.46217260 0.25580167 0.06256172
0.48331134 0.25580167 0.06256172
0.50403802 0.25580167 0.06256172
0.52447844 0.25580167 0.06256172
0.54472106 0.25580167 0.06256172
0.56482830 0.25580167 0.06256172
0.58484387 0.25580167 0.06256172
0.60479760 0.25580167 0.06256172
0.62470893 0.25580167 0.06256172
0.64458935 0.25580167 0.06256172
0.66444423 0.25580167 0.06256172
0.68427419 0.25580167 0.06256172
0.70407619 0.25580167 0.06256172
0.72384433 0.25580167 0.06256172
0.74357057 0.25580167 0.06256172
0.76324522 0.25580167 0.06256172
0.78285739 0.25580167 0.06256172
0.80239536 0.25580167 0.06256172
0.82184686 0.25580167 0.06256172
0.84119930 0.25580167 0.06256172
0.86044000 0.25580167 0.06256172
0.87955630 0.25580167 0.06256172
0.06256172 0.30419719 0.06256172
0.06256172 0.30419719 0.06256172
0.06256172 0.30419719 0.06256172
0.11138935 0.30419719 0.06256172
0.25580167 0.30419719 0.06256172
0.30419719 0.30419719 0.06256172
0.33909179 0.30419719 0.06256172
0.36813526 0.30419719 0.06256172
0.39397210 0.30419719 0.06256172
0.41784544 0.30419719 0.06256172
0.44044031 0.30419719 0.06256172
0.46217260 0.30419719 0.06256172
0.48331134 0.30419719 0.06256172
0.50403802 0.30419719 0.06256172
0.52447844 0.30419719 0.06256172
0.54472106 0.30419719 0.06256172
0.56482830 0.30419719 0.06256172
0.58484387 0.30419719 0.06256172
0.60479760 0.30419719 0.06256172
0.62470893 0.30419719 0.06256172
0.64458935 0.30419719 0.06256172
0.66444423 0.30419719 0.06256172
0.68427419 0.30419719 0.06256172
0.70407619 0.30419719 0.06256172
0.72384433 0.30419719 0.06256172
0.74357057 0.30419719 0.06256172
0.76324522 0.30419719 0.06256172
0.78285739 0.30419719 0.06256172
0.80239536 0.30419719 0.06256172
0.82184686 0.30419719 0.06256172
0.84119930 0.30419719 0.06256172
0.86044000 0.30419719 0.06256172
0.87955630 0.30419719 0.06256172
0.06256172 0.33909179 0.06256172
0.06256172 0.33909179 0.06256172
0.06256172 0.33909179 0.06256172
0.11138935 0.33909179 0.06256172
0.25580167 0.33909179 0.06256172
0.30419719 0.33909179 0.06256172
0.33909179 0.33909179 0.06256172
0.36813526 0.33909179 0.06256172
0.39397210 0.33909179 0.06256172
0.41784544 0.33909179 0.06256172
0.44044031 0.33909179 0.06256172
0.46217260 0.33909179 0.06256172
0.48331134 0.33909179 0.06256172
0.50403802 0.33909179 0.06256172
0.52447844 0.33909179 0.06256172
0.54472106 0.33909179 0.06256172
0.56482830 0.33909179 0.06256172
0.58484387 0.33909179 0.06256172
0.60479760 0.33909179 0.06256172
0.62470893 0.33909179 0.06256172
0.64458935 0.33909179 0.06256172
0.66444423 0.33909179 0.06256172
0.68427419 0.33909179 0.06256172
0.70407619 0.33909179 0.06256172
0.72384433 0.33909179 0.06256172
0.74357057 0.33909179 0.06256172
0.76324522 0.33909179 0.06256172
0.78285739 0.33909179 0.06256172
0.80239536 0.33909179 0.06256172
0.82184686 0.33909179 0.06256172
0.84119930 0.33909179 0.06256172
0.86044000 0.33909179 0.06256172
0.87955630 0.33909179 0.06256172
0.06256172 0.36813526 0.06256172
0.06256172 0.36813526 0.06256172
0.06256172 0.36813526 0.06256172
0.11138935 0.36813526 0.06256172
0.25580167 0.36813526 0.06256172
0.30419719 0.36813526 0.06256172
0.33909179 0.36813526 0.06256172
0.36813526 0.36813526 0.06256172
0.39397210 0.36813526 0.06256172
0.41784544 0.36813526 0.06256172
0.44044031 0.36813526 0.06256172
0.46217260 0.36813526 0.06256172
0.48331134 0.36813526 0.06256172
0.50403802 0.36813526 0.06256172
0.52447844 0.36813526 0.06256172
0.54472106 0.36813526 0.06256172
0.56482830 0.36813526 0.06256172
0.58484387 0.36813526 0.06256172
0.60479760 0.36813526 0.06256172
0.62470893 0.36813526 0.06256172
0.64458935 0.36813526 0.06256172
0.66444423 0.36813526 0.06256172
0.68427419 0.36813526 0.06256172
0.70407619 0.36813526 0.06256172
0.72384433 0.36813526 0.06256172
0.74357057 0.36813526 0.06256172
0.76324522 0.36813526 0.06256172
0.78285739 0.36813526 0.06256172
0.80239536 0.36813526 0.06256172
0.82184686 0.36813526 0.06256172
0.84119930 0.36813526 0.06256172
0.86044000 0.36813526 0.06256172
0.87955630 0.36813526 0.06256172
0.06256172 0.39397210 0.06256172
0.06256172 0.39397210 0.06256172
0.06256172 0.39397210 0.06256172
0.11138935 0.39397210 0.06256172
0.25580167 0.39397210 0.06256172
0.30419719 0.39397210 0.06256172
0.33909179 0.39397210 0.06256172
0.36813526 0.39397210 0.06256172
0.39397210 0.39397210 0.06256172
0.41784544 0.39397210 0.06256172
0.44044031 0.39397210 0.06256172
0.46217260 0.39397210 0.06256172
0.48331134 0.39397210 0.06256172
0.50403802 0.39397210 0.06256172
0.52447844 0.39397210 0.06256172
0.54472106 0.39397210 0.06256172
0.56482830 0.39397210 0.06256172
0.58484387 0.39397210 0.06256172
0.60479760 0.39397210 0.06256172
0.62470893 0.39397210 0.06256172
0.64458935 0.39397210 0.06256172
0.66444423 0.39397210 0.06256172
0.68427419 0.39397210 0.06256172
0.70407619 0.39397210 0.06256172
0.72384433 0.39397210 0.06256172
0.74357057 0.39397210 0.06256172
0.76324522 0.39397210 0.06256172
0.78285739 0.39397210 0.06256172
0.80239536 0.39397210 0.06256172
0.82184686 0.39397210 0.06256172
0.84119930 0.39397210 0.06256172
0.86044000 0.39397210 0.06256172
0.87955630 0.39397210 0.06256172
0.06256172 0.41784544 0.06256172
0.06256172 0.41784544 0.06256172
0.06256172 0.41784544 0.06256172
0.11138935 0.41784544 0.06256172
0.25580167 0.41784544 0.06256172
0.30419719 0.41784544 0.06256172
0.33909179 0.41784544 0.06256172
0.36813526 0.41784544 0.06256172
0.39397210 0.41784544 0.06256172
0.41784544 0.41784544 0.06256172
0.44044031 0.41784544 0.06256172
0.46217260 0.41784544 0.06256172
0.48331134 0.41784544 0.06256172
0.50403802 0.41784544 0.06256172
0.52447844 0.41784544 0.06256172
0.54472106 0.41784544 0.06256172
0.56482830 0.41784544 0.06256172
0.58484387 0.41784544 0.06256172
0.60479760 0.41784544 0.06256172
0.62470893 0.41784544 0.06256172
0.64458935 0.41784544 0.06256172
0.66444423 0.41784544 0.06256172
0.68427419 0.41784544 0.06256172
0.70407619 0.41784544 0.06256172
0.72384433 0.41784544 0.06256172
0.74357057 0.41784544 0.06256172
0.76324522 0.41784544 0.06256172
0.78285739 0.41784544 0.06256172
0.80239536 0.41784544 0.06256172
0.82184686 0.41784544 0.06256172
0.84119930 0.41784544 0.06256172
0.86044000 0.41784544 0.06256172
0.87955630 0.41784544 0.06256172
0.06256172 0.44044031 0.06256172
0.06256172 0.44044031 0.06256172
0.06256172 0.44044031 0.06256172
0.11138935 0.44044031 0.06256172
0.25580167 0.44044031 0.06256172
0.30419719 0.44044031 0.06256172
0.33909179 0.44044031 0.06256172
0.36813526 0.44044031 0.06256172
0.39397210 0.44044031 0.06256172
0.41784544 0.44044031 0.06256172
0.44044031 0.44044031 0.06256172
0.46217260 0.44044031 0.06256172
0.48331134 0.44044031 0.06256172
0.50403802 0.44044031 0.06256172
0.52447844 0.44044031 0.06256172
0.54472106 0.44044031 0.06256172
0.56482830 0.44044031 0.06256172
0.58484387 0.44044031 0.06256172
0.60479760 0.44044031 0.06256172
0.62470893 0.44044031 0.06256172
0.64458935 0.44044031 0.06256172
0.66444423 0.44044031 0.06256172
0.68427419 0.44044031 0.06256172
0.70407619 0.44044031 0.06256172
0.72384433 0.44044031 0.06256172
0.74357057 0.44044031 0.06256172
0.76324522 0.44044031 0.06256172
0.78285739 0.44044031 0.06256172
0.80239536 0.44044031 0.06256172
0.82184686 0.44044031 0.06256172
0.84119930 0.44044031 0.06256172
0.86044000 0.44044031 0.06256172
0.87955630 0.44044031 0.06256172
0.06256172 0.46217260 0.06256172
0.06256172 0.46217260 0.06256172
0.06256172 0.46217260 0.06256172
0.11138935 0.46217260 0.06256172
0.25580167 0.46217260 0.06256172
0.30419719 0.46217260 0.06256172
0.33909179 0.46217260 0.06256172
0.36813526 0.46217260 0.06256172
0.39397210 0.46217260 0.06256172
0.41784544 0.46217260 0.06256172
0.44044031 0.46217260 0.06256172
0.46217260 0.46217260 0.06256172
0.48331134 0.46217260 0.06256172
0.50403802 0.46217260 0.06256172
0.52447844 0.46217260 0.06256172
0.54472106 0.46217260 0.06256172
0.56482830 0.46217260 0.06256172
0.58484387 0.46217260 0.06256172
0.60479760 0.46217260 0.06256172
0.62470893 0.46217260 0.06256172
0.64458935 0.46217260 0.06256172
0.66444423 0.46217260 0.06256172
0.68427419 0.46217260 0.06256172
0.70407619 0.46217260 0.06256172
0.72384433 0.46217260 0.06256172
0.74357057 0.46217260 0.06256172
0.76324522 0.46217260 0.06256172
0.78285739 0.46217260 0.06256172
0.80239536 0.46217260 0.06256172
0.82184686 0.46217260 0.06256172
0.84119930 0.46217260 0.06256172
0.86044000 0.46217260 0.06256172
0.87955630 0.46217260 0.06256172
0.06256172 0.48331134 0.06256172
0.06256172 0.48331134 0.06256172
0.06256172 0.48331134 0.06256172
0.11138935 0.48331134 0.06256172
0.25580167 0.48331134 0.06256172
0.30419719 0.48331134 0.06256172
0.33909179 0.48331134 0.06256172
0.36813526 0.48331134 0.06256172
0.39397210 0.48331134 0.06256172
0.41784544 0.48331134 0.06256172
0.44044031 0.48331134 0.06256172
0.46217260 0.48331134 0.06256172
0.48331134 0.48331134 0.06256172
0.50403802 0.48331134 0.06256172
0.52447844 0.48331134 0.06256172
0.54472106 0.48331134 0.06256172
0.56482830 0.48331134 0.06256172
0.58484387 0.48331134 0.06256172
0.60479760 0.48331134 0.06256172
0.62470893 0.48331134 0.06256172
0.64458935 0.48331134 0.06256172
0.66444423 0.48331134 0.06256172
0.68427419 0.48331134 0.06256172
0.70407619 0.48331134 0.06256172
0.72384433 0.48331134 0.06256172
0.74357057 0.48331134 0.06256172
0.76324522 0.48331134 0.06256172
0.78285739 0.48331134 0.06256172
0.80239536 0.48331134 0.06256172
0.82184686 0.48331134 0.06256172
0.84119930 0.48331134 0.06256172
0.86044000 0.48331134 0.06256172
0.87955630 0.48331134 0.06256172
0.06256172 0.50403802 0.06256172
0.06256172 0.50403802 0.06256172
0.06256172 0.50403802 0.06256172
0.11138935 0.50403802 0.06256172
0.25580167 0.50403802 0.06256172
0.30419719 0.50403802 0.06256172
0.33909179 0.50403802 0.06256172
0.36813526 0.50403802 0.06256172
0.39397210 0.50403802 0.06256172
0.41784544 0.50403802 0.06256172
0.44044031 0.50403802 0.06256172
0.46217260 0.50403802 0.06256172
0.48331134 0.50403802 0.06256172
0.50403802 0.50403802 0.06256172
0.52447844 0.50403802 0.06256172
0.54472106 0.50403802 0.06256172
0.56482830 0.50403802 0.06256172
0.58484387 0.50403802 0.06256172
0.60479760 0.50403802 0.06256172
0.62470893 0.50403802 0.06256172
0.64458935 0.50403802 0.06256172
0.66444423 0.50403802 0.06256172
0.68427419 0.50403802 0.06256172
0.70407619 0.50403802 0.06256172
0.72384433 0.50403802 0.06256172
0.74357057 0.50403802 0.06256172
0.76324522 0.50403802 0.06256172
0.78285739 0.50403802 0.06256172
0.80239536 0.50403802 0.06256172
0.82184686 0.50403802 0.06256172
0.84119930 0.50403802 0.06256172
0.86044000 0.50403802 0.06256172
0.87955630 0.50403802 0.06256172
0.06256172 0.52447844 0.06256172
0.06256172 0.52447844 0.06256172
0.06256172 0.52447844 0.06256172
0.11138935 0.52447844 0.06256172
0.25580167 0.52447844 0.06256172
0.30419719 0.52447844 0.06256172
0.33909179 0.52447844 0.06256172
0.36813526 0.52447844 0.06256172
0.39397210 0.52447844 0.06256172
0.41784544 0.52447844 0.06256172
0.44044031 0.52447844 0.06256172
0.46217260 0.52447844 0.06256172
0.48331134 0.52447844 0.06256172
0.50403802 0.52447844 0.06256172
0.52447844 0.52447844 0.06256172
0.54472106 0.52447844 0.06256172
0.56482830 0.52447844 0.06256172
0.58484387 0.52447844 0.06256172
0.60479760 0.52447844 0.06256172
0.62470893 0.52447844 0.06256172
0.64458935 0.52447844 0.06256172
0.66444423 0.52447844 0.06256172
0.68427419 0.52447844 0.06256172
0.70407619 0.52447844 0.06256172
0.72384433 0.52447844 0.06256172
0.74357057 0.52447844 0.06256172
0.76324522 0.52447844 0.06256172
0.78285739 0.52447844 0.06256172
0.80239536 0.52447844 0.06256172
0.82184686 0.52447844 0.06256172
0.84119930 0.52447844 0.06256172
0.86044000 0.52447844 0.06256172
0.87955630 0.52447844 0.06256172
0.06256172 0.54472106 0.06256172
0.06256172 0.54472106 0.06256172
0.06256172 0.54472106 0.06256172
0.11138935 0.54472106 0.06256172
0.25580167 0.54472106 0.06256172
0.30419719 0.54472106 0.06256172
0.33909179 0.54472106 0.06256172
0.36813526 0.54472106 0.06256172
0.39397210 0.54472106 0.06256172
0.41784544 0.54472106 0.06256172
0.44044031 0.54472106 0.06256172
0.46217260 0.54472106 0.06256172
0.48331134 0.54472106 0.06256172
0.50403802 0.54472106 0.06256172
0.52447844 0.54472106 0.06256172
0.54472106 0.54472106 0.06256172
0.56482830 0.54472106 0.06256172
0.58484387 0.54472106 0.06256172
0.60479760 0.54472106 0.06256172
0.62470893 0.54472106 0.06256172
0.64458935 0.54472106 0.06256172
0.66444423 0.54472106 0.06256172
0.68427419 0.54472106 0.06256172
0.70407619 0.54472106 0.06256172
0.72384433 0.54472106 0.06256172
0.74357057 0.54472106 0.06256172
0.76324522 0.54472106 0.06256172
0.78285739 0.54472106 0.06256172
0.80239536 0.54472106 0.06256172
0.82184686 0.54472106 0.06256172
0.84119930 0.54472106 0.06256172
0.86044000 0.54472106 0.06256172
0.87955630 0.54472106 0.06256172
0.06256172 0.56482830 0.06256172
0.06256172 0.56482830 0.06256172
0.06256172 0.56482830 0.06256172
0.11138935 0.56482830 0.06256172
0.25580167 0.56482830 0.06256172
0.30419719 0.56482830 0.06256172
0.33909179 0.56482830 0.06256172
0.36813526 0.56482830 0.06256172
0.39397210 0.56482830 0.06256172
0.41784544 0.56482830 0.06256172
0.44044031 0.56482830 0.06256172
0.46217260 0.56482830 0.06256172
0.48331134 0.56482830 0.06256172
0.50403802 0.56482830 0.06256172
0.52447844 0.56482830 0.06256172
0.54472106 0.56482830 0.06256172
0.56482830 0.56482830 0.06256172
0.58484387 0.56482830 0.06256172
0.60479760 0.56482830 0.06256172
0.62470893 0.56482830 0.06256172
0.64458935 0.56482830 0.06256172
0.66444423 0.56482830 0.06256172
0.68427419 0.56482830 0.06256172
0.70407619 0.56482830 0.06256172
0.72384433 0.56482830 0.06256172
0.74357057 0.56482830 0.06256172
0.76324522 0.56482830 0.06256172
0.78285739 0.56482830 0.06256172
0.80239536 0.56482830 0.06256172
0.82184686 0.56482830 0.06256172
0.84119930 0.56482830 0.06256172
0.86044000 0.56482830 0.06256172
0.87955630 0.56482830 0.06256172
0.06256172 0.58484387 0.06256172
0.06256172 0.58484387 0.06256172
0.06256172 0.58484387 0.06256172
0.11138935 0.58484387 0.06256172
0.25580167 0.58484387 0.06256172
0.30419719 0.58484387 0.06256172
0.33909179 0.58484387 0.06256172
0.36813526 0.58484387 0.06256172
0.39397210 0.58484387 0.06256172
0.41784544 0.58484387 0.06256172
0.44044031 0.58484387 0.06256172
0.46217260 0.58484387 0.06256172
0.48331134 0.58484387 0.06256172
0.50403802 0.58484387 0.06256172
0.52447844 0.58484387 0.06256172
0.54472106 0.58484387 0.06256172
0.56482830 0.58484387 0.06256172
0.58484387 0.58484387 0.06256172
0.60479760 0.58484387 0.06256172
0.62470893 0.58484387 0.06256172
0.64458935 0.58484387 0.06256172
0.66444423 0.58484387 0.06256172
0.68427419 0.58484387 0.06256172
0.70407619 0.58484387 0.06256172
0.72384433 0.58484387 0.06256172
0.74357057 0.58484387 0.06256172
0.76324522 0.58484387 0.06256172
0.78285739 0.58484387 0.06256172
0.80239536 0.58484387 0.06256172
0.82184686 0.58484387 0.06256172
0.84119930 0.58484387 0.06256172
0.86044000 0.58484387 0.06256172
0.87955630 0.58484387 0.06256172
0.06256172 0.60479760 0.06256172
0.06256172 0.60479760 0.06256172
0.06256172 0.60479760 0.06256172
0.11138935 0.60479760 0.06256172
0.25580167 0.60479760 0.06256172
0.30419719 0.60479760 0.06256172
0.33909179 0.60479760 0.06256172
0.36813526 0.60479760 0.06256172
0.39397210 0.60479760 0.06256172
0.41784544 0.60479760 0.06256172
0.44044031 0.60479760 0.06256172
0.46217260 0.60479760 0.06256172
0.48331134 0.60479760 0.06256172
0.50403802 0.60479760 0.06256172
0.52447844 0.60479760 0.06256172
0.54472106 0.60479760 0.06256172
0.56482830 0.60479760 0.06256172
0.58484387 0.60479760 0.06256172
0.60479760 0.60479760 0.06256172
0.62470893 0.60479760 0.06256172
0.64458935 0.60479760 0.06256172
0.66444423 0.60479760 0.06256172
0.68427419 0.60479760 0.06256172
0.70407619 0.60479760 0.06256172
0.72384433 0.60479760 0.06256172
0.74357057 0.60479760 0.06256172
0.76324522 0.60479760 0.06256172
0.78285739 0.60479760 0.06256172
0.80239536 0.60479760 0.06256172
0.82184686 0.60479760 0.06256172
0.84119930 0.60479760 0.06256172
0.86044000 0.60479760 0.06256172
0.87955630 0.60479760 0.06256172
0.06256172 0.62470893 0.06256172
0.06256172 0.62470893 0.06256172
0.06256172 0.62470893 0.06256172
0.11138935 0.62470893 0.06256172
0.25580167 0.62470893 0.06256172
0.30419719 0.62470893 0.06256172
0.33909179 0.62470893 0.06256172
0.36813526 0.62470893 0.06256172
0.39397210 0.62470893 0.06256172
0.41784544 0.62470893 0.06256172
0.44044031 0.62470893 0.06256172
0.46217260 0.62470893 0.06256172
0.48331134 0.62470893 0.06256172
0.50403802 0.62470893 0.06256172
0.52447844 0.62470893 0.06256172
0.54472106 0.62470893 0.06256172
0.56482830 0.62470893 0.06256172
0.58484387 0.62470893 0.06256172
0.60479760 0.62470893 0.06256172
0.62470893 0.62470893 0.06256172
0.64458935 0.62470893 0.06256172
0.66444423 0.62470893 0.06256172
0.68427419 0.62470893 0.06256172
0.70407619 0.62470893 0.06256172
0.72384433 0.62470893 0.06256172
0.74357057 0.62470893 0.06256172
0.76324522 0.62470893 0.06256172
0.78285739 0.62470893 0.06256172
0.80239536 0.62470893 0.06256172
0.82184686 0.62470893 0.06256172
0.84119930 0.62470893 0.06256172
0.86044000 0.62470893 0.06256172
0.87955630 0.62470893 0.06256172
0.06256172 0.64458935 0.06256172
0.06256172 0.64458935 0.06256172
0.06256172 0.64458935 0.06256172
0.11138935 0.64458935 0.06256172
0.25580167 0.64458935 0.06256172
0.30419719 0.64458935 0.06256172
0.33909179 0.64458935 0.06256172
0.36813526 0.64458935 0.06256172
0.39397210 0.64458935 0.06256172
0.41784544 0.64458935 0.06256172
0.44044031 0.64458935 0.06256172
0.46217260 0.64458935 0.06256172
0.48331134 0.64458935 0.06256172
0.50403802 0.64458935 0.06256172
0.52447844 0.64458935 0.06256172
0.54472106 0.64458935 0.06256172
0.56482830 0.64458935 0.06256172
0.58484387 0.64458935 0.06256172
0.60479760 0.64458935 0.06256172
0.62470893 0.64458935 0.06256172
0.64458935 0.64458935 0.06256172
0.66444423 0.64458935 0.06256172
0.68427419 0.64458935 0.06256172
0.70407619 0.64458935 0.06256172
0.72384433 0.64458935 0.06256172
0.74357057 0.64458935 0.06256172
0.76324522 0.64458935 0.06256172
0.78285739 0.64458935 0.06256172
0.80239536 0.64458935 0.06256172
0.82184686 0.64458935 0.06256172
0.84119930 0.64458935 0.06256172
0.86044000 0.64458935 0.06256172
0.87955630 0.64458935 0.06256172
0.06256172 0.66444423 0.06256172
0.06256172 0.66444423 0.06256172
0.06256172 0.66444423 0.06256172
0.11138935 0.66444423 0.06256172
0.25580167 0.66444423 0.06256172
0.30419719 0.66444423 0.06256172
0.33909179 0.66444423 0.06256172
0.36813526 0.66444423 0.06256172
0.39397210 0.66444423 0.06256172
0.41784544 0.66444423 0.06256172
0.44044031 0.66444423 0.06256172
0.46217260 0.66444423 0.06256172
0.48331134 0.66444423 0.06256172
0.50403802 0.66444423 0.06256172
0.52447844 0.66444423 0.06256172
0.54472106 0.66444423 0.06256172
0.56482830 0.66444423 0.06256172
0.58484387 0.66444423 0.06256172
0.60479760 0.66444423 0.06256172
0.62470893 0.66444423 0.06256172
0.64458935 0.66444423 0.06256172
0.66444423 0.66444423 0.06256172
0.68427419 0.66444423 0.06256172
0.70407619 0.66444423 0.06256172
0.72384433 0.66444423 0.06256172
0.74357057 0.66444423 0.06256172
0.76324522 0.66444423 0.06256172
