src/ffmpeg_scripts/luts/flog-smpte2084_-3p67.cube
TITLE "flog-smpte2084_-3p67"
LUT_3D_SIZE 33
# Fujifilm F-Log/Rec2020 -> PQ (EOTF Only)/Rec2020, CineEI Shift -3.67, Black Level 0.00% IRE, Input 109% -> Output 109% - Created with LUTCalc v4.01 by Ben Turley October 2020
0.06256172 0.06256172 0.06256172
0.06256172 0.06256172 0.06256172
0.06256172 0.06256172 0.06256172
0.06731670 0.06256172 0.06256172
0.09643177 0.06256172 0.06256172
0.11070749 0.06256172 0.06256172
0.12238680 0.06256172 0.06256172
0.13299691 0.06256172 0.06256172
0.14311819 0.06256172 0.06256172
0.15304497 0.06256172 0.06256172
0.16295165 0.06256172 0.06256172
0.17295237 0.06256172 0.06256172
0.18312701 0.06256172 0.06256172
0.19353411 0.06256172 0.06256172
0.20421797 0.06256172 0.06256172
0.21521265 0.06256172 0.06256172
0.22654461 0.06256172 0.06256172
0.23823425 0.06256172 0.06256172
0.25029706 0.06256172 0.06256172
0.26274436 0.06256172 0.06256172
0.27558389 0.06256172 0.06256172
0.28882020 0.06256172 0.06256172
0.30245499 0.06256172 0.06256172
0.31648738 0.06256172 0.06256172
0.33091416 0.06256172 0.06256172
0.34572994 0.06256172 0.06256172
0.36092738 0.06256172 0.06256172
0.37649734 0.06256172 0.06256172
0.39242900 0.06256172 0.06256172
0.40871007 0.06256172 0.06256172
0.42532686 0.06256172 0.06256172
0.44226449 0.06256172 0.06256172
0.45950695 0.06256172 0.06256172
0.06256172 0.06256172 0.06256172
0.06256172 0.06256172 0.06256172
0.06256172 0.06256172 0.06256172
0.06731670 0.06256172 0.06256172
0.09643177 0.06256172 0.06256172
0.11070749 0.06256172 0.06256172
0.12238680 0.06256172 0.06256172
0.13299691 0.06256172 0.06256172
0.14311819 0.06256172 0.06256172
0.15304497 0.06256172 0.06256172
0.16295165 0.06256172 0.06256172
0.17295237 0.06256172 0.06256172
0.18312701 0.06256172 0.06256172
0.19353411 0.06256172 0.06256172
0.20421797 0.06256172 0.06256172
0.21521265 0.06256172 0.06256172
0.22654461 0.06256172 0.06256172
0.23823425 0.06256172 0.06256172
0.25029706 0.06256172 0.06256172
0.26274436 0.06256172 0.06256172
0.27558389 0.06256172 0.06256172
0.28882020 0.06256172 0.06256172
0.30245499 0.06256172 0.06256172
0.31648738 0.06256172 0.06256172
0.33091416 0.06256172 0.06256172
0.34572994 0.06256172 0.06256172
0.36092738 0.06256172 0.06256172
0.37649734 0.06256172 0.06256172
0.39242900 0.06256172 0.06256172
0.40871007 0.06256172 0.06256172
0.42532686 0.06256172 0.06256172
0.44226449 0.06256172 0.06256172
0.45950695 0.06256172 0.06256172
0.06256172 0.06256172 0.06256172
0.06256172 0.06256172 0.06256172
0.06256172 0.06256172 0.06256172
0.06731670 0.06256172 0.06256172
0.09643177 0.06256172 0.06256172
0.11070749 0.06256172 0.06256172
0.12238680 0.06256172 0.06256172
0.13299691 0.06256172 0.06256172
0.14311819 0.06256172 0.06256172
0.15304497 0.06256172 0.06256172
0.16295165 0.06256172 0.06256172
0.17295237 0.06256172 0.06256172
0.18312701 0.06256172 0.06256172
0.19353411 0.06256172 0.06256172
0.20421797 0.06256172 0.06256172
0.21521265 0.06256172 0.06256172
0.22654461 0.06256172 0.06256172
0.23823425 0.06256172 0.06256172
0.25029706 0.06256172 0.06256172
0.26274436 0.06256172 0.06256172
0.27558389 0.06256172 0.06256172
0.28882020 0.06256172 0.06256172
0.30245499 0.06256172 0.06256172
0.31648738 0.06256172 0.06256172
0.33091416 0.06256172 0.06256172
0.34572994 0.06256172 0.06256172
0.36092738 0.06256172 0.06256172
0.37649734 0.06256172 0.06256172
0.39242900 0.06256172 0.06256172
0.40871007 0.06256172 0.06256172
0.42532686 0.06256172 0.06256172
0.44226449 0.06256172 0.06256172
0.45950695 0.06256172 0.06256172
0.06256172 0.06731670 0.06256172
0.06256172 0.06731670 0.06256172
0.06256172 0.06731670 0.06256172
0.06731670 0.06731670 0.06256172
0.09643177 0.06731670 0.06256172
0.11070749 0.06731670 0.06256172
0.12238680 0.06731670 0.06256172
0.13299691 0.06731670 0.06256172
0.14311819 0.06731670 0.06256172
0.15304497 0.06731670 0.06256172
0.16295165 0.06731670 0.06256172
0.17295237 0.06731670 0.06256172
0.18312701 0.06731670 0.06256172
0.19353411 0.06731670 0.06256172
0.20421797 0.06731670 0.06256172
0.21521265 0.06731670 0.06256172
0.22654461 0.06731670 0.06256172
0.23823425 0.06731670 0.06256172
0.25029706 0.06731670 0.06256172
0.26274436 0.06731670 0.06256172
0.27558389 0.06731670 0.06256172
0.28882020 0.06731670 0.06256172
0.30245499 0.06731670 0.06256172
0.31648738 0.06731670 0.06256172
0.33091416 0.06731670 0.06256172
0.34572994 0.06731670 0.06256172
0.36092738 0.06731670 0.06256172
0.37649734 0.06731670 0.06256172
0.39242900 0.06731670 0.06256172
0.40871007 0.06731670 0.06256172
0.42532686 0.06731670 0.06256172
0.44226449 0.06731670 0.06256172
0.45950695 0.06731670 0.06256172
0.06256172 0.09643177 0.06256172
0.06256172 0.09643177 0.06256172
0.06256172 0.09643177 0.06256172
0.06731670 0.09643177 0.06256172
0.09643177 0.09643177 0.06256172
0.11070749 0.09643177 0.06256172
0.12238680 0.09643177 0.06256172
0.13299691 0.09643177 0.06256172
0.14311819 0.09643177 0.06256172
0.15304497 0.09643177 0.06256172
0.16295165 0.09643177 0.06256172
0.17295237 0.09643177 0.06256172
0.18312701 0.09643177 0.06256172
0.19353411 0.09643177 0.06256172
0.20421797 0.09643177 0.06256172
0.21521265 0.09643177 0.06256172
0.22654461 0.09643177 0.06256172
0.23823425 0.09643177 0.06256172
0.25029706 0.09643177 0.06256172
0.26274436 0.09643177 0.06256172
0.27558389 0.09643177 0.06256172
0.28882020 0.09643177 0.06256172
0.30245499 0.09643177 0.06256172
0.31648738 0.09643177 0.06256172
0.33091416 0.09643177 0.06256172
0.34572994 0.09643177 0.06256172
0.36092738 0.09643177 0.06256172
0.37649734 0.09643177 0.06256172
0.39242900 0.09643177 0.06256172
0.40871007 0.09643177 0.06256172
0.42532686 0.09643177 0.06256172
0.44226449 0.09643177 0.06256172
0.45950695 0.09643177 0.06256172
0.06256172 0.11070749 0.06256172
0.06256172 0.11070749 0.06256172
0.06256172 0.11070749 0.06256172
0.06731670 0.11070749 0.06256172
0.09643177 0.11070749 0.06256172
0.11070749 0.11070749 0.06256172
0.12238680 0.11070749 0.06256172
0.13299691 0.11070749 0.06256172
0.14311819 0.11070749 0.06256172
0.15304497 0.11070749 0.06256172
0.16295165 0.11070749 0.06256172
0.17295237 0.11070749 0.06256172
0.18312701 0.11070749 0.06256172
0.19353411 0.11070749 0.06256172
0.20421797 0.11070749 0.06256172
0.21521265 0.11070749 0.06256172
0.22654461 0.11070749 0.06256172
0.23823425 0.11070749 0.06256172
0.25029706 0.11070749 0.06256172
0.26274436 0.11070749 0.06256172
0.27558389 0.11070749 0.06256172
0.28882020 0.11070749 0.06256172
0.30245499 0.11070749 0.06256172
0.31648738 0.11070749 0.06256172
0.33091416 0.11070749 0.06256172
0.34572994 0.11070749 0.06256172
0.36092738 0.11070749 0.06256172
0.37649734 0.11070749 0.06256172
0.39242900 0.11070749 0.06256172
0.40871007 0.11070749 0.06256172
0.42532686 0.11070749 0.06256172
0.44226449 0.11070749 0.06256172
0.45950695 0.11070749 0.06256172
0.06256172 0.12238680 0.06256172
0.06256172 0.12238680 0.06256172
0.06256172 0.12238680 0.06256172
0.06731670 0.12238680 0.06256172
0.09643177 0.12238680 0.06256172
0.11070749 0.12238680 0.06256172
0.12238680 0.12238680 0.06256172
0.13299691 0.12238680 0.06256172
0.14311819 0.12238680 0.06256172
0.15304497 0.12238680 0.06256172
0.16295165 0.12238680 0.06256172
0.17295237 0.12238680 0.06256172
0.18312701 0.12238680 0.06256172
0.19353411 0.12238680 0.06256172
0.20421797 0.12238680 0.06256172
0.21521265 0.12238680 0.06256172
0.22654461 0.12238680 0.06256172
0.23823425 0.12238680 0.06256172
0.25029706 0.12238680 0.06256172
0.26274436 0.12238680 0.06256172
0.27558389 0.12238680 0.06256172
0.28882020 0.12238680 0.06256172
0.30245499 0.12238680 0.06256172
0.31648738 0.12238680 0.06256172
0.33091416 0.12238680 0.06256172
0.34572994 0.12238680 0.06256172
0.36092738 0.12238680 0.06256172
0.37649734 0.12238680 0.06256172
0.39242900 0.12238680 0.06256172
0.40871007 0.12238680 0.06256172
0.42532686 0.12238680 0.06256172
0.44226449 0.12238680 0.06256172
0.45950695 0.12238680 0.06256172
0.06256172 0.13299691 0.06256172
0.06256172 0.13299691 0.06256172
0.06256172 0.13299691 0.06256172
0.06731670 0.13299691 0.06256172
0.09643177 0.13299691 0.06256172
0.11070749 0.13299691 0.06256172
0.12238680 0.13299691 0.06256172
0.13299691 0.13299691 0.06256172
0.14311819 0.13299691 0.06256172
0.15304497 0.13299691 0.06256172
0.16295165 0.13299691 0.06256172
0.17295237 0.13299691 0.06256172
0.18312701 0.13299691 0.06256172
0.19353411 0.13299691 0.06256172
0.20421797 0.13299691 0.06256172
0.21521265 0.13299691 0.06256172
0.22654461 0.13299691 0.06256172
0.23823425 0.13299691 0.06256172
0.25029706 0.13299691 0.06256172
0.26274436 0.13299691 0.06256172
0.27558389 0.13299691 0.06256172
0.28882020 0.13299691 0.06256172
0.30245499 0.13299691 0.06256172
0.31648738 0.13299691 0.06256172
0.33091416 0.13299691 0.06256172
0.34572994 0.13299691 0.06256172
0.36092738 0.13299691 0.06256172
0.37649734 0.13299691 0.06256172
0.39242900 0.13299691 0.06256172
0.40871007 0.13299691 0.06256172
0.42532686 0.13299691 0.06256172
0.44226449 0.13299691 0.06256172
0.45950695 0.13299691 0.06256172
0.06256172 0.14311819 0.06256172
0.06256172 0.14311819 0.06256172
0.06256172 0.14311819 0.06256172
0.06731670 0.14311819 0.06256172
0.09643177 0.14311819 0.06256172
0.11070749 0.14311819 0.06256172
0.12238680 0.14311819 0.06256172
0.13299691 0.14311819 0.06256172
0.14311819 0.14311819 0.06256172
0.15304497 0.14311819 0.06256172
0.16295165 0.14311819 0.06256172
0.17295237 0.14311819 0.06256172
0.18312701 0.14311819 0.06256172
0.19353411 0.14311819 0.06256172
0.20421797 0.14311819 0.06256172
0.21521265 0.14311819 0.06256172
0.22654461 0.14311819 0.06256172
0.23823425 0.14311819 0.06256172
0.25029706 0.14311819 0.06256172
0.26274436 0.14311819 0.06256172
0.27558389 0.14311819 0.06256172
0.28882020 0.14311819 0.06256172
0.30245499 0.14311819 0.06256172
0.31648738 0.14311819 0.06256172
0.33091416 0.14311819 0.06256172
0.34572994 0.14311819 0.06256172
0.36092738 0.14311819 0.06256172
0.37649734 0.14311819 0.06256172
0.39242900 0.14311819 0.06256172
0.40871007 0.14311819 0.06256172
0.42532686 0.14311819 0.06256172
0.44226449 0.14311819 0.06256172
0.45950695 0.14311819 0.06256172
0.06256172 0.15304497 0.06256172
0.06256172 0.15304497 0.06256172
0.06256172 0.15304497 0.06256172
0.06731670 0.15304497 0.06256172
0.09643177 0.15304497 0.06256172
0.11070749 0.15304497 0.06256172
0.12238680 0.15304497 0.06256172
0.13299691 0.15304497 0.06256172
0.14311819 0.15304497 0.06256172
0.15304497 0.15304497 0.06256172
0.16295165 0.15304497 0.06256172
0.17295237 0.15304497 0.06256172
0.18312701 0.15304497 0.06256172
0.19353411 0.15304497 0.06256172
0.20421797 0.15304497 0.06256172
0.21521265 0.15304497 0.06256172
0.22654461 0.15304497 0.06256172
0.23823425 0.15304497 0.06256172
0.25029706 0.15304497 0.06256172
0.26274436 0.15304497 0.06256172
0.27558389 0.15304497 0.06256172
0.28882020 0.15304497 0.06256172
0.30245499 0.15304497 0.06256172
0.31648738 0.15304497 0.06256172
0.33091416 0.15304497 0.06256172
0.34572994 0.15304497 0.06256172
0.36092738 0.15304497 0.06256172
0.37649734 0.15304497 0.06256172
0.39242900 0.15304497 0.06256172
0.40871007 0.15304497 0.06256172
0.42532686 0.15304497 0.06256172
0.44226449 0.15304497 0.06256172
0.45950695 0.15304497 0.06256172
0.06256172 0.16295165 0.06256172
0.06256172 0.16295165 0.06256172
0.06256172 0.16295165 0.06256172
0.06731670 0.16295165 0.06256172
0.09643177 0.16295165 0.06256172
0.11070749 0.16295165 0.06256172
0.12238680 0.16295165 0.06256172
0.13299691 0.16295165 0.06256172
0.14311819 0.16295165 0.06256172
0.15304497 0.16295165 0.06256172
0.16295165 0.16295165 0.06256172
0.17295237 0.16295165 0.06256172
0.18312701 0.16295165 0.06256172
0.19353411 0.16295165 0.06256172
0.20421797 0.16295165 0.06256172
0.21521265 0.16295165 0.06256172
0.22654461 0.16295165 0.06256172
0.23823425 0.16295165 0.06256172
0.25029706 0.16295165 0.06256172
0.26274436 0.16295165 0.06256172
0.27558389 0.16295165 0.06256172
0.28882020 0.16295165 0.06256172
0.30245499 0.16295165 0.06256172
0.31648738 0.16295165 0.06256172
0.33091416 0.16295165 0.06256172
0.34572994 0.16295165 0.06256172
0.36092738 0.16295165 0.06256172
0.37649734 0.16295165 0.06256172
0.39242900 0.16295165 0.06256172
0.40871007 0.16295165 0.06256172
0.42532686 0.16295165 0.06256172
0.44226449 0.16295165 0.06256172
0.45950695 0.16295165 0.06256172
0.06256172 0.17295237 0.06256172
0.06256172 0.17295237 0.06256172
0.06256172 0.17295237 0.06256172
0.06731670 0.17295237 0.06256172
0.09643177 0.17295237 0.06256172
0.11070749 0.17295237 0.06256172
0.12238680 0.17295237 0.06256172
0.13299691 0.17295237 0.06256172
0.14311819 0.17295237 0.06256172
0.15304497 0.17295237 0.06256172
0.16295165 0.17295237 0.06256172
0.17295237 0.17295237 0.06256172
0.18312701 0.17295237 0.06256172
0.19353411 0.17295237 0.06256172
0.20421797 0.17295237 0.06256172
0.21521265 0.17295237 0.06256172
0.22654461 0.17295237 0.06256172
0.23823425 0.17295237 0.06256172
0.25029706 0.17295237 0.06256172
0.26274436 0.17295237 0.06256172
0.27558389 0.17295237 0.06256172
0.28882020 0.17295237 0.06256172
0.30245499 0.17295237 0.06256172
0.31648738 0.17295237 0.06256172
0.33091416 0.17295237 0.06256172
0.34572994 0.17295237 0.06256172
0.36092738 0.17295237 0.06256172
0.37649734 0.17295237 0.06256172
0.39242900 0.17295237 0.06256172
0.40871007 0.17295237 0.06256172
0.42532686 0.17295237 0.06256172
0.44226449 0.17295237 0.06256172
0.45950695 0.17295237 0.06256172
0.06256172 0.18312701 0.06256172
0.06256172 0.18312701 0.06256172
0.06256172 0.18312701 0.06256172
0.06731670 0.18312701 0.06256172
0.09643177 0.18312701 0.06256172
0.11070749 0.18312701 0.06256172
0.12238680 0.18312701 0.06256172
0.13299691 0.18312701 0.06256172
0.14311819 0.18312701 0.06256172
0.15304497 0.18312701 0.06256172
0.16295165 0.18312701 0.06256172
0.17295237 0.18312701 0.06256172
0.18312701 0.18312701 0.06256172
0.19353411 0.18312701 0.06256172
0.20421797 0.18312701 0.06256172
0.21521265 0.18312701 0.06256172
0.22654461 0.18312701 0.06256172
0.23823425 0.18312701 0.06256172
0.25029706 0.18312701 0.06256172
0.26274436 0.18312701 0.06256172
0.27558389 0.18312701 0.06256172
0.28882020 0.18312701 0.06256172
0.30245499 0.18312701 0.06256172
0.31648738 0.18312701 0.06256172
0.33091416 0.18312701 0.06256172
0.34572994 0.18312701 0.06256172
0.36092738 0.18312701 0.06256172
0.37649734 0.18312701 0.06256172
0.39242900 0.18312701 0.06256172
0.40871007 0.18312701 0.06256172
0.42532686 0.18312701 0.06256172
0.44226449 0.18312701 0.06256172
0.45950695 0.18312701 0.06256172
0.06256172 0.19353411 0.06256172
0.06256172 0.19353411 0.06256172
0.06256172 0.19353411 0.06256172
0.06731670 0.19353411 0.06256172
0.09643177 0.19353411 0.06256172
0.11070749 0.19353411 0.06256172
0.12238680 0.19353411 0.06256172
0.13299691 0.19353411 0.06256172
0.14311819 0.19353411 0.06256172
0.15304497 0.19353411 0.06256172
0.16295165 0.19353411 0.06256172
0.17295237 0.19353411 0.06256172
0.18312701 0.19353411 0.06256172
0.19353411 0.19353411 0.06256172
0.20421797 0.19353411 0.06256172
0.21521265 0.19353411 0.06256172
0.22654461 0.19353411 0.06256172
0.23823425 0.19353411 0.06256172
0.25029706 0.19353411 0.06256172
0.26274436 0.19353411 0.06256172
0.27558389 0.19353411 0.06256172
0.28882020 0.19353411 0.06256172
0.30245499 0.19353411 0.06256172
0.31648738 0.19353411 0.06256172
0.33091416 0.19353411 0.06256172
0.34572994 0.19353411 0.06256172
0.36092738 0.19353411 0.06256172
0.37649734 0.19353411 0.06256172
0.39242900 0.19353411 0.06256172
0.40871007 0.19353411 0.06256172
0.42532686 0.19353411 0.06256172
0.44226449 0.19353411 0.06256172
0.45950695 0.19353411 0.06256172
0.06256172 0.20421797 0.06256172
0.06256172 0.20421797 0.06256172
0.06256172 0.20421797 0.06256172
0.06731670 0.20421797 0.06256172
0.09643177 0.20421797 0.06256172
0.11070749 0.20421797 0.06256172
0.12238680 0.20421797 0.06256172
0.13299691 0.20421797 0.06256172
0.14311819 0.20421797 0.06256172
0.15304497 0.20421797 0.06256172
0.16295165 0.20421797 0.06256172
0.17295237 0.20421797 0.06256172
0.18312701 0.20421797 0.06256172
0.19353411 0.20421797 0.06256172
0.20421797 0.20421797 0.06256172
0.21521265 0.20421797 0.06256172
0.22654461 0.20421797 0.06256172
0.23823425 0.20421797 0.06256172
0.25029706 0.20421797 0.06256172
0.26274436 0.20421797 0.06256172
0.27558389 0.20421797 0.06256172
0.28882020 0.20421797 0.06256172
0.30245499 0.20421797 0.06256172
0.31648738 0.20421797 0.06256172
0.33091416 0.20421797 0.06256172
0.34572994 0.20421797 0.06256172
0.36092738 0.20421797 0.06256172
0.37649734 0.20421797 0.06256172
0.39242900 0.20421797 0.06256172
0.40871007 0.20421797 0.06256172
0.42532686 0.20421797 0.06256172
0.44226449 0.20421797 0.06256172
0.45950695 0.20421797 0.06256172
0.06256172 0.21521265 0.06256172
0.06256172 0.21521265 0.06256172
0.06256172 0.21521265 0.06256172
0.06731670 0.21521265 0.06256172
0.09643177 0.21521265 0.06256172
0.11070749 0.21521265 0.06256172
0.12238680 0.21521265 0.06256172
0.13299691 0.21521265 0.06256172
0.14311819 0.21521265 0.06256172
0.15304497 0.21521265 0.06256172
0.16295165 0.21521265 0.06256172
0.17295237 0.21521265 0.06256172
0.18312701 0.21521265 0.06256172
0.19353411 0.21521265 0.06256172
0.20421797 0.21521265 0.06256172
0.21521265 0.21521265 0.06256172
0.22654461 0.21521265 0.06256172
0.23823425 0.21521265 0.06256172
0.25029706 0.21521265 0.06256172
0.26274436 0.21521265 0.06256172
0.27558389 0.21521265 0.06256172
0.28882020 0.21521265 0.06256172
0.30245499 0.21521265 0.06256172
0.31648738 0.21521265 0.06256172
0.33091416 0.21521265 0.06256172
0.34572994 0.21521265 0.06256172
0.36092738 0.21521265 0.06256172
0.37649734 0.21521265 0.06256172
0.39242900 0.21521265 0.06256172
0.40871007 0.21521265 0.06256172
0.42532686 0.21521265 0.06256172
0.44226449 0.21521265 0.06256172
0.45950695 0.21521265 0.06256172
0.06256172 0.22654461 0.06256172
0.06256172 0.22654461 0.06256172
0.06256172 0.22654461 0.06256172
0.06731670 0.22654461 0.06256172
0.09643177 0.22654461 0.06256172
0.11070749 0.22654461 0.06256172
0.12238680 0.22654461 0.06256172
0.13299691 0.22654461 0.06256172
0.14311819 0.22654461 0.06256172
0.15304497 0.22654461 0.06256172
0.16295165 0.22654461 0.06256172
0.17295237 0.22654461 0.06256172
0.18312701 0.22654461 0.06256172
0.19353411 0.22654461 0.06256172
0.20421797 0.22654461 0.06256172
0.21521265 0.22654461 0.06256172
0.22654461 0.22654461 0.06256172
0.23823425 0.22654461 0.06256172
0.25029706 0.22654461 0.06256172
0.26274436 0.22654461 0.06256172
0.27558389 0.22654461 0.06256172
0.28882020 0.22654461 0.06256172
0.30245499 0.22654461 0.06256172
0.31648738 0.22654461 0.06256172
0.33091416 0.22654461 0.06256172
0.34572994 0.22654461 0.06256172
0.36092738 0.22654461 0.06256172
0.37649734 0.22654461 0.06256172
0.39242900 0.22654461 0.06256172
0.40871007 0.22654461 0.06256172
0.42532686 0.22654461 0.06256172
0.44226449 0.22654461 0.06256172
0.45950695 0.22654461 0.06256172
0.06256172 0.23823425 0.06256172
0.06256172 0.23823425 0.06256172
0.06256172 0.23823425 0.06256172
0.06731670 0.23823425 0.06256172
0.09643177 0.23823425 0.06256172
0.11070749 0.23823425 0.06256172
0.12238680 0.23823425 0.06256172
0.13299691 0.23823425 0.06256172
0.14311819 0.23823425 0.06256172
0.15304497 0.23823425 0.06256172
0.16295165 0.23823425 0.06256172
0.17295237 0.23823425 0.06256172
0.18312701 0.23823425 0.06256172
0.19353411 0.23823425 0.06256172
0.20421797 0.23823425 0.06256172
0.21521265 0.23823425 0.06256172
0.22654461 0.23823425 0.06256172
0.23823425 0.23823425 0.06256172
0.25029706 0.23823425 0.06256172
0.26274436 0.23823425 0.06256172
0.27558389 0.23823425 0.06256172
0.28882020 0.23823425 0.06256172
0.30245499 0.23823425 0.06256172
0.31648738 0.23823425 0.06256172
0.33091416 0.23823425 0.06256172
0.34572994 0.23823425 0.06256172
0.36092738 0.23823425 0.06256172
0.37649734 0.23823425 0.06256172
0.39242900 0.23823425 0.06256172
0.40871007 0.23823425 0.06256172
0.42532686 0.23823425 0.06256172
0.44226449 0.23823425 0.06256172
0.45950695 0.23823425 0.06256172
0.06256172 0.25029706 0.06256172
0.06256172 0.25029706 0.06256172
0.06256172 0.25029706 0.06256172
0.06731670 0.25029706 0.06256172
0.09643177 0.25029706 0.06256172
0.11070749 0.25029706 0.06256172
0.12238680 0.25029706 0.06256172
0.13299691 0.25029706 0.06256172
0.14311819 0.25029706 0.06256172
0.15304497 0.25029706 0.06256172
0.16295165 0.25029706 0.06256172
0.17295237 0.25029706 0.06256172
0.18312701 0.25029706 0.06256172
0.19353411 0.25029706 0.06256172
0.20421797 0.25029706 0.06256172
0.21521265 0.25029706 0.06256172
0.22654461 0.25029706 0.06256172
0.23823425 0.25029706 0.06256172
0.25029706 0.25029706 0.06256172
0.26274436 0.25029706 0.06256172
0.27558389 0.25029706 0.06256172
0.28882020 0.25029706 0.06256172
0.30245499 0.25029706 0.06256172
0.31648738 0.25029706 0.06256172
0.33091416 0.25029706 0.06256172
0.34572994 0.25029706 0.06256172
0.36092738 0.25029706 0.06256172
0.37649734 0.25029706 0.06256172
0.39242900 0.25029706 0.06256172
0.40871007 0.25029706 0.06256172
0.42532686 0.25029706 0.06256172
0.44226449 0.25029706 0.06256172
0.45950695 0.25029706 0.06256172
0.06256172 0.26274436 0.06256172
0.06256172 0.26274436 0.06256172
0.06256172 0.26274436 0.06256172
0.06731670 0.26274436 0.06256172
0.09643177 0.26274436 0.06256172
0.11070749 0.26274436 0.06256172
0.12238680 0.26274436 0.06256172
0.13299691 0.26274436 0.06256172
0.14311819 0.26274436 0.06256172
0.15304497 0.26274436 0.06256172
0.16295165 0.26274436 0.06256172
0.17295237 0.26274436 0.06256172
0.18312701 0.26274436 0.06256172
0.19353411 0.26274436 0.06256172
0.20421797 0.26274436 0.06256172
0.21521265 0.26274436 0.06256172
0.22654461 0.26274436 0.06256172
0.23823425 0.26274436 0.06256172
0.25029706 0.26274436 0.06256172
0.26274436 0.26274436 0.06256172
0.27558389 0.26274436 0.06256172
0.28882020 0.26274436 0.06256172
0.30245499 0.26274436 0.06256172
0.31648738 0.26274436 0.06256172
0.33091416 0.26274436 0.06256172
0.34572994 0.26274436 0.06256172
0.36092738 0.26274436 0.06256172
0.37649734 0.26274436 0.06256172
0.39242900 0.26274436 0.06256172
0.40871007 0.26274436 0.06256172
0.42532686 0.26274436 0.06256172
0.44226449 0.26274436 0.06256172
0.45950695 0.26274436 0.06256172
0.06256172 0.27558389 0.06256172
0.06256172 0.27558389 0.06256172
0.06256172 0.27558389 0.06256172
0.06731670 0.27558389 0.06256172
0.09643177 0.27558389 0.06256172
0.11070749 0.27558389 0.06256172
0.12238680 0.27558389 0.06256172
0.13299691 0.27558389 0.06256172
0.14311819 0.27558389 0.06256172
0.15304497 0.27558389 0.06256172
0.16295165 0.27558389 0.06256172
0.17295237 0.27558389 0.06256172
0.18312701 0.27558389 0.06256172
0.19353411 0.27558389 0.06256172
0.20421797 0.27558389 0.06256172
0.21521265 0.27558389 0.06256172
0.22654461 0.27558389 0.06256172
0.23823425 0.27558389 0.06256172
0.25029706 0.27558389 0.06256172
0.26274436 0.27558389 0.06256172
0.27558389 0.27558389 0.06256172
0.28882020 0.27558389 0.06256172
0.30245499 0.27558389 0.06256172
0.31648738 0.27558389 0.06256172
0.33091416 0.27558389 0.06256172
0.34572994 0.27558389 0.06256172
0.36092738 0.27558389 0.06256172
0.37649734 0.27558389 0.06256172
0.39242900 0.27558389 0.06256172
0.40871007 0.27558389 0.06256172
0.42532686 0.27558389 0.06256172
0.44226449 0.27558389 0.06256172
0.45950695 0.27558389 0.06256172
0.06256172 0.28882020 0.06256172
0.06256172 0.28882020 0.06256172
0.06256172 0.28882020 0.06256172
0.06731670 0.28882020 0.06256172
0.09643177 0.28882020 0.06256172
0.11070749 0.28882020 0.06256172
0.12238680 0.28882020 0.06256172
0.13299691 0.28882020 0.06256172
0.14311819 0.28882020 0.06256172
0.15304497 0.28882020 0.06256172
0.16295165 0.28882020 0.06256172
0.17295237 0.28882020 0.06256172
0.18312701 0.28882020 0.06256172
0.19353411 0.28882020 0.06256172
0.20421797 0.28882020 0.06256172
0.21521265 0.28882020 0.06256172
0.22654461 0.28882020 0.06256172
0.23823425 0.28882020 0.06256172
0.25029706 0.28882020 0.06256172
0.26274436 0.28882020 0.06256172
0.27558389 0.28882020 0.06256172
0.28882020 0.28882020 0.06256172
0.30245499 0.28882020 0.06256172
0.31648738 0.28882020 0.06256172
0.33091416 0.28882020 0.06256172
0.34572994 0.28882020 0.06256172
0.36092738 0.28882020 0.06256172
