src/ffmpeg_scripts/luts/flog-smpte2084_3p67.cube
TITLE "flog-smpte2084_3p67"
LUT_3D_SIZE 9
# Fujifilm F-Log/Rec2020 -> PQ (EOTF Only)/Rec2020, CineEI Shift 3.67, Black Level 0.00% IRE, Input 109% -> Output 109% - Created with LUTCalc v4.01 by Ben Turley October 2020
0.06256172 0.06256172 0.06256172
0.28333146 0.06256172 0.06256172
0.43037236 0.06256172 0.06256172
0.52318430 0.06256172 0.06256172
0.60669528 0.06256172 0.06256172
0.68749494 0.06256172 0.06256172
0.76700534 0.06256172 0.06256172
0.84513294 0.06256172 0.06256172
0.91886608 0.06256172 0.06256172
0.06256172 0.28333146 0.06256172
0.28333146 0.28333146 0.06256172
0.43037236 0.28333146 0.06256172
0.52318430 0.28333146 0.06256172
0.60669528 0.28333146 0.06256172
0.68749494 0.28333146 0.06256172
0.76700534 0.28333146 0.06256172
0.84513294 0.28333146 0.06256172
0.91886608 0.28333146 0.06256172
0.06256172 0.43037236 0.06256172
0.28333146 0.43037236 0.06256172
0.43037236 0.43037236 0.06256172
0.52318430 0.43037236 0.06256172
0.60669528 0.43037236 0.06256172
0.68749494 0.43037236 0.06256172
0.76700534 0.43037236 0.06256172
0.84513294 0.43037236 0.06256172
0.91886608 0.43037236 0.06256172
0.06256172 0.52318430 0.06256172
0.28333146 0.52318430 0.06256172
0.43037236 0.52318430 0.06256172
0.52318430 0.52318430 0.06256172
0.60669528 0.52318430 0.06256172
0.68749494 0.52318430 0.06256172
0.76700534 0.52318430 0.06256172
0.84513294 0.52318430 0.06256172
0.91886608 0.52318430 0.06256172
0.06256172 0.60669528 0.06256172
0.28333146 0.60669528 0.06256172
0.43037236 0.60669528 0.06256172
0.52318430 0.60669528 0.06256172
0.60669528 0.60669528 0.06256172
0.68749494 0.60669528 0.06256172
0.76700534 0.60669528 0.06256172
0.84513294 0.60669528 0.06256172
0.91886608 0.60669528 0.06256172
0.06256172 0.68749494 0.06256172
0.28333146 0.68749494 0.06256172
0.43037236 0.68749494 0.06256172
0.52318430 0.68749494 0.06256172
0.60669528 0.68749494 0.06256172
0.68749494 0.68749494 0.06256172
0.76700534 0.68749494 0.06256172
0.84513294 0.68749494 0.06256172
0.91886608 0.68749494 0.06256172
0.06256172 0.76700534 0.06256172
0.28333146 0.76700534 0.06256172
0.43037236 0.76700534 0.06256172
0.52318430 0.76700534 0.06256172
0.60669528 0.76700534 0.06256172
0.68749494 0.76700534 0.06256172
0.76700534 0.76700534 0.06256172
0.84513294 0.76700534 0.06256172
0.91886608 0.76700534 0.06256172
0.06256172 0.84513294 0.06256172
0.28333146 0.84513294 0.06256172
0.43037236 0.84513294 0.06256172
0.52318430 0.84513294 0.06256172
0.60669528 0.84513294 0.06256172
0.68749494 0.84513294 0.06256172
0.76700534 0.84513294 0.06256172
0.84513294 0.84513294 0.06256172
0.91886608 0.84513294 0.06256172
0.06256172 0.91886608 0.06256172
0.28333146 0.91886608 0.06256172
0.43037236 0.91886608 0.06256172
0.52318430 0.91886608 0.06256172
0.60669528 0.91886608 0.06256172
0.68749494 0.91886608 0.06256172
0.76700534 0.91886608 0.06256172
0.84513294 0.91886608 0.06256172
0.91886608 0.91886608 0.06256172
0.06256172 0.06256172 0.28333146
0.28333146 0.06256172 0.28333146
0.43037236 0.06256172 0.28333146
0.52318430 0.06256172 0.28333146
0.60669528 0.06256172 0.28333146
0.68749494 0.06256172 0.28333146
0.76700534 0.06256172 0.28333146
0.84513294 0.06256172 0.28333146
0.91886608 0.06256172 0.28333146
0.06256172 0.28333146 0.28333146
0.28333146 0.28333146 0.28333146
0.43037236 0.28333146 0.28333146
0.52318430 0.28333146 0.28333146
0.60669528 0.28333146 0.28333146
0.68749494 0.28333146 0.28333146
0.76700534 0.28333146 0.28333146
0.84513294 0.28333146 0.28333146
0.91886608 0.28333146 0.28333146
0.06256172 0.43037236 0.28333146
0.28333146 0.43037236 0.28333146
0.43037236 0.43037236 0.28333146
0.52318430 0.43037236 0.28333146
0.60669528 0.43037236 0.28333146
0.68749494 0.43037236 0.28333146
0.76700534 0.43037236 0.28333146
0.84513294 0.43037236 0.28333146
0.91886608 0.43037236 0.28333146
0.06256172 0.52318430 0.28333146
0.28333146 0.52318430 0.28333146
0.43037236 0.52318430 0.28333146
0.52318430 0.52318430 0.28333146
0.60669528 0.52318430 0.28333146
0.68749494 0.52318430 0.28333146
0.76700534 0.52318430 0.28333146
0.84513294 0.52318430 0.28333146
0.91886608 0.52318430 0.28333146
0.06256172 0.60669528 0.28333146
0.28333146 0.60669528 0.28333146
0.43037236 0.60669528 0.28333146
0.52318430 0.60669528 0.28333146
0.60669528 0.60669528 0.28333146
0.68749494 0.60669528 0.28333146
0.76700534 0.60669528 0.28333146
0.84513294 0.60669528 0.28333146
0.91886608 0.60669528 0.28333146
0.06256172 0.68749494 0.28333146
0.28333146 0.68749494 0.28333146
0.43037236 0.68749494 0.28333146
0.52318430 0.68749494 0.28333146
0.60669528 0.68749494 0.28333146
0.68749494 0.68749494 0.28333146
0.76700534 0.68749494 0.28333146
0.84513294 0.68749494 0.28333146
0.91886608 0.68749494 0.28333146
0.06256172 0.76700534 0.28333146
0.28333146 0.76700534 0.28333146
0.43037236 0.76700534 0.28333146
0.52318430 0.76700534 0.28333146
0.60669528 0.76700534 0.28333146
0.68749494 0.76700534 0.28333146
0.76700534 0.76700534 0.28333146
0.84513294 0.76700534 0.28333146
0.91886608 0.76700534 0.28333146
0.06256172 0.84513294 0.28333146
0.28333146 0.84513294 0.28333146
0.43037236 0.84513294 0.28333146
0.52318430 0.84513294 0.28333146
0.60669528 0.84513294 0.28333146
0.68749494 0.84513294 0.28333146
0.76700534 0.84513294 0.28333146
0.84513294 0.84513294 0.28333146
0.91886608 0.84513294 0.28333146
0.06256172 0.91886608 0.28333146
0.28333146 0.91886608 0.28333146
0.43037236 0.91886608 0.28333146
0.52318430 0.91886608 0.28333146
0.60669528 0.91886608 0.28333146
0.68749494 0.91886608 0.28333146
0.76700534 0.91886608 0.28333146
0.84513294 0.91886608 0.28333146
0.91886608 0.91886608 0.28333146
0.06256172 0.06256172 0.43037236
0.28333146 0.06256172 0.43037236
0.43037236 0.06256172 0.43037236
0.52318430 0.06256172 0.43037236
0.60669528 0.06256172 0.43037236
0.68749494 0.06256172 0.43037236
0.76700534 0.06256172 0.43037236
0.84513294 0.06256172 0.43037236
0.91886608 0.06256172 0.43037236
0.06256172 0.28333146 0.43037236
0.28333146 0.28333146 0.43037236
0.43037236 0.28333146 0.43037236
0.52318430 0.28333146 0.43037236
0.60669528 0.28333146 0.43037236
0.68749494 0.28333146 0.43037236
0.76700534 0.28333146 0.43037236
0.84513294 0.28333146 0.43037236
0.91886608 0.28333146 0.43037236
0.06256172 0.43037236 0.43037236
0.28333146 0.43037236 0.43037236
0.43037236 0.43037236 0.43037236
0.52318430 0.43037236 0.43037236
0.60669528 0.43037236 0.43037236
0.68749494 0.43037236 0.43037236
0.76700534 0.43037236 0.43037236
0.84513294 0.43037236 0.43037236
0.91886608 0.43037236 0.43037236
0.06256172 0.52318430 0.43037236
0.28333146 0.52318430 0.43037236
0.43037236 0.52318430 0.43037236
0.52318430 0.52318430 0.43037236
0.60669528 0.52318430 0.43037236
0.68749494 0.52318430 0.43037236
0.76700534 0.52318430 0.43037236
0.84513294 0.52318430 0.43037236
0.91886608 0.52318430 0.43037236
0.06256172 0.60669528 0.43037236
0.28333146 0.60669528 0.43037236
0.43037236 0.60669528 0.43037236
0.52318430 0.60669528 0.43037236
0.60669528 0.60669528 0.43037236
0.68749494 0.60669528 0.43037236
0.76700534 0.60669528 0.43037236
0.84513294 0.60669528 0.43037236
0.91886608 0.60669528 0.43037236
0.06256172 0.68749494 0.43037236
0.28333146 0.68749494 0.43037236
0.43037236 0.68749494 0.43037236
0.52318430 0.68749494 0.43037236
0.60669528 0.68749494 0.43037236
0.68749494 0.68749494 0.43037236
0.76700534 0.68749494 0.43037236
0.84513294 0.68749494 0.43037236
0.91886608 0.68749494 0.43037236
0.06256172 0.76700534 0.43037236
0.28333146 0.76700534 0.43037236
0.43037236 0.76700534 0.43037236
0.52318430 0.76700534 0.43037236
0.60669528 0.76700534 0.43037236
0.68749494 0.76700534 0.43037236
0.76700534 0.76700534 0.43037236
0.84513294 0.76700534 0.43037236
0.91886608 0.76700534 0.43037236
0.06256172 0.84513294 0.43037236
0.28333146 0.84513294 0.43037236
0.43037236 0.84513294 0.43037236
0.52318430 0.84513294 0.43037236
0.60669528 0.84513294 0.43037236
0.68749494 0.84513294 0.43037236
0.76700534 0.84513294 0.43037236
0.84513294 0.84513294 0.43037236
0.91886608 0.84513294 0.43037236
0.06256172 0.91886608 0.43037236
0.28333146 0.91886608 0.43037236
0.43037236 0.91886608 0.43037236
0.52318430 0.91886608 0.43037236
0.60669528 0.91886608 0.43037236
0.68749494 0.91886608 0.43037236
0.76700534 0.91886608 0.43037236
0.84513294 0.91886608 0.43037236
0.91886608 0.91886608 0.43037236
0.06256172 0.06256172 0.52318430
0.28333146 0.06256172 0.52318430
0.43037236 0.06256172 0.52318430
0.52318430 0.06256172 0.52318430
0.60669528 0.06256172 0.52318430
0.68749494 0.06256172 0.52318430
0.76700534 0.06256172 0.52318430
0.84513294 0.06256172 0.52318430
0.91886608 0.06256172 0.52318430
0.06256172 0.28333146 0.52318430
0.28333146 0.28333146 0.52318430
0.43037236 0.28333146 0.52318430
0.52318430 0.28333146 0.52318430
0.60669528 0.28333146 0.52318430
0.68749494 0.28333146 0.52318430
0.76700534 0.28333146 0.52318430
0.84513294 0.28333146 0.52318430
0.91886608 0.28333146 0.52318430
0.06256172 0.43037236 0.52318430
0.28333146 0.43037236 0.52318430
0.43037236 0.43037236 0.52318430
0.52318430 0.43037236 0.52318430
0.60669528 0.43037236 0.52318430
0.68749494 0.43037236 0.52318430
0.76700534 0.43037236 0.52318430
0.84513294 0.43037236 0.52318430
0.91886608 0.43037236 0.52318430
0.06256172 0.52318430 0.52318430
0.28333146 0.52318430 0.52318430
0.43037236 0.52318430 0.52318430
0.52318430 0.52318430 0.52318430
0.60669528 0.52318430 0.52318430
0.68749494 0.52318430 0.52318430
0.76700534 0.52318430 0.52318430
0.84513294 0.52318430 0.52318430
0.91886608 0.52318430 0.52318430
0.06256172 0.60669528 0.52318430
0.28333146 0.60669528 0.52318430
0.43037236 0.60669528 0.52318430
0.52318430 0.60669528 0.52318430
0.60669528 0.60669528 0.52318430
0.68749494 0.60669528 0.52318430
0.76700534 0.60669528 0.52318430
0.84513294 0.60669528 0.52318430
0.91886608 0.60669528 0.52318430
0.06256172 0.68749494 0.52318430
0.28333146 0.68749494 0.52318430
0.43037236 0.68749494 0.52318430
0.52318430 0.68749494 0.52318430
0.60669528 0.68749494 0.52318430
0.68749494 0.68749494 0.52318430
0.76700534 0.68749494 0.52318430
0.84513294 0.68749494 0.52318430
0.91886608 0.68749494 0.52318430
0.06256172 0.76700534 0.52318430
0.28333146 0.76700534 0.52318430
0.43037236 0.76700534 0.52318430
0.52318430 0.76700534 0.52318430
0.60669528 0.76700534 0.52318430
0.68749494 0.76700534 0.52318430
0.76700534 0.76700534 0.52318430
0.84513294 0.76700534 0.52318430
0.91886608 0.76700534 0.52318430
0.06256172 0.84513294 0.52318430
0.28333146 0.84513294 0.52318430
0.43037236 0.84513294 0.52318430
0.52318430 0.84513294 0.52318430
0.60669528 0.84513294 0.52318430
0.68749494 0.84513294 0.52318430
0.76700534 0.84513294 0.52318430
0.84513294 0.84513294 0.52318430
0.91886608 0.84513294 0.52318430
0.06256172 0.91886608 0.52318430
0.28333146 0.91886608 0.52318430
0.43037236 0.91886608 0.52318430
0.52318430 0.91886608 0.52318430
0.60669528 0.91886608 0.52318430
0.68749494 0.91886608 0.52318430
0.76700534 0.91886608 0.52318430
0.84513294 0.91886608 0.52318430
0.91886608 0.91886608 0.52318430
0.06256172 0.06256172 0.60669528
0.28333146 0.06256172 0.60669528
0.43037236 0.06256172 0.60669528
0.52318430 0.06256172 0.60669528
0.60669528 0.06256172 0.60669528
0.68749494 0.06256172 0.60669528
0.76700534 0.06256172 0.60669528
0.84513294 0.06256172 0.60669528
0.91886608 0.06256172 0.60669528
0.06256172 0.28333146 0.60669528
0.28333146 0.28333146 0.60669528
0.43037236 0.28333146 0.60669528
0.52318430 0.28333146 0.60669528
0.60669528 0.28333146 0.60669528
0.68749494 0.28333146 0.60669528
0.76700534 0.28333146 0.60669528
0.84513294 0.28333146 0.60669528
0.91886608 0.28333146 0.60669528
0.06256172 0.43037236 0.60669528
0.28333146 0.43037236 0.60669528
0.43037236 0.43037236 0.60669528
0.52318430 0.43037236 0.60669528
0.60669528 0.43037236 0.60669528
0.68749494 0.43037236 0.60669528
0.76700534 0.43037236 0.60669528
0.84513294 0.43037236 0.60669528
0.91886608 0.43037236 0.60669528
0.06256172 0.52318430 0.60669528
0.28333146 0.52318430 0.60669528
0.43037236 0.52318430 0.60669528
0.52318430 0.52318430 0.60669528
0.60669528 0.52318430 0.60669528
0.68749494 0.52318430 0.60669528
0.76700534 0.52318430 0.60669528
0.84513294 0.52318430 0.60669528
0.91886608 0.52318430 0.60669528
0.06256172 0.60669528 0.60669528
0.28333146 0.60669528 0.60669528
0.43037236 0.60669528 0.60669528
0.52318430 0.60669528 0.60669528
0.60669528 0.60669528 0.60669528
0.68749494 0.60669528 0.60669528
0.76700534 0.60669528 0.60669528
0.84513294 0.60669528 0.60669528
0.91886608 0.60669528 0.60669528
0.06256172 0.68749494 0.60669528
0.28333146 0.68749494 0.60669528
0.43037236 0.68749494 0.60669528
0.52318430 0.68749494 0.60669528
0.60669528 0.68749494 0.60669528
0.68749494 0.68749494 0.60669528
0.76700534 0.68749494 0.60669528
0.84513294 0.68749494 0.60669528
0.91886608 0.68749494 0.60669528
0.06256172 0.76700534 0.60669528
0.28333146 0.76700534 0.60669528
0.43037236 0.76700534 0.60669528
0.52318430 0.76700534 0.60669528
0.60669528 0.76700534 0.60669528
0.68749494 0.76700534 0.60669528
0.76700534 0.76700534 0.60669528
0.84513294 0.76700534 0.60669528
0.91886608 0.76700534 0.60669528
0.06256172 0.84513294 0.60669528
0.28333146 0.84513294 0.60669528
0.43037236 0.84513294 0.60669528
0.52318430 0.84513294 0.60669528
0.60669528 0.84513294 0.60669528
0.68749494 0.84513294 0.60669528
0.76700534 0.84513294 0.60669528
0.84513294 0.84513294 0.60669528
0.91886608 0.84513294 0.60669528
0.06256172 0.91886608 0.60669528
0.28333146 0.91886608 0.60669528
0.43037236 0.91886608 0.60669528
0.52318430 0.91886608 0.60669528
0.60669528 0.91886608 0.60669528
0.68749494 0.91886608 0.60669528
0.76700534 0.91886608 0.60669528
0.84513294 0.91886608 0.60669528
0.91886608 0.91886608 0.60669528
0.06256172 0.06256172 0.68749494
0.28333146 0.06256172 0.68749494
0.43037236 0.06256172 0.68749494
0.52318430 0.06256172 0.68749494
0.60669528 0.06256172 0.68749494
0.68749494 0.06256172 0.68749494
0.76700534 0.06256172 0.68749494
0.84513294 0.06256172 0.68749494
0.91886608 0.06256172 0.68749494
0.06256172 0.28333146 0.68749494
0.28333146 0.28333146 0.68749494
0.43037236 0.28333146 0.68749494
0.52318430 0.28333146 0.68749494
0.60669528 0.28333146 0.68749494
0.68749494 0.28333146 0.68749494
0.76700534 0.28333146 0.68749494
0.84513294 0.28333146 0.68749494
0.91886608 0.28333146 0.68749494
0.06256172 0.43037236 0.68749494
0.28333146 0.43037236 0.68749494
0.43037236 0.43037236 0.68749494
0.52318430 0.43037236 0.68749494
0.60669528 0.43037236 0.68749494
0.68749494 0.43037236 0.68749494
0.76700534 0.43037236 0.68749494
0.84513294 0.43037236 0.68749494
0.91886608 0.43037236 0.68749494
0.06256172 0.52318430 0.68749494
0.28333146 0.52318430 0.68749494
0.43037236 0.52318430 0.68749494
0.52318430 0.52318430 0.68749494
0.60669528 0.52318430 0.68749494
0.68749494 0.52318430 0.68749494
0.76700534 0.52318430 0.68749494
0.84513294 0.52318430 0.68749494
0.91886608 0.52318430 0.68749494
0.06256172 0.60669528 0.68749494
0.28333146 0.60669528 0.68749494
0.43037236 0.60669528 0.68749494
0.52318430 0.60669528 0.68749494
0.60669528 0.60669528 0.68749494
0.68749494 0.60669528 0.68749494
0.76700534 0.60669528 0.68749494
0.84513294 0.60669528 0.68749494
0.91886608 0.60669528 0.68749494
0.06256172 0.68749494 0.68749494
0.28333146 0.68749494 0.68749494
0.43037236 0.68749494 0.68749494
0.52318430 0.68749494 0.68749494
0.60669528 0.68749494 0.68749494
0.68749494 0.68749494 0.68749494
0.76700534 0.68749494 0.68749494
0.84513294 0.68749494 0.68749494
0.91886608 0.68749494 0.68749494
0.06256172 0.76700534 0.68749494
0.28333146 0.76700534 0.68749494
0.43037236 0.76700534 0.68749494
0.52318430 0.76700534 0.68749494
0.60669528 0.76700534 0.68749494
0.68749494 0.76700534 0.68749494
0.76700534 0.76700534 0.68749494
0.84513294 0.76700534 0.68749494
0.91886608 0.76700534 0.68749494
0.06256172 0.84513294 0.68749494
0.28333146 0.84513294 0.68749494
0.43037236 0.84513294 0.68749494
0.52318430 0.84513294 0.68749494
0.60669528 0.84513294 0.68749494
0.68749494 0.84513294 0.68749494
0.76700534 0.84513294 0.68749494
0.84513294 0.84513294 0.68749494
0.91886608 0.84513294 0.68749494
0.06256172 0.91886608 0.68749494
0.28333146 0.91886608 0.68749494
0.43037236 0.91886608 0.68749494
0.52318430 0.91886608 0.68749494
0.60669528 0.91886608 0.68749494
0.68749494 0.91886608 0.68749494
0.76700534 0.91886608 0.68749494
0.84513294 0.91886608 0.68749494
0.91886608 0.91886608 0.68749494
0.06256172 0.06256172 0.76700534
0.28333146 0.06256172 0.76700534
0.43037236 0.06256172 0.76700534
0.52318430 0.06256172 0.76700534
0.60669528 0.06256172 0.76700534
0.68749494 0.06256172 0.76700534
0.76700534 0.06256172 0.76700534
0.84513294 0.06256172 0.76700534
0.91886608 0.06256172 0.76700534
0.06256172 0.28333146 0.76700534
0.28333146 0.28333146 0.76700534
0.43037236 0.28333146 0.76700534
0.52318430 0.28333146 0.76700534
0.60669528 0.28333146 0.76700534
0.68749494 0.28333146 0.76700534
0.76700534 0.28333146 0.76700534
0.84513294 0.28333146 0.76700534
0.91886608 0.28333146 0.76700534
0.06256172 0.43037236 0.76700534
0.28333146 0.43037236 0.76700534
0.43037236 0.43037236 0.76700534
0.52318430 0.43037236 0.76700534
0.60669528 0.43037236 0.76700534
0.68749494 0.43037236 0.76700534
0.76700534 0.43037236 0.76700534
0.84513294 0.43037236 0.76700534
0.91886608 0.43037236 0.76700534
0.06256172 0.52318430 0.76700534
0.28333146 0.52318430 0.76700534
0.43037236 0.52318430 0.76700534
0.52318430 0.52318430 0.76700534
0.60669528 0.52318430 0.76700534
0.68749494 0.52318430 0.76700534
0.76700534 0.52318430 0.76700534
0.84513294 0.52318430 0.76700534
0.91886608 0.52318430 0.76700534
0.06256172 0.60669528 0.76700534
0.28333146 0.60669528 0.76700534
0.43037236 0.60669528 0.76700534
0.52318430 0.60669528 0.76700534
0.60669528 0.60669528 0.76700534
0.68749494 0.60669528 0.76700534
0.76700534 0.60669528 0.76700534
0.84513294 0.60669528 0.76700534
0.91886608 0.60669528 0.76700534
0.06256172 0.68749494 0.76700534
0.28333146 0.68749494 0.76700534
0.43037236 0.68749494 0.76700534
0.52318430 0.68749494 0.76700534
0.60669528 0.68749494 0.76700534
0.68749494 0.68749494 0.76700534
0.76700534 0.68749494 0.76700534
0.84513294 0.68749494 0.76700534
0.91886608 0.68749494 0.76700534
0.06256172 0.76700534 0.76700534
0.28333146 0.76700534 0.76700534
0.43037236 0.76700534 0.76700534
0.52318430 0.76700534 0.76700534
0.60669528 0.76700534 0.76700534
0.68749494 0.76700534 0.76700534
0.76700534 0.76700534 0.76700534
0.84513294 0.76700534 0.76700534
0.91886608 0.76700534 0.76700534
0.06256172 0.84513294 0.76700534
0.28333146 0.84513294 0.76700534
0.43037236 0.84513294 0.76700534
0.52318430 0.84513294 0.76700534
0.60669528 0.84513294 0.76700534
0.68749494 0.84513294 0.76700534
0.76700534 0.84513294 0.76700534
0.84513294 0.84513294 0.76700534
0.91886608 0.84513294 0.76700534
0.06256172 0.91886608 0.76700534
0.28333146 0.91886608 0.76700534
0.43037236 0.91886608 0.76700534
0.52318430 0.91886608 0.76700534
0.60669528 0.91886608 0.76700534
0.68749494 0.91886608 0.76700534
0.76700534 0.91886608 0.76700534
0.84513294 0.91886608 0.76700534
0.91886608 0.91886608 0.76700534
0.06256172 0.06256172 0.84513294
0.28333146 0.06256172 0.84513294
0.43037236 0.06256172 0.84513294
0.52318430 0.06256172 0.84513294
0.60669528 0.06256172 0.84513294
0.68749494 0.06256172 0.84513294
0.76700534 0.06256172 0.84513294
0.84513294 0.06256172 0.84513294
0.91886608 0.06256172 0.84513294
0.06256172 0.28333146 0.84513294
0.28333146 0.28333146 0.84513294
0.43037236 0.28333146 0.84513294
0.52318430 0.28333146 0.84513294
0.60669528 0.28333146 0.84513294
0.68749494 0.28333146 0.84513294
0.76700534 0.28333146 0.84513294
0.84513294 0.28333146 0.84513294
0.91886608 0.28333146 0.84513294
0.06256172 0.43037236 0.84513294
0.28333146 0.43037236 0.84513294
0.43037236 0.43037236 0.84513294
0.52318430 0.43037236 0.84513294
0.60669528 0.43037236 0.84513294
0.68749494 0.43037236 0.84513294
0.76700534 0.43037236 0.84513294
0.84513294 0.43037236 0.84513294
0.91886608 0.43037236 0.84513294
0.06256172 0.52318430 0.84513294
0.28333146 0.52318430 0.84513294
0.43037236 0.52318430 0.84513294
0.52318430 0.52318430 0.84513294
0.60669528 0.52318430 0.84513294
0.68749494 0.52318430 0.84513294
0.76700534 0.52318430 0.84513294
0.84513294 0.52318430 0.84513294
0.91886608 0.52318430 0.84513294
0.06256172 0.60669528 0.84513294
0.28333146 0.60669528 0.84513294
0.43037236 0.60669528 0.84513294
0.52318430 0.60669528 0.84513294
0.60669528 0.60669528 0.84513294
0.68749494 0.60669528 0.84513294
0.76700534 0.60669528 0.84513294
0.84513294 0.60669528 0.84513294
0.91886608 0.60669528 0.84513294
0.06256172 0.68749494 0.84513294
0.28333146 0.68749494 0.84513294
0.43037236 0.68749494 0.84513294
0.52318430 0.68749494 0.84513294
0.60669528 0.68749494 0.84513294
0.68749494 0.68749494 0.84513294
0.76700534 0.68749494 0.84513294
0.84513294 0.68749494 0.84513294
0.91886608 0.68749494 0.84513294
0.06256172 0.76700534 0.84513294
0.28333146 0.76700534 0.84513294
0.43037236 0.76700534 0.84513294
0.52318430 0.76700534 0.84513294
0.60669528 0.76700534 0.84513294
0.68749494 0.76700534 0.84513294
0.76700534 0.76700534 0.84513294
0.84513294 0.76700534 0.84513294
0.91886608 0.76700534 0.84513294
0.06256172 0.84513294 0.84513294
0.28333146 0.84513294 0.84513294
0.43037236 0.84513294 0.84513294
0.52318430 0.84513294 0.84513294
0.60669528 0.84513294 0.84513294
0.68749494 0.84513294 0.84513294
0.76700534 0.84513294 0.84513294
0.84513294 0.84513294 0.84513294
0.91886608 0.84513294 0.84513294
0.06256172 0.91886608 0.84513294
0.28333146 0.91886608 0.84513294
0.43037236 0.91886608 0.84513294
0.52318430 0.91886608 0.84513294
0.60669528 0.91886608 0.84513294
0.68749494 0.91886608 0.84513294
0.76700534 0.91886608 0.84513294
0.84513294 0.91886608 0.84513294
0.91886608 0.91886608 0.84513294
0.06256172 0.06256172 0.91886608
0.28333146 0.06256172 0.91886608
0.43037236 0.06256172 0.91886608
0.52318430 0.06256172 0.91886608
0.60669528 0.06256172 0.91886608
0.68749494 0.06256172 0.91886608
0.76700534 0.06256172 0.91886608
0.84513294 0.06256172 0.91886608
0.91886608 0.06256172 0.91886608
0.06256172 0.28333146 0.91886608
0.28333146 0.28333146 0.91886608
0.43037236 0.28333146 0.91886608
0.52318430 0.28333146 0.91886608
0.60669528 0.28333146 0.91886608
0.68749494 0.28333146 0.91886608
0.76700534 0.28333146 0.91886608
0.84513294 0.28333146 0.91886608
0.91886608 0.28333146 0.91886608
0.06256172 0.43037236 0.91886608
0.28333146 0.43037236 0.91886608
0.43037236 0.43037236 0.91886608
0.52318430 0.43037236 0.91886608
0.60669528 0.43037236 0.91886608
0.68749494 0.43037236 0.91886608
0.76700534 0.43037236 0.91886608
0.84513294 0.43037236 0.91886608
0.91886608 0.43037236 0.91886608
0.06256172 0.52318430 0.91886608
0.28333146 0.52318430 0.91886608
0.43037236 0.52318430 0.91886608
0.52318430 0.52318430 0.91886608
0.60669528 0.52318430 0.91886608
0.68749494 0.52318430 0.91886608
0.76700534 0.52318430 0.91886608
0.84513294 0.52318430 0.91886608
0.91886608 0.52318430 0.91886608
0.06256172 0.60669528 0.91886608
0.28333146 0.60669528 0.91886608
0.43037236 0.60669528 0.91886608
0.52318430 0.60669528 0.91886608
0.60669528 0.60669528 0.91886608
0.68749494 0.60669528 0.91886608
0.76700534 0.60669528 0.91886608
0.84513294 0.60669528 0.91886608
0.91886608 0.60669528 0.91886608
0.06256172 0.68749494 0.91886608
0.28333146 0.68749494 0.91886608
0.43037236 0.68749494 0.91886608
0.52318430 0.68749494 0.91886608
0.60669528 0.68749494 0.91886608
0.68749494 0.68749494 0.91886608
0.76700534 0.68749494 0.91886608
0.84513294 0.68749494 0.91886608
0.91886608 0.68749494 0.91886608
0.06256172 0.76700534 0.91886608
0.28333146 0.76700534 0.91886608
0.43037236 0.76700534 0.91886608
0.52318430 0.76700534 0.91886608
0.60669528 0.76700534 0.91886608
0.68749494 0.76700534 0.91886608
0.76700534 0.76700534 0.91886608
0.84513294 0.76700534 0.91886608
0.91886608 0.76700534 0.91886608
0.06256172 0.84513294 0.91886608
0.28333146 0.84513294 0.91886608
0.43037236 0.84513294 0.91886608
0.52318430 0.84513294 0.91886608
0.60669528 0.84513294 0.91886608
0.68749494 0.84513294 0.91886608
0.76700534 0.84513294 0.91886608
0.84513294 0.84513294 0.91886608
0.91886608 0.84513294 0.91886608
0.06256172 0.91886608 0.91886608
0.28333146 0.91886608 0.91886608
0.43037236 0.91886608 0.91886608
0.52318430 0.91886608 0.91886608
0.60669528 0.91886608 0.91886608
0.68749494 0.91886608 0.91886608
0.76700534 0.91886608 0.91886608
0.84513294 0.91886608 0.91886608
0.91886608 0.91886608 0.91886608
