src/ffmpeg_scripts/luts/flog-smpte2084_-3p33.cube
TITLE "flog-smpte2084_-3p33"
LUT_3D_SIZE 5
# Fujifilm F-Log/Rec2020 -> PQ (EOTF Only)/Rec2020, CineEI Shift -3.33, Black Level 0.00% IRE, Input 109% -> Output 109% - Created with LUTCalc v4.01 by Ben Turley October 2020
0.06256172 0.06256172 0.06256172
0.15054682 0.06256172 0.06256172
0.23872345 0.06256172 0.06256172
0.34714952 0.06256172 0.06256172
0.47888407 0.06256172 0.06256172
0.06256172 0.15054682 0.06256172
0.15054682 0.15054682 0.06256172
0.23872345 0.15054682 0.06256172
0.34714952 0.15054682 0.06256172
0.47888407 0.15054682 0.06256172
0.06256172 0.23872345 0.06256172
0.15054682 0.23872345 0.06256172
0.23872345 0.23872345 0.06256172
0.34714952 0.23872345 0.06256172
0.47888407 0.23872345 0.06256172
0.06256172 0.34714952 0.06256172
0.15054682 0.34714952 0.06256172
0.23872345 0.34714952 0.06256172
0.34714952 0.34714952 0.06256172
0.47888407 0.34714952 0.06256172
0.06256172 0.47888407 0.06256172
0.15054682 0.47888407 0.06256172
0.23872345 0.47888407 0.06256172
0.34714952 0.47888407 0.06256172
0.47888407 0.47888407 0.06256172
0.06256172 0.06256172 0.15054682
0.15054682 0.06256172 0.15054682
0.23872345 0.06256172 0.15054682
0.34714952 0.06256172 0.15054682
0.47888407 0.06256172 0.15054682
0.06256172 0.15054682 0.15054682
0.15054682 0.15054682 0.15054682
0.23872345 0.15054682 0.15054682
0.34714952 0.15054682 0.15054682
0.47888407 0.15054682 0.15054682
0.06256172 0.23872345 0.15054682
0.15054682 0.23872345 0.15054682
0.23872345 0.23872345 0.15054682
0.34714952 0.23872345 0.15054682
0.47888407 0.23872345 0.15054682
0.06256172 0.34714952 0.15054682
0.15054682 0.34714952 0.15054682
0.23872345 0.34714952 0.15054682
0.34714952 0.34714952 0.15054682
0.47888407 0.34714952 0.15054682
0.06256172 0.47888407 0.15054682
0.15054682 0.47888407 0.15054682
0.23872345 0.47888407 0.15054682
0.34714952 0.47888407 0.15054682
0.47888407 0.47888407 0.15054682
0.06256172 0.06256172 0.23872345
0.15054682 0.06256172 0.23872345
0.23872345 0.06256172 0.23872345
0.34714952 0.06256172 0.23872345
0.47888407 0.06256172 0.23872345
0.06256172 0.15054682 0.23872345
0.15054682 0.15054682 0.23872345
0.23872345 0.15054682 0.23872345
0.34714952 0.15054682 0.23872345
0.47888407 0.15054682 0.23872345
0.06256172 0.23872345 0.23872345
0.15054682 0.23872345 0.23872345
0.23872345 0.23872345 0.23872345
0.34714952 0.23872345 0.23872345
0.47888407 0.23872345 0.23872345
0.06256172 0.34714952 0.23872345
0.15054682 0.34714952 0.23872345
0.23872345 0.34714952 0.23872345
0.34714952 0.34714952 0.23872345
0.47888407 0.34714952 0.23872345
0.06256172 0.47888407 0.23872345
0.15054682 0.47888407 0.23872345
0.23872345 0.47888407 0.23872345
0.34714952 0.47888407 0.23872345
0.47888407 0.47888407 0.23872345
0.06256172 0.06256172 0.34714952
0.15054682 0.06256172 0.34714952
0.23872345 0.06256172 0.34714952
0.34714952 0.06256172 0.34714952
0.47888407 0.06256172 0.34714952
0.06256172 0.15054682 0.34714952
0.15054682 0.15054682 0.34714952
0.23872345 0.15054682 0.34714952
0.34714952 0.15054682 0.34714952
0.47888407 0.15054682 0.34714952
0.06256172 0.23872345 0.34714952
0.15054682 0.23872345 0.34714952
0.23872345 0.23872345 0.34714952
0.34714952 0.23872345 0.34714952
0.47888407 0.23872345 0.34714952
0.06256172 0.34714952 0.34714952
0.15054682 0.34714952 0.34714952
0.23872345 0.34714952 0.34714952
0.34714952 0.34714952 0.34714952
0.47888407 0.34714952 0.34714952
0.06256172 0.47888407 0.34714952
0.15054682 0.47888407 0.34714952
0.23872345 0.47888407 0.34714952
0.34714952 0.47888407 0.34714952
0.47888407 0.47888407 0.34714952
0.06256172 0.06256172 0.47888407
0.15054682 0.06256172 0.47888407
0.23872345 0.06256172 0.47888407
0.34714952 0.06256172 0.47888407
0.47888407 0.06256172 0.47888407
0.06256172 0.15054682 0.47888407
0.15054682 0.15054682 0.47888407
0.23872345 0.15054682 0.47888407
0.34714952 0.15054682 0.47888407
0.47888407 0.15054682 0.47888407
0.06256172 0.23872345 0.47888407
0.15054682 0.23872345 0.47888407
0.23872345 0.23872345 0.47888407
0.34714952 0.23872345 0.47888407
0.47888407 0.23872345 0.47888407
0.06256172 0.34714952 0.47888407
0.15054682 0.34714952 0.47888407
0.23872345 0.34714952 0.47888407
0.34714952 0.34714952 0.47888407
0.47888407 0.34714952 0.47888407
0.06256172 0.47888407 0.47888407
0.15054682 0.47888407 0.47888407
0.23872345 0.47888407 0.47888407
0.34714952 0.47888407 0.47888407
0.47888407 0.47888407 0.47888407
