src/ffmpeg_scripts/luts/flog-smpte2084_2p00.cube
TITLE "flog-smpte2084_2p00"
LUT_3D_SIZE 9
# Fujifilm F-Log/Rec2020 -> PQ (EOTF Only)/Rec2020, CineEI Shift 2.00, Black Level 0.00% IRE, Input 109% -> Output 109% - Created with LUTCalc v4.01 by Ben Turley October 2020
0.06256172 0.06256172 0.06256172
0.21870702 0.06256172 0.06256172
0.34274569 0.06256172 0.06256172
0.42603731 0.06256172 0.06256172
0.50373960 0.06256172 0.06256172
0.58114236 0.06256172 0.06256172
0.65926068 0.06256172 0.06256172
0.73776535 0.06256172 0.06256172
0.81584482 0.06256172 0.06256172
0.06256172 0.21870702 0.06256172
0.21870702 0.21870702 0.06256172
0.34274569 0.21870702 0.06256172
0.42603731 0.21870702 0.06256172
0.50373960 0.21870702 0.06256172
0.58114236 0.21870702 0.06256172
0.65926068 0.21870702 0.06256172
0.73776535 0.21870702 0.06256172
0.81584482 0.21870702 0.06256172
0.06256172 0.34274569 0.06256172
0.21870702 0.34274569 0.06256172
0.34274569 0.34274569 0.06256172
0.42603731 0.34274569 0.06256172
0.50373960 0.34274569 0.06256172
0.58114236 0.34274569 0.06256172
0.65926068 0.34274569 0.06256172
0.73776535 0.34274569 0.06256172
0.81584482 0.34274569 0.06256172
0.06256172 0.42603731 0.06256172
0.21870702 0.42603731 0.06256172
0.34274569 0.42603731 0.06256172
0.42603731 0.42603731 0.06256172
0.50373960 0.42603731 0.06256172
0.58114236 0.42603731 0.06256172
0.65926068 0.42603731 0.06256172
0.73776535 0.42603731 0.06256172
0.81584482 0.42603731 0.06256172
0.06256172 0.50373960 0.06256172
0.21870702 0.50373960 0.06256172
0.34274569 0.50373960 0.06256172
0.42603731 0.50373960 0.06256172
0.50373960 0.50373960 0.06256172
0.58114236 0.50373960 0.06256172
0.65926068 0.50373960 0.06256172
0.73776535 0.50373960 0.06256172
0.81584482 0.50373960 0.06256172
0.06256172 0.58114236 0.06256172
0.21870702 0.58114236 0.06256172
0.34274569 0.58114236 0.06256172
0.42603731 0.58114236 0.06256172
0.50373960 0.58114236 0.06256172
0.58114236 0.58114236 0.06256172
0.65926068 0.58114236 0.06256172
0.73776535 0.58114236 0.06256172
0.81584482 0.58114236 0.06256172
0.06256172 0.65926068 0.06256172
0.21870702 0.65926068 0.06256172
0.34274569 0.65926068 0.06256172
0.42603731 0.65926068 0.06256172
0.50373960 0.65926068 0.06256172
0.58114236 0.65926068 0.06256172
0.65926068 0.65926068 0.06256172
0.73776535 0.65926068 0.06256172
0.81584482 0.65926068 0.06256172
0.06256172 0.73776535 0.06256172
0.21870702 0.73776535 0.06256172
0.34274569 0.73776535 0.06256172
0.42603731 0.73776535 0.06256172
0.50373960 0.73776535 0.06256172
0.58114236 0.73776535 0.06256172
0.65926068 0.73776535 0.06256172
0.73776535 0.73776535 0.06256172
0.81584482 0.73776535 0.06256172
0.06256172 0.81584482 0.06256172
0.21870702 0.81584482 0.06256172
0.34274569 0.81584482 0.06256172
0.42603731 0.81584482 0.06256172
0.50373960 0.81584482 0.06256172
0.58114236 0.81584482 0.06256172
0.65926068 0.81584482 0.06256172
0.73776535 0.81584482 0.06256172
0.81584482 0.81584482 0.06256172
0.06256172 0.06256172 0.21870702
0.21870702 0.06256172 0.21870702
0.34274569 0.06256172 0.21870702
0.42603731 0.06256172 0.21870702
0.50373960 0.06256172 0.21870702
0.58114236 0.06256172 0.21870702
0.65926068 0.06256172 0.21870702
0.73776535 0.06256172 0.21870702
0.81584482 0.06256172 0.21870702
0.06256172 0.21870702 0.21870702
0.21870702 0.21870702 0.21870702
0.34274569 0.21870702 0.21870702
0.42603731 0.21870702 0.21870702
0.50373960 0.21870702 0.21870702
0.58114236 0.21870702 0.21870702
0.65926068 0.21870702 0.21870702
0.73776535 0.21870702 0.21870702
0.81584482 0.21870702 0.21870702
0.06256172 0.34274569 0.21870702
0.21870702 0.34274569 0.21870702
0.34274569 0.34274569 0.21870702
0.42603731 0.34274569 0.21870702
0.50373960 0.34274569 0.21870702
0.58114236 0.34274569 0.21870702
0.65926068 0.34274569 0.21870702
0.73776535 0.34274569 0.21870702
0.81584482 0.34274569 0.21870702
0.06256172 0.42603731 0.21870702
0.21870702 0.42603731 0.21870702
0.34274569 0.42603731 0.21870702
0.42603731 0.42603731 0.21870702
0.50373960 0.42603731 0.21870702
0.58114236 0.42603731 0.21870702
0.65926068 0.42603731 0.21870702
0.73776535 0.42603731 0.21870702
0.81584482 0.42603731 0.21870702
0.06256172 0.50373960 0.21870702
0.21870702 0.50373960 0.21870702
0.34274569 0.50373960 0.21870702
0.42603731 0.50373960 0.21870702
0.50373960 0.50373960 0.21870702
0.58114236 0.50373960 0.21870702
0.65926068 0.50373960 0.21870702
0.73776535 0.50373960 0.21870702
0.81584482 0.50373960 0.21870702
0.06256172 0.58114236 0.21870702
0.21870702 0.58114236 0.21870702
0.34274569 0.58114236 0.21870702
0.42603731 0.58114236 0.21870702
0.50373960 0.58114236 0.21870702
0.58114236 0.58114236 0.21870702
0.65926068 0.58114236 0.21870702
0.73776535 0.58114236 0.21870702
0.81584482 0.58114236 0.21870702
0.06256172 0.65926068 0.21870702
0.21870702 0.65926068 0.21870702
0.34274569 0.65926068 0.21870702
0.42603731 0.65926068 0.21870702
0.50373960 0.65926068 0.21870702
0.58114236 0.65926068 0.21870702
0.65926068 0.65926068 0.21870702
0.73776535 0.65926068 0.21870702
0.81584482 0.65926068 0.21870702
0.06256172 0.73776535 0.21870702
0.21870702 0.73776535 0.21870702
0.34274569 0.73776535 0.21870702
0.42603731 0.73776535 0.21870702
0.50373960 0.73776535 0.21870702
0.58114236 0.73776535 0.21870702
0.65926068 0.73776535 0.21870702
0.73776535 0.73776535 0.21870702
0.81584482 0.73776535 0.21870702
0.06256172 0.81584482 0.21870702
0.21870702 0.81584482 0.21870702
0.34274569 0.81584482 0.21870702
0.42603731 0.81584482 0.21870702
0.50373960 0.81584482 0.21870702
0.58114236 0.81584482 0.21870702
0.65926068 0.81584482 0.21870702
0.73776535 0.81584482 0.21870702
0.81584482 0.81584482 0.21870702
0.06256172 0.06256172 0.34274569
0.21870702 0.06256172 0.34274569
0.34274569 0.06256172 0.34274569
0.42603731 0.06256172 0.34274569
0.50373960 0.06256172 0.34274569
0.58114236 0.06256172 0.34274569
0.65926068 0.06256172 0.34274569
0.73776535 0.06256172 0.34274569
0.81584482 0.06256172 0.34274569
0.06256172 0.21870702 0.34274569
0.21870702 0.21870702 0.34274569
0.34274569 0.21870702 0.34274569
0.42603731 0.21870702 0.34274569
0.50373960 0.21870702 0.34274569
0.58114236 0.21870702 0.34274569
0.65926068 0.21870702 0.34274569
0.73776535 0.21870702 0.34274569
0.81584482 0.21870702 0.34274569
0.06256172 0.34274569 0.34274569
0.21870702 0.34274569 0.34274569
0.34274569 0.34274569 0.34274569
0.42603731 0.34274569 0.34274569
0.50373960 0.34274569 0.34274569
0.58114236 0.34274569 0.34274569
0.65926068 0.34274569 0.34274569
0.73776535 0.34274569 0.34274569
0.81584482 0.34274569 0.34274569
0.06256172 0.42603731 0.34274569
0.21870702 0.42603731 0.34274569
0.34274569 0.42603731 0.34274569
0.42603731 0.42603731 0.34274569
0.50373960 0.42603731 0.34274569
0.58114236 0.42603731 0.34274569
0.65926068 0.42603731 0.34274569
0.73776535 0.42603731 0.34274569
0.81584482 0.42603731 0.34274569
0.06256172 0.50373960 0.34274569
0.21870702 0.50373960 0.34274569
0.34274569 0.50373960 0.34274569
0.42603731 0.50373960 0.34274569
0.50373960 0.50373960 0.34274569
0.58114236 0.50373960 0.34274569
0.65926068 0.50373960 0.34274569
0.73776535 0.50373960 0.34274569
0.81584482 0.50373960 0.34274569
0.06256172 0.58114236 0.34274569
0.21870702 0.58114236 0.34274569
0.34274569 0.58114236 0.34274569
0.42603731 0.58114236 0.34274569
0.50373960 0.58114236 0.34274569
0.58114236 0.58114236 0.34274569
0.65926068 0.58114236 0.34274569
0.73776535 0.58114236 0.34274569
0.81584482 0.58114236 0.34274569
0.06256172 0.65926068 0.34274569
0.21870702 0.65926068 0.34274569
0.34274569 0.65926068 0.34274569
0.42603731 0.65926068 0.34274569
0.50373960 0.65926068 0.34274569
0.58114236 0.65926068 0.34274569
0.65926068 0.65926068 0.34274569
0.73776535 0.65926068 0.34274569
0.81584482 0.65926068 0.34274569
0.06256172 0.73776535 0.34274569
0.21870702 0.73776535 0.34274569
0.34274569 0.73776535 0.34274569
0.42603731 0.73776535 0.34274569
0.50373960 0.73776535 0.34274569
0.58114236 0.73776535 0.34274569
0.65926068 0.73776535 0.34274569
0.73776535 0.73776535 0.34274569
0.81584482 0.73776535 0.34274569
0.06256172 0.81584482 0.34274569
0.21870702 0.81584482 0.34274569
0.34274569 0.81584482 0.34274569
0.42603731 0.81584482 0.34274569
0.50373960 0.81584482 0.34274569
0.58114236 0.81584482 0.34274569
0.65926068 0.81584482 0.34274569
0.73776535 0.81584482 0.34274569
0.81584482 0.81584482 0.34274569
0.06256172 0.06256172 0.42603731
0.21870702 0.06256172 0.42603731
0.34274569 0.06256172 0.42603731
0.42603731 0.06256172 0.42603731
0.50373960 0.06256172 0.42603731
0.58114236 0.06256172 0.42603731
0.65926068 0.06256172 0.42603731
0.73776535 0.06256172 0.42603731
0.81584482 0.06256172 0.42603731
0.06256172 0.21870702 0.42603731
0.21870702 0.21870702 0.42603731
0.34274569 0.21870702 0.42603731
0.42603731 0.21870702 0.42603731
0.50373960 0.21870702 0.42603731
0.58114236 0.21870702 0.42603731
0.65926068 0.21870702 0.42603731
0.73776535 0.21870702 0.42603731
0.81584482 0.21870702 0.42603731
0.06256172 0.34274569 0.42603731
0.21870702 0.34274569 0.42603731
0.34274569 0.34274569 0.42603731
0.42603731 0.34274569 0.42603731
0.50373960 0.34274569 0.42603731
0.58114236 0.34274569 0.42603731
0.65926068 0.34274569 0.42603731
0.73776535 0.34274569 0.42603731
0.81584482 0.34274569 0.42603731
0.06256172 0.42603731 0.42603731
0.21870702 0.42603731 0.42603731
0.34274569 0.42603731 0.42603731
0.42603731 0.42603731 0.42603731
0.50373960 0.42603731 0.42603731
0.58114236 0.42603731 0.42603731
0.65926068 0.42603731 0.42603731
0.73776535 0.42603731 0.42603731
0.81584482 0.42603731 0.42603731
0.06256172 0.50373960 0.42603731
0.21870702 0.50373960 0.42603731
0.34274569 0.50373960 0.42603731
0.42603731 0.50373960 0.42603731
0.50373960 0.50373960 0.42603731
0.58114236 0.50373960 0.42603731
0.65926068 0.50373960 0.42603731
0.73776535 0.50373960 0.42603731
0.81584482 0.50373960 0.42603731
0.06256172 0.58114236 0.42603731
0.21870702 0.58114236 0.42603731
0.34274569 0.58114236 0.42603731
0.42603731 0.58114236 0.42603731
0.50373960 0.58114236 0.42603731
0.58114236 0.58114236 0.42603731
0.65926068 0.58114236 0.42603731
0.73776535 0.58114236 0.42603731
0.81584482 0.58114236 0.42603731
0.06256172 0.65926068 0.42603731
0.21870702 0.65926068 0.42603731
0.34274569 0.65926068 0.42603731
0.42603731 0.65926068 0.42603731
0.50373960 0.65926068 0.42603731
0.58114236 0.65926068 0.42603731
0.65926068 0.65926068 0.42603731
0.73776535 0.65926068 0.42603731
0.81584482 0.65926068 0.42603731
0.06256172 0.73776535 0.42603731
0.21870702 0.73776535 0.42603731
0.34274569 0.73776535 0.42603731
0.42603731 0.73776535 0.42603731
0.50373960 0.73776535 0.42603731
0.58114236 0.73776535 0.42603731
0.65926068 0.73776535 0.42603731
0.73776535 0.73776535 0.42603731
0.81584482 0.73776535 0.42603731
0.06256172 0.81584482 0.42603731
0.21870702 0.81584482 0.42603731
0.34274569 0.81584482 0.42603731
0.42603731 0.81584482 0.42603731
0.50373960 0.81584482 0.42603731
0.58114236 0.81584482 0.42603731
0.65926068 0.81584482 0.42603731
0.73776535 0.81584482 0.42603731
0.81584482 0.81584482 0.42603731
0.06256172 0.06256172 0.50373960
0.21870702 0.06256172 0.50373960
0.34274569 0.06256172 0.50373960
0.42603731 0.06256172 0.50373960
0.50373960 0.06256172 0.50373960
0.58114236 0.06256172 0.50373960
0.65926068 0.06256172 0.50373960
0.73776535 0.06256172 0.50373960
0.81584482 0.06256172 0.50373960
0.06256172 0.21870702 0.50373960
0.21870702 0.21870702 0.50373960
0.34274569 0.21870702 0.50373960
0.42603731 0.21870702 0.50373960
0.50373960 0.21870702 0.50373960
0.58114236 0.21870702 0.50373960
0.65926068 0.21870702 0.50373960
0.73776535 0.21870702 0.50373960
0.81584482 0.21870702 0.50373960
0.06256172 0.34274569 0.50373960
0.21870702 0.34274569 0.50373960
0.34274569 0.34274569 0.50373960
0.42603731 0.34274569 0.50373960
0.50373960 0.34274569 0.50373960
0.58114236 0.34274569 0.50373960
0.65926068 0.34274569 0.50373960
0.73776535 0.34274569 0.50373960
0.81584482 0.34274569 0.50373960
0.06256172 0.42603731 0.50373960
0.21870702 0.42603731 0.50373960
0.34274569 0.42603731 0.50373960
0.42603731 0.42603731 0.50373960
0.50373960 0.42603731 0.50373960
0.58114236 0.42603731 0.50373960
0.65926068 0.42603731 0.50373960
0.73776535 0.42603731 0.50373960
0.81584482 0.42603731 0.50373960
0.06256172 0.50373960 0.50373960
0.21870702 0.50373960 0.50373960
0.34274569 0.50373960 0.50373960
0.42603731 0.50373960 0.50373960
0.50373960 0.50373960 0.50373960
0.58114236 0.50373960 0.50373960
0.65926068 0.50373960 0.50373960
0.73776535 0.50373960 0.50373960
0.81584482 0.50373960 0.50373960
0.06256172 0.58114236 0.50373960
0.21870702 0.58114236 0.50373960
0.34274569 0.58114236 0.50373960
0.42603731 0.58114236 0.50373960
0.50373960 0.58114236 0.50373960
0.58114236 0.58114236 0.50373960
0.65926068 0.58114236 0.50373960
0.73776535 0.58114236 0.50373960
0.81584482 0.58114236 0.50373960
0.06256172 0.65926068 0.50373960
0.21870702 0.65926068 0.50373960
0.34274569 0.65926068 0.50373960
0.42603731 0.65926068 0.50373960
0.50373960 0.65926068 0.50373960
0.58114236 0.65926068 0.50373960
0.65926068 0.65926068 0.50373960
0.73776535 0.65926068 0.50373960
0.81584482 0.65926068 0.50373960
0.06256172 0.73776535 0.50373960
0.21870702 0.73776535 0.50373960
0.34274569 0.73776535 0.50373960
0.42603731 0.73776535 0.50373960
0.50373960 0.73776535 0.50373960
0.58114236 0.73776535 0.50373960
0.65926068 0.73776535 0.50373960
0.73776535 0.73776535 0.50373960
0.81584482 0.73776535 0.50373960
0.06256172 0.81584482 0.50373960
0.21870702 0.81584482 0.50373960
0.34274569 0.81584482 0.50373960
0.42603731 0.81584482 0.50373960
0.50373960 0.81584482 0.50373960
0.58114236 0.81584482 0.50373960
0.65926068 0.81584482 0.50373960
0.73776535 0.81584482 0.50373960
0.81584482 0.81584482 0.50373960
0.06256172 0.06256172 0.58114236
0.21870702 0.06256172 0.58114236
0.34274569 0.06256172 0.58114236
0.42603731 0.06256172 0.58114236
0.50373960 0.06256172 0.58114236
0.58114236 0.06256172 0.58114236
0.65926068 0.06256172 0.58114236
0.73776535 0.06256172 0.58114236
0.81584482 0.06256172 0.58114236
0.06256172 0.21870702 0.58114236
0.21870702 0.21870702 0.58114236
0.34274569 0.21870702 0.58114236
0.42603731 0.21870702 0.58114236
0.50373960 0.21870702 0.58114236
0.58114236 0.21870702 0.58114236
0.65926068 0.21870702 0.58114236
0.73776535 0.21870702 0.58114236
0.81584482 0.21870702 0.58114236
0.06256172 0.34274569 0.58114236
0.21870702 0.34274569 0.58114236
0.34274569 0.34274569 0.58114236
0.42603731 0.34274569 0.58114236
0.50373960 0.34274569 0.58114236
0.58114236 0.34274569 0.58114236
0.65926068 0.34274569 0.58114236
0.73776535 0.34274569 0.58114236
0.81584482 0.34274569 0.58114236
0.06256172 0.42603731 0.58114236
0.21870702 0.42603731 0.58114236
0.34274569 0.42603731 0.58114236
0.42603731 0.42603731 0.58114236
0.50373960 0.42603731 0.58114236
0.58114236 0.42603731 0.58114236
0.65926068 0.42603731 0.58114236
0.73776535 0.42603731 0.58114236
0.81584482 0.42603731 0.58114236
0.06256172 0.50373960 0.58114236
0.21870702 0.50373960 0.58114236
0.34274569 0.50373960 0.58114236
0.42603731 0.50373960 0.58114236
0.50373960 0.50373960 0.58114236
0.58114236 0.50373960 0.58114236
0.65926068 0.50373960 0.58114236
0.73776535 0.50373960 0.58114236
0.81584482 0.50373960 0.58114236
0.06256172 0.58114236 0.58114236
0.21870702 0.58114236 0.58114236
0.34274569 0.58114236 0.58114236
0.42603731 0.58114236 0.58114236
0.50373960 0.58114236 0.58114236
0.58114236 0.58114236 0.58114236
0.65926068 0.58114236 0.58114236
0.73776535 0.58114236 0.58114236
0.81584482 0.58114236 0.58114236
0.06256172 0.65926068 0.58114236
0.21870702 0.65926068 0.58114236
0.34274569 0.65926068 0.58114236
0.42603731 0.65926068 0.58114236
0.50373960 0.65926068 0.58114236
0.58114236 0.65926068 0.58114236
0.65926068 0.65926068 0.58114236
0.73776535 0.65926068 0.58114236
0.81584482 0.65926068 0.58114236
0.06256172 0.73776535 0.58114236
0.21870702 0.73776535 0.58114236
0.34274569 0.73776535 0.58114236
0.42603731 0.73776535 0.58114236
0.50373960 0.73776535 0.58114236
0.58114236 0.73776535 0.58114236
0.65926068 0.73776535 0.58114236
0.73776535 0.73776535 0.58114236
0.81584482 0.73776535 0.58114236
0.06256172 0.81584482 0.58114236
0.21870702 0.81584482 0.58114236
0.34274569 0.81584482 0.58114236
0.42603731 0.81584482 0.58114236
0.50373960 0.81584482 0.58114236
0.58114236 0.81584482 0.58114236
0.65926068 0.81584482 0.58114236
0.73776535 0.81584482 0.58114236
0.81584482 0.81584482 0.58114236
0.06256172 0.06256172 0.65926068
0.21870702 0.06256172 0.65926068
0.34274569 0.06256172 0.65926068
0.42603731 0.06256172 0.65926068
0.50373960 0.06256172 0.65926068
0.58114236 0.06256172 0.65926068
0.65926068 0.06256172 0.65926068
0.73776535 0.06256172 0.65926068
0.81584482 0.06256172 0.65926068
0.06256172 0.21870702 0.65926068
0.21870702 0.21870702 0.65926068
0.34274569 0.21870702 0.65926068
0.42603731 0.21870702 0.65926068
0.50373960 0.21870702 0.65926068
0.58114236 0.21870702 0.65926068
0.65926068 0.21870702 0.65926068
0.73776535 0.21870702 0.65926068
0.81584482 0.21870702 0.65926068
0.06256172 0.34274569 0.65926068
0.21870702 0.34274569 0.65926068
0.34274569 0.34274569 0.65926068
0.42603731 0.34274569 0.65926068
0.50373960 0.34274569 0.65926068
0.58114236 0.34274569 0.65926068
0.65926068 0.34274569 0.65926068
0.73776535 0.34274569 0.65926068
0.81584482 0.34274569 0.65926068
0.06256172 0.42603731 0.65926068
0.21870702 0.42603731 0.65926068
0.34274569 0.42603731 0.65926068
0.42603731 0.42603731 0.65926068
0.50373960 0.42603731 0.65926068
0.58114236 0.42603731 0.65926068
0.65926068 0.42603731 0.65926068
0.73776535 0.42603731 0.65926068
0.81584482 0.42603731 0.65926068
0.06256172 0.50373960 0.65926068
0.21870702 0.50373960 0.65926068
0.34274569 0.50373960 0.65926068
0.42603731 0.50373960 0.65926068
0.50373960 0.50373960 0.65926068
0.58114236 0.50373960 0.65926068
0.65926068 0.50373960 0.65926068
0.73776535 0.50373960 0.65926068
0.81584482 0.50373960 0.65926068
0.06256172 0.58114236 0.65926068
0.21870702 0.58114236 0.65926068
0.34274569 0.58114236 0.65926068
0.42603731 0.58114236 0.65926068
0.50373960 0.58114236 0.65926068
0.58114236 0.58114236 0.65926068
0.65926068 0.58114236 0.65926068
0.73776535 0.58114236 0.65926068
0.81584482 0.58114236 0.65926068
0.06256172 0.65926068 0.65926068
0.21870702 0.65926068 0.65926068
0.34274569 0.65926068 0.65926068
0.42603731 0.65926068 0.65926068
0.50373960 0.65926068 0.65926068
0.58114236 0.65926068 0.65926068
0.65926068 0.65926068 0.65926068
0.73776535 0.65926068 0.65926068
0.81584482 0.65926068 0.65926068
0.06256172 0.73776535 0.65926068
0.21870702 0.73776535 0.65926068
0.34274569 0.73776535 0.65926068
0.42603731 0.73776535 0.65926068
0.50373960 0.73776535 0.65926068
0.58114236 0.73776535 0.65926068
0.65926068 0.73776535 0.65926068
0.73776535 0.73776535 0.65926068
0.81584482 0.73776535 0.65926068
0.06256172 0.81584482 0.65926068
0.21870702 0.81584482 0.65926068
0.34274569 0.81584482 0.65926068
0.42603731 0.81584482 0.65926068
0.50373960 0.81584482 0.65926068
0.58114236 0.81584482 0.65926068
0.65926068 0.81584482 0.65926068
0.73776535 0.81584482 0.65926068
0.81584482 0.81584482 0.65926068
0.06256172 0.06256172 0.73776535
0.21870702 0.06256172 0.73776535
0.34274569 0.06256172 0.73776535
0.42603731 0.06256172 0.73776535
0.50373960 0.06256172 0.73776535
0.58114236 0.06256172 0.73776535
0.65926068 0.06256172 0.73776535
0.73776535 0.06256172 0.73776535
0.81584482 0.06256172 0.73776535
0.06256172 0.21870702 0.73776535
0.21870702 0.21870702 0.73776535
0.34274569 0.21870702 0.73776535
0.42603731 0.21870702 0.73776535
0.50373960 0.21870702 0.73776535
0.58114236 0.21870702 0.73776535
0.65926068 0.21870702 0.73776535
0.73776535 0.21870702 0.73776535
0.81584482 0.21870702 0.73776535
0.06256172 0.34274569 0.73776535
0.21870702 0.34274569 0.73776535
0.34274569 0.34274569 0.73776535
0.42603731 0.34274569 0.73776535
0.50373960 0.34274569 0.73776535
0.58114236 0.34274569 0.73776535
0.65926068 0.34274569 0.73776535
0.73776535 0.34274569 0.73776535
0.81584482 0.34274569 0.73776535
0.06256172 0.42603731 0.73776535
0.21870702 0.42603731 0.73776535
0.34274569 0.42603731 0.73776535
0.42603731 0.42603731 0.73776535
0.50373960 0.42603731 0.73776535
0.58114236 0.42603731 0.73776535
0.65926068 0.42603731 0.73776535
0.73776535 0.42603731 0.73776535
0.81584482 0.42603731 0.73776535
0.06256172 0.50373960 0.73776535
0.21870702 0.50373960 0.73776535
0.34274569 0.50373960 0.73776535
0.42603731 0.50373960 0.73776535
0.50373960 0.50373960 0.73776535
0.58114236 0.50373960 0.73776535
0.65926068 0.50373960 0.73776535
0.73776535 0.50373960 0.73776535
0.81584482 0.50373960 0.73776535
0.06256172 0.58114236 0.73776535
0.21870702 0.58114236 0.73776535
0.34274569 0.58114236 0.73776535
0.42603731 0.58114236 0.73776535
0.50373960 0.58114236 0.73776535
0.58114236 0.58114236 0.73776535
0.65926068 0.58114236 0.73776535
0.73776535 0.58114236 0.73776535
0.81584482 0.58114236 0.73776535
0.06256172 0.65926068 0.73776535
0.21870702 0.65926068 0.73776535
0.34274569 0.65926068 0.73776535
0.42603731 0.65926068 0.73776535
0.50373960 0.65926068 0.73776535
0.58114236 0.65926068 0.73776535
0.65926068 0.65926068 0.73776535
0.73776535 0.65926068 0.73776535
0.81584482 0.65926068 0.73776535
0.06256172 0.73776535 0.73776535
0.21870702 0.73776535 0.73776535
0.34274569 0.73776535 0.73776535
0.42603731 0.73776535 0.73776535
0.50373960 0.73776535 0.73776535
0.58114236 0.73776535 0.73776535
0.65926068 0.73776535 0.73776535
0.73776535 0.73776535 0.73776535
0.81584482 0.73776535 0.73776535
0.06256172 0.81584482 0.73776535
0.21870702 0.81584482 0.73776535
0.34274569 0.81584482 0.73776535
0.42603731 0.81584482 0.73776535
0.50373960 0.81584482 0.73776535
0.58114236 0.81584482 0.73776535
0.65926068 0.81584482 0.73776535
0.73776535 0.81584482 0.73776535
0.81584482 0.81584482 0.73776535
0.06256172 0.06256172 0.81584482
0.21870702 0.06256172 0.81584482
0.34274569 0.06256172 0.81584482
0.42603731 0.06256172 0.81584482
0.50373960 0.06256172 0.81584482
0.58114236 0.06256172 0.81584482
0.65926068 0.06256172 0.81584482
0.73776535 0.06256172 0.81584482
0.81584482 0.06256172 0.81584482
0.06256172 0.21870702 0.81584482
0.21870702 0.21870702 0.81584482
0.34274569 0.21870702 0.81584482
0.42603731 0.21870702 0.81584482
0.50373960 0.21870702 0.81584482
0.58114236 0.21870702 0.81584482
0.65926068 0.21870702 0.81584482
0.73776535 0.21870702 0.81584482
0.81584482 0.21870702 0.81584482
0.06256172 0.34274569 0.81584482
0.21870702 0.34274569 0.81584482
0.34274569 0.34274569 0.81584482
0.42603731 0.34274569 0.81584482
0.50373960 0.34274569 0.81584482
0.58114236 0.34274569 0.81584482
0.65926068 0.34274569 0.81584482
0.73776535 0.34274569 0.81584482
0.81584482 0.34274569 0.81584482
0.06256172 0.42603731 0.81584482
0.21870702 0.42603731 0.81584482
0.34274569 0.42603731 0.81584482
0.42603731 0.42603731 0.81584482
0.50373960 0.42603731 0.81584482
0.58114236 0.42603731 0.81584482
0.65926068 0.42603731 0.81584482
0.73776535 0.42603731 0.81584482
0.81584482 0.42603731 0.81584482
0.06256172 0.50373960 0.81584482
0.21870702 0.50373960 0.81584482
0.34274569 0.50373960 0.81584482
0.42603731 0.50373960 0.81584482
0.50373960 0.50373960 0.81584482
0.58114236 0.50373960 0.81584482
0.65926068 0.50373960 0.81584482
0.73776535 0.50373960 0.81584482
0.81584482 0.50373960 0.81584482
0.06256172 0.58114236 0.81584482
0.21870702 0.58114236 0.81584482
0.34274569 0.58114236 0.81584482
0.42603731 0.58114236 0.81584482
0.50373960 0.58114236 0.81584482
0.58114236 0.58114236 0.81584482
0.65926068 0.58114236 0.81584482
0.73776535 0.58114236 0.81584482
0.81584482 0.58114236 0.81584482
0.06256172 0.65926068 0.81584482
0.21870702 0.65926068 0.81584482
0.34274569 0.65926068 0.81584482
0.42603731 0.65926068 0.81584482
0.50373960 0.65926068 0.81584482
0.58114236 0.65926068 0.81584482
0.65926068 0.65926068 0.81584482
0.73776535 0.65926068 0.81584482
0.81584482 0.65926068 0.81584482
0.06256172 0.73776535 0.81584482
0.21870702 0.73776535 0.81584482
0.34274569 0.73776535 0.81584482
0.42603731 0.73776535 0.81584482
0.50373960 0.73776535 0.81584482
0.58114236 0.73776535 0.81584482
0.65926068 0.73776535 0.81584482
0.73776535 0.73776535 0.81584482
0.81584482 0.73776535 0.81584482
0.06256172 0.81584482 0.81584482
0.21870702 0.81584482 0.81584482
0.34274569 0.81584482 0.81584482
0.42603731 0.81584482 0.81584482
0.50373960 0.81584482 0.81584482
0.58114236 0.81584482 0.81584482
0.65926068 0.81584482 0.81584482
0.73776535 0.81584482 0.81584482
0.81584482 0.81584482 0.81584482
