src/ffmpeg_scripts/luts/flog-experimental_0p33.cube
TITLE "flog-experimental_0p33"
LUT_3D_SIZE 9
# Fujifilm F-Log/Rec2020 -> PQ (EOTF Only)/Rec2020, CineEI Shift 0.33, Black Level 0.00% IRE, Input 109% -> Output 100% - Created with LUTCalc v4.01 by Ben Turley October 2020
0.00000073 0.00000073 0.00000073
0.17069256 0.00000073 0.00000073
0.33163726 0.00000073 0.00000073
0.44721726 0.00000073 0.00000073
0.55945882 0.00000073 0.00000073
0.67499047 0.00000073 0.00000073
0.79498079 0.00000073 0.00000073
0.91869930 0.00000073 0.00000073
1.00000000 0.00000073 0.00000073
0.00000073 0.17069256 0.00000073
0.17069256 0.17069256 0.00000073
0.33163726 0.17069256 0.00000073
0.44721726 0.17069256 0.00000073
0.55945882 0.17069256 0.00000073
0.67499047 0.17069256 0.00000073
0.79498079 0.17069256 0.00000073
0.91869930 0.17069256 0.00000073
1.00000000 0.17069256 0.00000073
0.00000073 0.33163726 0.00000073
0.17069256 0.33163726 0.00000073
0.33163726 0.33163726 0.00000073
0.44721726 0.33163726 0.00000073
0.55945882 0.33163726 0.00000073
0.67499047 0.33163726 0.00000073
0.79498079 0.33163726 0.00000073
0.91869930 0.33163726 0.00000073
1.00000000 0.33163726 0.00000073
0.00000073 0.44721726 0.00000073
0.17069256 0.44721726 0.00000073
0.33163726 0.44721726 0.00000073
0.44721726 0.44721726 0.00000073
0.55945882 0.44721726 0.00000073
0.67499047 0.44721726 0.00000073
0.79498079 0.44721726 0.00000073
0.91869930 0.44721726 0.00000073
1.00000000 0.44721726 0.00000073
0.00000073 0.55945882 0.00000073
0.17069256 0.55945882 0.00000073
0.33163726 0.55945882 0.00000073
0.44721726 0.55945882 0.00000073
0.55945882 0.55945882 0.00000073
0.67499047 0.55945882 0.00000073
0.79498079 0.55945882 0.00000073
0.91869930 0.55945882 0.00000073
1.00000000 0.55945882 0.00000073
0.00000073 0.67499047 0.00000073
0.17069256 0.67499047 0.00000073
0.33163726 0.67499047 0.00000073
0.44721726 0.67499047 0.00000073
0.55945882 0.67499047 0.00000073
0.67499047 0.67499047 0.00000073
0.79498079 0.67499047 0.00000073
0.91869930 0.67499047 0.00000073
1.00000000 0.67499047 0.00000073
0.00000073 0.79498079 0.00000073
0.17069256 0.79498079 0.00000073
0.33163726 0.79498079 0.00000073
0.44721726 0.79498079 0.00000073
0.55945882 0.79498079 0.00000073
0.67499047 0.79498079 0.00000073
0.79498079 0.79498079 0.00000073
0.91869930 0.79498079 0.00000073
1.00000000 0.79498079 0.00000073
0.00000073 0.91869930 0.00000073
0.17069256 0.91869930 0.00000073
0.33163726 0.91869930 0.00000073
0.44721726 0.91869930 0.00000073
0.55945882 0.91869930 0.00000073
0.67499047 0.91869930 0.00000073
0.79498079 0.91869930 0.00000073
0.91869930 0.91869930 0.00000073
1.00000000 0.91869930 0.00000073
0.00000073 1.00000000 0.00000073
0.17069256 1.00000000 0.00000073
0.33163726 1.00000000 0.00000073
0.44721726 1.00000000 0.00000073
0.55945882 1.00000000 0.00000073
0.67499047 1.00000000 0.00000073
0.79498079 1.00000000 0.00000073
0.91869930 1.00000000 0.00000073
1.00000000 1.00000000 0.00000073
0.00000073 0.00000073 0.17069256
0.17069256 0.00000073 0.17069256
0.33163726 0.00000073 0.17069256
0.44721726 0.00000073 0.17069256
0.55945882 0.00000073 0.17069256
0.67499047 0.00000073 0.17069256
0.79498079 0.00000073 0.17069256
0.91869930 0.00000073 0.17069256
1.00000000 0.00000073 0.17069256
0.00000073 0.17069256 0.17069256
0.17069256 0.17069256 0.17069256
0.33163726 0.17069256 0.17069256
0.44721726 0.17069256 0.17069256
0.55945882 0.17069256 0.17069256
0.67499047 0.17069256 0.17069256
0.79498079 0.17069256 0.17069256
0.91869930 0.17069256 0.17069256
1.00000000 0.17069256 0.17069256
0.00000073 0.33163726 0.17069256
0.17069256 0.33163726 0.17069256
0.33163726 0.33163726 0.17069256
0.44721726 0.33163726 0.17069256
0.55945882 0.33163726 0.17069256
0.67499047 0.33163726 0.17069256
0.79498079 0.33163726 0.17069256
0.91869930 0.33163726 0.17069256
1.00000000 0.33163726 0.17069256
0.00000073 0.44721726 0.17069256
0.17069256 0.44721726 0.17069256
0.33163726 0.44721726 0.17069256
0.44721726 0.44721726 0.17069256
0.55945882 0.44721726 0.17069256
0.67499047 0.44721726 0.17069256
0.79498079 0.44721726 0.17069256
0.91869930 0.44721726 0.17069256
1.00000000 0.44721726 0.17069256
0.00000073 0.55945882 0.17069256
0.17069256 0.55945882 0.17069256
0.33163726 0.55945882 0.17069256
0.44721726 0.55945882 0.17069256
0.55945882 0.55945882 0.17069256
0.67499047 0.55945882 0.17069256
0.79498079 0.55945882 0.17069256
0.91869930 0.55945882 0.17069256
1.00000000 0.55945882 0.17069256
0.00000073 0.67499047 0.17069256
0.17069256 0.67499047 0.17069256
0.33163726 0.67499047 0.17069256
0.44721726 0.67499047 0.17069256
0.55945882 0.67499047 0.17069256
0.67499047 0.67499047 0.17069256
0.79498079 0.67499047 0.17069256
0.91869930 0.67499047 0.17069256
1.00000000 0.67499047 0.17069256
0.00000073 0.79498079 0.17069256
0.17069256 0.79498079 0.17069256
0.33163726 0.79498079 0.17069256
0.44721726 0.79498079 0.17069256
0.55945882 0.79498079 0.17069256
0.67499047 0.79498079 0.17069256
0.79498079 0.79498079 0.17069256
0.91869930 0.79498079 0.17069256
1.00000000 0.79498079 0.17069256
0.00000073 0.91869930 0.17069256
0.17069256 0.91869930 0.17069256
0.33163726 0.91869930 0.17069256
0.44721726 0.91869930 0.17069256
0.55945882 0.91869930 0.17069256
0.67499047 0.91869930 0.17069256
0.79498079 0.91869930 0.17069256
0.91869930 0.91869930 0.17069256
1.00000000 0.91869930 0.17069256
0.00000073 1.00000000 0.17069256
0.17069256 1.00000000 0.17069256
0.33163726 1.00000000 0.17069256
0.44721726 1.00000000 0.17069256
0.55945882 1.00000000 0.17069256
0.67499047 1.00000000 0.17069256
0.79498079 1.00000000 0.17069256
0.91869930 1.00000000 0.17069256
1.00000000 1.00000000 0.17069256
0.00000073 0.00000073 0.33163726
0.17069256 0.00000073 0.33163726
0.33163726 0.00000073 0.33163726
0.44721726 0.00000073 0.33163726
0.55945882 0.00000073 0.33163726
0.67499047 0.00000073 0.33163726
0.79498079 0.00000073 0.33163726
0.91869930 0.00000073 0.33163726
1.00000000 0.00000073 0.33163726
0.00000073 0.17069256 0.33163726
0.17069256 0.17069256 0.33163726
0.33163726 0.17069256 0.33163726
0.44721726 0.17069256 0.33163726
0.55945882 0.17069256 0.33163726
0.67499047 0.17069256 0.33163726
0.79498079 0.17069256 0.33163726
0.91869930 0.17069256 0.33163726
1.00000000 0.17069256 0.33163726
0.00000073 0.33163726 0.33163726
0.17069256 0.33163726 0.33163726
0.33163726 0.33163726 0.33163726
0.44721726 0.33163726 0.33163726
0.55945882 0.33163726 0.33163726
0.67499047 0.33163726 0.33163726
0.79498079 0.33163726 0.33163726
0.91869930 0.33163726 0.33163726
1.00000000 0.33163726 0.33163726
0.00000073 0.44721726 0.33163726
0.17069256 0.44721726 0.33163726
0.33163726 0.44721726 0.33163726
0.44721726 0.44721726 0.33163726
0.55945882 0.44721726 0.33163726
0.67499047 0.44721726 0.33163726
0.79498079 0.44721726 0.33163726
0.91869930 0.44721726 0.33163726
1.00000000 0.44721726 0.33163726
0.00000073 0.55945882 0.33163726
0.17069256 0.55945882 0.33163726
0.33163726 0.55945882 0.33163726
0.44721726 0.55945882 0.33163726
0.55945882 0.55945882 0.33163726
0.67499047 0.55945882 0.33163726
0.79498079 0.55945882 0.33163726
0.91869930 0.55945882 0.33163726
1.00000000 0.55945882 0.33163726
0.00000073 0.67499047 0.33163726
0.17069256 0.67499047 0.33163726
0.33163726 0.67499047 0.33163726
0.44721726 0.67499047 0.33163726
0.55945882 0.67499047 0.33163726
0.67499047 0.67499047 0.33163726
0.79498079 0.67499047 0.33163726
0.91869930 0.67499047 0.33163726
1.00000000 0.67499047 0.33163726
0.00000073 0.79498079 0.33163726
0.17069256 0.79498079 0.33163726
0.33163726 0.79498079 0.33163726
0.44721726 0.79498079 0.33163726
0.55945882 0.79498079 0.33163726
0.67499047 0.79498079 0.33163726
0.79498079 0.79498079 0.33163726
0.91869930 0.79498079 0.33163726
1.00000000 0.79498079 0.33163726
0.00000073 0.91869930 0.33163726
0.17069256 0.91869930 0.33163726
0.33163726 0.91869930 0.33163726
0.44721726 0.91869930 0.33163726
0.55945882 0.91869930 0.33163726
0.67499047 0.91869930 0.33163726
0.79498079 0.91869930 0.33163726
0.91869930 0.91869930 0.33163726
1.00000000 0.91869930 0.33163726
0.00000073 1.00000000 0.33163726
0.17069256 1.00000000 0.33163726
0.33163726 1.00000000 0.33163726
0.44721726 1.00000000 0.33163726
0.55945882 1.00000000 0.33163726
0.67499047 1.00000000 0.33163726
0.79498079 1.00000000 0.33163726
0.91869930 1.00000000 0.33163726
1.00000000 1.00000000 0.33163726
0.00000073 0.00000073 0.44721726
0.17069256 0.00000073 0.44721726
0.33163726 0.00000073 0.44721726
0.44721726 0.00000073 0.44721726
0.55945882 0.00000073 0.44721726
0.67499047 0.00000073 0.44721726
0.79498079 0.00000073 0.44721726
0.91869930 0.00000073 0.44721726
1.00000000 0.00000073 0.44721726
0.00000073 0.17069256 0.44721726
0.17069256 0.17069256 0.44721726
0.33163726 0.17069256 0.44721726
0.44721726 0.17069256 0.44721726
0.55945882 0.17069256 0.44721726
0.67499047 0.17069256 0.44721726
0.79498079 0.17069256 0.44721726
0.91869930 0.17069256 0.44721726
1.00000000 0.17069256 0.44721726
0.00000073 0.33163726 0.44721726
0.17069256 0.33163726 0.44721726
0.33163726 0.33163726 0.44721726
0.44721726 0.33163726 0.44721726
0.55945882 0.33163726 0.44721726
0.67499047 0.33163726 0.44721726
0.79498079 0.33163726 0.44721726
0.91869930 0.33163726 0.44721726
1.00000000 0.33163726 0.44721726
0.00000073 0.44721726 0.44721726
0.17069256 0.44721726 0.44721726
0.33163726 0.44721726 0.44721726
0.44721726 0.44721726 0.44721726
0.55945882 0.44721726 0.44721726
0.67499047 0.44721726 0.44721726
0.79498079 0.44721726 0.44721726
0.91869930 0.44721726 0.44721726
1.00000000 0.44721726 0.44721726
0.00000073 0.55945882 0.44721726
0.17069256 0.55945882 0.44721726
0.33163726 0.55945882 0.44721726
0.44721726 0.55945882 0.44721726
0.55945882 0.55945882 0.44721726
0.67499047 0.55945882 0.44721726
0.79498079 0.55945882 0.44721726
0.91869930 0.55945882 0.44721726
1.00000000 0.55945882 0.44721726
0.00000073 0.67499047 0.44721726
0.17069256 0.67499047 0.44721726
0.33163726 0.67499047 0.44721726
0.44721726 0.67499047 0.44721726
0.55945882 0.67499047 0.44721726
0.67499047 0.67499047 0.44721726
0.79498079 0.67499047 0.44721726
0.91869930 0.67499047 0.44721726
1.00000000 0.67499047 0.44721726
0.00000073 0.79498079 0.44721726
0.17069256 0.79498079 0.44721726
0.33163726 0.79498079 0.44721726
0.44721726 0.79498079 0.44721726
0.55945882 0.79498079 0.44721726
0.67499047 0.79498079 0.44721726
0.79498079 0.79498079 0.44721726
0.91869930 0.79498079 0.44721726
1.00000000 0.79498079 0.44721726
0.00000073 0.91869930 0.44721726
0.17069256 0.91869930 0.44721726
0.33163726 0.91869930 0.44721726
0.44721726 0.91869930 0.44721726
0.55945882 0.91869930 0.44721726
0.67499047 0.91869930 0.44721726
0.79498079 0.91869930 0.44721726
0.91869930 0.91869930 0.44721726
1.00000000 0.91869930 0.44721726
0.00000073 1.00000000 0.44721726
0.17069256 1.00000000 0.44721726
0.33163726 1.00000000 0.44721726
0.44721726 1.00000000 0.44721726
0.55945882 1.00000000 0.44721726
0.67499047 1.00000000 0.44721726
0.79498079 1.00000000 0.44721726
0.91869930 1.00000000 0.44721726
1.00000000 1.00000000 0.44721726
0.00000073 0.00000073 0.55945882
0.17069256 0.00000073 0.55945882
0.33163726 0.00000073 0.55945882
0.44721726 0.00000073 0.55945882
0.55945882 0.00000073 0.55945882
0.67499047 0.00000073 0.55945882
0.79498079 0.00000073 0.55945882
0.91869930 0.00000073 0.55945882
1.00000000 0.00000073 0.55945882
0.00000073 0.17069256 0.55945882
0.17069256 0.17069256 0.55945882
0.33163726 0.17069256 0.55945882
0.44721726 0.17069256 0.55945882
0.55945882 0.17069256 0.55945882
0.67499047 0.17069256 0.55945882
0.79498079 0.17069256 0.55945882
0.91869930 0.17069256 0.55945882
1.00000000 0.17069256 0.55945882
0.00000073 0.33163726 0.55945882
0.17069256 0.33163726 0.55945882
0.33163726 0.33163726 0.55945882
0.44721726 0.33163726 0.55945882
0.55945882 0.33163726 0.55945882
0.67499047 0.33163726 0.55945882
0.79498079 0.33163726 0.55945882
0.91869930 0.33163726 0.55945882
1.00000000 0.33163726 0.55945882
0.00000073 0.44721726 0.55945882
0.17069256 0.44721726 0.55945882
0.33163726 0.44721726 0.55945882
0.44721726 0.44721726 0.55945882
0.55945882 0.44721726 0.55945882
0.67499047 0.44721726 0.55945882
0.79498079 0.44721726 0.55945882
0.91869930 0.44721726 0.55945882
1.00000000 0.44721726 0.55945882
0.00000073 0.55945882 0.55945882
0.17069256 0.55945882 0.55945882
0.33163726 0.55945882 0.55945882
0.44721726 0.55945882 0.55945882
0.55945882 0.55945882 0.55945882
0.67499047 0.55945882 0.55945882
0.79498079 0.55945882 0.55945882
0.91869930 0.55945882 0.55945882
1.00000000 0.55945882 0.55945882
0.00000073 0.67499047 0.55945882
0.17069256 0.67499047 0.55945882
0.33163726 0.67499047 0.55945882
0.44721726 0.67499047 0.55945882
0.55945882 0.67499047 0.55945882
0.67499047 0.67499047 0.55945882
0.79498079 0.67499047 0.55945882
0.91869930 0.67499047 0.55945882
1.00000000 0.67499047 0.55945882
0.00000073 0.79498079 0.55945882
0.17069256 0.79498079 0.55945882
0.33163726 0.79498079 0.55945882
0.44721726 0.79498079 0.55945882
0.55945882 0.79498079 0.55945882
0.67499047 0.79498079 0.55945882
0.79498079 0.79498079 0.55945882
0.91869930 0.79498079 0.55945882
1.00000000 0.79498079 0.55945882
0.00000073 0.91869930 0.55945882
0.17069256 0.91869930 0.55945882
0.33163726 0.91869930 0.55945882
0.44721726 0.91869930 0.55945882
0.55945882 0.91869930 0.55945882
0.67499047 0.91869930 0.55945882
0.79498079 0.91869930 0.55945882
0.91869930 0.91869930 0.55945882
1.00000000 0.91869930 0.55945882
0.00000073 1.00000000 0.55945882
0.17069256 1.00000000 0.55945882
0.33163726 1.00000000 0.55945882
0.44721726 1.00000000 0.55945882
0.55945882 1.00000000 0.55945882
0.67499047 1.00000000 0.55945882
0.79498079 1.00000000 0.55945882
0.91869930 1.00000000 0.55945882
1.00000000 1.00000000 0.55945882
0.00000073 0.00000073 0.67499047
0.17069256 0.00000073 0.67499047
0.33163726 0.00000073 0.67499047
0.44721726 0.00000073 0.67499047
0.55945882 0.00000073 0.67499047
0.67499047 0.00000073 0.67499047
0.79498079 0.00000073 0.67499047
0.91869930 0.00000073 0.67499047
1.00000000 0.00000073 0.67499047
0.00000073 0.17069256 0.67499047
0.17069256 0.17069256 0.67499047
0.33163726 0.17069256 0.67499047
0.44721726 0.17069256 0.67499047
0.55945882 0.17069256 0.67499047
0.67499047 0.17069256 0.67499047
0.79498079 0.17069256 0.67499047
0.91869930 0.17069256 0.67499047
1.00000000 0.17069256 0.67499047
0.00000073 0.33163726 0.67499047
0.17069256 0.33163726 0.67499047
0.33163726 0.33163726 0.67499047
0.44721726 0.33163726 0.67499047
0.55945882 0.33163726 0.67499047
0.67499047 0.33163726 0.67499047
0.79498079 0.33163726 0.67499047
0.91869930 0.33163726 0.67499047
1.00000000 0.33163726 0.67499047
0.00000073 0.44721726 0.67499047
0.17069256 0.44721726 0.67499047
0.33163726 0.44721726 0.67499047
0.44721726 0.44721726 0.67499047
0.55945882 0.44721726 0.67499047
0.67499047 0.44721726 0.67499047
0.79498079 0.44721726 0.67499047
0.91869930 0.44721726 0.67499047
1.00000000 0.44721726 0.67499047
0.00000073 0.55945882 0.67499047
0.17069256 0.55945882 0.67499047
0.33163726 0.55945882 0.67499047
0.44721726 0.55945882 0.67499047
0.55945882 0.55945882 0.67499047
0.67499047 0.55945882 0.67499047
0.79498079 0.55945882 0.67499047
0.91869930 0.55945882 0.67499047
1.00000000 0.55945882 0.67499047
0.00000073 0.67499047 0.67499047
0.17069256 0.67499047 0.67499047
0.33163726 0.67499047 0.67499047
0.44721726 0.67499047 0.67499047
0.55945882 0.67499047 0.67499047
0.67499047 0.67499047 0.67499047
0.79498079 0.67499047 0.67499047
0.91869930 0.67499047 0.67499047
1.00000000 0.67499047 0.67499047
0.00000073 0.79498079 0.67499047
0.17069256 0.79498079 0.67499047
0.33163726 0.79498079 0.67499047
0.44721726 0.79498079 0.67499047
0.55945882 0.79498079 0.67499047
0.67499047 0.79498079 0.67499047
0.79498079 0.79498079 0.67499047
0.91869930 0.79498079 0.67499047
1.00000000 0.79498079 0.67499047
0.00000073 0.91869930 0.67499047
0.17069256 0.91869930 0.67499047
0.33163726 0.91869930 0.67499047
0.44721726 0.91869930 0.67499047
0.55945882 0.91869930 0.67499047
0.67499047 0.91869930 0.67499047
0.79498079 0.91869930 0.67499047
0.91869930 0.91869930 0.67499047
1.00000000 0.91869930 0.67499047
0.00000073 1.00000000 0.67499047
0.17069256 1.00000000 0.67499047
0.33163726 1.00000000 0.67499047
0.44721726 1.00000000 0.67499047
0.55945882 1.00000000 0.67499047
0.67499047 1.00000000 0.67499047
0.79498079 1.00000000 0.67499047
0.91869930 1.00000000 0.67499047
1.00000000 1.00000000 0.67499047
0.00000073 0.00000073 0.79498079
0.17069256 0.00000073 0.79498079
0.33163726 0.00000073 0.79498079
0.44721726 0.00000073 0.79498079
0.55945882 0.00000073 0.79498079
0.67499047 0.00000073 0.79498079
0.79498079 0.00000073 0.79498079
0.91869930 0.00000073 0.79498079
1.00000000 0.00000073 0.79498079
0.00000073 0.17069256 0.79498079
0.17069256 0.17069256 0.79498079
0.33163726 0.17069256 0.79498079
0.44721726 0.17069256 0.79498079
0.55945882 0.17069256 0.79498079
0.67499047 0.17069256 0.79498079
0.79498079 0.17069256 0.79498079
0.91869930 0.17069256 0.79498079
1.00000000 0.17069256 0.79498079
0.00000073 0.33163726 0.79498079
0.17069256 0.33163726 0.79498079
0.33163726 0.33163726 0.79498079
0.44721726 0.33163726 0.79498079
0.55945882 0.33163726 0.79498079
0.67499047 0.33163726 0.79498079
0.79498079 0.33163726 0.79498079
0.91869930 0.33163726 0.79498079
1.00000000 0.33163726 0.79498079
0.00000073 0.44721726 0.79498079
0.17069256 0.44721726 0.79498079
0.33163726 0.44721726 0.79498079
0.44721726 0.44721726 0.79498079
0.55945882 0.44721726 0.79498079
0.67499047 0.44721726 0.79498079
0.79498079 0.44721726 0.79498079
0.91869930 0.44721726 0.79498079
1.00000000 0.44721726 0.79498079
0.00000073 0.55945882 0.79498079
0.17069256 0.55945882 0.79498079
0.33163726 0.55945882 0.79498079
0.44721726 0.55945882 0.79498079
0.55945882 0.55945882 0.79498079
0.67499047 0.55945882 0.79498079
0.79498079 0.55945882 0.79498079
0.91869930 0.55945882 0.79498079
1.00000000 0.55945882 0.79498079
0.00000073 0.67499047 0.79498079
0.17069256 0.67499047 0.79498079
0.33163726 0.67499047 0.79498079
0.44721726 0.67499047 0.79498079
0.55945882 0.67499047 0.79498079
0.67499047 0.67499047 0.79498079
0.79498079 0.67499047 0.79498079
0.91869930 0.67499047 0.79498079
1.00000000 0.67499047 0.79498079
0.00000073 0.79498079 0.79498079
0.17069256 0.79498079 0.79498079
0.33163726 0.79498079 0.79498079
0.44721726 0.79498079 0.79498079
0.55945882 0.79498079 0.79498079
0.67499047 0.79498079 0.79498079
0.79498079 0.79498079 0.79498079
0.91869930 0.79498079 0.79498079
1.00000000 0.79498079 0.79498079
0.00000073 0.91869930 0.79498079
0.17069256 0.91869930 0.79498079
0.33163726 0.91869930 0.79498079
0.44721726 0.91869930 0.79498079
0.55945882 0.91869930 0.79498079
0.67499047 0.91869930 0.79498079
0.79498079 0.91869930 0.79498079
0.91869930 0.91869930 0.79498079
1.00000000 0.91869930 0.79498079
0.00000073 1.00000000 0.79498079
0.17069256 1.00000000 0.79498079
0.33163726 1.00000000 0.79498079
0.44721726 1.00000000 0.79498079
0.55945882 1.00000000 0.79498079
0.67499047 1.00000000 0.79498079
0.79498079 1.00000000 0.79498079
0.91869930 1.00000000 0.79498079
1.00000000 1.00000000 0.79498079
0.00000073 0.00000073 0.91869930
0.17069256 0.00000073 0.91869930
0.33163726 0.00000073 0.91869930
0.44721726 0.00000073 0.91869930
0.55945882 0.00000073 0.91869930
0.67499047 0.00000073 0.91869930
0.79498079 0.00000073 0.91869930
0.91869930 0.00000073 0.91869930
1.00000000 0.00000073 0.91869930
0.00000073 0.17069256 0.91869930
0.17069256 0.17069256 0.91869930
0.33163726 0.17069256 0.91869930
0.44721726 0.17069256 0.91869930
0.55945882 0.17069256 0.91869930
0.67499047 0.17069256 0.91869930
0.79498079 0.17069256 0.91869930
0.91869930 0.17069256 0.91869930
1.00000000 0.17069256 0.91869930
0.00000073 0.33163726 0.91869930
0.17069256 0.33163726 0.91869930
0.33163726 0.33163726 0.91869930
0.44721726 0.33163726 0.91869930
0.55945882 0.33163726 0.91869930
0.67499047 0.33163726 0.91869930
0.79498079 0.33163726 0.91869930
0.91869930 0.33163726 0.91869930
1.00000000 0.33163726 0.91869930
0.00000073 0.44721726 0.91869930
0.17069256 0.44721726 0.91869930
0.33163726 0.44721726 0.91869930
0.44721726 0.44721726 0.91869930
0.55945882 0.44721726 0.91869930
0.67499047 0.44721726 0.91869930
0.79498079 0.44721726 0.91869930
0.91869930 0.44721726 0.91869930
1.00000000 0.44721726 0.91869930
0.00000073 0.55945882 0.91869930
0.17069256 0.55945882 0.91869930
0.33163726 0.55945882 0.91869930
0.44721726 0.55945882 0.91869930
0.55945882 0.55945882 0.91869930
0.67499047 0.55945882 0.91869930
0.79498079 0.55945882 0.91869930
0.91869930 0.55945882 0.91869930
1.00000000 0.55945882 0.91869930
0.00000073 0.67499047 0.91869930
0.17069256 0.67499047 0.91869930
0.33163726 0.67499047 0.91869930
0.44721726 0.67499047 0.91869930
0.55945882 0.67499047 0.91869930
0.67499047 0.67499047 0.91869930
0.79498079 0.67499047 0.91869930
0.91869930 0.67499047 0.91869930
1.00000000 0.67499047 0.91869930
0.00000073 0.79498079 0.91869930
0.17069256 0.79498079 0.91869930
0.33163726 0.79498079 0.91869930
0.44721726 0.79498079 0.91869930
0.55945882 0.79498079 0.91869930
0.67499047 0.79498079 0.91869930
0.79498079 0.79498079 0.91869930
0.91869930 0.79498079 0.91869930
1.00000000 0.79498079 0.91869930
0.00000073 0.91869930 0.91869930
0.17069256 0.91869930 0.91869930
0.33163726 0.91869930 0.91869930
0.44721726 0.91869930 0.91869930
0.55945882 0.91869930 0.91869930
0.67499047 0.91869930 0.91869930
0.79498079 0.91869930 0.91869930
0.91869930 0.91869930 0.91869930
1.00000000 0.91869930 0.91869930
0.00000073 1.00000000 0.91869930
0.17069256 1.00000000 0.91869930
0.33163726 1.00000000 0.91869930
0.44721726 1.00000000 0.91869930
0.55945882 1.00000000 0.91869930
0.67499047 1.00000000 0.91869930
0.79498079 1.00000000 0.91869930
0.91869930 1.00000000 0.91869930
1.00000000 1.00000000 0.91869930
0.00000073 0.00000073 1.00000000
0.17069256 0.00000073 1.00000000
0.33163726 0.00000073 1.00000000
0.44721726 0.00000073 1.00000000
0.55945882 0.00000073 1.00000000
0.67499047 0.00000073 1.00000000
0.79498079 0.00000073 1.00000000
0.91869930 0.00000073 1.00000000
1.00000000 0.00000073 1.00000000
0.00000073 0.17069256 1.00000000
0.17069256 0.17069256 1.00000000
0.33163726 0.17069256 1.00000000
0.44721726 0.17069256 1.00000000
0.55945882 0.17069256 1.00000000
0.67499047 0.17069256 1.00000000
0.79498079 0.17069256 1.00000000
0.91869930 0.17069256 1.00000000
1.00000000 0.17069256 1.00000000
0.00000073 0.33163726 1.00000000
0.17069256 0.33163726 1.00000000
0.33163726 0.33163726 1.00000000
0.44721726 0.33163726 1.00000000
0.55945882 0.33163726 1.00000000
0.67499047 0.33163726 1.00000000
0.79498079 0.33163726 1.00000000
0.91869930 0.33163726 1.00000000
1.00000000 0.33163726 1.00000000
0.00000073 0.44721726 1.00000000
0.17069256 0.44721726 1.00000000
0.33163726 0.44721726 1.00000000
0.44721726 0.44721726 1.00000000
0.55945882 0.44721726 1.00000000
0.67499047 0.44721726 1.00000000
0.79498079 0.44721726 1.00000000
0.91869930 0.44721726 1.00000000
1.00000000 0.44721726 1.00000000
0.00000073 0.55945882 1.00000000
0.17069256 0.55945882 1.00000000
0.33163726 0.55945882 1.00000000
0.44721726 0.55945882 1.00000000
0.55945882 0.55945882 1.00000000
0.67499047 0.55945882 1.00000000
0.79498079 0.55945882 1.00000000
0.91869930 0.55945882 1.00000000
1.00000000 0.55945882 1.00000000
0.00000073 0.67499047 1.00000000
0.17069256 0.67499047 1.00000000
0.33163726 0.67499047 1.00000000
0.44721726 0.67499047 1.00000000
0.55945882 0.67499047 1.00000000
0.67499047 0.67499047 1.00000000
0.79498079 0.67499047 1.00000000
0.91869930 0.67499047 1.00000000
1.00000000 0.67499047 1.00000000
0.00000073 0.79498079 1.00000000
0.17069256 0.79498079 1.00000000
0.33163726 0.79498079 1.00000000
0.44721726 0.79498079 1.00000000
0.55945882 0.79498079 1.00000000
0.67499047 0.79498079 1.00000000
0.79498079 0.79498079 1.00000000
0.91869930 0.79498079 1.00000000
1.00000000 0.79498079 1.00000000
0.00000073 0.91869930 1.00000000
0.17069256 0.91869930 1.00000000
0.33163726 0.91869930 1.00000000
0.44721726 0.91869930 1.00000000
0.55945882 0.91869930 1.00000000
0.67499047 0.91869930 1.00000000
0.79498079 0.91869930 1.00000000
0.91869930 0.91869930 1.00000000
1.00000000 0.91869930 1.00000000
0.00000073 1.00000000 1.00000000
0.17069256 1.00000000 1.00000000
0.33163726 1.00000000 1.00000000
0.44721726 1.00000000 1.00000000
0.55945882 1.00000000 1.00000000
0.67499047 1.00000000 1.00000000
0.79498079 1.00000000 1.00000000
0.91869930 1.00000000 1.00000000
1.00000000 1.00000000 1.00000000
