src/ffmpeg_scripts/luts/flog-experimental_-0p33.cube
TITLE "flog-experimental_-0p33"
LUT_3D_SIZE 33
# Fujifilm F-Log/Rec2020 -> PQ (EOTF Only)/Rec2020, CineEI Shift -0.33, Black Level 0.00% IRE, Input 109% -> Output 100% - Created with LUTCalc v4.01 by Ben Turley October 2020
0.00000073 0.00000073 0.00000073
0.00000073 0.00000073 0.00000073
0.00000073 0.00000073 0.00000073
0.02668790 0.00000073 0.00000073
0.14398516 0.00000073 0.00000073
0.19170759 0.00000073 0.00000073
0.22826436 0.00000073 0.00000073
0.25997724 0.00000073 0.00000073
0.28912772 0.00000073 0.00000073
0.31682154 0.00000073 0.00000073
0.34368388 0.00000073 0.00000073
0.37010325 0.00000073 0.00000073
0.39633642 0.00000073 0.00000073
0.42256008 0.00000073 0.00000073
0.44889871 0.00000073 0.00000073
0.47544093 0.00000073 0.00000073
0.50224957 0.00000073 0.00000073
0.52936823 0.00000073 0.00000073
0.55682575 0.00000073 0.00000073
0.58463936 0.00000073 0.00000073
0.61281699 0.00000073 0.00000073
0.64135902 0.00000073 0.00000073
0.67025962 0.00000073 0.00000073
0.69950785 0.00000073 0.00000073
0.72908856 0.00000073 0.00000073
0.75898307 0.00000073 0.00000073
0.78916985 0.00000073 0.00000073
0.81962502 0.00000073 0.00000073
0.85032280 0.00000073 0.00000073
0.88123595 0.00000073 0.00000073
0.91233608 0.00000073 0.00000073
0.94359400 0.00000073 0.00000073
0.97497996 0.00000073 0.00000073
0.00000073 0.00000073 0.00000073
0.00000073 0.00000073 0.00000073
0.00000073 0.00000073 0.00000073
0.02668790 0.00000073 0.00000073
0.14398516 0.00000073 0.00000073
0.19170759 0.00000073 0.00000073
0.22826436 0.00000073 0.00000073
0.25997724 0.00000073 0.00000073
0.28912772 0.00000073 0.00000073
0.31682154 0.00000073 0.00000073
0.34368388 0.00000073 0.00000073
0.37010325 0.00000073 0.00000073
0.39633642 0.00000073 0.00000073
0.42256008 0.00000073 0.00000073
0.44889871 0.00000073 0.00000073
0.47544093 0.00000073 0.00000073
0.50224957 0.00000073 0.00000073
0.52936823 0.00000073 0.00000073
0.55682575 0.00000073 0.00000073
0.58463936 0.00000073 0.00000073
0.61281699 0.00000073 0.00000073
0.64135902 0.00000073 0.00000073
0.67025962 0.00000073 0.00000073
0.69950785 0.00000073 0.00000073
0.72908856 0.00000073 0.00000073
0.75898307 0.00000073 0.00000073
0.78916985 0.00000073 0.00000073
0.81962502 0.00000073 0.00000073
0.85032280 0.00000073 0.00000073
0.88123595 0.00000073 0.00000073
0.91233608 0.00000073 0.00000073
0.94359400 0.00000073 0.00000073
0.97497996 0.00000073 0.00000073
0.00000073 0.00000073 0.00000073
0.00000073 0.00000073 0.00000073
0.00000073 0.00000073 0.00000073
0.02668790 0.00000073 0.00000073
0.14398516 0.00000073 0.00000073
0.19170759 0.00000073 0.00000073
0.22826436 0.00000073 0.00000073
0.25997724 0.00000073 0.00000073
0.28912772 0.00000073 0.00000073
0.31682154 0.00000073 0.00000073
0.34368388 0.00000073 0.00000073
0.37010325 0.00000073 0.00000073
0.39633642 0.00000073 0.00000073
0.42256008 0.00000073 0.00000073
0.44889871 0.00000073 0.00000073
0.47544093 0.00000073 0.00000073
0.50224957 0.00000073 0.00000073
0.52936823 0.00000073 0.00000073
0.55682575 0.00000073 0.00000073
0.58463936 0.00000073 0.00000073
0.61281699 0.00000073 0.00000073
0.64135902 0.00000073 0.00000073
0.67025962 0.00000073 0.00000073
0.69950785 0.00000073 0.00000073
0.72908856 0.00000073 0.00000073
0.75898307 0.00000073 0.00000073
0.78916985 0.00000073 0.00000073
0.81962502 0.00000073 0.00000073
0.85032280 0.00000073 0.00000073
0.88123595 0.00000073 0.00000073
0.91233608 0.00000073 0.00000073
0.94359400 0.00000073 0.00000073
0.97497996 0.00000073 0.00000073
0.00000073 0.02668790 0.00000073
0.00000073 0.02668790 0.00000073
0.00000073 0.02668790 0.00000073
0.02668790 0.02668790 0.00000073
0.14398516 0.02668790 0.00000073
0.19170759 0.02668790 0.00000073
0.22826436 0.02668790 0.00000073
0.25997724 0.02668790 0.00000073
0.28912772 0.02668790 0.00000073
0.31682154 0.02668790 0.00000073
0.34368388 0.02668790 0.00000073
0.37010325 0.02668790 0.00000073
0.39633642 0.02668790 0.00000073
0.42256008 0.02668790 0.00000073
0.44889871 0.02668790 0.00000073
0.47544093 0.02668790 0.00000073
0.50224957 0.02668790 0.00000073
0.52936823 0.02668790 0.00000073
0.55682575 0.02668790 0.00000073
0.58463936 0.02668790 0.00000073
0.61281699 0.02668790 0.00000073
0.64135902 0.02668790 0.00000073
0.67025962 0.02668790 0.00000073
0.69950785 0.02668790 0.00000073
0.72908856 0.02668790 0.00000073
0.75898307 0.02668790 0.00000073
0.78916985 0.02668790 0.00000073
0.81962502 0.02668790 0.00000073
0.85032280 0.02668790 0.00000073
0.88123595 0.02668790 0.00000073
0.91233608 0.02668790 0.00000073
0.94359400 0.02668790 0.00000073
0.97497996 0.02668790 0.00000073
0.00000073 0.14398516 0.00000073
0.00000073 0.14398516 0.00000073
0.00000073 0.14398516 0.00000073
0.02668790 0.14398516 0.00000073
0.14398516 0.14398516 0.00000073
0.19170759 0.14398516 0.00000073
0.22826436 0.14398516 0.00000073
0.25997724 0.14398516 0.00000073
0.28912772 0.14398516 0.00000073
0.31682154 0.14398516 0.00000073
0.34368388 0.14398516 0.00000073
0.37010325 0.14398516 0.00000073
0.39633642 0.14398516 0.00000073
0.42256008 0.14398516 0.00000073
0.44889871 0.14398516 0.00000073
0.47544093 0.14398516 0.00000073
0.50224957 0.14398516 0.00000073
0.52936823 0.14398516 0.00000073
0.55682575 0.14398516 0.00000073
0.58463936 0.14398516 0.00000073
0.61281699 0.14398516 0.00000073
0.64135902 0.14398516 0.00000073
0.67025962 0.14398516 0.00000073
0.69950785 0.14398516 0.00000073
0.72908856 0.14398516 0.00000073
0.75898307 0.14398516 0.00000073
0.78916985 0.14398516 0.00000073
0.81962502 0.14398516 0.00000073
0.85032280 0.14398516 0.00000073
0.88123595 0.14398516 0.00000073
0.91233608 0.14398516 0.00000073
0.94359400 0.14398516 0.00000073
0.97497996 0.14398516 0.00000073
0.00000073 0.19170759 0.00000073
0.00000073 0.19170759 0.00000073
0.00000073 0.19170759 0.00000073
0.02668790 0.19170759 0.00000073
0.14398516 0.19170759 0.00000073
0.19170759 0.19170759 0.00000073
0.22826436 0.19170759 0.00000073
0.25997724 0.19170759 0.00000073
0.28912772 0.19170759 0.00000073
0.31682154 0.19170759 0.00000073
0.34368388 0.19170759 0.00000073
0.37010325 0.19170759 0.00000073
0.39633642 0.19170759 0.00000073
0.42256008 0.19170759 0.00000073
0.44889871 0.19170759 0.00000073
0.47544093 0.19170759 0.00000073
0.50224957 0.19170759 0.00000073
0.52936823 0.19170759 0.00000073
0.55682575 0.19170759 0.00000073
0.58463936 0.19170759 0.00000073
0.61281699 0.19170759 0.00000073
0.64135902 0.19170759 0.00000073
0.67025962 0.19170759 0.00000073
0.69950785 0.19170759 0.00000073
0.72908856 0.19170759 0.00000073
0.75898307 0.19170759 0.00000073
0.78916985 0.19170759 0.00000073
0.81962502 0.19170759 0.00000073
0.85032280 0.19170759 0.00000073
0.88123595 0.19170759 0.00000073
0.91233608 0.19170759 0.00000073
0.94359400 0.19170759 0.00000073
0.97497996 0.19170759 0.00000073
0.00000073 0.22826436 0.00000073
0.00000073 0.22826436 0.00000073
0.00000073 0.22826436 0.00000073
0.02668790 0.22826436 0.00000073
0.14398516 0.22826436 0.00000073
0.19170759 0.22826436 0.00000073
0.22826436 0.22826436 0.00000073
0.25997724 0.22826436 0.00000073
0.28912772 0.22826436 0.00000073
0.31682154 0.22826436 0.00000073
0.34368388 0.22826436 0.00000073
0.37010325 0.22826436 0.00000073
0.39633642 0.22826436 0.00000073
0.42256008 0.22826436 0.00000073
0.44889871 0.22826436 0.00000073
0.47544093 0.22826436 0.00000073
0.50224957 0.22826436 0.00000073
0.52936823 0.22826436 0.00000073
0.55682575 0.22826436 0.00000073
0.58463936 0.22826436 0.00000073
0.61281699 0.22826436 0.00000073
0.64135902 0.22826436 0.00000073
0.67025962 0.22826436 0.00000073
0.69950785 0.22826436 0.00000073
0.72908856 0.22826436 0.00000073
0.75898307 0.22826436 0.00000073
0.78916985 0.22826436 0.00000073
0.81962502 0.22826436 0.00000073
0.85032280 0.22826436 0.00000073
0.88123595 0.22826436 0.00000073
0.91233608 0.22826436 0.00000073
0.94359400 0.22826436 0.00000073
0.97497996 0.22826436 0.00000073
0.00000073 0.25997724 0.00000073
0.00000073 0.25997724 0.00000073
0.00000073 0.25997724 0.00000073
0.02668790 0.25997724 0.00000073
0.14398516 0.25997724 0.00000073
0.19170759 0.25997724 0.00000073
0.22826436 0.25997724 0.00000073
0.25997724 0.25997724 0.00000073
0.28912772 0.25997724 0.00000073
0.31682154 0.25997724 0.00000073
0.34368388 0.25997724 0.00000073
0.37010325 0.25997724 0.00000073
0.39633642 0.25997724 0.00000073
0.42256008 0.25997724 0.00000073
0.44889871 0.25997724 0.00000073
0.47544093 0.25997724 0.00000073
0.50224957 0.25997724 0.00000073
0.52936823 0.25997724 0.00000073
0.55682575 0.25997724 0.00000073
0.58463936 0.25997724 0.00000073
0.61281699 0.25997724 0.00000073
0.64135902 0.25997724 0.00000073
0.67025962 0.25997724 0.00000073
0.69950785 0.25997724 0.00000073
0.72908856 0.25997724 0.00000073
0.75898307 0.25997724 0.00000073
0.78916985 0.25997724 0.00000073
0.81962502 0.25997724 0.00000073
0.85032280 0.25997724 0.00000073
0.88123595 0.25997724 0.00000073
0.91233608 0.25997724 0.00000073
0.94359400 0.25997724 0.00000073
0.97497996 0.25997724 0.00000073
0.00000073 0.28912772 0.00000073
0.00000073 0.28912772 0.00000073
0.00000073 0.28912772 0.00000073
0.02668790 0.28912772 0.00000073
0.14398516 0.28912772 0.00000073
0.19170759 0.28912772 0.00000073
0.22826436 0.28912772 0.00000073
0.25997724 0.28912772 0.00000073
0.28912772 0.28912772 0.00000073
0.31682154 0.28912772 0.00000073
0.34368388 0.28912772 0.00000073
0.37010325 0.28912772 0.00000073
0.39633642 0.28912772 0.00000073
0.42256008 0.28912772 0.00000073
0.44889871 0.28912772 0.00000073
0.47544093 0.28912772 0.00000073
0.50224957 0.28912772 0.00000073
0.52936823 0.28912772 0.00000073
0.55682575 0.28912772 0.00000073
0.58463936 0.28912772 0.00000073
0.61281699 0.28912772 0.00000073
0.64135902 0.28912772 0.00000073
0.67025962 0.28912772 0.00000073
0.69950785 0.28912772 0.00000073
0.72908856 0.28912772 0.00000073
0.75898307 0.28912772 0.00000073
0.78916985 0.28912772 0.00000073
0.81962502 0.28912772 0.00000073
0.85032280 0.28912772 0.00000073
0.88123595 0.28912772 0.00000073
0.91233608 0.28912772 0.00000073
0.94359400 0.28912772 0.00000073
0.97497996 0.28912772 0.00000073
0.00000073 0.31682154 0.00000073
0.00000073 0.31682154 0.00000073
0.00000073 0.31682154 0.00000073
0.02668790 0.31682154 0.00000073
0.14398516 0.31682154 0.00000073
0.19170759 0.31682154 0.00000073
0.22826436 0.31682154 0.00000073
0.25997724 0.31682154 0.00000073
0.28912772 0.31682154 0.00000073
0.31682154 0.31682154 0.00000073
0.34368388 0.31682154 0.00000073
0.37010325 0.31682154 0.00000073
0.39633642 0.31682154 0.00000073
0.42256008 0.31682154 0.00000073
0.44889871 0.31682154 0.00000073
0.47544093 0.31682154 0.00000073
0.50224957 0.31682154 0.00000073
0.52936823 0.31682154 0.00000073
0.55682575 0.31682154 0.00000073
0.58463936 0.31682154 0.00000073
0.61281699 0.31682154 0.00000073
0.64135902 0.31682154 0.00000073
0.67025962 0.31682154 0.00000073
0.69950785 0.31682154 0.00000073
0.72908856 0.31682154 0.00000073
0.75898307 0.31682154 0.00000073
0.78916985 0.31682154 0.00000073
0.81962502 0.31682154 0.00000073
0.85032280 0.31682154 0.00000073
0.88123595 0.31682154 0.00000073
0.91233608 0.31682154 0.00000073
0.94359400 0.31682154 0.00000073
0.97497996 0.31682154 0.00000073
0.00000073 0.34368388 0.00000073
0.00000073 0.34368388 0.00000073
0.00000073 0.34368388 0.00000073
0.02668790 0.34368388 0.00000073
0.14398516 0.34368388 0.00000073
0.19170759 0.34368388 0.00000073
0.22826436 0.34368388 0.00000073
0.25997724 0.34368388 0.00000073
0.28912772 0.34368388 0.00000073
0.31682154 0.34368388 0.00000073
0.34368388 0.34368388 0.00000073
0.37010325 0.34368388 0.00000073
0.39633642 0.34368388 0.00000073
0.42256008 0.34368388 0.00000073
0.44889871 0.34368388 0.00000073
0.47544093 0.34368388 0.00000073
0.50224957 0.34368388 0.00000073
0.52936823 0.34368388 0.00000073
0.55682575 0.34368388 0.00000073
0.58463936 0.34368388 0.00000073
0.61281699 0.34368388 0.00000073
0.64135902 0.34368388 0.00000073
0.67025962 0.34368388 0.00000073
0.69950785 0.34368388 0.00000073
0.72908856 0.34368388 0.00000073
0.75898307 0.34368388 0.00000073
0.78916985 0.34368388 0.00000073
0.81962502 0.34368388 0.00000073
0.85032280 0.34368388 0.00000073
0.88123595 0.34368388 0.00000073
0.91233608 0.34368388 0.00000073
0.94359400 0.34368388 0.00000073
0.97497996 0.34368388 0.00000073
0.00000073 0.37010325 0.00000073
0.00000073 0.37010325 0.00000073
0.00000073 0.37010325 0.00000073
0.02668790 0.37010325 0.00000073
0.14398516 0.37010325 0.00000073
0.19170759 0.37010325 0.00000073
0.22826436 0.37010325 0.00000073
0.25997724 0.37010325 0.00000073
0.28912772 0.37010325 0.00000073
0.31682154 0.37010325 0.00000073
0.34368388 0.37010325 0.00000073
0.37010325 0.37010325 0.00000073
0.39633642 0.37010325 0.00000073
0.42256008 0.37010325 0.00000073
0.44889871 0.37010325 0.00000073
0.47544093 0.37010325 0.00000073
0.50224957 0.37010325 0.00000073
0.52936823 0.37010325 0.00000073
0.55682575 0.37010325 0.00000073
0.58463936 0.37010325 0.00000073
0.61281699 0.37010325 0.00000073
0.64135902 0.37010325 0.00000073
0.67025962 0.37010325 0.00000073
0.69950785 0.37010325 0.00000073
0.72908856 0.37010325 0.00000073
0.75898307 0.37010325 0.00000073
0.78916985 0.37010325 0.00000073
0.81962502 0.37010325 0.00000073
0.85032280 0.37010325 0.00000073
0.88123595 0.37010325 0.00000073
0.91233608 0.37010325 0.00000073
0.94359400 0.37010325 0.00000073
0.97497996 0.37010325 0.00000073
0.00000073 0.39633642 0.00000073
0.00000073 0.39633642 0.00000073
0.00000073 0.39633642 0.00000073
0.02668790 0.39633642 0.00000073
0.14398516 0.39633642 0.00000073
0.19170759 0.39633642 0.00000073
0.22826436 0.39633642 0.00000073
0.25997724 0.39633642 0.00000073
0.28912772 0.39633642 0.00000073
0.31682154 0.39633642 0.00000073
0.34368388 0.39633642 0.00000073
0.37010325 0.39633642 0.00000073
0.39633642 0.39633642 0.00000073
0.42256008 0.39633642 0.00000073
0.44889871 0.39633642 0.00000073
0.47544093 0.39633642 0.00000073
0.50224957 0.39633642 0.00000073
0.52936823 0.39633642 0.00000073
0.55682575 0.39633642 0.00000073
0.58463936 0.39633642 0.00000073
0.61281699 0.39633642 0.00000073
0.64135902 0.39633642 0.00000073
0.67025962 0.39633642 0.00000073
0.69950785 0.39633642 0.00000073
0.72908856 0.39633642 0.00000073
0.75898307 0.39633642 0.00000073
0.78916985 0.39633642 0.00000073
0.81962502 0.39633642 0.00000073
0.85032280 0.39633642 0.00000073
0.88123595 0.39633642 0.00000073
0.91233608 0.39633642 0.00000073
0.94359400 0.39633642 0.00000073
0.97497996 0.39633642 0.00000073
0.00000073 0.42256008 0.00000073
0.00000073 0.42256008 0.00000073
0.00000073 0.42256008 0.00000073
0.02668790 0.42256008 0.00000073
0.14398516 0.42256008 0.00000073
0.19170759 0.42256008 0.00000073
0.22826436 0.42256008 0.00000073
0.25997724 0.42256008 0.00000073
0.28912772 0.42256008 0.00000073
0.31682154 0.42256008 0.00000073
0.34368388 0.42256008 0.00000073
0.37010325 0.42256008 0.00000073
0.39633642 0.42256008 0.00000073
0.42256008 0.42256008 0.00000073
0.44889871 0.42256008 0.00000073
0.47544093 0.42256008 0.00000073
0.50224957 0.42256008 0.00000073
0.52936823 0.42256008 0.00000073
0.55682575 0.42256008 0.00000073
0.58463936 0.42256008 0.00000073
0.61281699 0.42256008 0.00000073
0.64135902 0.42256008 0.00000073
0.67025962 0.42256008 0.00000073
0.69950785 0.42256008 0.00000073
0.72908856 0.42256008 0.00000073
0.75898307 0.42256008 0.00000073
0.78916985 0.42256008 0.00000073
0.81962502 0.42256008 0.00000073
0.85032280 0.42256008 0.00000073
0.88123595 0.42256008 0.00000073
0.91233608 0.42256008 0.00000073
0.94359400 0.42256008 0.00000073
0.97497996 0.42256008 0.00000073
0.00000073 0.44889871 0.00000073
0.00000073 0.44889871 0.00000073
0.00000073 0.44889871 0.00000073
0.02668790 0.44889871 0.00000073
0.14398516 0.44889871 0.00000073
0.19170759 0.44889871 0.00000073
0.22826436 0.44889871 0.00000073
0.25997724 0.44889871 0.00000073
0.28912772 0.44889871 0.00000073
0.31682154 0.44889871 0.00000073
0.34368388 0.44889871 0.00000073
0.37010325 0.44889871 0.00000073
0.39633642 0.44889871 0.00000073
0.42256008 0.44889871 0.00000073
0.44889871 0.44889871 0.00000073
0.47544093 0.44889871 0.00000073
0.50224957 0.44889871 0.00000073
0.52936823 0.44889871 0.00000073
0.55682575 0.44889871 0.00000073
0.58463936 0.44889871 0.00000073
0.61281699 0.44889871 0.00000073
0.64135902 0.44889871 0.00000073
0.67025962 0.44889871 0.00000073
0.69950785 0.44889871 0.00000073
0.72908856 0.44889871 0.00000073
0.75898307 0.44889871 0.00000073
0.78916985 0.44889871 0.00000073
0.81962502 0.44889871 0.00000073
0.85032280 0.44889871 0.00000073
0.88123595 0.44889871 0.00000073
0.91233608 0.44889871 0.00000073
0.94359400 0.44889871 0.00000073
0.97497996 0.44889871 0.00000073
0.00000073 0.47544093 0.00000073
0.00000073 0.47544093 0.00000073
0.00000073 0.47544093 0.00000073
0.02668790 0.47544093 0.00000073
0.14398516 0.47544093 0.00000073
0.19170759 0.47544093 0.00000073
0.22826436 0.47544093 0.00000073
0.25997724 0.47544093 0.00000073
0.28912772 0.47544093 0.00000073
0.31682154 0.47544093 0.00000073
0.34368388 0.47544093 0.00000073
0.37010325 0.47544093 0.00000073
0.39633642 0.47544093 0.00000073
0.42256008 0.47544093 0.00000073
0.44889871 0.47544093 0.00000073
0.47544093 0.47544093 0.00000073
0.50224957 0.47544093 0.00000073
0.52936823 0.47544093 0.00000073
0.55682575 0.47544093 0.00000073
0.58463936 0.47544093 0.00000073
0.61281699 0.47544093 0.00000073
0.64135902 0.47544093 0.00000073
0.67025962 0.47544093 0.00000073
0.69950785 0.47544093 0.00000073
0.72908856 0.47544093 0.00000073
0.75898307 0.47544093 0.00000073
0.78916985 0.47544093 0.00000073
0.81962502 0.47544093 0.00000073
0.85032280 0.47544093 0.00000073
0.88123595 0.47544093 0.00000073
0.91233608 0.47544093 0.00000073
0.94359400 0.47544093 0.00000073
0.97497996 0.47544093 0.00000073
0.00000073 0.50224957 0.00000073
0.00000073 0.50224957 0.00000073
0.00000073 0.50224957 0.00000073
0.02668790 0.50224957 0.00000073
0.14398516 0.50224957 0.00000073
0.19170759 0.50224957 0.00000073
0.22826436 0.50224957 0.00000073
0.25997724 0.50224957 0.00000073
0.28912772 0.50224957 0.00000073
0.31682154 0.50224957 0.00000073
0.34368388 0.50224957 0.00000073
0.37010325 0.50224957 0.00000073
0.39633642 0.50224957 0.00000073
0.42256008 0.50224957 0.00000073
0.44889871 0.50224957 0.00000073
0.47544093 0.50224957 0.00000073
0.50224957 0.50224957 0.00000073
0.52936823 0.50224957 0.00000073
0.55682575 0.50224957 0.00000073
0.58463936 0.50224957 0.00000073
0.61281699 0.50224957 0.00000073
0.64135902 0.50224957 0.00000073
0.67025962 0.50224957 0.00000073
0.69950785 0.50224957 0.00000073
0.72908856 0.50224957 0.00000073
0.75898307 0.50224957 0.00000073
0.78916985 0.50224957 0.00000073
0.81962502 0.50224957 0.00000073
0.85032280 0.50224957 0.00000073
0.88123595 0.50224957 0.00000073
0.91233608 0.50224957 0.00000073
0.94359400 0.50224957 0.00000073
0.97497996 0.50224957 0.00000073
0.00000073 0.52936823 0.00000073
0.00000073 0.52936823 0.00000073
0.00000073 0.52936823 0.00000073
0.02668790 0.52936823 0.00000073
0.14398516 0.52936823 0.00000073
0.19170759 0.52936823 0.00000073
0.22826436 0.52936823 0.00000073
0.25997724 0.52936823 0.00000073
0.28912772 0.52936823 0.00000073
0.31682154 0.52936823 0.00000073
0.34368388 0.52936823 0.00000073
0.37010325 0.52936823 0.00000073
0.39633642 0.52936823 0.00000073
0.42256008 0.52936823 0.00000073
0.44889871 0.52936823 0.00000073
0.47544093 0.52936823 0.00000073
0.50224957 0.52936823 0.00000073
0.52936823 0.52936823 0.00000073
0.55682575 0.52936823 0.00000073
0.58463936 0.52936823 0.00000073
0.61281699 0.52936823 0.00000073
0.64135902 0.52936823 0.00000073
0.67025962 0.52936823 0.00000073
0.69950785 0.52936823 0.00000073
0.72908856 0.52936823 0.00000073
0.75898307 0.52936823 0.00000073
0.78916985 0.52936823 0.00000073
0.81962502 0.52936823 0.00000073
0.85032280 0.52936823 0.00000073
0.88123595 0.52936823 0.00000073
0.91233608 0.52936823 0.00000073
0.94359400 0.52936823 0.00000073
0.97497996 0.52936823 0.00000073
0.00000073 0.55682575 0.00000073
0.00000073 0.55682575 0.00000073
0.00000073 0.55682575 0.00000073
0.02668790 0.55682575 0.00000073
0.14398516 0.55682575 0.00000073
0.19170759 0.55682575 0.00000073
0.22826436 0.55682575 0.00000073
0.25997724 0.55682575 0.00000073
0.28912772 0.55682575 0.00000073
0.31682154 0.55682575 0.00000073
0.34368388 0.55682575 0.00000073
0.37010325 0.55682575 0.00000073
0.39633642 0.55682575 0.00000073
0.42256008 0.55682575 0.00000073
0.44889871 0.55682575 0.00000073
0.47544093 0.55682575 0.00000073
0.50224957 0.55682575 0.00000073
0.52936823 0.55682575 0.00000073
0.55682575 0.55682575 0.00000073
0.58463936 0.55682575 0.00000073
0.61281699 0.55682575 0.00000073
0.64135902 0.55682575 0.00000073
0.67025962 0.55682575 0.00000073
0.69950785 0.55682575 0.00000073
0.72908856 0.55682575 0.00000073
0.75898307 0.55682575 0.00000073
0.78916985 0.55682575 0.00000073
0.81962502 0.55682575 0.00000073
0.85032280 0.55682575 0.00000073
0.88123595 0.55682575 0.00000073
0.91233608 0.55682575 0.00000073
0.94359400 0.55682575 0.00000073
0.97497996 0.55682575 0.00000073
0.00000073 0.58463936 0.00000073
0.00000073 0.58463936 0.00000073
0.00000073 0.58463936 0.00000073
0.02668790 0.58463936 0.00000073
0.14398516 0.58463936 0.00000073
0.19170759 0.58463936 0.00000073
0.22826436 0.58463936 0.00000073
0.25997724 0.58463936 0.00000073
0.28912772 0.58463936 0.00000073
0.31682154 0.58463936 0.00000073
0.34368388 0.58463936 0.00000073
0.37010325 0.58463936 0.00000073
0.39633642 0.58463936 0.00000073
0.42256008 0.58463936 0.00000073
0.44889871 0.58463936 0.00000073
0.47544093 0.58463936 0.00000073
0.50224957 0.58463936 0.00000073
0.52936823 0.58463936 0.00000073
0.55682575 0.58463936 0.00000073
0.58463936 0.58463936 0.00000073
0.61281699 0.58463936 0.00000073
0.64135902 0.58463936 0.00000073
0.67025962 0.58463936 0.00000073
0.69950785 0.58463936 0.00000073
0.72908856 0.58463936 0.00000073
0.75898307 0.58463936 0.00000073
0.78916985 0.58463936 0.00000073
0.81962502 0.58463936 0.00000073
0.85032280 0.58463936 0.00000073
0.88123595 0.58463936 0.00000073
0.91233608 0.58463936 0.00000073
0.94359400 0.58463936 0.00000073
0.97497996 0.58463936 0.00000073
0.00000073 0.61281699 0.00000073
0.00000073 0.61281699 0.00000073
0.00000073 0.61281699 0.00000073
0.02668790 0.61281699 0.00000073
0.14398516 0.61281699 0.00000073
0.19170759 0.61281699 0.00000073
0.22826436 0.61281699 0.00000073
0.25997724 0.61281699 0.00000073
0.28912772 0.61281699 0.00000073
0.31682154 0.61281699 0.00000073
0.34368388 0.61281699 0.00000073
0.37010325 0.61281699 0.00000073
0.39633642 0.61281699 0.00000073
0.42256008 0.61281699 0.00000073
0.44889871 0.61281699 0.00000073
0.47544093 0.61281699 0.00000073
0.50224957 0.61281699 0.00000073
0.52936823 0.61281699 0.00000073
0.55682575 0.61281699 0.00000073
0.58463936 0.61281699 0.00000073
0.61281699 0.61281699 0.00000073
0.64135902 0.61281699 0.00000073
0.67025962 0.61281699 0.00000073
0.69950785 0.61281699 0.00000073
0.72908856 0.61281699 0.00000073
0.75898307 0.61281699 0.00000073
0.78916985 0.61281699 0.00000073
0.81962502 0.61281699 0.00000073
0.85032280 0.61281699 0.00000073
0.88123595 0.61281699 0.00000073
0.91233608 0.61281699 0.00000073
0.94359400 0.61281699 0.00000073
0.97497996 0.61281699 0.00000073
0.00000073 0.64135902 0.00000073
0.00000073 0.64135902 0.00000073
0.00000073 0.64135902 0.00000073
0.02668790 0.64135902 0.00000073
0.14398516 0.64135902 0.00000073
0.19170759 0.64135902 0.00000073
0.22826436 0.64135902 0.00000073
0.25997724 0.64135902 0.00000073
0.28912772 0.64135902 0.00000073
0.31682154 0.64135902 0.00000073
0.34368388 0.64135902 0.00000073
0.37010325 0.64135902 0.00000073
0.39633642 0.64135902 0.00000073
0.42256008 0.64135902 0.00000073
0.44889871 0.64135902 0.00000073
0.47544093 0.64135902 0.00000073
0.50224957 0.64135902 0.00000073
0.52936823 0.64135902 0.00000073
0.55682575 0.64135902 0.00000073
0.58463936 0.64135902 0.00000073
0.61281699 0.64135902 0.00000073
0.64135902 0.64135902 0.00000073
0.67025962 0.64135902 0.00000073
0.69950785 0.64135902 0.00000073
0.72908856 0.64135902 0.00000073
0.75898307 0.64135902 0.00000073
0.78916985 0.64135902 0.00000073
