src/ffmpeg_scripts/luts/flog-experimental_-0p67.cube
TITLE "flog-experimental_-0p67"
LUT_3D_SIZE 33
# Fujifilm F-Log/Rec2020 -> PQ (EOTF Only)/Rec2020, CineEI Shift -0.67, Black Level 0.00% IRE, Input 109% -> Output 100% - Created with LUTCalc v4.01 by Ben Turley October 2020
0.00000073 0.00000073 0.00000073
0.00000073 0.00000073 0.00000073
0.00000073 0.00000073 0.00000073
0.02371710 0.00000073 0.00000073
0.13186134 0.00000073 0.00000073
0.17671879 0.00000073 0.00000073
0.21130276 0.00000073 0.00000073
0.24143820 0.00000073 0.00000073
0.26923728 0.00000073 0.00000073
0.29572741 0.00000073 0.00000073
0.32149152 0.00000073 0.00000073
0.34689309 0.00000073 0.00000073
0.37217324 0.00000073 0.00000073
0.39749849 0.00000073 0.00000073
0.42298663 0.00000073 0.00000073
0.44872185 0.00000073 0.00000073
0.47476407 0.00000073 0.00000073
0.50115506 0.00000073 0.00000073
0.52792257 0.00000073 0.00000073
0.55508325 0.00000073 0.00000073
0.58264480 0.00000073 0.00000073
0.61060761 0.00000073 0.00000073
0.63896601 0.00000073 0.00000073
0.66770930 0.00000073 0.00000073
0.69682259 0.00000073 0.00000073
0.72628744 0.00000073 0.00000073
0.75608254 0.00000073 0.00000073
0.78618413 0.00000073 0.00000073
0.81656651 0.00000073 0.00000073
0.84720240 0.00000073 0.00000073
0.87806328 0.00000073 0.00000073
0.90911971 0.00000073 0.00000073
0.94034160 0.00000073 0.00000073
0.00000073 0.00000073 0.00000073
0.00000073 0.00000073 0.00000073
0.00000073 0.00000073 0.00000073
0.02371710 0.00000073 0.00000073
0.13186134 0.00000073 0.00000073
0.17671879 0.00000073 0.00000073
0.21130276 0.00000073 0.00000073
0.24143820 0.00000073 0.00000073
0.26923728 0.00000073 0.00000073
0.29572741 0.00000073 0.00000073
0.32149152 0.00000073 0.00000073
0.34689309 0.00000073 0.00000073
0.37217324 0.00000073 0.00000073
0.39749849 0.00000073 0.00000073
0.42298663 0.00000073 0.00000073
0.44872185 0.00000073 0.00000073
0.47476407 0.00000073 0.00000073
0.50115506 0.00000073 0.00000073
0.52792257 0.00000073 0.00000073
0.55508325 0.00000073 0.00000073
0.58264480 0.00000073 0.00000073
0.61060761 0.00000073 0.00000073
0.63896601 0.00000073 0.00000073
0.66770930 0.00000073 0.00000073
0.69682259 0.00000073 0.00000073
0.72628744 0.00000073 0.00000073
0.75608254 0.00000073 0.00000073
0.78618413 0.00000073 0.00000073
0.81656651 0.00000073 0.00000073
0.84720240 0.00000073 0.00000073
0.87806328 0.00000073 0.00000073
0.90911971 0.00000073 0.00000073
0.94034160 0.00000073 0.00000073
0.00000073 0.00000073 0.00000073
0.00000073 0.00000073 0.00000073
0.00000073 0.00000073 0.00000073
0.02371710 0.00000073 0.00000073
0.13186134 0.00000073 0.00000073
0.17671879 0.00000073 0.00000073
0.21130276 0.00000073 0.00000073
0.24143820 0.00000073 0.00000073
0.26923728 0.00000073 0.00000073
0.29572741 0.00000073 0.00000073
0.32149152 0.00000073 0.00000073
0.34689309 0.00000073 0.00000073
0.37217324 0.00000073 0.00000073
0.39749849 0.00000073 0.00000073
0.42298663 0.00000073 0.00000073
0.44872185 0.00000073 0.00000073
0.47476407 0.00000073 0.00000073
0.50115506 0.00000073 0.00000073
0.52792257 0.00000073 0.00000073
0.55508325 0.00000073 0.00000073
0.58264480 0.00000073 0.00000073
0.61060761 0.00000073 0.00000073
0.63896601 0.00000073 0.00000073
0.66770930 0.00000073 0.00000073
0.69682259 0.00000073 0.00000073
0.72628744 0.00000073 0.00000073
0.75608254 0.00000073 0.00000073
0.78618413 0.00000073 0.00000073
0.81656651 0.00000073 0.00000073
0.84720240 0.00000073 0.00000073
0.87806328 0.00000073 0.00000073
0.90911971 0.00000073 0.00000073
0.94034160 0.00000073 0.00000073
0.00000073 0.02371710 0.00000073
0.00000073 0.02371710 0.00000073
0.00000073 0.02371710 0.00000073
0.02371710 0.02371710 0.00000073
0.13186134 0.02371710 0.00000073
0.17671879 0.02371710 0.00000073
0.21130276 0.02371710 0.00000073
0.24143820 0.02371710 0.00000073
0.26923728 0.02371710 0.00000073
0.29572741 0.02371710 0.00000073
0.32149152 0.02371710 0.00000073
0.34689309 0.02371710 0.00000073
0.37217324 0.02371710 0.00000073
0.39749849 0.02371710 0.00000073
0.42298663 0.02371710 0.00000073
0.44872185 0.02371710 0.00000073
0.47476407 0.02371710 0.00000073
0.50115506 0.02371710 0.00000073
0.52792257 0.02371710 0.00000073
0.55508325 0.02371710 0.00000073
0.58264480 0.02371710 0.00000073
0.61060761 0.02371710 0.00000073
0.63896601 0.02371710 0.00000073
0.66770930 0.02371710 0.00000073
0.69682259 0.02371710 0.00000073
0.72628744 0.02371710 0.00000073
0.75608254 0.02371710 0.00000073
0.78618413 0.02371710 0.00000073
0.81656651 0.02371710 0.00000073
0.84720240 0.02371710 0.00000073
0.87806328 0.02371710 0.00000073
0.90911971 0.02371710 0.00000073
0.94034160 0.02371710 0.00000073
0.00000073 0.13186134 0.00000073
0.00000073 0.13186134 0.00000073
0.00000073 0.13186134 0.00000073
0.02371710 0.13186134 0.00000073
0.13186134 0.13186134 0.00000073
0.17671879 0.13186134 0.00000073
0.21130276 0.13186134 0.00000073
0.24143820 0.13186134 0.00000073
0.26923728 0.13186134 0.00000073
0.29572741 0.13186134 0.00000073
0.32149152 0.13186134 0.00000073
0.34689309 0.13186134 0.00000073
0.37217324 0.13186134 0.00000073
0.39749849 0.13186134 0.00000073
0.42298663 0.13186134 0.00000073
0.44872185 0.13186134 0.00000073
0.47476407 0.13186134 0.00000073
0.50115506 0.13186134 0.00000073
0.52792257 0.13186134 0.00000073
0.55508325 0.13186134 0.00000073
0.58264480 0.13186134 0.00000073
0.61060761 0.13186134 0.00000073
0.63896601 0.13186134 0.00000073
0.66770930 0.13186134 0.00000073
0.69682259 0.13186134 0.00000073
0.72628744 0.13186134 0.00000073
0.75608254 0.13186134 0.00000073
0.78618413 0.13186134 0.00000073
0.81656651 0.13186134 0.00000073
0.84720240 0.13186134 0.00000073
0.87806328 0.13186134 0.00000073
0.90911971 0.13186134 0.00000073
0.94034160 0.13186134 0.00000073
0.00000073 0.17671879 0.00000073
0.00000073 0.17671879 0.00000073
0.00000073 0.17671879 0.00000073
0.02371710 0.17671879 0.00000073
0.13186134 0.17671879 0.00000073
0.17671879 0.17671879 0.00000073
0.21130276 0.17671879 0.00000073
0.24143820 0.17671879 0.00000073
0.26923728 0.17671879 0.00000073
0.29572741 0.17671879 0.00000073
0.32149152 0.17671879 0.00000073
0.34689309 0.17671879 0.00000073
0.37217324 0.17671879 0.00000073
0.39749849 0.17671879 0.00000073
0.42298663 0.17671879 0.00000073
0.44872185 0.17671879 0.00000073
0.47476407 0.17671879 0.00000073
0.50115506 0.17671879 0.00000073
0.52792257 0.17671879 0.00000073
0.55508325 0.17671879 0.00000073
0.58264480 0.17671879 0.00000073
0.61060761 0.17671879 0.00000073
0.63896601 0.17671879 0.00000073
0.66770930 0.17671879 0.00000073
0.69682259 0.17671879 0.00000073
0.72628744 0.17671879 0.00000073
0.75608254 0.17671879 0.00000073
0.78618413 0.17671879 0.00000073
0.81656651 0.17671879 0.00000073
0.84720240 0.17671879 0.00000073
0.87806328 0.17671879 0.00000073
0.90911971 0.17671879 0.00000073
0.94034160 0.17671879 0.00000073
0.00000073 0.21130276 0.00000073
0.00000073 0.21130276 0.00000073
0.00000073 0.21130276 0.00000073
0.02371710 0.21130276 0.00000073
0.13186134 0.21130276 0.00000073
0.17671879 0.21130276 0.00000073
0.21130276 0.21130276 0.00000073
0.24143820 0.21130276 0.00000073
0.26923728 0.21130276 0.00000073
0.29572741 0.21130276 0.00000073
0.32149152 0.21130276 0.00000073
0.34689309 0.21130276 0.00000073
0.37217324 0.21130276 0.00000073
0.39749849 0.21130276 0.00000073
0.42298663 0.21130276 0.00000073
0.44872185 0.21130276 0.00000073
0.47476407 0.21130276 0.00000073
0.50115506 0.21130276 0.00000073
0.52792257 0.21130276 0.00000073
0.55508325 0.21130276 0.00000073
0.58264480 0.21130276 0.00000073
0.61060761 0.21130276 0.00000073
0.63896601 0.21130276 0.00000073
0.66770930 0.21130276 0.00000073
0.69682259 0.21130276 0.00000073
0.72628744 0.21130276 0.00000073
0.75608254 0.21130276 0.00000073
0.78618413 0.21130276 0.00000073
0.81656651 0.21130276 0.00000073
0.84720240 0.21130276 0.00000073
0.87806328 0.21130276 0.00000073
0.90911971 0.21130276 0.00000073
0.94034160 0.21130276 0.00000073
0.00000073 0.24143820 0.00000073
0.00000073 0.24143820 0.00000073
0.00000073 0.24143820 0.00000073
0.02371710 0.24143820 0.00000073
0.13186134 0.24143820 0.00000073
0.17671879 0.24143820 0.00000073
0.21130276 0.24143820 0.00000073
0.24143820 0.24143820 0.00000073
0.26923728 0.24143820 0.00000073
0.29572741 0.24143820 0.00000073
0.32149152 0.24143820 0.00000073
0.34689309 0.24143820 0.00000073
0.37217324 0.24143820 0.00000073
0.39749849 0.24143820 0.00000073
0.42298663 0.24143820 0.00000073
0.44872185 0.24143820 0.00000073
0.47476407 0.24143820 0.00000073
0.50115506 0.24143820 0.00000073
0.52792257 0.24143820 0.00000073
0.55508325 0.24143820 0.00000073
0.58264480 0.24143820 0.00000073
0.61060761 0.24143820 0.00000073
0.63896601 0.24143820 0.00000073
0.66770930 0.24143820 0.00000073
0.69682259 0.24143820 0.00000073
0.72628744 0.24143820 0.00000073
0.75608254 0.24143820 0.00000073
0.78618413 0.24143820 0.00000073
0.81656651 0.24143820 0.00000073
0.84720240 0.24143820 0.00000073
0.87806328 0.24143820 0.00000073
0.90911971 0.24143820 0.00000073
0.94034160 0.24143820 0.00000073
0.00000073 0.26923728 0.00000073
0.00000073 0.26923728 0.00000073
0.00000073 0.26923728 0.00000073
0.02371710 0.26923728 0.00000073
0.13186134 0.26923728 0.00000073
0.17671879 0.26923728 0.00000073
0.21130276 0.26923728 0.00000073
0.24143820 0.26923728 0.00000073
0.26923728 0.26923728 0.00000073
0.29572741 0.26923728 0.00000073
0.32149152 0.26923728 0.00000073
0.34689309 0.26923728 0.00000073
0.37217324 0.26923728 0.00000073
0.39749849 0.26923728 0.00000073
0.42298663 0.26923728 0.00000073
0.44872185 0.26923728 0.00000073
0.47476407 0.26923728 0.00000073
0.50115506 0.26923728 0.00000073
0.52792257 0.26923728 0.00000073
0.55508325 0.26923728 0.00000073
0.58264480 0.26923728 0.00000073
0.61060761 0.26923728 0.00000073
0.63896601 0.26923728 0.00000073
0.66770930 0.26923728 0.00000073
0.69682259 0.26923728 0.00000073
0.72628744 0.26923728 0.00000073
0.75608254 0.26923728 0.00000073
0.78618413 0.26923728 0.00000073
0.81656651 0.26923728 0.00000073
0.84720240 0.26923728 0.00000073
0.87806328 0.26923728 0.00000073
0.90911971 0.26923728 0.00000073
0.94034160 0.26923728 0.00000073
0.00000073 0.29572741 0.00000073
0.00000073 0.29572741 0.00000073
0.00000073 0.29572741 0.00000073
0.02371710 0.29572741 0.00000073
0.13186134 0.29572741 0.00000073
0.17671879 0.29572741 0.00000073
0.21130276 0.29572741 0.00000073
0.24143820 0.29572741 0.00000073
0.26923728 0.29572741 0.00000073
0.29572741 0.29572741 0.00000073
0.32149152 0.29572741 0.00000073
0.34689309 0.29572741 0.00000073
0.37217324 0.29572741 0.00000073
0.39749849 0.29572741 0.00000073
0.42298663 0.29572741 0.00000073
0.44872185 0.29572741 0.00000073
0.47476407 0.29572741 0.00000073
0.50115506 0.29572741 0.00000073
0.52792257 0.29572741 0.00000073
0.55508325 0.29572741 0.00000073
0.58264480 0.29572741 0.00000073
0.61060761 0.29572741 0.00000073
0.63896601 0.29572741 0.00000073
0.66770930 0.29572741 0.00000073
0.69682259 0.29572741 0.00000073
0.72628744 0.29572741 0.00000073
0.75608254 0.29572741 0.00000073
0.78618413 0.29572741 0.00000073
0.81656651 0.29572741 0.00000073
0.84720240 0.29572741 0.00000073
0.87806328 0.29572741 0.00000073
0.90911971 0.29572741 0.00000073
0.94034160 0.29572741 0.00000073
0.00000073 0.32149152 0.00000073
0.00000073 0.32149152 0.00000073
0.00000073 0.32149152 0.00000073
0.02371710 0.32149152 0.00000073
0.13186134 0.32149152 0.00000073
0.17671879 0.32149152 0.00000073
0.21130276 0.32149152 0.00000073
0.24143820 0.32149152 0.00000073
0.26923728 0.32149152 0.00000073
0.29572741 0.32149152 0.00000073
0.32149152 0.32149152 0.00000073
0.34689309 0.32149152 0.00000073
0.37217324 0.32149152 0.00000073
0.39749849 0.32149152 0.00000073
0.42298663 0.32149152 0.00000073
0.44872185 0.32149152 0.00000073
0.47476407 0.32149152 0.00000073
0.50115506 0.32149152 0.00000073
0.52792257 0.32149152 0.00000073
0.55508325 0.32149152 0.00000073
0.58264480 0.32149152 0.00000073
0.61060761 0.32149152 0.00000073
0.63896601 0.32149152 0.00000073
0.66770930 0.32149152 0.00000073
0.69682259 0.32149152 0.00000073
0.72628744 0.32149152 0.00000073
0.75608254 0.32149152 0.00000073
0.78618413 0.32149152 0.00000073
0.81656651 0.32149152 0.00000073
0.84720240 0.32149152 0.00000073
0.87806328 0.32149152 0.00000073
0.90911971 0.32149152 0.00000073
0.94034160 0.32149152 0.00000073
0.00000073 0.34689309 0.00000073
0.00000073 0.34689309 0.00000073
0.00000073 0.34689309 0.00000073
0.02371710 0.34689309 0.00000073
0.13186134 0.34689309 0.00000073
0.17671879 0.34689309 0.00000073
0.21130276 0.34689309 0.00000073
0.24143820 0.34689309 0.00000073
0.26923728 0.34689309 0.00000073
0.29572741 0.34689309 0.00000073
0.32149152 0.34689309 0.00000073
0.34689309 0.34689309 0.00000073
0.37217324 0.34689309 0.00000073
0.39749849 0.34689309 0.00000073
0.42298663 0.34689309 0.00000073
0.44872185 0.34689309 0.00000073
0.47476407 0.34689309 0.00000073
0.50115506 0.34689309 0.00000073
0.52792257 0.34689309 0.00000073
0.55508325 0.34689309 0.00000073
0.58264480 0.34689309 0.00000073
0.61060761 0.34689309 0.00000073
0.63896601 0.34689309 0.00000073
0.66770930 0.34689309 0.00000073
0.69682259 0.34689309 0.00000073
0.72628744 0.34689309 0.00000073
0.75608254 0.34689309 0.00000073
0.78618413 0.34689309 0.00000073
0.81656651 0.34689309 0.00000073
0.84720240 0.34689309 0.00000073
0.87806328 0.34689309 0.00000073
0.90911971 0.34689309 0.00000073
0.94034160 0.34689309 0.00000073
0.00000073 0.37217324 0.00000073
0.00000073 0.37217324 0.00000073
0.00000073 0.37217324 0.00000073
0.02371710 0.37217324 0.00000073
0.13186134 0.37217324 0.00000073
0.17671879 0.37217324 0.00000073
0.21130276 0.37217324 0.00000073
0.24143820 0.37217324 0.00000073
0.26923728 0.37217324 0.00000073
0.29572741 0.37217324 0.00000073
0.32149152 0.37217324 0.00000073
0.34689309 0.37217324 0.00000073
0.37217324 0.37217324 0.00000073
0.39749849 0.37217324 0.00000073
0.42298663 0.37217324 0.00000073
0.44872185 0.37217324 0.00000073
0.47476407 0.37217324 0.00000073
0.50115506 0.37217324 0.00000073
0.52792257 0.37217324 0.00000073
0.55508325 0.37217324 0.00000073
0.58264480 0.37217324 0.00000073
0.61060761 0.37217324 0.00000073
0.63896601 0.37217324 0.00000073
0.66770930 0.37217324 0.00000073
0.69682259 0.37217324 0.00000073
0.72628744 0.37217324 0.00000073
0.75608254 0.37217324 0.00000073
0.78618413 0.37217324 0.00000073
0.81656651 0.37217324 0.00000073
0.84720240 0.37217324 0.00000073
0.87806328 0.37217324 0.00000073
0.90911971 0.37217324 0.00000073
0.94034160 0.37217324 0.00000073
0.00000073 0.39749849 0.00000073
0.00000073 0.39749849 0.00000073
0.00000073 0.39749849 0.00000073
0.02371710 0.39749849 0.00000073
0.13186134 0.39749849 0.00000073
0.17671879 0.39749849 0.00000073
0.21130276 0.39749849 0.00000073
0.24143820 0.39749849 0.00000073
0.26923728 0.39749849 0.00000073
0.29572741 0.39749849 0.00000073
0.32149152 0.39749849 0.00000073
0.34689309 0.39749849 0.00000073
0.37217324 0.39749849 0.00000073
0.39749849 0.39749849 0.00000073
0.42298663 0.39749849 0.00000073
0.44872185 0.39749849 0.00000073
0.47476407 0.39749849 0.00000073
0.50115506 0.39749849 0.00000073
0.52792257 0.39749849 0.00000073
0.55508325 0.39749849 0.00000073
0.58264480 0.39749849 0.00000073
0.61060761 0.39749849 0.00000073
0.63896601 0.39749849 0.00000073
0.66770930 0.39749849 0.00000073
0.69682259 0.39749849 0.00000073
0.72628744 0.39749849 0.00000073
0.75608254 0.39749849 0.00000073
0.78618413 0.39749849 0.00000073
0.81656651 0.39749849 0.00000073
0.84720240 0.39749849 0.00000073
0.87806328 0.39749849 0.00000073
0.90911971 0.39749849 0.00000073
0.94034160 0.39749849 0.00000073
0.00000073 0.42298663 0.00000073
0.00000073 0.42298663 0.00000073
0.00000073 0.42298663 0.00000073
0.02371710 0.42298663 0.00000073
0.13186134 0.42298663 0.00000073
0.17671879 0.42298663 0.00000073
0.21130276 0.42298663 0.00000073
0.24143820 0.42298663 0.00000073
0.26923728 0.42298663 0.00000073
0.29572741 0.42298663 0.00000073
0.32149152 0.42298663 0.00000073
0.34689309 0.42298663 0.00000073
0.37217324 0.42298663 0.00000073
0.39749849 0.42298663 0.00000073
0.42298663 0.42298663 0.00000073
0.44872185 0.42298663 0.00000073
0.47476407 0.42298663 0.00000073
0.50115506 0.42298663 0.00000073
0.52792257 0.42298663 0.00000073
0.55508325 0.42298663 0.00000073
0.58264480 0.42298663 0.00000073
0.61060761 0.42298663 0.00000073
0.63896601 0.42298663 0.00000073
0.66770930 0.42298663 0.00000073
0.69682259 0.42298663 0.00000073
0.72628744 0.42298663 0.00000073
0.75608254 0.42298663 0.00000073
0.78618413 0.42298663 0.00000073
0.81656651 0.42298663 0.00000073
0.84720240 0.42298663 0.00000073
0.87806328 0.42298663 0.00000073
0.90911971 0.42298663 0.00000073
0.94034160 0.42298663 0.00000073
0.00000073 0.44872185 0.00000073
0.00000073 0.44872185 0.00000073
0.00000073 0.44872185 0.00000073
0.02371710 0.44872185 0.00000073
0.13186134 0.44872185 0.00000073
0.17671879 0.44872185 0.00000073
0.21130276 0.44872185 0.00000073
0.24143820 0.44872185 0.00000073
0.26923728 0.44872185 0.00000073
0.29572741 0.44872185 0.00000073
0.32149152 0.44872185 0.00000073
0.34689309 0.44872185 0.00000073
0.37217324 0.44872185 0.00000073
0.39749849 0.44872185 0.00000073
0.42298663 0.44872185 0.00000073
0.44872185 0.44872185 0.00000073
0.47476407 0.44872185 0.00000073
0.50115506 0.44872185 0.00000073
0.52792257 0.44872185 0.00000073
0.55508325 0.44872185 0.00000073
0.58264480 0.44872185 0.00000073
0.61060761 0.44872185 0.00000073
0.63896601 0.44872185 0.00000073
0.66770930 0.44872185 0.00000073
0.69682259 0.44872185 0.00000073
0.72628744 0.44872185 0.00000073
0.75608254 0.44872185 0.00000073
0.78618413 0.44872185 0.00000073
0.81656651 0.44872185 0.00000073
0.84720240 0.44872185 0.00000073
0.87806328 0.44872185 0.00000073
0.90911971 0.44872185 0.00000073
0.94034160 0.44872185 0.00000073
0.00000073 0.47476407 0.00000073
0.00000073 0.47476407 0.00000073
0.00000073 0.47476407 0.00000073
0.02371710 0.47476407 0.00000073
0.13186134 0.47476407 0.00000073
0.17671879 0.47476407 0.00000073
0.21130276 0.47476407 0.00000073
0.24143820 0.47476407 0.00000073
0.26923728 0.47476407 0.00000073
0.29572741 0.47476407 0.00000073
0.32149152 0.47476407 0.00000073
0.34689309 0.47476407 0.00000073
0.37217324 0.47476407 0.00000073
0.39749849 0.47476407 0.00000073
0.42298663 0.47476407 0.00000073
0.44872185 0.47476407 0.00000073
0.47476407 0.47476407 0.00000073
0.50115506 0.47476407 0.00000073
0.52792257 0.47476407 0.00000073
0.55508325 0.47476407 0.00000073
0.58264480 0.47476407 0.00000073
0.61060761 0.47476407 0.00000073
0.63896601 0.47476407 0.00000073
0.66770930 0.47476407 0.00000073
0.69682259 0.47476407 0.00000073
0.72628744 0.47476407 0.00000073
0.75608254 0.47476407 0.00000073
0.78618413 0.47476407 0.00000073
0.81656651 0.47476407 0.00000073
0.84720240 0.47476407 0.00000073
0.87806328 0.47476407 0.00000073
0.90911971 0.47476407 0.00000073
0.94034160 0.47476407 0.00000073
0.00000073 0.50115506 0.00000073
0.00000073 0.50115506 0.00000073
0.00000073 0.50115506 0.00000073
0.02371710 0.50115506 0.00000073
0.13186134 0.50115506 0.00000073
0.17671879 0.50115506 0.00000073
0.21130276 0.50115506 0.00000073
0.24143820 0.50115506 0.00000073
0.26923728 0.50115506 0.00000073
0.29572741 0.50115506 0.00000073
0.32149152 0.50115506 0.00000073
0.34689309 0.50115506 0.00000073
0.37217324 0.50115506 0.00000073
0.39749849 0.50115506 0.00000073
0.42298663 0.50115506 0.00000073
0.44872185 0.50115506 0.00000073
0.47476407 0.50115506 0.00000073
0.50115506 0.50115506 0.00000073
0.52792257 0.50115506 0.00000073
0.55508325 0.50115506 0.00000073
0.58264480 0.50115506 0.00000073
0.61060761 0.50115506 0.00000073
0.63896601 0.50115506 0.00000073
0.66770930 0.50115506 0.00000073
0.69682259 0.50115506 0.00000073
0.72628744 0.50115506 0.00000073
0.75608254 0.50115506 0.00000073
0.78618413 0.50115506 0.00000073
0.81656651 0.50115506 0.00000073
0.84720240 0.50115506 0.00000073
0.87806328 0.50115506 0.00000073
0.90911971 0.50115506 0.00000073
0.94034160 0.50115506 0.00000073
0.00000073 0.52792257 0.00000073
0.00000073 0.52792257 0.00000073
0.00000073 0.52792257 0.00000073
0.02371710 0.52792257 0.00000073
0.13186134 0.52792257 0.00000073
0.17671879 0.52792257 0.00000073
0.21130276 0.52792257 0.00000073
0.24143820 0.52792257 0.00000073
0.26923728 0.52792257 0.00000073
0.29572741 0.52792257 0.00000073
0.32149152 0.52792257 0.00000073
0.34689309 0.52792257 0.00000073
0.37217324 0.52792257 0.00000073
0.39749849 0.52792257 0.00000073
0.42298663 0.52792257 0.00000073
0.44872185 0.52792257 0.00000073
0.47476407 0.52792257 0.00000073
0.50115506 0.52792257 0.00000073
0.52792257 0.52792257 0.00000073
0.55508325 0.52792257 0.00000073
0.58264480 0.52792257 0.00000073
0.61060761 0.52792257 0.00000073
0.63896601 0.52792257 0.00000073
0.66770930 0.52792257 0.00000073
0.69682259 0.52792257 0.00000073
0.72628744 0.52792257 0.00000073
0.75608254 0.52792257 0.00000073
0.78618413 0.52792257 0.00000073
0.81656651 0.52792257 0.00000073
0.84720240 0.52792257 0.00000073
0.87806328 0.52792257 0.00000073
0.90911971 0.52792257 0.00000073
0.94034160 0.52792257 0.00000073
0.00000073 0.55508325 0.00000073
0.00000073 0.55508325 0.00000073
0.00000073 0.55508325 0.00000073
0.02371710 0.55508325 0.00000073
0.13186134 0.55508325 0.00000073
0.17671879 0.55508325 0.00000073
0.21130276 0.55508325 0.00000073
0.24143820 0.55508325 0.00000073
0.26923728 0.55508325 0.00000073
0.29572741 0.55508325 0.00000073
0.32149152 0.55508325 0.00000073
0.34689309 0.55508325 0.00000073
0.37217324 0.55508325 0.00000073
0.39749849 0.55508325 0.00000073
0.42298663 0.55508325 0.00000073
0.44872185 0.55508325 0.00000073
0.47476407 0.55508325 0.00000073
0.50115506 0.55508325 0.00000073
0.52792257 0.55508325 0.00000073
0.55508325 0.55508325 0.00000073
0.58264480 0.55508325 0.00000073
0.61060761 0.55508325 0.00000073
0.63896601 0.55508325 0.00000073
0.66770930 0.55508325 0.00000073
0.69682259 0.55508325 0.00000073
0.72628744 0.55508325 0.00000073
0.75608254 0.55508325 0.00000073
0.78618413 0.55508325 0.00000073
0.81656651 0.55508325 0.00000073
0.84720240 0.55508325 0.00000073
0.87806328 0.55508325 0.00000073
0.90911971 0.55508325 0.00000073
0.94034160 0.55508325 0.00000073
0.00000073 0.58264480 0.00000073
0.00000073 0.58264480 0.00000073
0.00000073 0.58264480 0.00000073
0.02371710 0.58264480 0.00000073
0.13186134 0.58264480 0.00000073
0.17671879 0.58264480 0.00000073
0.21130276 0.58264480 0.00000073
0.24143820 0.58264480 0.00000073
0.26923728 0.58264480 0.00000073
0.29572741 0.58264480 0.00000073
0.32149152 0.58264480 0.00000073
0.34689309 0.58264480 0.00000073
0.37217324 0.58264480 0.00000073
0.39749849 0.58264480 0.00000073
0.42298663 0.58264480 0.00000073
0.44872185 0.58264480 0.00000073
0.47476407 0.58264480 0.00000073
0.50115506 0.58264480 0.00000073
0.52792257 0.58264480 0.00000073
0.55508325 0.58264480 0.00000073
0.58264480 0.58264480 0.00000073
0.61060761 0.58264480 0.00000073
0.63896601 0.58264480 0.00000073
0.66770930 0.58264480 0.00000073
0.69682259 0.58264480 0.00000073
0.72628744 0.58264480 0.00000073
0.75608254 0.58264480 0.00000073
0.78618413 0.58264480 0.00000073
0.81656651 0.58264480 0.00000073
0.84720240 0.58264480 0.00000073
0.87806328 0.58264480 0.00000073
0.90911971 0.58264480 0.00000073
0.94034160 0.58264480 0.00000073
0.00000073 0.61060761 0.00000073
0.00000073 0.61060761 0.00000073
0.00000073 0.61060761 0.00000073
0.02371710 0.61060761 0.00000073
0.13186134 0.61060761 0.00000073
0.17671879 0.61060761 0.00000073
0.21130276 0.61060761 0.00000073
0.24143820 0.61060761 0.00000073
0.26923728 0.61060761 0.00000073
0.29572741 0.61060761 0.00000073
0.32149152 0.61060761 0.00000073
0.34689309 0.61060761 0.00000073
0.37217324 0.61060761 0.00000073
0.39749849 0.61060761 0.00000073
0.42298663 0.61060761 0.00000073
0.44872185 0.61060761 0.00000073
0.47476407 0.61060761 0.00000073
0.50115506 0.61060761 0.00000073
0.52792257 0.61060761 0.00000073
0.55508325 0.61060761 0.00000073
0.58264480 0.61060761 0.00000073
0.61060761 0.61060761 0.00000073
0.63896601 0.61060761 0.00000073
0.66770930 0.61060761 0.00000073
0.69682259 0.61060761 0.00000073
0.72628744 0.61060761 0.00000073
0.75608254 0.61060761 0.00000073
