src/ffmpeg_scripts/luts/flog-smpte2084_2p33.cube
TITLE "flog-smpte2084_2p33"
LUT_3D_SIZE 9
# Fujifilm F-Log/Rec2020 -> PQ (EOTF Only)/Rec2020, CineEI Shift 2.33, Black Level 0.00% IRE, Input 109% -> Output 109% - Created with LUTCalc v4.01 by Ben Turley October 2020
0.06256172 0.06256172 0.06256172
0.23050841 0.06256172 0.06256172
0.35934491 0.06256172 0.06256172
0.44475640 0.06256172 0.06256172
0.52383692 0.06256172 0.06256172
0.60213235 0.06256172 0.06256172
0.68073210 0.06256172 0.06256172
0.75934677 0.06256172 0.06256172
0.83720337 0.06256172 0.06256172
0.06256172 0.23050841 0.06256172
0.23050841 0.23050841 0.06256172
0.35934491 0.23050841 0.06256172
0.44475640 0.23050841 0.06256172
0.52383692 0.23050841 0.06256172
0.60213235 0.23050841 0.06256172
0.68073210 0.23050841 0.06256172
0.75934677 0.23050841 0.06256172
0.83720337 0.23050841 0.06256172
0.06256172 0.35934491 0.06256172
0.23050841 0.35934491 0.06256172
0.35934491 0.35934491 0.06256172
0.44475640 0.35934491 0.06256172
0.52383692 0.35934491 0.06256172
0.60213235 0.35934491 0.06256172
0.68073210 0.35934491 0.06256172
0.75934677 0.35934491 0.06256172
0.83720337 0.35934491 0.06256172
0.06256172 0.44475640 0.06256172
0.23050841 0.44475640 0.06256172
0.35934491 0.44475640 0.06256172
0.44475640 0.44475640 0.06256172
0.52383692 0.44475640 0.06256172
0.60213235 0.44475640 0.06256172
0.68073210 0.44475640 0.06256172
0.75934677 0.44475640 0.06256172
0.83720337 0.44475640 0.06256172
0.06256172 0.52383692 0.06256172
0.23050841 0.52383692 0.06256172
0.35934491 0.52383692 0.06256172
0.44475640 0.52383692 0.06256172
0.52383692 0.52383692 0.06256172
0.60213235 0.52383692 0.06256172
0.68073210 0.52383692 0.06256172
0.75934677 0.52383692 0.06256172
0.83720337 0.52383692 0.06256172
0.06256172 0.60213235 0.06256172
0.23050841 0.60213235 0.06256172
0.35934491 0.60213235 0.06256172
0.44475640 0.60213235 0.06256172
0.52383692 0.60213235 0.06256172
0.60213235 0.60213235 0.06256172
0.68073210 0.60213235 0.06256172
0.75934677 0.60213235 0.06256172
0.83720337 0.60213235 0.06256172
0.06256172 0.68073210 0.06256172
0.23050841 0.68073210 0.06256172
0.35934491 0.68073210 0.06256172
0.44475640 0.68073210 0.06256172
0.52383692 0.68073210 0.06256172
0.60213235 0.68073210 0.06256172
0.68073210 0.68073210 0.06256172
0.75934677 0.68073210 0.06256172
0.83720337 0.68073210 0.06256172
0.06256172 0.75934677 0.06256172
0.23050841 0.75934677 0.06256172
0.35934491 0.75934677 0.06256172
0.44475640 0.75934677 0.06256172
0.52383692 0.75934677 0.06256172
0.60213235 0.75934677 0.06256172
0.68073210 0.75934677 0.06256172
0.75934677 0.75934677 0.06256172
0.83720337 0.75934677 0.06256172
0.06256172 0.83720337 0.06256172
0.23050841 0.83720337 0.06256172
0.35934491 0.83720337 0.06256172
0.44475640 0.83720337 0.06256172
0.52383692 0.83720337 0.06256172
0.60213235 0.83720337 0.06256172
0.68073210 0.83720337 0.06256172
0.75934677 0.83720337 0.06256172
0.83720337 0.83720337 0.06256172
0.06256172 0.06256172 0.23050841
0.23050841 0.06256172 0.23050841
0.35934491 0.06256172 0.23050841
0.44475640 0.06256172 0.23050841
0.52383692 0.06256172 0.23050841
0.60213235 0.06256172 0.23050841
0.68073210 0.06256172 0.23050841
0.75934677 0.06256172 0.23050841
0.83720337 0.06256172 0.23050841
0.06256172 0.23050841 0.23050841
0.23050841 0.23050841 0.23050841
0.35934491 0.23050841 0.23050841
0.44475640 0.23050841 0.23050841
0.52383692 0.23050841 0.23050841
0.60213235 0.23050841 0.23050841
0.68073210 0.23050841 0.23050841
0.75934677 0.23050841 0.23050841
0.83720337 0.23050841 0.23050841
0.06256172 0.35934491 0.23050841
0.23050841 0.35934491 0.23050841
0.35934491 0.35934491 0.23050841
0.44475640 0.35934491 0.23050841
0.52383692 0.35934491 0.23050841
0.60213235 0.35934491 0.23050841
0.68073210 0.35934491 0.23050841
0.75934677 0.35934491 0.23050841
0.83720337 0.35934491 0.23050841
0.06256172 0.44475640 0.23050841
0.23050841 0.44475640 0.23050841
0.35934491 0.44475640 0.23050841
0.44475640 0.44475640 0.23050841
0.52383692 0.44475640 0.23050841
0.60213235 0.44475640 0.23050841
0.68073210 0.44475640 0.23050841
0.75934677 0.44475640 0.23050841
0.83720337 0.44475640 0.23050841
0.06256172 0.52383692 0.23050841
0.23050841 0.52383692 0.23050841
0.35934491 0.52383692 0.23050841
0.44475640 0.52383692 0.23050841
0.52383692 0.52383692 0.23050841
0.60213235 0.52383692 0.23050841
0.68073210 0.52383692 0.23050841
0.75934677 0.52383692 0.23050841
0.83720337 0.52383692 0.23050841
0.06256172 0.60213235 0.23050841
0.23050841 0.60213235 0.23050841
0.35934491 0.60213235 0.23050841
0.44475640 0.60213235 0.23050841
0.52383692 0.60213235 0.23050841
0.60213235 0.60213235 0.23050841
0.68073210 0.60213235 0.23050841
0.75934677 0.60213235 0.23050841
0.83720337 0.60213235 0.23050841
0.06256172 0.68073210 0.23050841
0.23050841 0.68073210 0.23050841
0.35934491 0.68073210 0.23050841
0.44475640 0.68073210 0.23050841
0.52383692 0.68073210 0.23050841
0.60213235 0.68073210 0.23050841
0.68073210 0.68073210 0.23050841
0.75934677 0.68073210 0.23050841
0.83720337 0.68073210 0.23050841
0.06256172 0.75934677 0.23050841
0.23050841 0.75934677 0.23050841
0.35934491 0.75934677 0.23050841
0.44475640 0.75934677 0.23050841
0.52383692 0.75934677 0.23050841
0.60213235 0.75934677 0.23050841
0.68073210 0.75934677 0.23050841
0.75934677 0.75934677 0.23050841
0.83720337 0.75934677 0.23050841
0.06256172 0.83720337 0.23050841
0.23050841 0.83720337 0.23050841
0.35934491 0.83720337 0.23050841
0.44475640 0.83720337 0.23050841
0.52383692 0.83720337 0.23050841
0.60213235 0.83720337 0.23050841
0.68073210 0.83720337 0.23050841
0.75934677 0.83720337 0.23050841
0.83720337 0.83720337 0.23050841
0.06256172 0.06256172 0.35934491
0.23050841 0.06256172 0.35934491
0.35934491 0.06256172 0.35934491
0.44475640 0.06256172 0.35934491
0.52383692 0.06256172 0.35934491
0.60213235 0.06256172 0.35934491
0.68073210 0.06256172 0.35934491
0.75934677 0.06256172 0.35934491
0.83720337 0.06256172 0.35934491
0.06256172 0.23050841 0.35934491
0.23050841 0.23050841 0.35934491
0.35934491 0.23050841 0.35934491
0.44475640 0.23050841 0.35934491
0.52383692 0.23050841 0.35934491
0.60213235 0.23050841 0.35934491
0.68073210 0.23050841 0.35934491
0.75934677 0.23050841 0.35934491
0.83720337 0.23050841 0.35934491
0.06256172 0.35934491 0.35934491
0.23050841 0.35934491 0.35934491
0.35934491 0.35934491 0.35934491
0.44475640 0.35934491 0.35934491
0.52383692 0.35934491 0.35934491
0.60213235 0.35934491 0.35934491
0.68073210 0.35934491 0.35934491
0.75934677 0.35934491 0.35934491
0.83720337 0.35934491 0.35934491
0.06256172 0.44475640 0.35934491
0.23050841 0.44475640 0.35934491
0.35934491 0.44475640 0.35934491
0.44475640 0.44475640 0.35934491
0.52383692 0.44475640 0.35934491
0.60213235 0.44475640 0.35934491
0.68073210 0.44475640 0.35934491
0.75934677 0.44475640 0.35934491
0.83720337 0.44475640 0.35934491
0.06256172 0.52383692 0.35934491
0.23050841 0.52383692 0.35934491
0.35934491 0.52383692 0.35934491
0.44475640 0.52383692 0.35934491
0.52383692 0.52383692 0.35934491
0.60213235 0.52383692 0.35934491
0.68073210 0.52383692 0.35934491
0.75934677 0.52383692 0.35934491
0.83720337 0.52383692 0.35934491
0.06256172 0.60213235 0.35934491
0.23050841 0.60213235 0.35934491
0.35934491 0.60213235 0.35934491
0.44475640 0.60213235 0.35934491
0.52383692 0.60213235 0.35934491
0.60213235 0.60213235 0.35934491
0.68073210 0.60213235 0.35934491
0.75934677 0.60213235 0.35934491
0.83720337 0.60213235 0.35934491
0.06256172 0.68073210 0.35934491
0.23050841 0.68073210 0.35934491
0.35934491 0.68073210 0.35934491
0.44475640 0.68073210 0.35934491
0.52383692 0.68073210 0.35934491
0.60213235 0.68073210 0.35934491
0.68073210 0.68073210 0.35934491
0.75934677 0.68073210 0.35934491
0.83720337 0.68073210 0.35934491
0.06256172 0.75934677 0.35934491
0.23050841 0.75934677 0.35934491
0.35934491 0.75934677 0.35934491
0.44475640 0.75934677 0.35934491
0.52383692 0.75934677 0.35934491
0.60213235 0.75934677 0.35934491
0.68073210 0.75934677 0.35934491
0.75934677 0.75934677 0.35934491
0.83720337 0.75934677 0.35934491
0.06256172 0.83720337 0.35934491
0.23050841 0.83720337 0.35934491
0.35934491 0.83720337 0.35934491
0.44475640 0.83720337 0.35934491
0.52383692 0.83720337 0.35934491
0.60213235 0.83720337 0.35934491
0.68073210 0.83720337 0.35934491
0.75934677 0.83720337 0.35934491
0.83720337 0.83720337 0.35934491
0.06256172 0.06256172 0.44475640
0.23050841 0.06256172 0.44475640
0.35934491 0.06256172 0.44475640
0.44475640 0.06256172 0.44475640
0.52383692 0.06256172 0.44475640
0.60213235 0.06256172 0.44475640
0.68073210 0.06256172 0.44475640
0.75934677 0.06256172 0.44475640
0.83720337 0.06256172 0.44475640
0.06256172 0.23050841 0.44475640
0.23050841 0.23050841 0.44475640
0.35934491 0.23050841 0.44475640
0.44475640 0.23050841 0.44475640
0.52383692 0.23050841 0.44475640
0.60213235 0.23050841 0.44475640
0.68073210 0.23050841 0.44475640
0.75934677 0.23050841 0.44475640
0.83720337 0.23050841 0.44475640
0.06256172 0.35934491 0.44475640
0.23050841 0.35934491 0.44475640
0.35934491 0.35934491 0.44475640
0.44475640 0.35934491 0.44475640
0.52383692 0.35934491 0.44475640
0.60213235 0.35934491 0.44475640
0.68073210 0.35934491 0.44475640
0.75934677 0.35934491 0.44475640
0.83720337 0.35934491 0.44475640
0.06256172 0.44475640 0.44475640
0.23050841 0.44475640 0.44475640
0.35934491 0.44475640 0.44475640
0.44475640 0.44475640 0.44475640
0.52383692 0.44475640 0.44475640
0.60213235 0.44475640 0.44475640
0.68073210 0.44475640 0.44475640
0.75934677 0.44475640 0.44475640
0.83720337 0.44475640 0.44475640
0.06256172 0.52383692 0.44475640
0.23050841 0.52383692 0.44475640
0.35934491 0.52383692 0.44475640
0.44475640 0.52383692 0.44475640
0.52383692 0.52383692 0.44475640
0.60213235 0.52383692 0.44475640
0.68073210 0.52383692 0.44475640
0.75934677 0.52383692 0.44475640
0.83720337 0.52383692 0.44475640
0.06256172 0.60213235 0.44475640
0.23050841 0.60213235 0.44475640
0.35934491 0.60213235 0.44475640
0.44475640 0.60213235 0.44475640
0.52383692 0.60213235 0.44475640
0.60213235 0.60213235 0.44475640
0.68073210 0.60213235 0.44475640
0.75934677 0.60213235 0.44475640
0.83720337 0.60213235 0.44475640
0.06256172 0.68073210 0.44475640
0.23050841 0.68073210 0.44475640
0.35934491 0.68073210 0.44475640
0.44475640 0.68073210 0.44475640
0.52383692 0.68073210 0.44475640
0.60213235 0.68073210 0.44475640
0.68073210 0.68073210 0.44475640
0.75934677 0.68073210 0.44475640
0.83720337 0.68073210 0.44475640
0.06256172 0.75934677 0.44475640
0.23050841 0.75934677 0.44475640
0.35934491 0.75934677 0.44475640
0.44475640 0.75934677 0.44475640
0.52383692 0.75934677 0.44475640
0.60213235 0.75934677 0.44475640
0.68073210 0.75934677 0.44475640
0.75934677 0.75934677 0.44475640
0.83720337 0.75934677 0.44475640
0.06256172 0.83720337 0.44475640
0.23050841 0.83720337 0.44475640
0.35934491 0.83720337 0.44475640
0.44475640 0.83720337 0.44475640
0.52383692 0.83720337 0.44475640
0.60213235 0.83720337 0.44475640
0.68073210 0.83720337 0.44475640
0.75934677 0.83720337 0.44475640
0.83720337 0.83720337 0.44475640
0.06256172 0.06256172 0.52383692
0.23050841 0.06256172 0.52383692
0.35934491 0.06256172 0.52383692
0.44475640 0.06256172 0.52383692
0.52383692 0.06256172 0.52383692
0.60213235 0.06256172 0.52383692
0.68073210 0.06256172 0.52383692
0.75934677 0.06256172 0.52383692
0.83720337 0.06256172 0.52383692
0.06256172 0.23050841 0.52383692
0.23050841 0.23050841 0.52383692
0.35934491 0.23050841 0.52383692
0.44475640 0.23050841 0.52383692
0.52383692 0.23050841 0.52383692
0.60213235 0.23050841 0.52383692
0.68073210 0.23050841 0.52383692
0.75934677 0.23050841 0.52383692
0.83720337 0.23050841 0.52383692
0.06256172 0.35934491 0.52383692
0.23050841 0.35934491 0.52383692
0.35934491 0.35934491 0.52383692
0.44475640 0.35934491 0.52383692
0.52383692 0.35934491 0.52383692
0.60213235 0.35934491 0.52383692
0.68073210 0.35934491 0.52383692
0.75934677 0.35934491 0.52383692
0.83720337 0.35934491 0.52383692
0.06256172 0.44475640 0.52383692
0.23050841 0.44475640 0.52383692
0.35934491 0.44475640 0.52383692
0.44475640 0.44475640 0.52383692
0.52383692 0.44475640 0.52383692
0.60213235 0.44475640 0.52383692
0.68073210 0.44475640 0.52383692
0.75934677 0.44475640 0.52383692
0.83720337 0.44475640 0.52383692
0.06256172 0.52383692 0.52383692
0.23050841 0.52383692 0.52383692
0.35934491 0.52383692 0.52383692
0.44475640 0.52383692 0.52383692
0.52383692 0.52383692 0.52383692
0.60213235 0.52383692 0.52383692
0.68073210 0.52383692 0.52383692
0.75934677 0.52383692 0.52383692
0.83720337 0.52383692 0.52383692
0.06256172 0.60213235 0.52383692
0.23050841 0.60213235 0.52383692
0.35934491 0.60213235 0.52383692
0.44475640 0.60213235 0.52383692
0.52383692 0.60213235 0.52383692
0.60213235 0.60213235 0.52383692
0.68073210 0.60213235 0.52383692
0.75934677 0.60213235 0.52383692
0.83720337 0.60213235 0.52383692
0.06256172 0.68073210 0.52383692
0.23050841 0.68073210 0.52383692
0.35934491 0.68073210 0.52383692
0.44475640 0.68073210 0.52383692
0.52383692 0.68073210 0.52383692
0.60213235 0.68073210 0.52383692
0.68073210 0.68073210 0.52383692
0.75934677 0.68073210 0.52383692
0.83720337 0.68073210 0.52383692
0.06256172 0.75934677 0.52383692
0.23050841 0.75934677 0.52383692
0.35934491 0.75934677 0.52383692
0.44475640 0.75934677 0.52383692
0.52383692 0.75934677 0.52383692
0.60213235 0.75934677 0.52383692
0.68073210 0.75934677 0.52383692
0.75934677 0.75934677 0.52383692
0.83720337 0.75934677 0.52383692
0.06256172 0.83720337 0.52383692
0.23050841 0.83720337 0.52383692
0.35934491 0.83720337 0.52383692
0.44475640 0.83720337 0.52383692
0.52383692 0.83720337 0.52383692
0.60213235 0.83720337 0.52383692
0.68073210 0.83720337 0.52383692
0.75934677 0.83720337 0.52383692
0.83720337 0.83720337 0.52383692
0.06256172 0.06256172 0.60213235
0.23050841 0.06256172 0.60213235
0.35934491 0.06256172 0.60213235
0.44475640 0.06256172 0.60213235
0.52383692 0.06256172 0.60213235
0.60213235 0.06256172 0.60213235
0.68073210 0.06256172 0.60213235
0.75934677 0.06256172 0.60213235
0.83720337 0.06256172 0.60213235
0.06256172 0.23050841 0.60213235
0.23050841 0.23050841 0.60213235
0.35934491 0.23050841 0.60213235
0.44475640 0.23050841 0.60213235
0.52383692 0.23050841 0.60213235
0.60213235 0.23050841 0.60213235
0.68073210 0.23050841 0.60213235
0.75934677 0.23050841 0.60213235
0.83720337 0.23050841 0.60213235
0.06256172 0.35934491 0.60213235
0.23050841 0.35934491 0.60213235
0.35934491 0.35934491 0.60213235
0.44475640 0.35934491 0.60213235
0.52383692 0.35934491 0.60213235
0.60213235 0.35934491 0.60213235
0.68073210 0.35934491 0.60213235
0.75934677 0.35934491 0.60213235
0.83720337 0.35934491 0.60213235
0.06256172 0.44475640 0.60213235
0.23050841 0.44475640 0.60213235
0.35934491 0.44475640 0.60213235
0.44475640 0.44475640 0.60213235
0.52383692 0.44475640 0.60213235
0.60213235 0.44475640 0.60213235
0.68073210 0.44475640 0.60213235
0.75934677 0.44475640 0.60213235
0.83720337 0.44475640 0.60213235
0.06256172 0.52383692 0.60213235
0.23050841 0.52383692 0.60213235
0.35934491 0.52383692 0.60213235
0.44475640 0.52383692 0.60213235
0.52383692 0.52383692 0.60213235
0.60213235 0.52383692 0.60213235
0.68073210 0.52383692 0.60213235
0.75934677 0.52383692 0.60213235
0.83720337 0.52383692 0.60213235
0.06256172 0.60213235 0.60213235
0.23050841 0.60213235 0.60213235
0.35934491 0.60213235 0.60213235
0.44475640 0.60213235 0.60213235
0.52383692 0.60213235 0.60213235
0.60213235 0.60213235 0.60213235
0.68073210 0.60213235 0.60213235
0.75934677 0.60213235 0.60213235
0.83720337 0.60213235 0.60213235
0.06256172 0.68073210 0.60213235
0.23050841 0.68073210 0.60213235
0.35934491 0.68073210 0.60213235
0.44475640 0.68073210 0.60213235
0.52383692 0.68073210 0.60213235
0.60213235 0.68073210 0.60213235
0.68073210 0.68073210 0.60213235
0.75934677 0.68073210 0.60213235
0.83720337 0.68073210 0.60213235
0.06256172 0.75934677 0.60213235
0.23050841 0.75934677 0.60213235
0.35934491 0.75934677 0.60213235
0.44475640 0.75934677 0.60213235
0.52383692 0.75934677 0.60213235
0.60213235 0.75934677 0.60213235
0.68073210 0.75934677 0.60213235
0.75934677 0.75934677 0.60213235
0.83720337 0.75934677 0.60213235
0.06256172 0.83720337 0.60213235
0.23050841 0.83720337 0.60213235
0.35934491 0.83720337 0.60213235
0.44475640 0.83720337 0.60213235
0.52383692 0.83720337 0.60213235
0.60213235 0.83720337 0.60213235
0.68073210 0.83720337 0.60213235
0.75934677 0.83720337 0.60213235
0.83720337 0.83720337 0.60213235
0.06256172 0.06256172 0.68073210
0.23050841 0.06256172 0.68073210
0.35934491 0.06256172 0.68073210
0.44475640 0.06256172 0.68073210
0.52383692 0.06256172 0.68073210
0.60213235 0.06256172 0.68073210
0.68073210 0.06256172 0.68073210
0.75934677 0.06256172 0.68073210
0.83720337 0.06256172 0.68073210
0.06256172 0.23050841 0.68073210
0.23050841 0.23050841 0.68073210
0.35934491 0.23050841 0.68073210
0.44475640 0.23050841 0.68073210
0.52383692 0.23050841 0.68073210
0.60213235 0.23050841 0.68073210
0.68073210 0.23050841 0.68073210
0.75934677 0.23050841 0.68073210
0.83720337 0.23050841 0.68073210
0.06256172 0.35934491 0.68073210
0.23050841 0.35934491 0.68073210
0.35934491 0.35934491 0.68073210
0.44475640 0.35934491 0.68073210
0.52383692 0.35934491 0.68073210
0.60213235 0.35934491 0.68073210
0.68073210 0.35934491 0.68073210
0.75934677 0.35934491 0.68073210
0.83720337 0.35934491 0.68073210
0.06256172 0.44475640 0.68073210
0.23050841 0.44475640 0.68073210
0.35934491 0.44475640 0.68073210
0.44475640 0.44475640 0.68073210
0.52383692 0.44475640 0.68073210
0.60213235 0.44475640 0.68073210
0.68073210 0.44475640 0.68073210
0.75934677 0.44475640 0.68073210
0.83720337 0.44475640 0.68073210
0.06256172 0.52383692 0.68073210
0.23050841 0.52383692 0.68073210
0.35934491 0.52383692 0.68073210
0.44475640 0.52383692 0.68073210
0.52383692 0.52383692 0.68073210
0.60213235 0.52383692 0.68073210
0.68073210 0.52383692 0.68073210
0.75934677 0.52383692 0.68073210
0.83720337 0.52383692 0.68073210
0.06256172 0.60213235 0.68073210
0.23050841 0.60213235 0.68073210
0.35934491 0.60213235 0.68073210
0.44475640 0.60213235 0.68073210
0.52383692 0.60213235 0.68073210
0.60213235 0.60213235 0.68073210
0.68073210 0.60213235 0.68073210
0.75934677 0.60213235 0.68073210
0.83720337 0.60213235 0.68073210
0.06256172 0.68073210 0.68073210
0.23050841 0.68073210 0.68073210
0.35934491 0.68073210 0.68073210
0.44475640 0.68073210 0.68073210
0.52383692 0.68073210 0.68073210
0.60213235 0.68073210 0.68073210
0.68073210 0.68073210 0.68073210
0.75934677 0.68073210 0.68073210
0.83720337 0.68073210 0.68073210
0.06256172 0.75934677 0.68073210
0.23050841 0.75934677 0.68073210
0.35934491 0.75934677 0.68073210
0.44475640 0.75934677 0.68073210
0.52383692 0.75934677 0.68073210
0.60213235 0.75934677 0.68073210
0.68073210 0.75934677 0.68073210
0.75934677 0.75934677 0.68073210
0.83720337 0.75934677 0.68073210
0.06256172 0.83720337 0.68073210
0.23050841 0.83720337 0.68073210
0.35934491 0.83720337 0.68073210
0.44475640 0.83720337 0.68073210
0.52383692 0.83720337 0.68073210
0.60213235 0.83720337 0.68073210
0.68073210 0.83720337 0.68073210
0.75934677 0.83720337 0.68073210
0.83720337 0.83720337 0.68073210
0.06256172 0.06256172 0.75934677
0.23050841 0.06256172 0.75934677
0.35934491 0.06256172 0.75934677
0.44475640 0.06256172 0.75934677
0.52383692 0.06256172 0.75934677
0.60213235 0.06256172 0.75934677
0.68073210 0.06256172 0.75934677
0.75934677 0.06256172 0.75934677
0.83720337 0.06256172 0.75934677
0.06256172 0.23050841 0.75934677
0.23050841 0.23050841 0.75934677
0.35934491 0.23050841 0.75934677
0.44475640 0.23050841 0.75934677
0.52383692 0.23050841 0.75934677
0.60213235 0.23050841 0.75934677
0.68073210 0.23050841 0.75934677
0.75934677 0.23050841 0.75934677
0.83720337 0.23050841 0.75934677
0.06256172 0.35934491 0.75934677
0.23050841 0.35934491 0.75934677
0.35934491 0.35934491 0.75934677
0.44475640 0.35934491 0.75934677
0.52383692 0.35934491 0.75934677
0.60213235 0.35934491 0.75934677
0.68073210 0.35934491 0.75934677
0.75934677 0.35934491 0.75934677
0.83720337 0.35934491 0.75934677
0.06256172 0.44475640 0.75934677
0.23050841 0.44475640 0.75934677
0.35934491 0.44475640 0.75934677
0.44475640 0.44475640 0.75934677
0.52383692 0.44475640 0.75934677
0.60213235 0.44475640 0.75934677
0.68073210 0.44475640 0.75934677
0.75934677 0.44475640 0.75934677
0.83720337 0.44475640 0.75934677
0.06256172 0.52383692 0.75934677
0.23050841 0.52383692 0.75934677
0.35934491 0.52383692 0.75934677
0.44475640 0.52383692 0.75934677
0.52383692 0.52383692 0.75934677
0.60213235 0.52383692 0.75934677
0.68073210 0.52383692 0.75934677
0.75934677 0.52383692 0.75934677
0.83720337 0.52383692 0.75934677
0.06256172 0.60213235 0.75934677
0.23050841 0.60213235 0.75934677
0.35934491 0.60213235 0.75934677
0.44475640 0.60213235 0.75934677
0.52383692 0.60213235 0.75934677
0.60213235 0.60213235 0.75934677
0.68073210 0.60213235 0.75934677
0.75934677 0.60213235 0.75934677
0.83720337 0.60213235 0.75934677
0.06256172 0.68073210 0.75934677
0.23050841 0.68073210 0.75934677
0.35934491 0.68073210 0.75934677
0.44475640 0.68073210 0.75934677
0.52383692 0.68073210 0.75934677
0.60213235 0.68073210 0.75934677
0.68073210 0.68073210 0.75934677
0.75934677 0.68073210 0.75934677
0.83720337 0.68073210 0.75934677
0.06256172 0.75934677 0.75934677
0.23050841 0.75934677 0.75934677
0.35934491 0.75934677 0.75934677
0.44475640 0.75934677 0.75934677
0.52383692 0.75934677 0.75934677
0.60213235 0.75934677 0.75934677
0.68073210 0.75934677 0.75934677
0.75934677 0.75934677 0.75934677
0.83720337 0.75934677 0.75934677
0.06256172 0.83720337 0.75934677
0.23050841 0.83720337 0.75934677
0.35934491 0.83720337 0.75934677
0.44475640 0.83720337 0.75934677
0.52383692 0.83720337 0.75934677
0.60213235 0.83720337 0.75934677
0.68073210 0.83720337 0.75934677
0.75934677 0.83720337 0.75934677
0.83720337 0.83720337 0.75934677
0.06256172 0.06256172 0.83720337
0.23050841 0.06256172 0.83720337
0.35934491 0.06256172 0.83720337
0.44475640 0.06256172 0.83720337
0.52383692 0.06256172 0.83720337
0.60213235 0.06256172 0.83720337
0.68073210 0.06256172 0.83720337
0.75934677 0.06256172 0.83720337
0.83720337 0.06256172 0.83720337
0.06256172 0.23050841 0.83720337
0.23050841 0.23050841 0.83720337
0.35934491 0.23050841 0.83720337
0.44475640 0.23050841 0.83720337
0.52383692 0.23050841 0.83720337
0.60213235 0.23050841 0.83720337
0.68073210 0.23050841 0.83720337
0.75934677 0.23050841 0.83720337
0.83720337 0.23050841 0.83720337
0.06256172 0.35934491 0.83720337
0.23050841 0.35934491 0.83720337
0.35934491 0.35934491 0.83720337
0.44475640 0.35934491 0.83720337
0.52383692 0.35934491 0.83720337
0.60213235 0.35934491 0.83720337
0.68073210 0.35934491 0.83720337
0.75934677 0.35934491 0.83720337
0.83720337 0.35934491 0.83720337
0.06256172 0.44475640 0.83720337
0.23050841 0.44475640 0.83720337
0.35934491 0.44475640 0.83720337
0.44475640 0.44475640 0.83720337
0.52383692 0.44475640 0.83720337
0.60213235 0.44475640 0.83720337
0.68073210 0.44475640 0.83720337
0.75934677 0.44475640 0.83720337
0.83720337 0.44475640 0.83720337
0.06256172 0.52383692 0.83720337
0.23050841 0.52383692 0.83720337
0.35934491 0.52383692 0.83720337
0.44475640 0.52383692 0.83720337
0.52383692 0.52383692 0.83720337
0.60213235 0.52383692 0.83720337
0.68073210 0.52383692 0.83720337
0.75934677 0.52383692 0.83720337
0.83720337 0.52383692 0.83720337
0.06256172 0.60213235 0.83720337
0.23050841 0.60213235 0.83720337
0.35934491 0.60213235 0.83720337
0.44475640 0.60213235 0.83720337
0.52383692 0.60213235 0.83720337
0.60213235 0.60213235 0.83720337
0.68073210 0.60213235 0.83720337
0.75934677 0.60213235 0.83720337
0.83720337 0.60213235 0.83720337
0.06256172 0.68073210 0.83720337
0.23050841 0.68073210 0.83720337
0.35934491 0.68073210 0.83720337
0.44475640 0.68073210 0.83720337
0.52383692 0.68073210 0.83720337
0.60213235 0.68073210 0.83720337
0.68073210 0.68073210 0.83720337
0.75934677 0.68073210 0.83720337
0.83720337 0.68073210 0.83720337
0.06256172 0.75934677 0.83720337
0.23050841 0.75934677 0.83720337
0.35934491 0.75934677 0.83720337
0.44475640 0.75934677 0.83720337
0.52383692 0.75934677 0.83720337
0.60213235 0.75934677 0.83720337
0.68073210 0.75934677 0.83720337
0.75934677 0.75934677 0.83720337
0.83720337 0.75934677 0.83720337
0.06256172 0.83720337 0.83720337
0.23050841 0.83720337 0.83720337
0.35934491 0.83720337 0.83720337
0.44475640 0.83720337 0.83720337
0.52383692 0.83720337 0.83720337
0.60213235 0.83720337 0.83720337
0.68073210 0.83720337 0.83720337
0.75934677 0.83720337 0.83720337
0.83720337 0.83720337 0.83720337
