src/ffmpeg_scripts/luts/flog-smpte2084_-3p33.cube
TITLE "flog-smpte2084_-3p33"
LUT_3D_SIZE 33
# Fujifilm F-Log/Rec2020 -> PQ (EOTF Only)/Rec2020, CineEI Shift -3.33, Black Level 0.00% IRE, Input 109% -> Output 109% - Created with LUTCalc v4.01 by Ben Turley October 2020
0.06256172 0.06256172 0.06256172
0.06256172 0.06256172 0.06256172
0.06256172 0.06256172 0.06256172
0.06797672 0.06256172 0.06256172
0.10018603 0.06256172 0.06256172
0.11570144 0.06256172 0.06256172
0.12831101 0.06256172 0.06256172
0.13971232 0.06256172 0.06256172
0.15054682 0.06256172 0.06256172
0.16113801 0.06256172 0.06256172
0.17167640 0.06256172 0.06256172
0.18228576 0.06256172 0.06256172
0.19305198 0.06256172 0.06256172
0.20403747 0.06256172 0.06256172
0.21528892 0.06256172 0.06256172
0.22684185 0.06256172 0.06256172
0.23872345 0.06256172 0.06256172
0.25095436 0.06256172 0.06256172
0.26354993 0.06256172 0.06256172
0.27652108 0.06256172 0.06256172
0.28987490 0.06256172 0.06256172
0.30361514 0.06256172 0.06256172
0.31774263 0.06256172 0.06256172
0.33225550 0.06256172 0.06256172
0.34714952 0.06256172 0.06256172
0.36241828 0.06256172 0.06256172
0.37805339 0.06256172 0.06256172
0.39404470 0.06256172 0.06256172
0.41038042 0.06256172 0.06256172
0.42704732 0.06256172 0.06256172
0.44403086 0.06256172 0.06256172
0.46131535 0.06256172 0.06256172
0.47888407 0.06256172 0.06256172
0.06256172 0.06256172 0.06256172
0.06256172 0.06256172 0.06256172
0.06256172 0.06256172 0.06256172
0.06797672 0.06256172 0.06256172
0.10018603 0.06256172 0.06256172
0.11570144 0.06256172 0.06256172
0.12831101 0.06256172 0.06256172
0.13971232 0.06256172 0.06256172
0.15054682 0.06256172 0.06256172
0.16113801 0.06256172 0.06256172
0.17167640 0.06256172 0.06256172
0.18228576 0.06256172 0.06256172
0.19305198 0.06256172 0.06256172
0.20403747 0.06256172 0.06256172
0.21528892 0.06256172 0.06256172
0.22684185 0.06256172 0.06256172
0.23872345 0.06256172 0.06256172
0.25095436 0.06256172 0.06256172
0.26354993 0.06256172 0.06256172
0.27652108 0.06256172 0.06256172
0.28987490 0.06256172 0.06256172
0.30361514 0.06256172 0.06256172
0.31774263 0.06256172 0.06256172
0.33225550 0.06256172 0.06256172
0.34714952 0.06256172 0.06256172
0.36241828 0.06256172 0.06256172
0.37805339 0.06256172 0.06256172
0.39404470 0.06256172 0.06256172
0.41038042 0.06256172 0.06256172
0.42704732 0.06256172 0.06256172
0.44403086 0.06256172 0.06256172
0.46131535 0.06256172 0.06256172
0.47888407 0.06256172 0.06256172
0.06256172 0.06256172 0.06256172
0.06256172 0.06256172 0.06256172
0.06256172 0.06256172 0.06256172
0.06797672 0.06256172 0.06256172
0.10018603 0.06256172 0.06256172
0.11570144 0.06256172 0.06256172
0.12831101 0.06256172 0.06256172
0.13971232 0.06256172 0.06256172
0.15054682 0.06256172 0.06256172
0.16113801 0.06256172 0.06256172
0.17167640 0.06256172 0.06256172
0.18228576 0.06256172 0.06256172
0.19305198 0.06256172 0.06256172
0.20403747 0.06256172 0.06256172
0.21528892 0.06256172 0.06256172
0.22684185 0.06256172 0.06256172
0.23872345 0.06256172 0.06256172
0.25095436 0.06256172 0.06256172
0.26354993 0.06256172 0.06256172
0.27652108 0.06256172 0.06256172
0.28987490 0.06256172 0.06256172
0.30361514 0.06256172 0.06256172
0.31774263 0.06256172 0.06256172
0.33225550 0.06256172 0.06256172
0.34714952 0.06256172 0.06256172
0.36241828 0.06256172 0.06256172
0.37805339 0.06256172 0.06256172
0.39404470 0.06256172 0.06256172
0.41038042 0.06256172 0.06256172
0.42704732 0.06256172 0.06256172
0.44403086 0.06256172 0.06256172
0.46131535 0.06256172 0.06256172
0.47888407 0.06256172 0.06256172
0.06256172 0.06797672 0.06256172
0.06256172 0.06797672 0.06256172
0.06256172 0.06797672 0.06256172
0.06797672 0.06797672 0.06256172
0.10018603 0.06797672 0.06256172
0.11570144 0.06797672 0.06256172
0.12831101 0.06797672 0.06256172
0.13971232 0.06797672 0.06256172
0.15054682 0.06797672 0.06256172
0.16113801 0.06797672 0.06256172
0.17167640 0.06797672 0.06256172
0.18228576 0.06797672 0.06256172
0.19305198 0.06797672 0.06256172
0.20403747 0.06797672 0.06256172
0.21528892 0.06797672 0.06256172
0.22684185 0.06797672 0.06256172
0.23872345 0.06797672 0.06256172
0.25095436 0.06797672 0.06256172
0.26354993 0.06797672 0.06256172
0.27652108 0.06797672 0.06256172
0.28987490 0.06797672 0.06256172
0.30361514 0.06797672 0.06256172
0.31774263 0.06797672 0.06256172
0.33225550 0.06797672 0.06256172
0.34714952 0.06797672 0.06256172
0.36241828 0.06797672 0.06256172
0.37805339 0.06797672 0.06256172
0.39404470 0.06797672 0.06256172
0.41038042 0.06797672 0.06256172
0.42704732 0.06797672 0.06256172
0.44403086 0.06797672 0.06256172
0.46131535 0.06797672 0.06256172
0.47888407 0.06797672 0.06256172
0.06256172 0.10018603 0.06256172
0.06256172 0.10018603 0.06256172
0.06256172 0.10018603 0.06256172
0.06797672 0.10018603 0.06256172
0.10018603 0.10018603 0.06256172
0.11570144 0.10018603 0.06256172
0.12831101 0.10018603 0.06256172
0.13971232 0.10018603 0.06256172
0.15054682 0.10018603 0.06256172
0.16113801 0.10018603 0.06256172
0.17167640 0.10018603 0.06256172
0.18228576 0.10018603 0.06256172
0.19305198 0.10018603 0.06256172
0.20403747 0.10018603 0.06256172
0.21528892 0.10018603 0.06256172
0.22684185 0.10018603 0.06256172
0.23872345 0.10018603 0.06256172
0.25095436 0.10018603 0.06256172
0.26354993 0.10018603 0.06256172
0.27652108 0.10018603 0.06256172
0.28987490 0.10018603 0.06256172
0.30361514 0.10018603 0.06256172
0.31774263 0.10018603 0.06256172
0.33225550 0.10018603 0.06256172
0.34714952 0.10018603 0.06256172
0.36241828 0.10018603 0.06256172
0.37805339 0.10018603 0.06256172
0.39404470 0.10018603 0.06256172
0.41038042 0.10018603 0.06256172
0.42704732 0.10018603 0.06256172
0.44403086 0.10018603 0.06256172
0.46131535 0.10018603 0.06256172
0.47888407 0.10018603 0.06256172
0.06256172 0.11570144 0.06256172
0.06256172 0.11570144 0.06256172
0.06256172 0.11570144 0.06256172
0.06797672 0.11570144 0.06256172
0.10018603 0.11570144 0.06256172
0.11570144 0.11570144 0.06256172
0.12831101 0.11570144 0.06256172
0.13971232 0.11570144 0.06256172
0.15054682 0.11570144 0.06256172
0.16113801 0.11570144 0.06256172
0.17167640 0.11570144 0.06256172
0.18228576 0.11570144 0.06256172
0.19305198 0.11570144 0.06256172
0.20403747 0.11570144 0.06256172
0.21528892 0.11570144 0.06256172
0.22684185 0.11570144 0.06256172
0.23872345 0.11570144 0.06256172
0.25095436 0.11570144 0.06256172
0.26354993 0.11570144 0.06256172
0.27652108 0.11570144 0.06256172
0.28987490 0.11570144 0.06256172
0.30361514 0.11570144 0.06256172
0.31774263 0.11570144 0.06256172
0.33225550 0.11570144 0.06256172
0.34714952 0.11570144 0.06256172
0.36241828 0.11570144 0.06256172
0.37805339 0.11570144 0.06256172
0.39404470 0.11570144 0.06256172
0.41038042 0.11570144 0.06256172
0.42704732 0.11570144 0.06256172
0.44403086 0.11570144 0.06256172
0.46131535 0.11570144 0.06256172
0.47888407 0.11570144 0.06256172
0.06256172 0.12831101 0.06256172
0.06256172 0.12831101 0.06256172
0.06256172 0.12831101 0.06256172
0.06797672 0.12831101 0.06256172
0.10018603 0.12831101 0.06256172
0.11570144 0.12831101 0.06256172
0.12831101 0.12831101 0.06256172
0.13971232 0.12831101 0.06256172
0.15054682 0.12831101 0.06256172
0.16113801 0.12831101 0.06256172
0.17167640 0.12831101 0.06256172
0.18228576 0.12831101 0.06256172
0.19305198 0.12831101 0.06256172
0.20403747 0.12831101 0.06256172
0.21528892 0.12831101 0.06256172
0.22684185 0.12831101 0.06256172
0.23872345 0.12831101 0.06256172
0.25095436 0.12831101 0.06256172
0.26354993 0.12831101 0.06256172
0.27652108 0.12831101 0.06256172
0.28987490 0.12831101 0.06256172
0.30361514 0.12831101 0.06256172
0.31774263 0.12831101 0.06256172
0.33225550 0.12831101 0.06256172
0.34714952 0.12831101 0.06256172
0.36241828 0.12831101 0.06256172
0.37805339 0.12831101 0.06256172
0.39404470 0.12831101 0.06256172
0.41038042 0.12831101 0.06256172
0.42704732 0.12831101 0.06256172
0.44403086 0.12831101 0.06256172
0.46131535 0.12831101 0.06256172
0.47888407 0.12831101 0.06256172
0.06256172 0.13971232 0.06256172
0.06256172 0.13971232 0.06256172
0.06256172 0.13971232 0.06256172
0.06797672 0.13971232 0.06256172
0.10018603 0.13971232 0.06256172
0.11570144 0.13971232 0.06256172
0.12831101 0.13971232 0.06256172
0.13971232 0.13971232 0.06256172
0.15054682 0.13971232 0.06256172
0.16113801 0.13971232 0.06256172
0.17167640 0.13971232 0.06256172
0.18228576 0.13971232 0.06256172
0.19305198 0.13971232 0.06256172
0.20403747 0.13971232 0.06256172
0.21528892 0.13971232 0.06256172
0.22684185 0.13971232 0.06256172
0.23872345 0.13971232 0.06256172
0.25095436 0.13971232 0.06256172
0.26354993 0.13971232 0.06256172
0.27652108 0.13971232 0.06256172
0.28987490 0.13971232 0.06256172
0.30361514 0.13971232 0.06256172
0.31774263 0.13971232 0.06256172
0.33225550 0.13971232 0.06256172
0.34714952 0.13971232 0.06256172
0.36241828 0.13971232 0.06256172
0.37805339 0.13971232 0.06256172
0.39404470 0.13971232 0.06256172
0.41038042 0.13971232 0.06256172
0.42704732 0.13971232 0.06256172
0.44403086 0.13971232 0.06256172
0.46131535 0.13971232 0.06256172
0.47888407 0.13971232 0.06256172
0.06256172 0.15054682 0.06256172
0.06256172 0.15054682 0.06256172
0.06256172 0.15054682 0.06256172
0.06797672 0.15054682 0.06256172
0.10018603 0.15054682 0.06256172
0.11570144 0.15054682 0.06256172
0.12831101 0.15054682 0.06256172
0.13971232 0.15054682 0.06256172
0.15054682 0.15054682 0.06256172
0.16113801 0.15054682 0.06256172
0.17167640 0.15054682 0.06256172
0.18228576 0.15054682 0.06256172
0.19305198 0.15054682 0.06256172
0.20403747 0.15054682 0.06256172
0.21528892 0.15054682 0.06256172
0.22684185 0.15054682 0.06256172
0.23872345 0.15054682 0.06256172
0.25095436 0.15054682 0.06256172
0.26354993 0.15054682 0.06256172
0.27652108 0.15054682 0.06256172
0.28987490 0.15054682 0.06256172
0.30361514 0.15054682 0.06256172
0.31774263 0.15054682 0.06256172
0.33225550 0.15054682 0.06256172
0.34714952 0.15054682 0.06256172
0.36241828 0.15054682 0.06256172
0.37805339 0.15054682 0.06256172
0.39404470 0.15054682 0.06256172
0.41038042 0.15054682 0.06256172
0.42704732 0.15054682 0.06256172
0.44403086 0.15054682 0.06256172
0.46131535 0.15054682 0.06256172
0.47888407 0.15054682 0.06256172
0.06256172 0.16113801 0.06256172
0.06256172 0.16113801 0.06256172
0.06256172 0.16113801 0.06256172
0.06797672 0.16113801 0.06256172
0.10018603 0.16113801 0.06256172
0.11570144 0.16113801 0.06256172
0.12831101 0.16113801 0.06256172
0.13971232 0.16113801 0.06256172
0.15054682 0.16113801 0.06256172
0.16113801 0.16113801 0.06256172
0.17167640 0.16113801 0.06256172
0.18228576 0.16113801 0.06256172
0.19305198 0.16113801 0.06256172
0.20403747 0.16113801 0.06256172
0.21528892 0.16113801 0.06256172
0.22684185 0.16113801 0.06256172
0.23872345 0.16113801 0.06256172
0.25095436 0.16113801 0.06256172
0.26354993 0.16113801 0.06256172
0.27652108 0.16113801 0.06256172
0.28987490 0.16113801 0.06256172
0.30361514 0.16113801 0.06256172
0.31774263 0.16113801 0.06256172
0.33225550 0.16113801 0.06256172
0.34714952 0.16113801 0.06256172
0.36241828 0.16113801 0.06256172
0.37805339 0.16113801 0.06256172
0.39404470 0.16113801 0.06256172
0.41038042 0.16113801 0.06256172
0.42704732 0.16113801 0.06256172
0.44403086 0.16113801 0.06256172
0.46131535 0.16113801 0.06256172
0.47888407 0.16113801 0.06256172
0.06256172 0.17167640 0.06256172
0.06256172 0.17167640 0.06256172
0.06256172 0.17167640 0.06256172
0.06797672 0.17167640 0.06256172
0.10018603 0.17167640 0.06256172
0.11570144 0.17167640 0.06256172
0.12831101 0.17167640 0.06256172
0.13971232 0.17167640 0.06256172
0.15054682 0.17167640 0.06256172
0.16113801 0.17167640 0.06256172
0.17167640 0.17167640 0.06256172
0.18228576 0.17167640 0.06256172
0.19305198 0.17167640 0.06256172
0.20403747 0.17167640 0.06256172
0.21528892 0.17167640 0.06256172
0.22684185 0.17167640 0.06256172
0.23872345 0.17167640 0.06256172
0.25095436 0.17167640 0.06256172
0.26354993 0.17167640 0.06256172
0.27652108 0.17167640 0.06256172
0.28987490 0.17167640 0.06256172
0.30361514 0.17167640 0.06256172
0.31774263 0.17167640 0.06256172
0.33225550 0.17167640 0.06256172
0.34714952 0.17167640 0.06256172
0.36241828 0.17167640 0.06256172
0.37805339 0.17167640 0.06256172
0.39404470 0.17167640 0.06256172
0.41038042 0.17167640 0.06256172
0.42704732 0.17167640 0.06256172
0.44403086 0.17167640 0.06256172
0.46131535 0.17167640 0.06256172
0.47888407 0.17167640 0.06256172
0.06256172 0.18228576 0.06256172
0.06256172 0.18228576 0.06256172
0.06256172 0.18228576 0.06256172
0.06797672 0.18228576 0.06256172
0.10018603 0.18228576 0.06256172
0.11570144 0.18228576 0.06256172
0.12831101 0.18228576 0.06256172
0.13971232 0.18228576 0.06256172
0.15054682 0.18228576 0.06256172
0.16113801 0.18228576 0.06256172
0.17167640 0.18228576 0.06256172
0.18228576 0.18228576 0.06256172
0.19305198 0.18228576 0.06256172
0.20403747 0.18228576 0.06256172
0.21528892 0.18228576 0.06256172
0.22684185 0.18228576 0.06256172
0.23872345 0.18228576 0.06256172
0.25095436 0.18228576 0.06256172
0.26354993 0.18228576 0.06256172
0.27652108 0.18228576 0.06256172
0.28987490 0.18228576 0.06256172
0.30361514 0.18228576 0.06256172
0.31774263 0.18228576 0.06256172
0.33225550 0.18228576 0.06256172
0.34714952 0.18228576 0.06256172
0.36241828 0.18228576 0.06256172
0.37805339 0.18228576 0.06256172
0.39404470 0.18228576 0.06256172
0.41038042 0.18228576 0.06256172
0.42704732 0.18228576 0.06256172
0.44403086 0.18228576 0.06256172
0.46131535 0.18228576 0.06256172
0.47888407 0.18228576 0.06256172
0.06256172 0.19305198 0.06256172
0.06256172 0.19305198 0.06256172
0.06256172 0.19305198 0.06256172
0.06797672 0.19305198 0.06256172
0.10018603 0.19305198 0.06256172
0.11570144 0.19305198 0.06256172
0.12831101 0.19305198 0.06256172
0.13971232 0.19305198 0.06256172
0.15054682 0.19305198 0.06256172
0.16113801 0.19305198 0.06256172
0.17167640 0.19305198 0.06256172
0.18228576 0.19305198 0.06256172
0.19305198 0.19305198 0.06256172
0.20403747 0.19305198 0.06256172
0.21528892 0.19305198 0.06256172
0.22684185 0.19305198 0.06256172
0.23872345 0.19305198 0.06256172
0.25095436 0.19305198 0.06256172
0.26354993 0.19305198 0.06256172
0.27652108 0.19305198 0.06256172
0.28987490 0.19305198 0.06256172
0.30361514 0.19305198 0.06256172
0.31774263 0.19305198 0.06256172
0.33225550 0.19305198 0.06256172
0.34714952 0.19305198 0.06256172
0.36241828 0.19305198 0.06256172
0.37805339 0.19305198 0.06256172
0.39404470 0.19305198 0.06256172
0.41038042 0.19305198 0.06256172
0.42704732 0.19305198 0.06256172
0.44403086 0.19305198 0.06256172
0.46131535 0.19305198 0.06256172
0.47888407 0.19305198 0.06256172
0.06256172 0.20403747 0.06256172
0.06256172 0.20403747 0.06256172
0.06256172 0.20403747 0.06256172
0.06797672 0.20403747 0.06256172
0.10018603 0.20403747 0.06256172
0.11570144 0.20403747 0.06256172
0.12831101 0.20403747 0.06256172
0.13971232 0.20403747 0.06256172
0.15054682 0.20403747 0.06256172
0.16113801 0.20403747 0.06256172
0.17167640 0.20403747 0.06256172
0.18228576 0.20403747 0.06256172
0.19305198 0.20403747 0.06256172
0.20403747 0.20403747 0.06256172
0.21528892 0.20403747 0.06256172
0.22684185 0.20403747 0.06256172
0.23872345 0.20403747 0.06256172
0.25095436 0.20403747 0.06256172
0.26354993 0.20403747 0.06256172
0.27652108 0.20403747 0.06256172
0.28987490 0.20403747 0.06256172
0.30361514 0.20403747 0.06256172
0.31774263 0.20403747 0.06256172
0.33225550 0.20403747 0.06256172
0.34714952 0.20403747 0.06256172
0.36241828 0.20403747 0.06256172
0.37805339 0.20403747 0.06256172
0.39404470 0.20403747 0.06256172
0.41038042 0.20403747 0.06256172
0.42704732 0.20403747 0.06256172
0.44403086 0.20403747 0.06256172
0.46131535 0.20403747 0.06256172
0.47888407 0.20403747 0.06256172
0.06256172 0.21528892 0.06256172
0.06256172 0.21528892 0.06256172
0.06256172 0.21528892 0.06256172
0.06797672 0.21528892 0.06256172
0.10018603 0.21528892 0.06256172
0.11570144 0.21528892 0.06256172
0.12831101 0.21528892 0.06256172
0.13971232 0.21528892 0.06256172
0.15054682 0.21528892 0.06256172
0.16113801 0.21528892 0.06256172
0.17167640 0.21528892 0.06256172
0.18228576 0.21528892 0.06256172
0.19305198 0.21528892 0.06256172
0.20403747 0.21528892 0.06256172
0.21528892 0.21528892 0.06256172
0.22684185 0.21528892 0.06256172
0.23872345 0.21528892 0.06256172
0.25095436 0.21528892 0.06256172
0.26354993 0.21528892 0.06256172
0.27652108 0.21528892 0.06256172
0.28987490 0.21528892 0.06256172
0.30361514 0.21528892 0.06256172
0.31774263 0.21528892 0.06256172
0.33225550 0.21528892 0.06256172
0.34714952 0.21528892 0.06256172
0.36241828 0.21528892 0.06256172
0.37805339 0.21528892 0.06256172
0.39404470 0.21528892 0.06256172
0.41038042 0.21528892 0.06256172
0.42704732 0.21528892 0.06256172
0.44403086 0.21528892 0.06256172
0.46131535 0.21528892 0.06256172
0.47888407 0.21528892 0.06256172
0.06256172 0.22684185 0.06256172
0.06256172 0.22684185 0.06256172
0.06256172 0.22684185 0.06256172
0.06797672 0.22684185 0.06256172
0.10018603 0.22684185 0.06256172
0.11570144 0.22684185 0.06256172
0.12831101 0.22684185 0.06256172
0.13971232 0.22684185 0.06256172
0.15054682 0.22684185 0.06256172
0.16113801 0.22684185 0.06256172
0.17167640 0.22684185 0.06256172
0.18228576 0.22684185 0.06256172
0.19305198 0.22684185 0.06256172
0.20403747 0.22684185 0.06256172
0.21528892 0.22684185 0.06256172
0.22684185 0.22684185 0.06256172
0.23872345 0.22684185 0.06256172
0.25095436 0.22684185 0.06256172
0.26354993 0.22684185 0.06256172
0.27652108 0.22684185 0.06256172
0.28987490 0.22684185 0.06256172
0.30361514 0.22684185 0.06256172
0.31774263 0.22684185 0.06256172
0.33225550 0.22684185 0.06256172
0.34714952 0.22684185 0.06256172
0.36241828 0.22684185 0.06256172
0.37805339 0.22684185 0.06256172
0.39404470 0.22684185 0.06256172
0.41038042 0.22684185 0.06256172
0.42704732 0.22684185 0.06256172
0.44403086 0.22684185 0.06256172
0.46131535 0.22684185 0.06256172
0.47888407 0.22684185 0.06256172
0.06256172 0.23872345 0.06256172
0.06256172 0.23872345 0.06256172
0.06256172 0.23872345 0.06256172
0.06797672 0.23872345 0.06256172
0.10018603 0.23872345 0.06256172
0.11570144 0.23872345 0.06256172
0.12831101 0.23872345 0.06256172
0.13971232 0.23872345 0.06256172
0.15054682 0.23872345 0.06256172
0.16113801 0.23872345 0.06256172
0.17167640 0.23872345 0.06256172
0.18228576 0.23872345 0.06256172
0.19305198 0.23872345 0.06256172
0.20403747 0.23872345 0.06256172
0.21528892 0.23872345 0.06256172
0.22684185 0.23872345 0.06256172
0.23872345 0.23872345 0.06256172
0.25095436 0.23872345 0.06256172
0.26354993 0.23872345 0.06256172
0.27652108 0.23872345 0.06256172
0.28987490 0.23872345 0.06256172
0.30361514 0.23872345 0.06256172
0.31774263 0.23872345 0.06256172
0.33225550 0.23872345 0.06256172
0.34714952 0.23872345 0.06256172
0.36241828 0.23872345 0.06256172
0.37805339 0.23872345 0.06256172
0.39404470 0.23872345 0.06256172
0.41038042 0.23872345 0.06256172
0.42704732 0.23872345 0.06256172
0.44403086 0.23872345 0.06256172
0.46131535 0.23872345 0.06256172
0.47888407 0.23872345 0.06256172
0.06256172 0.25095436 0.06256172
0.06256172 0.25095436 0.06256172
0.06256172 0.25095436 0.06256172
0.06797672 0.25095436 0.06256172
0.10018603 0.25095436 0.06256172
0.11570144 0.25095436 0.06256172
0.12831101 0.25095436 0.06256172
0.13971232 0.25095436 0.06256172
0.15054682 0.25095436 0.06256172
0.16113801 0.25095436 0.06256172
0.17167640 0.25095436 0.06256172
0.18228576 0.25095436 0.06256172
0.19305198 0.25095436 0.06256172
0.20403747 0.25095436 0.06256172
0.21528892 0.25095436 0.06256172
0.22684185 0.25095436 0.06256172
0.23872345 0.25095436 0.06256172
0.25095436 0.25095436 0.06256172
0.26354993 0.25095436 0.06256172
0.27652108 0.25095436 0.06256172
0.28987490 0.25095436 0.06256172
0.30361514 0.25095436 0.06256172
0.31774263 0.25095436 0.06256172
0.33225550 0.25095436 0.06256172
0.34714952 0.25095436 0.06256172
0.36241828 0.25095436 0.06256172
0.37805339 0.25095436 0.06256172
0.39404470 0.25095436 0.06256172
0.41038042 0.25095436 0.06256172
0.42704732 0.25095436 0.06256172
0.44403086 0.25095436 0.06256172
0.46131535 0.25095436 0.06256172
0.47888407 0.25095436 0.06256172
0.06256172 0.26354993 0.06256172
0.06256172 0.26354993 0.06256172
0.06256172 0.26354993 0.06256172
0.06797672 0.26354993 0.06256172
0.10018603 0.26354993 0.06256172
0.11570144 0.26354993 0.06256172
0.12831101 0.26354993 0.06256172
0.13971232 0.26354993 0.06256172
0.15054682 0.26354993 0.06256172
0.16113801 0.26354993 0.06256172
0.17167640 0.26354993 0.06256172
0.18228576 0.26354993 0.06256172
0.19305198 0.26354993 0.06256172
0.20403747 0.26354993 0.06256172
0.21528892 0.26354993 0.06256172
0.22684185 0.26354993 0.06256172
0.23872345 0.26354993 0.06256172
0.25095436 0.26354993 0.06256172
0.26354993 0.26354993 0.06256172
0.27652108 0.26354993 0.06256172
0.28987490 0.26354993 0.06256172
0.30361514 0.26354993 0.06256172
0.31774263 0.26354993 0.06256172
0.33225550 0.26354993 0.06256172
0.34714952 0.26354993 0.06256172
0.36241828 0.26354993 0.06256172
0.37805339 0.26354993 0.06256172
0.39404470 0.26354993 0.06256172
0.41038042 0.26354993 0.06256172
0.42704732 0.26354993 0.06256172
0.44403086 0.26354993 0.06256172
0.46131535 0.26354993 0.06256172
0.47888407 0.26354993 0.06256172
0.06256172 0.27652108 0.06256172
0.06256172 0.27652108 0.06256172
0.06256172 0.27652108 0.06256172
0.06797672 0.27652108 0.06256172
0.10018603 0.27652108 0.06256172
0.11570144 0.27652108 0.06256172
0.12831101 0.27652108 0.06256172
0.13971232 0.27652108 0.06256172
0.15054682 0.27652108 0.06256172
0.16113801 0.27652108 0.06256172
0.17167640 0.27652108 0.06256172
0.18228576 0.27652108 0.06256172
0.19305198 0.27652108 0.06256172
0.20403747 0.27652108 0.06256172
0.21528892 0.27652108 0.06256172
0.22684185 0.27652108 0.06256172
0.23872345 0.27652108 0.06256172
0.25095436 0.27652108 0.06256172
0.26354993 0.27652108 0.06256172
0.27652108 0.27652108 0.06256172
0.28987490 0.27652108 0.06256172
0.30361514 0.27652108 0.06256172
0.31774263 0.27652108 0.06256172
0.33225550 0.27652108 0.06256172
0.34714952 0.27652108 0.06256172
0.36241828 0.27652108 0.06256172
0.37805339 0.27652108 0.06256172
0.39404470 0.27652108 0.06256172
0.41038042 0.27652108 0.06256172
0.42704732 0.27652108 0.06256172
0.44403086 0.27652108 0.06256172
0.46131535 0.27652108 0.06256172
0.47888407 0.27652108 0.06256172
0.06256172 0.28987490 0.06256172
0.06256172 0.28987490 0.06256172
0.06256172 0.28987490 0.06256172
0.06797672 0.28987490 0.06256172
0.10018603 0.28987490 0.06256172
0.11570144 0.28987490 0.06256172
0.12831101 0.28987490 0.06256172
0.13971232 0.28987490 0.06256172
0.15054682 0.28987490 0.06256172
0.16113801 0.28987490 0.06256172
0.17167640 0.28987490 0.06256172
0.18228576 0.28987490 0.06256172
0.19305198 0.28987490 0.06256172
0.20403747 0.28987490 0.06256172
0.21528892 0.28987490 0.06256172
0.22684185 0.28987490 0.06256172
0.23872345 0.28987490 0.06256172
0.25095436 0.28987490 0.06256172
0.26354993 0.28987490 0.06256172
0.27652108 0.28987490 0.06256172
0.28987490 0.28987490 0.06256172
0.30361514 0.28987490 0.06256172
0.31774263 0.28987490 0.06256172
0.33225550 0.28987490 0.06256172
0.34714952 0.28987490 0.06256172
0.36241828 0.28987490 0.06256172
0.37805339 0.28987490 0.06256172
0.39404470 0.28987490 0.06256172
0.41038042 0.28987490 0.06256172
0.42704732 0.28987490 0.06256172
0.44403086 0.28987490 0.06256172
0.46131535 0.28987490 0.06256172
0.47888407 0.28987490 0.06256172
0.06256172 0.30361514 0.06256172
0.06256172 0.30361514 0.06256172
0.06256172 0.30361514 0.06256172
0.06797672 0.30361514 0.06256172
0.10018603 0.30361514 0.06256172
0.11570144 0.30361514 0.06256172
0.12831101 0.30361514 0.06256172
0.13971232 0.30361514 0.06256172
0.15054682 0.30361514 0.06256172
0.16113801 0.30361514 0.06256172
0.17167640 0.30361514 0.06256172
0.18228576 0.30361514 0.06256172
0.19305198 0.30361514 0.06256172
0.20403747 0.30361514 0.06256172
0.21528892 0.30361514 0.06256172
0.22684185 0.30361514 0.06256172
0.23872345 0.30361514 0.06256172
0.25095436 0.30361514 0.06256172
0.26354993 0.30361514 0.06256172
0.27652108 0.30361514 0.06256172
0.28987490 0.30361514 0.06256172
0.30361514 0.30361514 0.06256172
0.31774263 0.30361514 0.06256172
0.33225550 0.30361514 0.06256172
0.34714952 0.30361514 0.06256172
0.36241828 0.30361514 0.06256172
0.37805339 0.30361514 0.06256172
