src/ffmpeg_scripts/luts/flog-smpte2084_-3p33.cube
TITLE "flog-smpte2084_-3p33"
LUT_3D_SIZE 9
# Fujifilm F-Log/Rec2020 -> PQ (EOTF Only)/Rec2020, CineEI Shift -3.33, Black Level 0.00% IRE, Input 109% -> Output 109% - Created with LUTCalc v4.01 by Ben Turley October 2020
0.06256172 0.06256172 0.06256172
0.10018603 0.06256172 0.06256172
0.15054682 0.06256172 0.06256172
0.19305198 0.06256172 0.06256172
0.23872345 0.06256172 0.06256172
0.28987490 0.06256172 0.06256172
0.34714952 0.06256172 0.06256172
0.41038042 0.06256172 0.06256172
0.47888407 0.06256172 0.06256172
0.06256172 0.10018603 0.06256172
0.10018603 0.10018603 0.06256172
0.15054682 0.10018603 0.06256172
0.19305198 0.10018603 0.06256172
0.23872345 0.10018603 0.06256172
0.28987490 0.10018603 0.06256172
0.34714952 0.10018603 0.06256172
0.41038042 0.10018603 0.06256172
0.47888407 0.10018603 0.06256172
0.06256172 0.15054682 0.06256172
0.10018603 0.15054682 0.06256172
0.15054682 0.15054682 0.06256172
0.19305198 0.15054682 0.06256172
0.23872345 0.15054682 0.06256172
0.28987490 0.15054682 0.06256172
0.34714952 0.15054682 0.06256172
0.41038042 0.15054682 0.06256172
0.47888407 0.15054682 0.06256172
0.06256172 0.19305198 0.06256172
0.10018603 0.19305198 0.06256172
0.15054682 0.19305198 0.06256172
0.19305198 0.19305198 0.06256172
0.23872345 0.19305198 0.06256172
0.28987490 0.19305198 0.06256172
0.34714952 0.19305198 0.06256172
0.41038042 0.19305198 0.06256172
0.47888407 0.19305198 0.06256172
0.06256172 0.23872345 0.06256172
0.10018603 0.23872345 0.06256172
0.15054682 0.23872345 0.06256172
0.19305198 0.23872345 0.06256172
0.23872345 0.23872345 0.06256172
0.28987490 0.23872345 0.06256172
0.34714952 0.23872345 0.06256172
0.41038042 0.23872345 0.06256172
0.47888407 0.23872345 0.06256172
0.06256172 0.28987490 0.06256172
0.10018603 0.28987490 0.06256172
0.15054682 0.28987490 0.06256172
0.19305198 0.28987490 0.06256172
0.23872345 0.28987490 0.06256172
0.28987490 0.28987490 0.06256172
0.34714952 0.28987490 0.06256172
0.41038042 0.28987490 0.06256172
0.47888407 0.28987490 0.06256172
0.06256172 0.34714952 0.06256172
0.10018603 0.34714952 0.06256172
0.15054682 0.34714952 0.06256172
0.19305198 0.34714952 0.06256172
0.23872345 0.34714952 0.06256172
0.28987490 0.34714952 0.06256172
0.34714952 0.34714952 0.06256172
0.41038042 0.34714952 0.06256172
0.47888407 0.34714952 0.06256172
0.06256172 0.41038042 0.06256172
0.10018603 0.41038042 0.06256172
0.15054682 0.41038042 0.06256172
0.19305198 0.41038042 0.06256172
0.23872345 0.41038042 0.06256172
0.28987490 0.41038042 0.06256172
0.34714952 0.41038042 0.06256172
0.41038042 0.41038042 0.06256172
0.47888407 0.41038042 0.06256172
0.06256172 0.47888407 0.06256172
0.10018603 0.47888407 0.06256172
0.15054682 0.47888407 0.06256172
0.19305198 0.47888407 0.06256172
0.23872345 0.47888407 0.06256172
0.28987490 0.47888407 0.06256172
0.34714952 0.47888407 0.06256172
0.41038042 0.47888407 0.06256172
0.47888407 0.47888407 0.06256172
0.06256172 0.06256172 0.10018603
0.10018603 0.06256172 0.10018603
0.15054682 0.06256172 0.10018603
0.19305198 0.06256172 0.10018603
0.23872345 0.06256172 0.10018603
0.28987490 0.06256172 0.10018603
0.34714952 0.06256172 0.10018603
0.41038042 0.06256172 0.10018603
0.47888407 0.06256172 0.10018603
0.06256172 0.10018603 0.10018603
0.10018603 0.10018603 0.10018603
0.15054682 0.10018603 0.10018603
0.19305198 0.10018603 0.10018603
0.23872345 0.10018603 0.10018603
0.28987490 0.10018603 0.10018603
0.34714952 0.10018603 0.10018603
0.41038042 0.10018603 0.10018603
0.47888407 0.10018603 0.10018603
0.06256172 0.15054682 0.10018603
0.10018603 0.15054682 0.10018603
0.15054682 0.15054682 0.10018603
0.19305198 0.15054682 0.10018603
0.23872345 0.15054682 0.10018603
0.28987490 0.15054682 0.10018603
0.34714952 0.15054682 0.10018603
0.41038042 0.15054682 0.10018603
0.47888407 0.15054682 0.10018603
0.06256172 0.19305198 0.10018603
0.10018603 0.19305198 0.10018603
0.15054682 0.19305198 0.10018603
0.19305198 0.19305198 0.10018603
0.23872345 0.19305198 0.10018603
0.28987490 0.19305198 0.10018603
0.34714952 0.19305198 0.10018603
0.41038042 0.19305198 0.10018603
0.47888407 0.19305198 0.10018603
0.06256172 0.23872345 0.10018603
0.10018603 0.23872345 0.10018603
0.15054682 0.23872345 0.10018603
0.19305198 0.23872345 0.10018603
0.23872345 0.23872345 0.10018603
0.28987490 0.23872345 0.10018603
0.34714952 0.23872345 0.10018603
0.41038042 0.23872345 0.10018603
0.47888407 0.23872345 0.10018603
0.06256172 0.28987490 0.10018603
0.10018603 0.28987490 0.10018603
0.15054682 0.28987490 0.10018603
0.19305198 0.28987490 0.10018603
0.23872345 0.28987490 0.10018603
0.28987490 0.28987490 0.10018603
0.34714952 0.28987490 0.10018603
0.41038042 0.28987490 0.10018603
0.47888407 0.28987490 0.10018603
0.06256172 0.34714952 0.10018603
0.10018603 0.34714952 0.10018603
0.15054682 0.34714952 0.10018603
0.19305198 0.34714952 0.10018603
0.23872345 0.34714952 0.10018603
0.28987490 0.34714952 0.10018603
0.34714952 0.34714952 0.10018603
0.41038042 0.34714952 0.10018603
0.47888407 0.34714952 0.10018603
0.06256172 0.41038042 0.10018603
0.10018603 0.41038042 0.10018603
0.15054682 0.41038042 0.10018603
0.19305198 0.41038042 0.10018603
0.23872345 0.41038042 0.10018603
0.28987490 0.41038042 0.10018603
0.34714952 0.41038042 0.10018603
0.41038042 0.41038042 0.10018603
0.47888407 0.41038042 0.10018603
0.06256172 0.47888407 0.10018603
0.10018603 0.47888407 0.10018603
0.15054682 0.47888407 0.10018603
0.19305198 0.47888407 0.10018603
0.23872345 0.47888407 0.10018603
0.28987490 0.47888407 0.10018603
0.34714952 0.47888407 0.10018603
0.41038042 0.47888407 0.10018603
0.47888407 0.47888407 0.10018603
0.06256172 0.06256172 0.15054682
0.10018603 0.06256172 0.15054682
0.15054682 0.06256172 0.15054682
0.19305198 0.06256172 0.15054682
0.23872345 0.06256172 0.15054682
0.28987490 0.06256172 0.15054682
0.34714952 0.06256172 0.15054682
0.41038042 0.06256172 0.15054682
0.47888407 0.06256172 0.15054682
0.06256172 0.10018603 0.15054682
0.10018603 0.10018603 0.15054682
0.15054682 0.10018603 0.15054682
0.19305198 0.10018603 0.15054682
0.23872345 0.10018603 0.15054682
0.28987490 0.10018603 0.15054682
0.34714952 0.10018603 0.15054682
0.41038042 0.10018603 0.15054682
0.47888407 0.10018603 0.15054682
0.06256172 0.15054682 0.15054682
0.10018603 0.15054682 0.15054682
0.15054682 0.15054682 0.15054682
0.19305198 0.15054682 0.15054682
0.23872345 0.15054682 0.15054682
0.28987490 0.15054682 0.15054682
0.34714952 0.15054682 0.15054682
0.41038042 0.15054682 0.15054682
0.47888407 0.15054682 0.15054682
0.06256172 0.19305198 0.15054682
0.10018603 0.19305198 0.15054682
0.15054682 0.19305198 0.15054682
0.19305198 0.19305198 0.15054682
0.23872345 0.19305198 0.15054682
0.28987490 0.19305198 0.15054682
0.34714952 0.19305198 0.15054682
0.41038042 0.19305198 0.15054682
0.47888407 0.19305198 0.15054682
0.06256172 0.23872345 0.15054682
0.10018603 0.23872345 0.15054682
0.15054682 0.23872345 0.15054682
0.19305198 0.23872345 0.15054682
0.23872345 0.23872345 0.15054682
0.28987490 0.23872345 0.15054682
0.34714952 0.23872345 0.15054682
0.41038042 0.23872345 0.15054682
0.47888407 0.23872345 0.15054682
0.06256172 0.28987490 0.15054682
0.10018603 0.28987490 0.15054682
0.15054682 0.28987490 0.15054682
0.19305198 0.28987490 0.15054682
0.23872345 0.28987490 0.15054682
0.28987490 0.28987490 0.15054682
0.34714952 0.28987490 0.15054682
0.41038042 0.28987490 0.15054682
0.47888407 0.28987490 0.15054682
0.06256172 0.34714952 0.15054682
0.10018603 0.34714952 0.15054682
0.15054682 0.34714952 0.15054682
0.19305198 0.34714952 0.15054682
0.23872345 0.34714952 0.15054682
0.28987490 0.34714952 0.15054682
0.34714952 0.34714952 0.15054682
0.41038042 0.34714952 0.15054682
0.47888407 0.34714952 0.15054682
0.06256172 0.41038042 0.15054682
0.10018603 0.41038042 0.15054682
0.15054682 0.41038042 0.15054682
0.19305198 0.41038042 0.15054682
0.23872345 0.41038042 0.15054682
0.28987490 0.41038042 0.15054682
0.34714952 0.41038042 0.15054682
0.41038042 0.41038042 0.15054682
0.47888407 0.41038042 0.15054682
0.06256172 0.47888407 0.15054682
0.10018603 0.47888407 0.15054682
0.15054682 0.47888407 0.15054682
0.19305198 0.47888407 0.15054682
0.23872345 0.47888407 0.15054682
0.28987490 0.47888407 0.15054682
0.34714952 0.47888407 0.15054682
0.41038042 0.47888407 0.15054682
0.47888407 0.47888407 0.15054682
0.06256172 0.06256172 0.19305198
0.10018603 0.06256172 0.19305198
0.15054682 0.06256172 0.19305198
0.19305198 0.06256172 0.19305198
0.23872345 0.06256172 0.19305198
0.28987490 0.06256172 0.19305198
0.34714952 0.06256172 0.19305198
0.41038042 0.06256172 0.19305198
0.47888407 0.06256172 0.19305198
0.06256172 0.10018603 0.19305198
0.10018603 0.10018603 0.19305198
0.15054682 0.10018603 0.19305198
0.19305198 0.10018603 0.19305198
0.23872345 0.10018603 0.19305198
0.28987490 0.10018603 0.19305198
0.34714952 0.10018603 0.19305198
0.41038042 0.10018603 0.19305198
0.47888407 0.10018603 0.19305198
0.06256172 0.15054682 0.19305198
0.10018603 0.15054682 0.19305198
0.15054682 0.15054682 0.19305198
0.19305198 0.15054682 0.19305198
0.23872345 0.15054682 0.19305198
0.28987490 0.15054682 0.19305198
0.34714952 0.15054682 0.19305198
0.41038042 0.15054682 0.19305198
0.47888407 0.15054682 0.19305198
0.06256172 0.19305198 0.19305198
0.10018603 0.19305198 0.19305198
0.15054682 0.19305198 0.19305198
0.19305198 0.19305198 0.19305198
0.23872345 0.19305198 0.19305198
0.28987490 0.19305198 0.19305198
0.34714952 0.19305198 0.19305198
0.41038042 0.19305198 0.19305198
0.47888407 0.19305198 0.19305198
0.06256172 0.23872345 0.19305198
0.10018603 0.23872345 0.19305198
0.15054682 0.23872345 0.19305198
0.19305198 0.23872345 0.19305198
0.23872345 0.23872345 0.19305198
0.28987490 0.23872345 0.19305198
0.34714952 0.23872345 0.19305198
0.41038042 0.23872345 0.19305198
0.47888407 0.23872345 0.19305198
0.06256172 0.28987490 0.19305198
0.10018603 0.28987490 0.19305198
0.15054682 0.28987490 0.19305198
0.19305198 0.28987490 0.19305198
0.23872345 0.28987490 0.19305198
0.28987490 0.28987490 0.19305198
0.34714952 0.28987490 0.19305198
0.41038042 0.28987490 0.19305198
0.47888407 0.28987490 0.19305198
0.06256172 0.34714952 0.19305198
0.10018603 0.34714952 0.19305198
0.15054682 0.34714952 0.19305198
0.19305198 0.34714952 0.19305198
0.23872345 0.34714952 0.19305198
0.28987490 0.34714952 0.19305198
0.34714952 0.34714952 0.19305198
0.41038042 0.34714952 0.19305198
0.47888407 0.34714952 0.19305198
0.06256172 0.41038042 0.19305198
0.10018603 0.41038042 0.19305198
0.15054682 0.41038042 0.19305198
0.19305198 0.41038042 0.19305198
0.23872345 0.41038042 0.19305198
0.28987490 0.41038042 0.19305198
0.34714952 0.41038042 0.19305198
0.41038042 0.41038042 0.19305198
0.47888407 0.41038042 0.19305198
0.06256172 0.47888407 0.19305198
0.10018603 0.47888407 0.19305198
0.15054682 0.47888407 0.19305198
0.19305198 0.47888407 0.19305198
0.23872345 0.47888407 0.19305198
0.28987490 0.47888407 0.19305198
0.34714952 0.47888407 0.19305198
0.41038042 0.47888407 0.19305198
0.47888407 0.47888407 0.19305198
0.06256172 0.06256172 0.23872345
0.10018603 0.06256172 0.23872345
0.15054682 0.06256172 0.23872345
0.19305198 0.06256172 0.23872345
0.23872345 0.06256172 0.23872345
0.28987490 0.06256172 0.23872345
0.34714952 0.06256172 0.23872345
0.41038042 0.06256172 0.23872345
0.47888407 0.06256172 0.23872345
0.06256172 0.10018603 0.23872345
0.10018603 0.10018603 0.23872345
0.15054682 0.10018603 0.23872345
0.19305198 0.10018603 0.23872345
0.23872345 0.10018603 0.23872345
0.28987490 0.10018603 0.23872345
0.34714952 0.10018603 0.23872345
0.41038042 0.10018603 0.23872345
0.47888407 0.10018603 0.23872345
0.06256172 0.15054682 0.23872345
0.10018603 0.15054682 0.23872345
0.15054682 0.15054682 0.23872345
0.19305198 0.15054682 0.23872345
0.23872345 0.15054682 0.23872345
0.28987490 0.15054682 0.23872345
0.34714952 0.15054682 0.23872345
0.41038042 0.15054682 0.23872345
0.47888407 0.15054682 0.23872345
0.06256172 0.19305198 0.23872345
0.10018603 0.19305198 0.23872345
0.15054682 0.19305198 0.23872345
0.19305198 0.19305198 0.23872345
0.23872345 0.19305198 0.23872345
0.28987490 0.19305198 0.23872345
0.34714952 0.19305198 0.23872345
0.41038042 0.19305198 0.23872345
0.47888407 0.19305198 0.23872345
0.06256172 0.23872345 0.23872345
0.10018603 0.23872345 0.23872345
0.15054682 0.23872345 0.23872345
0.19305198 0.23872345 0.23872345
0.23872345 0.23872345 0.23872345
0.28987490 0.23872345 0.23872345
0.34714952 0.23872345 0.23872345
0.41038042 0.23872345 0.23872345
0.47888407 0.23872345 0.23872345
0.06256172 0.28987490 0.23872345
0.10018603 0.28987490 0.23872345
0.15054682 0.28987490 0.23872345
0.19305198 0.28987490 0.23872345
0.23872345 0.28987490 0.23872345
0.28987490 0.28987490 0.23872345
0.34714952 0.28987490 0.23872345
0.41038042 0.28987490 0.23872345
0.47888407 0.28987490 0.23872345
0.06256172 0.34714952 0.23872345
0.10018603 0.34714952 0.23872345
0.15054682 0.34714952 0.23872345
0.19305198 0.34714952 0.23872345
0.23872345 0.34714952 0.23872345
0.28987490 0.34714952 0.23872345
0.34714952 0.34714952 0.23872345
0.41038042 0.34714952 0.23872345
0.47888407 0.34714952 0.23872345
0.06256172 0.41038042 0.23872345
0.10018603 0.41038042 0.23872345
0.15054682 0.41038042 0.23872345
0.19305198 0.41038042 0.23872345
0.23872345 0.41038042 0.23872345
0.28987490 0.41038042 0.23872345
0.34714952 0.41038042 0.23872345
0.41038042 0.41038042 0.23872345
0.47888407 0.41038042 0.23872345
0.06256172 0.47888407 0.23872345
0.10018603 0.47888407 0.23872345
0.15054682 0.47888407 0.23872345
0.19305198 0.47888407 0.23872345
0.23872345 0.47888407 0.23872345
0.28987490 0.47888407 0.23872345
0.34714952 0.47888407 0.23872345
0.41038042 0.47888407 0.23872345
0.47888407 0.47888407 0.23872345
0.06256172 0.06256172 0.28987490
0.10018603 0.06256172 0.28987490
0.15054682 0.06256172 0.28987490
0.19305198 0.06256172 0.28987490
0.23872345 0.06256172 0.28987490
0.28987490 0.06256172 0.28987490
0.34714952 0.06256172 0.28987490
0.41038042 0.06256172 0.28987490
0.47888407 0.06256172 0.28987490
0.06256172 0.10018603 0.28987490
0.10018603 0.10018603 0.28987490
0.15054682 0.10018603 0.28987490
0.19305198 0.10018603 0.28987490
0.23872345 0.10018603 0.28987490
0.28987490 0.10018603 0.28987490
0.34714952 0.10018603 0.28987490
0.41038042 0.10018603 0.28987490
0.47888407 0.10018603 0.28987490
0.06256172 0.15054682 0.28987490
0.10018603 0.15054682 0.28987490
0.15054682 0.15054682 0.28987490
0.19305198 0.15054682 0.28987490
0.23872345 0.15054682 0.28987490
0.28987490 0.15054682 0.28987490
0.34714952 0.15054682 0.28987490
0.41038042 0.15054682 0.28987490
0.47888407 0.15054682 0.28987490
0.06256172 0.19305198 0.28987490
0.10018603 0.19305198 0.28987490
0.15054682 0.19305198 0.28987490
0.19305198 0.19305198 0.28987490
0.23872345 0.19305198 0.28987490
0.28987490 0.19305198 0.28987490
0.34714952 0.19305198 0.28987490
0.41038042 0.19305198 0.28987490
0.47888407 0.19305198 0.28987490
0.06256172 0.23872345 0.28987490
0.10018603 0.23872345 0.28987490
0.15054682 0.23872345 0.28987490
0.19305198 0.23872345 0.28987490
0.23872345 0.23872345 0.28987490
0.28987490 0.23872345 0.28987490
0.34714952 0.23872345 0.28987490
0.41038042 0.23872345 0.28987490
0.47888407 0.23872345 0.28987490
0.06256172 0.28987490 0.28987490
0.10018603 0.28987490 0.28987490
0.15054682 0.28987490 0.28987490
0.19305198 0.28987490 0.28987490
0.23872345 0.28987490 0.28987490
0.28987490 0.28987490 0.28987490
0.34714952 0.28987490 0.28987490
0.41038042 0.28987490 0.28987490
0.47888407 0.28987490 0.28987490
0.06256172 0.34714952 0.28987490
0.10018603 0.34714952 0.28987490
0.15054682 0.34714952 0.28987490
0.19305198 0.34714952 0.28987490
0.23872345 0.34714952 0.28987490
0.28987490 0.34714952 0.28987490
0.34714952 0.34714952 0.28987490
0.41038042 0.34714952 0.28987490
0.47888407 0.34714952 0.28987490
0.06256172 0.41038042 0.28987490
0.10018603 0.41038042 0.28987490
0.15054682 0.41038042 0.28987490
0.19305198 0.41038042 0.28987490
0.23872345 0.41038042 0.28987490
0.28987490 0.41038042 0.28987490
0.34714952 0.41038042 0.28987490
0.41038042 0.41038042 0.28987490
0.47888407 0.41038042 0.28987490
0.06256172 0.47888407 0.28987490
0.10018603 0.47888407 0.28987490
0.15054682 0.47888407 0.28987490
0.19305198 0.47888407 0.28987490
0.23872345 0.47888407 0.28987490
0.28987490 0.47888407 0.28987490
0.34714952 0.47888407 0.28987490
0.41038042 0.47888407 0.28987490
0.47888407 0.47888407 0.28987490
0.06256172 0.06256172 0.34714952
0.10018603 0.06256172 0.34714952
0.15054682 0.06256172 0.34714952
0.19305198 0.06256172 0.34714952
0.23872345 0.06256172 0.34714952
0.28987490 0.06256172 0.34714952
0.34714952 0.06256172 0.34714952
0.41038042 0.06256172 0.34714952
0.47888407 0.06256172 0.34714952
0.06256172 0.10018603 0.34714952
0.10018603 0.10018603 0.34714952
0.15054682 0.10018603 0.34714952
0.19305198 0.10018603 0.34714952
0.23872345 0.10018603 0.34714952
0.28987490 0.10018603 0.34714952
0.34714952 0.10018603 0.34714952
0.41038042 0.10018603 0.34714952
0.47888407 0.10018603 0.34714952
0.06256172 0.15054682 0.34714952
0.10018603 0.15054682 0.34714952
0.15054682 0.15054682 0.34714952
0.19305198 0.15054682 0.34714952
0.23872345 0.15054682 0.34714952
0.28987490 0.15054682 0.34714952
0.34714952 0.15054682 0.34714952
0.41038042 0.15054682 0.34714952
0.47888407 0.15054682 0.34714952
0.06256172 0.19305198 0.34714952
0.10018603 0.19305198 0.34714952
0.15054682 0.19305198 0.34714952
0.19305198 0.19305198 0.34714952
0.23872345 0.19305198 0.34714952
0.28987490 0.19305198 0.34714952
0.34714952 0.19305198 0.34714952
0.41038042 0.19305198 0.34714952
0.47888407 0.19305198 0.34714952
0.06256172 0.23872345 0.34714952
0.10018603 0.23872345 0.34714952
0.15054682 0.23872345 0.34714952
0.19305198 0.23872345 0.34714952
0.23872345 0.23872345 0.34714952
0.28987490 0.23872345 0.34714952
0.34714952 0.23872345 0.34714952
0.41038042 0.23872345 0.34714952
0.47888407 0.23872345 0.34714952
0.06256172 0.28987490 0.34714952
0.10018603 0.28987490 0.34714952
0.15054682 0.28987490 0.34714952
0.19305198 0.28987490 0.34714952
0.23872345 0.28987490 0.34714952
0.28987490 0.28987490 0.34714952
0.34714952 0.28987490 0.34714952
0.41038042 0.28987490 0.34714952
0.47888407 0.28987490 0.34714952
0.06256172 0.34714952 0.34714952
0.10018603 0.34714952 0.34714952
0.15054682 0.34714952 0.34714952
0.19305198 0.34714952 0.34714952
0.23872345 0.34714952 0.34714952
0.28987490 0.34714952 0.34714952
0.34714952 0.34714952 0.34714952
0.41038042 0.34714952 0.34714952
0.47888407 0.34714952 0.34714952
0.06256172 0.41038042 0.34714952
0.10018603 0.41038042 0.34714952
0.15054682 0.41038042 0.34714952
0.19305198 0.41038042 0.34714952
0.23872345 0.41038042 0.34714952
0.28987490 0.41038042 0.34714952
0.34714952 0.41038042 0.34714952
0.41038042 0.41038042 0.34714952
0.47888407 0.41038042 0.34714952
0.06256172 0.47888407 0.34714952
0.10018603 0.47888407 0.34714952
0.15054682 0.47888407 0.34714952
0.19305198 0.47888407 0.34714952
0.23872345 0.47888407 0.34714952
0.28987490 0.47888407 0.34714952
0.34714952 0.47888407 0.34714952
0.41038042 0.47888407 0.34714952
0.47888407 0.47888407 0.34714952
0.06256172 0.06256172 0.41038042
0.10018603 0.06256172 0.41038042
0.15054682 0.06256172 0.41038042
0.19305198 0.06256172 0.41038042
0.23872345 0.06256172 0.41038042
0.28987490 0.06256172 0.41038042
0.34714952 0.06256172 0.41038042
0.41038042 0.06256172 0.41038042
0.47888407 0.06256172 0.41038042
0.06256172 0.10018603 0.41038042
0.10018603 0.10018603 0.41038042
0.15054682 0.10018603 0.41038042
0.19305198 0.10018603 0.41038042
0.23872345 0.10018603 0.41038042
0.28987490 0.10018603 0.41038042
0.34714952 0.10018603 0.41038042
0.41038042 0.10018603 0.41038042
0.47888407 0.10018603 0.41038042
0.06256172 0.15054682 0.41038042
0.10018603 0.15054682 0.41038042
0.15054682 0.15054682 0.41038042
0.19305198 0.15054682 0.41038042
0.23872345 0.15054682 0.41038042
0.28987490 0.15054682 0.41038042
0.34714952 0.15054682 0.41038042
0.41038042 0.15054682 0.41038042
0.47888407 0.15054682 0.41038042
0.06256172 0.19305198 0.41038042
0.10018603 0.19305198 0.41038042
0.15054682 0.19305198 0.41038042
0.19305198 0.19305198 0.41038042
0.23872345 0.19305198 0.41038042
0.28987490 0.19305198 0.41038042
0.34714952 0.19305198 0.41038042
0.41038042 0.19305198 0.41038042
0.47888407 0.19305198 0.41038042
0.06256172 0.23872345 0.41038042
0.10018603 0.23872345 0.41038042
0.15054682 0.23872345 0.41038042
0.19305198 0.23872345 0.41038042
0.23872345 0.23872345 0.41038042
0.28987490 0.23872345 0.41038042
0.34714952 0.23872345 0.41038042
0.41038042 0.23872345 0.41038042
0.47888407 0.23872345 0.41038042
0.06256172 0.28987490 0.41038042
0.10018603 0.28987490 0.41038042
0.15054682 0.28987490 0.41038042
0.19305198 0.28987490 0.41038042
0.23872345 0.28987490 0.41038042
0.28987490 0.28987490 0.41038042
0.34714952 0.28987490 0.41038042
0.41038042 0.28987490 0.41038042
0.47888407 0.28987490 0.41038042
0.06256172 0.34714952 0.41038042
0.10018603 0.34714952 0.41038042
0.15054682 0.34714952 0.41038042
0.19305198 0.34714952 0.41038042
0.23872345 0.34714952 0.41038042
0.28987490 0.34714952 0.41038042
0.34714952 0.34714952 0.41038042
0.41038042 0.34714952 0.41038042
0.47888407 0.34714952 0.41038042
0.06256172 0.41038042 0.41038042
0.10018603 0.41038042 0.41038042
0.15054682 0.41038042 0.41038042
0.19305198 0.41038042 0.41038042
0.23872345 0.41038042 0.41038042
0.28987490 0.41038042 0.41038042
0.34714952 0.41038042 0.41038042
0.41038042 0.41038042 0.41038042
0.47888407 0.41038042 0.41038042
0.06256172 0.47888407 0.41038042
0.10018603 0.47888407 0.41038042
0.15054682 0.47888407 0.41038042
0.19305198 0.47888407 0.41038042
0.23872345 0.47888407 0.41038042
0.28987490 0.47888407 0.41038042
0.34714952 0.47888407 0.41038042
0.41038042 0.47888407 0.41038042
0.47888407 0.47888407 0.41038042
0.06256172 0.06256172 0.47888407
0.10018603 0.06256172 0.47888407
0.15054682 0.06256172 0.47888407
0.19305198 0.06256172 0.47888407
0.23872345 0.06256172 0.47888407
0.28987490 0.06256172 0.47888407
0.34714952 0.06256172 0.47888407
0.41038042 0.06256172 0.47888407
0.47888407 0.06256172 0.47888407
0.06256172 0.10018603 0.47888407
0.10018603 0.10018603 0.47888407
0.15054682 0.10018603 0.47888407
0.19305198 0.10018603 0.47888407
0.23872345 0.10018603 0.47888407
0.28987490 0.10018603 0.47888407
0.34714952 0.10018603 0.47888407
0.41038042 0.10018603 0.47888407
0.47888407 0.10018603 0.47888407
0.06256172 0.15054682 0.47888407
0.10018603 0.15054682 0.47888407
0.15054682 0.15054682 0.47888407
0.19305198 0.15054682 0.47888407
0.23872345 0.15054682 0.47888407
0.28987490 0.15054682 0.47888407
0.34714952 0.15054682 0.47888407
0.41038042 0.15054682 0.47888407
0.47888407 0.15054682 0.47888407
0.06256172 0.19305198 0.47888407
0.10018603 0.19305198 0.47888407
0.15054682 0.19305198 0.47888407
0.19305198 0.19305198 0.47888407
0.23872345 0.19305198 0.47888407
0.28987490 0.19305198 0.47888407
0.34714952 0.19305198 0.47888407
0.41038042 0.19305198 0.47888407
0.47888407 0.19305198 0.47888407
0.06256172 0.23872345 0.47888407
0.10018603 0.23872345 0.47888407
0.15054682 0.23872345 0.47888407
0.19305198 0.23872345 0.47888407
0.23872345 0.23872345 0.47888407
0.28987490 0.23872345 0.47888407
0.34714952 0.23872345 0.47888407
0.41038042 0.23872345 0.47888407
0.47888407 0.23872345 0.47888407
0.06256172 0.28987490 0.47888407
0.10018603 0.28987490 0.47888407
0.15054682 0.28987490 0.47888407
0.19305198 0.28987490 0.47888407
0.23872345 0.28987490 0.47888407
0.28987490 0.28987490 0.47888407
0.34714952 0.28987490 0.47888407
0.41038042 0.28987490 0.47888407
0.47888407 0.28987490 0.47888407
0.06256172 0.34714952 0.47888407
0.10018603 0.34714952 0.47888407
0.15054682 0.34714952 0.47888407
0.19305198 0.34714952 0.47888407
0.23872345 0.34714952 0.47888407
0.28987490 0.34714952 0.47888407
0.34714952 0.34714952 0.47888407
0.41038042 0.34714952 0.47888407
0.47888407 0.34714952 0.47888407
0.06256172 0.41038042 0.47888407
0.10018603 0.41038042 0.47888407
0.15054682 0.41038042 0.47888407
0.19305198 0.41038042 0.47888407
0.23872345 0.41038042 0.47888407
0.28987490 0.41038042 0.47888407
0.34714952 0.41038042 0.47888407
0.41038042 0.41038042 0.47888407
0.47888407 0.41038042 0.47888407
0.06256172 0.47888407 0.47888407
0.10018603 0.47888407 0.47888407
0.15054682 0.47888407 0.47888407
0.19305198 0.47888407 0.47888407
0.23872345 0.47888407 0.47888407
0.28987490 0.47888407 0.47888407
0.34714952 0.47888407 0.47888407
0.41038042 0.47888407 0.47888407
0.47888407 0.47888407 0.47888407
