src/ffmpeg_scripts/luts/flog-smpte2084_-0p33.cube
TITLE "flog-smpte2084_-0p33"
LUT_3D_SIZE 9
# Fujifilm F-Log/Rec2020 -> PQ (EOTF Only)/Rec2020, CineEI Shift -0.33, Black Level 0.00% IRE, Input 109% -> Output 109% - Created with LUTCalc v4.01 by Ben Turley October 2020
0.06256172 0.06256172 0.06256172
0.15154410 0.06256172 0.06256172
0.24124221 0.06256172 0.06256172
0.30749719 0.06256172 0.06256172
0.37295152 0.06256172 0.06256172
0.44128219 0.06256172 0.06256172
0.51313802 0.06256172 0.06256172
0.58806078 0.06256172 0.06256172
0.66509891 0.06256172 0.06256172
0.06256172 0.15154410 0.06256172
0.15154410 0.15154410 0.06256172
0.24124221 0.15154410 0.06256172
0.30749719 0.15154410 0.06256172
0.37295152 0.15154410 0.06256172
0.44128219 0.15154410 0.06256172
0.51313802 0.15154410 0.06256172
0.58806078 0.15154410 0.06256172
0.66509891 0.15154410 0.06256172
0.06256172 0.24124221 0.06256172
0.15154410 0.24124221 0.06256172
0.24124221 0.24124221 0.06256172
0.30749719 0.24124221 0.06256172
0.37295152 0.24124221 0.06256172
0.44128219 0.24124221 0.06256172
0.51313802 0.24124221 0.06256172
0.58806078 0.24124221 0.06256172
0.66509891 0.24124221 0.06256172
0.06256172 0.30749719 0.06256172
0.15154410 0.30749719 0.06256172
0.24124221 0.30749719 0.06256172
0.30749719 0.30749719 0.06256172
0.37295152 0.30749719 0.06256172
0.44128219 0.30749719 0.06256172
0.51313802 0.30749719 0.06256172
0.58806078 0.30749719 0.06256172
0.66509891 0.30749719 0.06256172
0.06256172 0.37295152 0.06256172
0.15154410 0.37295152 0.06256172
0.24124221 0.37295152 0.06256172
0.30749719 0.37295152 0.06256172
0.37295152 0.37295152 0.06256172
0.44128219 0.37295152 0.06256172
0.51313802 0.37295152 0.06256172
0.58806078 0.37295152 0.06256172
0.66509891 0.37295152 0.06256172
0.06256172 0.44128219 0.06256172
0.15154410 0.44128219 0.06256172
0.24124221 0.44128219 0.06256172
0.30749719 0.44128219 0.06256172
0.37295152 0.44128219 0.06256172
0.44128219 0.44128219 0.06256172
0.51313802 0.44128219 0.06256172
0.58806078 0.44128219 0.06256172
0.66509891 0.44128219 0.06256172
0.06256172 0.51313802 0.06256172
0.15154410 0.51313802 0.06256172
0.24124221 0.51313802 0.06256172
0.30749719 0.51313802 0.06256172
0.37295152 0.51313802 0.06256172
0.44128219 0.51313802 0.06256172
0.51313802 0.51313802 0.06256172
0.58806078 0.51313802 0.06256172
0.66509891 0.51313802 0.06256172
0.06256172 0.58806078 0.06256172
0.15154410 0.58806078 0.06256172
0.24124221 0.58806078 0.06256172
0.30749719 0.58806078 0.06256172
0.37295152 0.58806078 0.06256172
0.44128219 0.58806078 0.06256172
0.51313802 0.58806078 0.06256172
0.58806078 0.58806078 0.06256172
0.66509891 0.58806078 0.06256172
0.06256172 0.66509891 0.06256172
0.15154410 0.66509891 0.06256172
0.24124221 0.66509891 0.06256172
0.30749719 0.66509891 0.06256172
0.37295152 0.66509891 0.06256172
0.44128219 0.66509891 0.06256172
0.51313802 0.66509891 0.06256172
0.58806078 0.66509891 0.06256172
0.66509891 0.66509891 0.06256172
0.06256172 0.06256172 0.15154410
0.15154410 0.06256172 0.15154410
0.24124221 0.06256172 0.15154410
0.30749719 0.06256172 0.15154410
0.37295152 0.06256172 0.15154410
0.44128219 0.06256172 0.15154410
0.51313802 0.06256172 0.15154410
0.58806078 0.06256172 0.15154410
0.66509891 0.06256172 0.15154410
0.06256172 0.15154410 0.15154410
0.15154410 0.15154410 0.15154410
0.24124221 0.15154410 0.15154410
0.30749719 0.15154410 0.15154410
0.37295152 0.15154410 0.15154410
0.44128219 0.15154410 0.15154410
0.51313802 0.15154410 0.15154410
0.58806078 0.15154410 0.15154410
0.66509891 0.15154410 0.15154410
0.06256172 0.24124221 0.15154410
0.15154410 0.24124221 0.15154410
0.24124221 0.24124221 0.15154410
0.30749719 0.24124221 0.15154410
0.37295152 0.24124221 0.15154410
0.44128219 0.24124221 0.15154410
0.51313802 0.24124221 0.15154410
0.58806078 0.24124221 0.15154410
0.66509891 0.24124221 0.15154410
0.06256172 0.30749719 0.15154410
0.15154410 0.30749719 0.15154410
0.24124221 0.30749719 0.15154410
0.30749719 0.30749719 0.15154410
0.37295152 0.30749719 0.15154410
0.44128219 0.30749719 0.15154410
0.51313802 0.30749719 0.15154410
0.58806078 0.30749719 0.15154410
0.66509891 0.30749719 0.15154410
0.06256172 0.37295152 0.15154410
0.15154410 0.37295152 0.15154410
0.24124221 0.37295152 0.15154410
0.30749719 0.37295152 0.15154410
0.37295152 0.37295152 0.15154410
0.44128219 0.37295152 0.15154410
0.51313802 0.37295152 0.15154410
0.58806078 0.37295152 0.15154410
0.66509891 0.37295152 0.15154410
0.06256172 0.44128219 0.15154410
0.15154410 0.44128219 0.15154410
0.24124221 0.44128219 0.15154410
0.30749719 0.44128219 0.15154410
0.37295152 0.44128219 0.15154410
0.44128219 0.44128219 0.15154410
0.51313802 0.44128219 0.15154410
0.58806078 0.44128219 0.15154410
0.66509891 0.44128219 0.15154410
0.06256172 0.51313802 0.15154410
0.15154410 0.51313802 0.15154410
0.24124221 0.51313802 0.15154410
0.30749719 0.51313802 0.15154410
0.37295152 0.51313802 0.15154410
0.44128219 0.51313802 0.15154410
0.51313802 0.51313802 0.15154410
0.58806078 0.51313802 0.15154410
0.66509891 0.51313802 0.15154410
0.06256172 0.58806078 0.15154410
0.15154410 0.58806078 0.15154410
0.24124221 0.58806078 0.15154410
0.30749719 0.58806078 0.15154410
0.37295152 0.58806078 0.15154410
0.44128219 0.58806078 0.15154410
0.51313802 0.58806078 0.15154410
0.58806078 0.58806078 0.15154410
0.66509891 0.58806078 0.15154410
0.06256172 0.66509891 0.15154410
0.15154410 0.66509891 0.15154410
0.24124221 0.66509891 0.15154410
0.30749719 0.66509891 0.15154410
0.37295152 0.66509891 0.15154410
0.44128219 0.66509891 0.15154410
0.51313802 0.66509891 0.15154410
0.58806078 0.66509891 0.15154410
0.66509891 0.66509891 0.15154410
0.06256172 0.06256172 0.24124221
0.15154410 0.06256172 0.24124221
0.24124221 0.06256172 0.24124221
0.30749719 0.06256172 0.24124221
0.37295152 0.06256172 0.24124221
0.44128219 0.06256172 0.24124221
0.51313802 0.06256172 0.24124221
0.58806078 0.06256172 0.24124221
0.66509891 0.06256172 0.24124221
0.06256172 0.15154410 0.24124221
0.15154410 0.15154410 0.24124221
0.24124221 0.15154410 0.24124221
0.30749719 0.15154410 0.24124221
0.37295152 0.15154410 0.24124221
0.44128219 0.15154410 0.24124221
0.51313802 0.15154410 0.24124221
0.58806078 0.15154410 0.24124221
0.66509891 0.15154410 0.24124221
0.06256172 0.24124221 0.24124221
0.15154410 0.24124221 0.24124221
0.24124221 0.24124221 0.24124221
0.30749719 0.24124221 0.24124221
0.37295152 0.24124221 0.24124221
0.44128219 0.24124221 0.24124221
0.51313802 0.24124221 0.24124221
0.58806078 0.24124221 0.24124221
0.66509891 0.24124221 0.24124221
0.06256172 0.30749719 0.24124221
0.15154410 0.30749719 0.24124221
0.24124221 0.30749719 0.24124221
0.30749719 0.30749719 0.24124221
0.37295152 0.30749719 0.24124221
0.44128219 0.30749719 0.24124221
0.51313802 0.30749719 0.24124221
0.58806078 0.30749719 0.24124221
0.66509891 0.30749719 0.24124221
0.06256172 0.37295152 0.24124221
0.15154410 0.37295152 0.24124221
0.24124221 0.37295152 0.24124221
0.30749719 0.37295152 0.24124221
0.37295152 0.37295152 0.24124221
0.44128219 0.37295152 0.24124221
0.51313802 0.37295152 0.24124221
0.58806078 0.37295152 0.24124221
0.66509891 0.37295152 0.24124221
0.06256172 0.44128219 0.24124221
0.15154410 0.44128219 0.24124221
0.24124221 0.44128219 0.24124221
0.30749719 0.44128219 0.24124221
0.37295152 0.44128219 0.24124221
0.44128219 0.44128219 0.24124221
0.51313802 0.44128219 0.24124221
0.58806078 0.44128219 0.24124221
0.66509891 0.44128219 0.24124221
0.06256172 0.51313802 0.24124221
0.15154410 0.51313802 0.24124221
0.24124221 0.51313802 0.24124221
0.30749719 0.51313802 0.24124221
0.37295152 0.51313802 0.24124221
0.44128219 0.51313802 0.24124221
0.51313802 0.51313802 0.24124221
0.58806078 0.51313802 0.24124221
0.66509891 0.51313802 0.24124221
0.06256172 0.58806078 0.24124221
0.15154410 0.58806078 0.24124221
0.24124221 0.58806078 0.24124221
0.30749719 0.58806078 0.24124221
0.37295152 0.58806078 0.24124221
0.44128219 0.58806078 0.24124221
0.51313802 0.58806078 0.24124221
0.58806078 0.58806078 0.24124221
0.66509891 0.58806078 0.24124221
0.06256172 0.66509891 0.24124221
0.15154410 0.66509891 0.24124221
0.24124221 0.66509891 0.24124221
0.30749719 0.66509891 0.24124221
0.37295152 0.66509891 0.24124221
0.44128219 0.66509891 0.24124221
0.51313802 0.66509891 0.24124221
0.58806078 0.66509891 0.24124221
0.66509891 0.66509891 0.24124221
0.06256172 0.06256172 0.30749719
0.15154410 0.06256172 0.30749719
0.24124221 0.06256172 0.30749719
0.30749719 0.06256172 0.30749719
0.37295152 0.06256172 0.30749719
0.44128219 0.06256172 0.30749719
0.51313802 0.06256172 0.30749719
0.58806078 0.06256172 0.30749719
0.66509891 0.06256172 0.30749719
0.06256172 0.15154410 0.30749719
0.15154410 0.15154410 0.30749719
0.24124221 0.15154410 0.30749719
0.30749719 0.15154410 0.30749719
0.37295152 0.15154410 0.30749719
0.44128219 0.15154410 0.30749719
0.51313802 0.15154410 0.30749719
0.58806078 0.15154410 0.30749719
0.66509891 0.15154410 0.30749719
0.06256172 0.24124221 0.30749719
0.15154410 0.24124221 0.30749719
0.24124221 0.24124221 0.30749719
0.30749719 0.24124221 0.30749719
0.37295152 0.24124221 0.30749719
0.44128219 0.24124221 0.30749719
0.51313802 0.24124221 0.30749719
0.58806078 0.24124221 0.30749719
0.66509891 0.24124221 0.30749719
0.06256172 0.30749719 0.30749719
0.15154410 0.30749719 0.30749719
0.24124221 0.30749719 0.30749719
0.30749719 0.30749719 0.30749719
0.37295152 0.30749719 0.30749719
0.44128219 0.30749719 0.30749719
0.51313802 0.30749719 0.30749719
0.58806078 0.30749719 0.30749719
0.66509891 0.30749719 0.30749719
0.06256172 0.37295152 0.30749719
0.15154410 0.37295152 0.30749719
0.24124221 0.37295152 0.30749719
0.30749719 0.37295152 0.30749719
0.37295152 0.37295152 0.30749719
0.44128219 0.37295152 0.30749719
0.51313802 0.37295152 0.30749719
0.58806078 0.37295152 0.30749719
0.66509891 0.37295152 0.30749719
0.06256172 0.44128219 0.30749719
0.15154410 0.44128219 0.30749719
0.24124221 0.44128219 0.30749719
0.30749719 0.44128219 0.30749719
0.37295152 0.44128219 0.30749719
0.44128219 0.44128219 0.30749719
0.51313802 0.44128219 0.30749719
0.58806078 0.44128219 0.30749719
0.66509891 0.44128219 0.30749719
0.06256172 0.51313802 0.30749719
0.15154410 0.51313802 0.30749719
0.24124221 0.51313802 0.30749719
0.30749719 0.51313802 0.30749719
0.37295152 0.51313802 0.30749719
0.44128219 0.51313802 0.30749719
0.51313802 0.51313802 0.30749719
0.58806078 0.51313802 0.30749719
0.66509891 0.51313802 0.30749719
0.06256172 0.58806078 0.30749719
0.15154410 0.58806078 0.30749719
0.24124221 0.58806078 0.30749719
0.30749719 0.58806078 0.30749719
0.37295152 0.58806078 0.30749719
0.44128219 0.58806078 0.30749719
0.51313802 0.58806078 0.30749719
0.58806078 0.58806078 0.30749719
0.66509891 0.58806078 0.30749719
0.06256172 0.66509891 0.30749719
0.15154410 0.66509891 0.30749719
0.24124221 0.66509891 0.30749719
0.30749719 0.66509891 0.30749719
0.37295152 0.66509891 0.30749719
0.44128219 0.66509891 0.30749719
0.51313802 0.66509891 0.30749719
0.58806078 0.66509891 0.30749719
0.66509891 0.66509891 0.30749719
0.06256172 0.06256172 0.37295152
0.15154410 0.06256172 0.37295152
0.24124221 0.06256172 0.37295152
0.30749719 0.06256172 0.37295152
0.37295152 0.06256172 0.37295152
0.44128219 0.06256172 0.37295152
0.51313802 0.06256172 0.37295152
0.58806078 0.06256172 0.37295152
0.66509891 0.06256172 0.37295152
0.06256172 0.15154410 0.37295152
0.15154410 0.15154410 0.37295152
0.24124221 0.15154410 0.37295152
0.30749719 0.15154410 0.37295152
0.37295152 0.15154410 0.37295152
0.44128219 0.15154410 0.37295152
0.51313802 0.15154410 0.37295152
0.58806078 0.15154410 0.37295152
0.66509891 0.15154410 0.37295152
0.06256172 0.24124221 0.37295152
0.15154410 0.24124221 0.37295152
0.24124221 0.24124221 0.37295152
0.30749719 0.24124221 0.37295152
0.37295152 0.24124221 0.37295152
0.44128219 0.24124221 0.37295152
0.51313802 0.24124221 0.37295152
0.58806078 0.24124221 0.37295152
0.66509891 0.24124221 0.37295152
0.06256172 0.30749719 0.37295152
0.15154410 0.30749719 0.37295152
0.24124221 0.30749719 0.37295152
0.30749719 0.30749719 0.37295152
0.37295152 0.30749719 0.37295152
0.44128219 0.30749719 0.37295152
0.51313802 0.30749719 0.37295152
0.58806078 0.30749719 0.37295152
0.66509891 0.30749719 0.37295152
0.06256172 0.37295152 0.37295152
0.15154410 0.37295152 0.37295152
0.24124221 0.37295152 0.37295152
0.30749719 0.37295152 0.37295152
0.37295152 0.37295152 0.37295152
0.44128219 0.37295152 0.37295152
0.51313802 0.37295152 0.37295152
0.58806078 0.37295152 0.37295152
0.66509891 0.37295152 0.37295152
0.06256172 0.44128219 0.37295152
0.15154410 0.44128219 0.37295152
0.24124221 0.44128219 0.37295152
0.30749719 0.44128219 0.37295152
0.37295152 0.44128219 0.37295152
0.44128219 0.44128219 0.37295152
0.51313802 0.44128219 0.37295152
0.58806078 0.44128219 0.37295152
0.66509891 0.44128219 0.37295152
0.06256172 0.51313802 0.37295152
0.15154410 0.51313802 0.37295152
0.24124221 0.51313802 0.37295152
0.30749719 0.51313802 0.37295152
0.37295152 0.51313802 0.37295152
0.44128219 0.51313802 0.37295152
0.51313802 0.51313802 0.37295152
0.58806078 0.51313802 0.37295152
0.66509891 0.51313802 0.37295152
0.06256172 0.58806078 0.37295152
0.15154410 0.58806078 0.37295152
0.24124221 0.58806078 0.37295152
0.30749719 0.58806078 0.37295152
0.37295152 0.58806078 0.37295152
0.44128219 0.58806078 0.37295152
0.51313802 0.58806078 0.37295152
0.58806078 0.58806078 0.37295152
0.66509891 0.58806078 0.37295152
0.06256172 0.66509891 0.37295152
0.15154410 0.66509891 0.37295152
0.24124221 0.66509891 0.37295152
0.30749719 0.66509891 0.37295152
0.37295152 0.66509891 0.37295152
0.44128219 0.66509891 0.37295152
0.51313802 0.66509891 0.37295152
0.58806078 0.66509891 0.37295152
0.66509891 0.66509891 0.37295152
0.06256172 0.06256172 0.44128219
0.15154410 0.06256172 0.44128219
0.24124221 0.06256172 0.44128219
0.30749719 0.06256172 0.44128219
0.37295152 0.06256172 0.44128219
0.44128219 0.06256172 0.44128219
0.51313802 0.06256172 0.44128219
0.58806078 0.06256172 0.44128219
0.66509891 0.06256172 0.44128219
0.06256172 0.15154410 0.44128219
0.15154410 0.15154410 0.44128219
0.24124221 0.15154410 0.44128219
0.30749719 0.15154410 0.44128219
0.37295152 0.15154410 0.44128219
0.44128219 0.15154410 0.44128219
0.51313802 0.15154410 0.44128219
0.58806078 0.15154410 0.44128219
0.66509891 0.15154410 0.44128219
0.06256172 0.24124221 0.44128219
0.15154410 0.24124221 0.44128219
0.24124221 0.24124221 0.44128219
0.30749719 0.24124221 0.44128219
0.37295152 0.24124221 0.44128219
0.44128219 0.24124221 0.44128219
0.51313802 0.24124221 0.44128219
0.58806078 0.24124221 0.44128219
0.66509891 0.24124221 0.44128219
0.06256172 0.30749719 0.44128219
0.15154410 0.30749719 0.44128219
0.24124221 0.30749719 0.44128219
0.30749719 0.30749719 0.44128219
0.37295152 0.30749719 0.44128219
0.44128219 0.30749719 0.44128219
0.51313802 0.30749719 0.44128219
0.58806078 0.30749719 0.44128219
0.66509891 0.30749719 0.44128219
0.06256172 0.37295152 0.44128219
0.15154410 0.37295152 0.44128219
0.24124221 0.37295152 0.44128219
0.30749719 0.37295152 0.44128219
0.37295152 0.37295152 0.44128219
0.44128219 0.37295152 0.44128219
0.51313802 0.37295152 0.44128219
0.58806078 0.37295152 0.44128219
0.66509891 0.37295152 0.44128219
0.06256172 0.44128219 0.44128219
0.15154410 0.44128219 0.44128219
0.24124221 0.44128219 0.44128219
0.30749719 0.44128219 0.44128219
0.37295152 0.44128219 0.44128219
0.44128219 0.44128219 0.44128219
0.51313802 0.44128219 0.44128219
0.58806078 0.44128219 0.44128219
0.66509891 0.44128219 0.44128219
0.06256172 0.51313802 0.44128219
0.15154410 0.51313802 0.44128219
0.24124221 0.51313802 0.44128219
0.30749719 0.51313802 0.44128219
0.37295152 0.51313802 0.44128219
0.44128219 0.51313802 0.44128219
0.51313802 0.51313802 0.44128219
0.58806078 0.51313802 0.44128219
0.66509891 0.51313802 0.44128219
0.06256172 0.58806078 0.44128219
0.15154410 0.58806078 0.44128219
0.24124221 0.58806078 0.44128219
0.30749719 0.58806078 0.44128219
0.37295152 0.58806078 0.44128219
0.44128219 0.58806078 0.44128219
0.51313802 0.58806078 0.44128219
0.58806078 0.58806078 0.44128219
0.66509891 0.58806078 0.44128219
0.06256172 0.66509891 0.44128219
0.15154410 0.66509891 0.44128219
0.24124221 0.66509891 0.44128219
0.30749719 0.66509891 0.44128219
0.37295152 0.66509891 0.44128219
0.44128219 0.66509891 0.44128219
0.51313802 0.66509891 0.44128219
0.58806078 0.66509891 0.44128219
0.66509891 0.66509891 0.44128219
0.06256172 0.06256172 0.51313802
0.15154410 0.06256172 0.51313802
0.24124221 0.06256172 0.51313802
0.30749719 0.06256172 0.51313802
0.37295152 0.06256172 0.51313802
0.44128219 0.06256172 0.51313802
0.51313802 0.06256172 0.51313802
0.58806078 0.06256172 0.51313802
0.66509891 0.06256172 0.51313802
0.06256172 0.15154410 0.51313802
0.15154410 0.15154410 0.51313802
0.24124221 0.15154410 0.51313802
0.30749719 0.15154410 0.51313802
0.37295152 0.15154410 0.51313802
0.44128219 0.15154410 0.51313802
0.51313802 0.15154410 0.51313802
0.58806078 0.15154410 0.51313802
0.66509891 0.15154410 0.51313802
0.06256172 0.24124221 0.51313802
0.15154410 0.24124221 0.51313802
0.24124221 0.24124221 0.51313802
0.30749719 0.24124221 0.51313802
0.37295152 0.24124221 0.51313802
0.44128219 0.24124221 0.51313802
0.51313802 0.24124221 0.51313802
0.58806078 0.24124221 0.51313802
0.66509891 0.24124221 0.51313802
0.06256172 0.30749719 0.51313802
0.15154410 0.30749719 0.51313802
0.24124221 0.30749719 0.51313802
0.30749719 0.30749719 0.51313802
0.37295152 0.30749719 0.51313802
0.44128219 0.30749719 0.51313802
0.51313802 0.30749719 0.51313802
0.58806078 0.30749719 0.51313802
0.66509891 0.30749719 0.51313802
0.06256172 0.37295152 0.51313802
0.15154410 0.37295152 0.51313802
0.24124221 0.37295152 0.51313802
0.30749719 0.37295152 0.51313802
0.37295152 0.37295152 0.51313802
0.44128219 0.37295152 0.51313802
0.51313802 0.37295152 0.51313802
0.58806078 0.37295152 0.51313802
0.66509891 0.37295152 0.51313802
0.06256172 0.44128219 0.51313802
0.15154410 0.44128219 0.51313802
0.24124221 0.44128219 0.51313802
0.30749719 0.44128219 0.51313802
0.37295152 0.44128219 0.51313802
0.44128219 0.44128219 0.51313802
0.51313802 0.44128219 0.51313802
0.58806078 0.44128219 0.51313802
0.66509891 0.44128219 0.51313802
0.06256172 0.51313802 0.51313802
0.15154410 0.51313802 0.51313802
0.24124221 0.51313802 0.51313802
0.30749719 0.51313802 0.51313802
0.37295152 0.51313802 0.51313802
0.44128219 0.51313802 0.51313802
0.51313802 0.51313802 0.51313802
0.58806078 0.51313802 0.51313802
0.66509891 0.51313802 0.51313802
0.06256172 0.58806078 0.51313802
0.15154410 0.58806078 0.51313802
0.24124221 0.58806078 0.51313802
0.30749719 0.58806078 0.51313802
0.37295152 0.58806078 0.51313802
0.44128219 0.58806078 0.51313802
0.51313802 0.58806078 0.51313802
0.58806078 0.58806078 0.51313802
0.66509891 0.58806078 0.51313802
0.06256172 0.66509891 0.51313802
0.15154410 0.66509891 0.51313802
0.24124221 0.66509891 0.51313802
0.30749719 0.66509891 0.51313802
0.37295152 0.66509891 0.51313802
0.44128219 0.66509891 0.51313802
0.51313802 0.66509891 0.51313802
0.58806078 0.66509891 0.51313802
0.66509891 0.66509891 0.51313802
0.06256172 0.06256172 0.58806078
0.15154410 0.06256172 0.58806078
0.24124221 0.06256172 0.58806078
0.30749719 0.06256172 0.58806078
0.37295152 0.06256172 0.58806078
0.44128219 0.06256172 0.58806078
0.51313802 0.06256172 0.58806078
0.58806078 0.06256172 0.58806078
0.66509891 0.06256172 0.58806078
0.06256172 0.15154410 0.58806078
0.15154410 0.15154410 0.58806078
0.24124221 0.15154410 0.58806078
0.30749719 0.15154410 0.58806078
0.37295152 0.15154410 0.58806078
0.44128219 0.15154410 0.58806078
0.51313802 0.15154410 0.58806078
0.58806078 0.15154410 0.58806078
0.66509891 0.15154410 0.58806078
0.06256172 0.24124221 0.58806078
0.15154410 0.24124221 0.58806078
0.24124221 0.24124221 0.58806078
0.30749719 0.24124221 0.58806078
0.37295152 0.24124221 0.58806078
0.44128219 0.24124221 0.58806078
0.51313802 0.24124221 0.58806078
0.58806078 0.24124221 0.58806078
0.66509891 0.24124221 0.58806078
0.06256172 0.30749719 0.58806078
0.15154410 0.30749719 0.58806078
0.24124221 0.30749719 0.58806078
0.30749719 0.30749719 0.58806078
0.37295152 0.30749719 0.58806078
0.44128219 0.30749719 0.58806078
0.51313802 0.30749719 0.58806078
0.58806078 0.30749719 0.58806078
0.66509891 0.30749719 0.58806078
0.06256172 0.37295152 0.58806078
0.15154410 0.37295152 0.58806078
0.24124221 0.37295152 0.58806078
0.30749719 0.37295152 0.58806078
0.37295152 0.37295152 0.58806078
0.44128219 0.37295152 0.58806078
0.51313802 0.37295152 0.58806078
0.58806078 0.37295152 0.58806078
0.66509891 0.37295152 0.58806078
0.06256172 0.44128219 0.58806078
0.15154410 0.44128219 0.58806078
0.24124221 0.44128219 0.58806078
0.30749719 0.44128219 0.58806078
0.37295152 0.44128219 0.58806078
0.44128219 0.44128219 0.58806078
0.51313802 0.44128219 0.58806078
0.58806078 0.44128219 0.58806078
0.66509891 0.44128219 0.58806078
0.06256172 0.51313802 0.58806078
0.15154410 0.51313802 0.58806078
0.24124221 0.51313802 0.58806078
0.30749719 0.51313802 0.58806078
0.37295152 0.51313802 0.58806078
0.44128219 0.51313802 0.58806078
0.51313802 0.51313802 0.58806078
0.58806078 0.51313802 0.58806078
0.66509891 0.51313802 0.58806078
0.06256172 0.58806078 0.58806078
0.15154410 0.58806078 0.58806078
0.24124221 0.58806078 0.58806078
0.30749719 0.58806078 0.58806078
0.37295152 0.58806078 0.58806078
0.44128219 0.58806078 0.58806078
0.51313802 0.58806078 0.58806078
0.58806078 0.58806078 0.58806078
0.66509891 0.58806078 0.58806078
0.06256172 0.66509891 0.58806078
0.15154410 0.66509891 0.58806078
0.24124221 0.66509891 0.58806078
0.30749719 0.66509891 0.58806078
0.37295152 0.66509891 0.58806078
0.44128219 0.66509891 0.58806078
0.51313802 0.66509891 0.58806078
0.58806078 0.66509891 0.58806078
0.66509891 0.66509891 0.58806078
0.06256172 0.06256172 0.66509891
0.15154410 0.06256172 0.66509891
0.24124221 0.06256172 0.66509891
0.30749719 0.06256172 0.66509891
0.37295152 0.06256172 0.66509891
0.44128219 0.06256172 0.66509891
0.51313802 0.06256172 0.66509891
0.58806078 0.06256172 0.66509891
0.66509891 0.06256172 0.66509891
0.06256172 0.15154410 0.66509891
0.15154410 0.15154410 0.66509891
0.24124221 0.15154410 0.66509891
0.30749719 0.15154410 0.66509891
0.37295152 0.15154410 0.66509891
0.44128219 0.15154410 0.66509891
0.51313802 0.15154410 0.66509891
0.58806078 0.15154410 0.66509891
0.66509891 0.15154410 0.66509891
0.06256172 0.24124221 0.66509891
0.15154410 0.24124221 0.66509891
0.24124221 0.24124221 0.66509891
0.30749719 0.24124221 0.66509891
0.37295152 0.24124221 0.66509891
0.44128219 0.24124221 0.66509891
0.51313802 0.24124221 0.66509891
0.58806078 0.24124221 0.66509891
0.66509891 0.24124221 0.66509891
0.06256172 0.30749719 0.66509891
0.15154410 0.30749719 0.66509891
0.24124221 0.30749719 0.66509891
0.30749719 0.30749719 0.66509891
0.37295152 0.30749719 0.66509891
0.44128219 0.30749719 0.66509891
0.51313802 0.30749719 0.66509891
0.58806078 0.30749719 0.66509891
0.66509891 0.30749719 0.66509891
0.06256172 0.37295152 0.66509891
0.15154410 0.37295152 0.66509891
0.24124221 0.37295152 0.66509891
0.30749719 0.37295152 0.66509891
0.37295152 0.37295152 0.66509891
0.44128219 0.37295152 0.66509891
0.51313802 0.37295152 0.66509891
0.58806078 0.37295152 0.66509891
0.66509891 0.37295152 0.66509891
0.06256172 0.44128219 0.66509891
0.15154410 0.44128219 0.66509891
0.24124221 0.44128219 0.66509891
0.30749719 0.44128219 0.66509891
0.37295152 0.44128219 0.66509891
0.44128219 0.44128219 0.66509891
0.51313802 0.44128219 0.66509891
0.58806078 0.44128219 0.66509891
0.66509891 0.44128219 0.66509891
0.06256172 0.51313802 0.66509891
0.15154410 0.51313802 0.66509891
0.24124221 0.51313802 0.66509891
0.30749719 0.51313802 0.66509891
0.37295152 0.51313802 0.66509891
0.44128219 0.51313802 0.66509891
0.51313802 0.51313802 0.66509891
0.58806078 0.51313802 0.66509891
0.66509891 0.51313802 0.66509891
0.06256172 0.58806078 0.66509891
0.15154410 0.58806078 0.66509891
0.24124221 0.58806078 0.66509891
0.30749719 0.58806078 0.66509891
0.37295152 0.58806078 0.66509891
0.44128219 0.58806078 0.66509891
0.51313802 0.58806078 0.66509891
0.58806078 0.58806078 0.66509891
0.66509891 0.58806078 0.66509891
0.06256172 0.66509891 0.66509891
0.15154410 0.66509891 0.66509891
0.24124221 0.66509891 0.66509891
0.30749719 0.66509891 0.66509891
0.37295152 0.66509891 0.66509891
0.44128219 0.66509891 0.66509891
0.51313802 0.66509891 0.66509891
0.58806078 0.66509891 0.66509891
0.66509891 0.66509891 0.66509891
