src/ffmpeg_scripts/luts/flog-smpte2084_-1p67.cube
TITLE "flog-smpte2084_-1p67"
LUT_3D_SIZE 5
# Fujifilm F-Log/Rec2020 -> PQ (EOTF Only)/Rec2020, CineEI Shift -1.67, Black Level 0.00% IRE, Input 109% -> Output 109% - Created with LUTCalc v4.01 by Ben Turley October 2020
0.06256172 0.06256172 0.06256172
0.19544844 0.06256172 0.06256172
0.30798770 0.06256172 0.06256172
0.43537936 0.06256172 0.06256172
0.58026493 0.06256172 0.06256172
0.06256172 0.19544844 0.06256172
0.19544844 0.19544844 0.06256172
0.30798770 0.19544844 0.06256172
0.43537936 0.19544844 0.06256172
0.58026493 0.19544844 0.06256172
0.06256172 0.30798770 0.06256172
0.19544844 0.30798770 0.06256172
0.30798770 0.30798770 0.06256172
0.43537936 0.30798770 0.06256172
0.58026493 0.30798770 0.06256172
0.06256172 0.43537936 0.06256172
0.19544844 0.43537936 0.06256172
0.30798770 0.43537936 0.06256172
0.43537936 0.43537936 0.06256172
0.58026493 0.43537936 0.06256172
0.06256172 0.58026493 0.06256172
0.19544844 0.58026493 0.06256172
0.30798770 0.58026493 0.06256172
0.43537936 0.58026493 0.06256172
0.58026493 0.58026493 0.06256172
0.06256172 0.06256172 0.19544844
0.19544844 0.06256172 0.19544844
0.30798770 0.06256172 0.19544844
0.43537936 0.06256172 0.19544844
0.58026493 0.06256172 0.19544844
0.06256172 0.19544844 0.19544844
0.19544844 0.19544844 0.19544844
0.30798770 0.19544844 0.19544844
0.43537936 0.19544844 0.19544844
0.58026493 0.19544844 0.19544844
0.06256172 0.30798770 0.19544844
0.19544844 0.30798770 0.19544844
0.30798770 0.30798770 0.19544844
0.43537936 0.30798770 0.19544844
0.58026493 0.30798770 0.19544844
0.06256172 0.43537936 0.19544844
0.19544844 0.43537936 0.19544844
0.30798770 0.43537936 0.19544844
0.43537936 0.43537936 0.19544844
0.58026493 0.43537936 0.19544844
0.06256172 0.58026493 0.19544844
0.19544844 0.58026493 0.19544844
0.30798770 0.58026493 0.19544844
0.43537936 0.58026493 0.19544844
0.58026493 0.58026493 0.19544844
0.06256172 0.06256172 0.30798770
0.19544844 0.06256172 0.30798770
0.30798770 0.06256172 0.30798770
0.43537936 0.06256172 0.30798770
0.58026493 0.06256172 0.30798770
0.06256172 0.19544844 0.30798770
0.19544844 0.19544844 0.30798770
0.30798770 0.19544844 0.30798770
0.43537936 0.19544844 0.30798770
0.58026493 0.19544844 0.30798770
0.06256172 0.30798770 0.30798770
0.19544844 0.30798770 0.30798770
0.30798770 0.30798770 0.30798770
0.43537936 0.30798770 0.30798770
0.58026493 0.30798770 0.30798770
0.06256172 0.43537936 0.30798770
0.19544844 0.43537936 0.30798770
0.30798770 0.43537936 0.30798770
0.43537936 0.43537936 0.30798770
0.58026493 0.43537936 0.30798770
0.06256172 0.58026493 0.30798770
0.19544844 0.58026493 0.30798770
0.30798770 0.58026493 0.30798770
0.43537936 0.58026493 0.30798770
0.58026493 0.58026493 0.30798770
0.06256172 0.06256172 0.43537936
0.19544844 0.06256172 0.43537936
0.30798770 0.06256172 0.43537936
0.43537936 0.06256172 0.43537936
0.58026493 0.06256172 0.43537936
0.06256172 0.19544844 0.43537936
0.19544844 0.19544844 0.43537936
0.30798770 0.19544844 0.43537936
0.43537936 0.19544844 0.43537936
0.58026493 0.19544844 0.43537936
0.06256172 0.30798770 0.43537936
0.19544844 0.30798770 0.43537936
0.30798770 0.30798770 0.43537936
0.43537936 0.30798770 0.43537936
0.58026493 0.30798770 0.43537936
0.06256172 0.43537936 0.43537936
0.19544844 0.43537936 0.43537936
0.30798770 0.43537936 0.43537936
0.43537936 0.43537936 0.43537936
0.58026493 0.43537936 0.43537936
0.06256172 0.58026493 0.43537936
0.19544844 0.58026493 0.43537936
0.30798770 0.58026493 0.43537936
0.43537936 0.58026493 0.43537936
0.58026493 0.58026493 0.43537936
0.06256172 0.06256172 0.58026493
0.19544844 0.06256172 0.58026493
0.30798770 0.06256172 0.58026493
0.43537936 0.06256172 0.58026493
0.58026493 0.06256172 0.58026493
0.06256172 0.19544844 0.58026493
0.19544844 0.19544844 0.58026493
0.30798770 0.19544844 0.58026493
0.43537936 0.19544844 0.58026493
0.58026493 0.19544844 0.58026493
0.06256172 0.30798770 0.58026493
0.19544844 0.30798770 0.58026493
0.30798770 0.30798770 0.58026493
0.43537936 0.30798770 0.58026493
0.58026493 0.30798770 0.58026493
0.06256172 0.43537936 0.58026493
0.19544844 0.43537936 0.58026493
0.30798770 0.43537936 0.58026493
0.43537936 0.43537936 0.58026493
0.58026493 0.43537936 0.58026493
0.06256172 0.58026493 0.58026493
0.19544844 0.58026493 0.58026493
0.30798770 0.58026493 0.58026493
0.43537936 0.58026493 0.58026493
0.58026493 0.58026493 0.58026493
