src/ffmpeg_scripts/luts/flog-smpte2084_-3p67.cube
TITLE "flog-smpte2084_-3p67"
LUT_3D_SIZE 9
# Fujifilm F-Log/Rec2020 -> PQ (EOTF Only)/Rec2020, CineEI Shift -3.67, Black Level 0.00% IRE, Input 109% -> Output 109% - Created with LUTCalc v4.01 by Ben Turley October 2020
0.06256172 0.06256172 0.06256172
0.09643177 0.06256172 0.06256172
0.14311819 0.06256172 0.06256172
0.18312701 0.06256172 0.06256172
0.22654461 0.06256172 0.06256172
0.27558389 0.06256172 0.06256172
0.33091416 0.06256172 0.06256172
0.39242900 0.06256172 0.06256172
0.45950695 0.06256172 0.06256172
0.06256172 0.09643177 0.06256172
0.09643177 0.09643177 0.06256172
0.14311819 0.09643177 0.06256172
0.18312701 0.09643177 0.06256172
0.22654461 0.09643177 0.06256172
0.27558389 0.09643177 0.06256172
0.33091416 0.09643177 0.06256172
0.39242900 0.09643177 0.06256172
0.45950695 0.09643177 0.06256172
0.06256172 0.14311819 0.06256172
0.09643177 0.14311819 0.06256172
0.14311819 0.14311819 0.06256172
0.18312701 0.14311819 0.06256172
0.22654461 0.14311819 0.06256172
0.27558389 0.14311819 0.06256172
0.33091416 0.14311819 0.06256172
0.39242900 0.14311819 0.06256172
0.45950695 0.14311819 0.06256172
0.06256172 0.18312701 0.06256172
0.09643177 0.18312701 0.06256172
0.14311819 0.18312701 0.06256172
0.18312701 0.18312701 0.06256172
0.22654461 0.18312701 0.06256172
0.27558389 0.18312701 0.06256172
0.33091416 0.18312701 0.06256172
0.39242900 0.18312701 0.06256172
0.45950695 0.18312701 0.06256172
0.06256172 0.22654461 0.06256172
0.09643177 0.22654461 0.06256172
0.14311819 0.22654461 0.06256172
0.18312701 0.22654461 0.06256172
0.22654461 0.22654461 0.06256172
0.27558389 0.22654461 0.06256172
0.33091416 0.22654461 0.06256172
0.39242900 0.22654461 0.06256172
0.45950695 0.22654461 0.06256172
0.06256172 0.27558389 0.06256172
0.09643177 0.27558389 0.06256172
0.14311819 0.27558389 0.06256172
0.18312701 0.27558389 0.06256172
0.22654461 0.27558389 0.06256172
0.27558389 0.27558389 0.06256172
0.33091416 0.27558389 0.06256172
0.39242900 0.27558389 0.06256172
0.45950695 0.27558389 0.06256172
0.06256172 0.33091416 0.06256172
0.09643177 0.33091416 0.06256172
0.14311819 0.33091416 0.06256172
0.18312701 0.33091416 0.06256172
0.22654461 0.33091416 0.06256172
0.27558389 0.33091416 0.06256172
0.33091416 0.33091416 0.06256172
0.39242900 0.33091416 0.06256172
0.45950695 0.33091416 0.06256172
0.06256172 0.39242900 0.06256172
0.09643177 0.39242900 0.06256172
0.14311819 0.39242900 0.06256172
0.18312701 0.39242900 0.06256172
0.22654461 0.39242900 0.06256172
0.27558389 0.39242900 0.06256172
0.33091416 0.39242900 0.06256172
0.39242900 0.39242900 0.06256172
0.45950695 0.39242900 0.06256172
0.06256172 0.45950695 0.06256172
0.09643177 0.45950695 0.06256172
0.14311819 0.45950695 0.06256172
0.18312701 0.45950695 0.06256172
0.22654461 0.45950695 0.06256172
0.27558389 0.45950695 0.06256172
0.33091416 0.45950695 0.06256172
0.39242900 0.45950695 0.06256172
0.45950695 0.45950695 0.06256172
0.06256172 0.06256172 0.09643177
0.09643177 0.06256172 0.09643177
0.14311819 0.06256172 0.09643177
0.18312701 0.06256172 0.09643177
0.22654461 0.06256172 0.09643177
0.27558389 0.06256172 0.09643177
0.33091416 0.06256172 0.09643177
0.39242900 0.06256172 0.09643177
0.45950695 0.06256172 0.09643177
0.06256172 0.09643177 0.09643177
0.09643177 0.09643177 0.09643177
0.14311819 0.09643177 0.09643177
0.18312701 0.09643177 0.09643177
0.22654461 0.09643177 0.09643177
0.27558389 0.09643177 0.09643177
0.33091416 0.09643177 0.09643177
0.39242900 0.09643177 0.09643177
0.45950695 0.09643177 0.09643177
0.06256172 0.14311819 0.09643177
0.09643177 0.14311819 0.09643177
0.14311819 0.14311819 0.09643177
0.18312701 0.14311819 0.09643177
0.22654461 0.14311819 0.09643177
0.27558389 0.14311819 0.09643177
0.33091416 0.14311819 0.09643177
0.39242900 0.14311819 0.09643177
0.45950695 0.14311819 0.09643177
0.06256172 0.18312701 0.09643177
0.09643177 0.18312701 0.09643177
0.14311819 0.18312701 0.09643177
0.18312701 0.18312701 0.09643177
0.22654461 0.18312701 0.09643177
0.27558389 0.18312701 0.09643177
0.33091416 0.18312701 0.09643177
0.39242900 0.18312701 0.09643177
0.45950695 0.18312701 0.09643177
0.06256172 0.22654461 0.09643177
0.09643177 0.22654461 0.09643177
0.14311819 0.22654461 0.09643177
0.18312701 0.22654461 0.09643177
0.22654461 0.22654461 0.09643177
0.27558389 0.22654461 0.09643177
0.33091416 0.22654461 0.09643177
0.39242900 0.22654461 0.09643177
0.45950695 0.22654461 0.09643177
0.06256172 0.27558389 0.09643177
0.09643177 0.27558389 0.09643177
0.14311819 0.27558389 0.09643177
0.18312701 0.27558389 0.09643177
0.22654461 0.27558389 0.09643177
0.27558389 0.27558389 0.09643177
0.33091416 0.27558389 0.09643177
0.39242900 0.27558389 0.09643177
0.45950695 0.27558389 0.09643177
0.06256172 0.33091416 0.09643177
0.09643177 0.33091416 0.09643177
0.14311819 0.33091416 0.09643177
0.18312701 0.33091416 0.09643177
0.22654461 0.33091416 0.09643177
0.27558389 0.33091416 0.09643177
0.33091416 0.33091416 0.09643177
0.39242900 0.33091416 0.09643177
0.45950695 0.33091416 0.09643177
0.06256172 0.39242900 0.09643177
0.09643177 0.39242900 0.09643177
0.14311819 0.39242900 0.09643177
0.18312701 0.39242900 0.09643177
0.22654461 0.39242900 0.09643177
0.27558389 0.39242900 0.09643177
0.33091416 0.39242900 0.09643177
0.39242900 0.39242900 0.09643177
0.45950695 0.39242900 0.09643177
0.06256172 0.45950695 0.09643177
0.09643177 0.45950695 0.09643177
0.14311819 0.45950695 0.09643177
0.18312701 0.45950695 0.09643177
0.22654461 0.45950695 0.09643177
0.27558389 0.45950695 0.09643177
0.33091416 0.45950695 0.09643177
0.39242900 0.45950695 0.09643177
0.45950695 0.45950695 0.09643177
0.06256172 0.06256172 0.14311819
0.09643177 0.06256172 0.14311819
0.14311819 0.06256172 0.14311819
0.18312701 0.06256172 0.14311819
0.22654461 0.06256172 0.14311819
0.27558389 0.06256172 0.14311819
0.33091416 0.06256172 0.14311819
0.39242900 0.06256172 0.14311819
0.45950695 0.06256172 0.14311819
0.06256172 0.09643177 0.14311819
0.09643177 0.09643177 0.14311819
0.14311819 0.09643177 0.14311819
0.18312701 0.09643177 0.14311819
0.22654461 0.09643177 0.14311819
0.27558389 0.09643177 0.14311819
0.33091416 0.09643177 0.14311819
0.39242900 0.09643177 0.14311819
0.45950695 0.09643177 0.14311819
0.06256172 0.14311819 0.14311819
0.09643177 0.14311819 0.14311819
0.14311819 0.14311819 0.14311819
0.18312701 0.14311819 0.14311819
0.22654461 0.14311819 0.14311819
0.27558389 0.14311819 0.14311819
0.33091416 0.14311819 0.14311819
0.39242900 0.14311819 0.14311819
0.45950695 0.14311819 0.14311819
0.06256172 0.18312701 0.14311819
0.09643177 0.18312701 0.14311819
0.14311819 0.18312701 0.14311819
0.18312701 0.18312701 0.14311819
0.22654461 0.18312701 0.14311819
0.27558389 0.18312701 0.14311819
0.33091416 0.18312701 0.14311819
0.39242900 0.18312701 0.14311819
0.45950695 0.18312701 0.14311819
0.06256172 0.22654461 0.14311819
0.09643177 0.22654461 0.14311819
0.14311819 0.22654461 0.14311819
0.18312701 0.22654461 0.14311819
0.22654461 0.22654461 0.14311819
0.27558389 0.22654461 0.14311819
0.33091416 0.22654461 0.14311819
0.39242900 0.22654461 0.14311819
0.45950695 0.22654461 0.14311819
0.06256172 0.27558389 0.14311819
0.09643177 0.27558389 0.14311819
0.14311819 0.27558389 0.14311819
0.18312701 0.27558389 0.14311819
0.22654461 0.27558389 0.14311819
0.27558389 0.27558389 0.14311819
0.33091416 0.27558389 0.14311819
0.39242900 0.27558389 0.14311819
0.45950695 0.27558389 0.14311819
0.06256172 0.33091416 0.14311819
0.09643177 0.33091416 0.14311819
0.14311819 0.33091416 0.14311819
0.18312701 0.33091416 0.14311819
0.22654461 0.33091416 0.14311819
0.27558389 0.33091416 0.14311819
0.33091416 0.33091416 0.14311819
0.39242900 0.33091416 0.14311819
0.45950695 0.33091416 0.14311819
0.06256172 0.39242900 0.14311819
0.09643177 0.39242900 0.14311819
0.14311819 0.39242900 0.14311819
0.18312701 0.39242900 0.14311819
0.22654461 0.39242900 0.14311819
0.27558389 0.39242900 0.14311819
0.33091416 0.39242900 0.14311819
0.39242900 0.39242900 0.14311819
0.45950695 0.39242900 0.14311819
0.06256172 0.45950695 0.14311819
0.09643177 0.45950695 0.14311819
0.14311819 0.45950695 0.14311819
0.18312701 0.45950695 0.14311819
0.22654461 0.45950695 0.14311819
0.27558389 0.45950695 0.14311819
0.33091416 0.45950695 0.14311819
0.39242900 0.45950695 0.14311819
0.45950695 0.45950695 0.14311819
0.06256172 0.06256172 0.18312701
0.09643177 0.06256172 0.18312701
0.14311819 0.06256172 0.18312701
0.18312701 0.06256172 0.18312701
0.22654461 0.06256172 0.18312701
0.27558389 0.06256172 0.18312701
0.33091416 0.06256172 0.18312701
0.39242900 0.06256172 0.18312701
0.45950695 0.06256172 0.18312701
0.06256172 0.09643177 0.18312701
0.09643177 0.09643177 0.18312701
0.14311819 0.09643177 0.18312701
0.18312701 0.09643177 0.18312701
0.22654461 0.09643177 0.18312701
0.27558389 0.09643177 0.18312701
0.33091416 0.09643177 0.18312701
0.39242900 0.09643177 0.18312701
0.45950695 0.09643177 0.18312701
0.06256172 0.14311819 0.18312701
0.09643177 0.14311819 0.18312701
0.14311819 0.14311819 0.18312701
0.18312701 0.14311819 0.18312701
0.22654461 0.14311819 0.18312701
0.27558389 0.14311819 0.18312701
0.33091416 0.14311819 0.18312701
0.39242900 0.14311819 0.18312701
0.45950695 0.14311819 0.18312701
0.06256172 0.18312701 0.18312701
0.09643177 0.18312701 0.18312701
0.14311819 0.18312701 0.18312701
0.18312701 0.18312701 0.18312701
0.22654461 0.18312701 0.18312701
0.27558389 0.18312701 0.18312701
0.33091416 0.18312701 0.18312701
0.39242900 0.18312701 0.18312701
0.45950695 0.18312701 0.18312701
0.06256172 0.22654461 0.18312701
0.09643177 0.22654461 0.18312701
0.14311819 0.22654461 0.18312701
0.18312701 0.22654461 0.18312701
0.22654461 0.22654461 0.18312701
0.27558389 0.22654461 0.18312701
0.33091416 0.22654461 0.18312701
0.39242900 0.22654461 0.18312701
0.45950695 0.22654461 0.18312701
0.06256172 0.27558389 0.18312701
0.09643177 0.27558389 0.18312701
0.14311819 0.27558389 0.18312701
0.18312701 0.27558389 0.18312701
0.22654461 0.27558389 0.18312701
0.27558389 0.27558389 0.18312701
0.33091416 0.27558389 0.18312701
0.39242900 0.27558389 0.18312701
0.45950695 0.27558389 0.18312701
0.06256172 0.33091416 0.18312701
0.09643177 0.33091416 0.18312701
0.14311819 0.33091416 0.18312701
0.18312701 0.33091416 0.18312701
0.22654461 0.33091416 0.18312701
0.27558389 0.33091416 0.18312701
0.33091416 0.33091416 0.18312701
0.39242900 0.33091416 0.18312701
0.45950695 0.33091416 0.18312701
0.06256172 0.39242900 0.18312701
0.09643177 0.39242900 0.18312701
0.14311819 0.39242900 0.18312701
0.18312701 0.39242900 0.18312701
0.22654461 0.39242900 0.18312701
0.27558389 0.39242900 0.18312701
0.33091416 0.39242900 0.18312701
0.39242900 0.39242900 0.18312701
0.45950695 0.39242900 0.18312701
0.06256172 0.45950695 0.18312701
0.09643177 0.45950695 0.18312701
0.14311819 0.45950695 0.18312701
0.18312701 0.45950695 0.18312701
0.22654461 0.45950695 0.18312701
0.27558389 0.45950695 0.18312701
0.33091416 0.45950695 0.18312701
0.39242900 0.45950695 0.18312701
0.45950695 0.45950695 0.18312701
0.06256172 0.06256172 0.22654461
0.09643177 0.06256172 0.22654461
0.14311819 0.06256172 0.22654461
0.18312701 0.06256172 0.22654461
0.22654461 0.06256172 0.22654461
0.27558389 0.06256172 0.22654461
0.33091416 0.06256172 0.22654461
0.39242900 0.06256172 0.22654461
0.45950695 0.06256172 0.22654461
0.06256172 0.09643177 0.22654461
0.09643177 0.09643177 0.22654461
0.14311819 0.09643177 0.22654461
0.18312701 0.09643177 0.22654461
0.22654461 0.09643177 0.22654461
0.27558389 0.09643177 0.22654461
0.33091416 0.09643177 0.22654461
0.39242900 0.09643177 0.22654461
0.45950695 0.09643177 0.22654461
0.06256172 0.14311819 0.22654461
0.09643177 0.14311819 0.22654461
0.14311819 0.14311819 0.22654461
0.18312701 0.14311819 0.22654461
0.22654461 0.14311819 0.22654461
0.27558389 0.14311819 0.22654461
0.33091416 0.14311819 0.22654461
0.39242900 0.14311819 0.22654461
0.45950695 0.14311819 0.22654461
0.06256172 0.18312701 0.22654461
0.09643177 0.18312701 0.22654461
0.14311819 0.18312701 0.22654461
0.18312701 0.18312701 0.22654461
0.22654461 0.18312701 0.22654461
0.27558389 0.18312701 0.22654461
0.33091416 0.18312701 0.22654461
0.39242900 0.18312701 0.22654461
0.45950695 0.18312701 0.22654461
0.06256172 0.22654461 0.22654461
0.09643177 0.22654461 0.22654461
0.14311819 0.22654461 0.22654461
0.18312701 0.22654461 0.22654461
0.22654461 0.22654461 0.22654461
0.27558389 0.22654461 0.22654461
0.33091416 0.22654461 0.22654461
0.39242900 0.22654461 0.22654461
0.45950695 0.22654461 0.22654461
0.06256172 0.27558389 0.22654461
0.09643177 0.27558389 0.22654461
0.14311819 0.27558389 0.22654461
0.18312701 0.27558389 0.22654461
0.22654461 0.27558389 0.22654461
0.27558389 0.27558389 0.22654461
0.33091416 0.27558389 0.22654461
0.39242900 0.27558389 0.22654461
0.45950695 0.27558389 0.22654461
0.06256172 0.33091416 0.22654461
0.09643177 0.33091416 0.22654461
0.14311819 0.33091416 0.22654461
0.18312701 0.33091416 0.22654461
0.22654461 0.33091416 0.22654461
0.27558389 0.33091416 0.22654461
0.33091416 0.33091416 0.22654461
0.39242900 0.33091416 0.22654461
0.45950695 0.33091416 0.22654461
0.06256172 0.39242900 0.22654461
0.09643177 0.39242900 0.22654461
0.14311819 0.39242900 0.22654461
0.18312701 0.39242900 0.22654461
0.22654461 0.39242900 0.22654461
0.27558389 0.39242900 0.22654461
0.33091416 0.39242900 0.22654461
0.39242900 0.39242900 0.22654461
0.45950695 0.39242900 0.22654461
0.06256172 0.45950695 0.22654461
0.09643177 0.45950695 0.22654461
0.14311819 0.45950695 0.22654461
0.18312701 0.45950695 0.22654461
0.22654461 0.45950695 0.22654461
0.27558389 0.45950695 0.22654461
0.33091416 0.45950695 0.22654461
0.39242900 0.45950695 0.22654461
0.45950695 0.45950695 0.22654461
0.06256172 0.06256172 0.27558389
0.09643177 0.06256172 0.27558389
0.14311819 0.06256172 0.27558389
0.18312701 0.06256172 0.27558389
0.22654461 0.06256172 0.27558389
0.27558389 0.06256172 0.27558389
0.33091416 0.06256172 0.27558389
0.39242900 0.06256172 0.27558389
0.45950695 0.06256172 0.27558389
0.06256172 0.09643177 0.27558389
0.09643177 0.09643177 0.27558389
0.14311819 0.09643177 0.27558389
0.18312701 0.09643177 0.27558389
0.22654461 0.09643177 0.27558389
0.27558389 0.09643177 0.27558389
0.33091416 0.09643177 0.27558389
0.39242900 0.09643177 0.27558389
0.45950695 0.09643177 0.27558389
0.06256172 0.14311819 0.27558389
0.09643177 0.14311819 0.27558389
0.14311819 0.14311819 0.27558389
0.18312701 0.14311819 0.27558389
0.22654461 0.14311819 0.27558389
0.27558389 0.14311819 0.27558389
0.33091416 0.14311819 0.27558389
0.39242900 0.14311819 0.27558389
0.45950695 0.14311819 0.27558389
0.06256172 0.18312701 0.27558389
0.09643177 0.18312701 0.27558389
0.14311819 0.18312701 0.27558389
0.18312701 0.18312701 0.27558389
0.22654461 0.18312701 0.27558389
0.27558389 0.18312701 0.27558389
0.33091416 0.18312701 0.27558389
0.39242900 0.18312701 0.27558389
0.45950695 0.18312701 0.27558389
0.06256172 0.22654461 0.27558389
0.09643177 0.22654461 0.27558389
0.14311819 0.22654461 0.27558389
0.18312701 0.22654461 0.27558389
0.22654461 0.22654461 0.27558389
0.27558389 0.22654461 0.27558389
0.33091416 0.22654461 0.27558389
0.39242900 0.22654461 0.27558389
0.45950695 0.22654461 0.27558389
0.06256172 0.27558389 0.27558389
0.09643177 0.27558389 0.27558389
0.14311819 0.27558389 0.27558389
0.18312701 0.27558389 0.27558389
0.22654461 0.27558389 0.27558389
0.27558389 0.27558389 0.27558389
0.33091416 0.27558389 0.27558389
0.39242900 0.27558389 0.27558389
0.45950695 0.27558389 0.27558389
0.06256172 0.33091416 0.27558389
0.09643177 0.33091416 0.27558389
0.14311819 0.33091416 0.27558389
0.18312701 0.33091416 0.27558389
0.22654461 0.33091416 0.27558389
0.27558389 0.33091416 0.27558389
0.33091416 0.33091416 0.27558389
0.39242900 0.33091416 0.27558389
0.45950695 0.33091416 0.27558389
0.06256172 0.39242900 0.27558389
0.09643177 0.39242900 0.27558389
0.14311819 0.39242900 0.27558389
0.18312701 0.39242900 0.27558389
0.22654461 0.39242900 0.27558389
0.27558389 0.39242900 0.27558389
0.33091416 0.39242900 0.27558389
0.39242900 0.39242900 0.27558389
0.45950695 0.39242900 0.27558389
0.06256172 0.45950695 0.27558389
0.09643177 0.45950695 0.27558389
0.14311819 0.45950695 0.27558389
0.18312701 0.45950695 0.27558389
0.22654461 0.45950695 0.27558389
0.27558389 0.45950695 0.27558389
0.33091416 0.45950695 0.27558389
0.39242900 0.45950695 0.27558389
0.45950695 0.45950695 0.27558389
0.06256172 0.06256172 0.33091416
0.09643177 0.06256172 0.33091416
0.14311819 0.06256172 0.33091416
0.18312701 0.06256172 0.33091416
0.22654461 0.06256172 0.33091416
0.27558389 0.06256172 0.33091416
0.33091416 0.06256172 0.33091416
0.39242900 0.06256172 0.33091416
0.45950695 0.06256172 0.33091416
0.06256172 0.09643177 0.33091416
0.09643177 0.09643177 0.33091416
0.14311819 0.09643177 0.33091416
0.18312701 0.09643177 0.33091416
0.22654461 0.09643177 0.33091416
0.27558389 0.09643177 0.33091416
0.33091416 0.09643177 0.33091416
0.39242900 0.09643177 0.33091416
0.45950695 0.09643177 0.33091416
0.06256172 0.14311819 0.33091416
0.09643177 0.14311819 0.33091416
0.14311819 0.14311819 0.33091416
0.18312701 0.14311819 0.33091416
0.22654461 0.14311819 0.33091416
0.27558389 0.14311819 0.33091416
0.33091416 0.14311819 0.33091416
0.39242900 0.14311819 0.33091416
0.45950695 0.14311819 0.33091416
0.06256172 0.18312701 0.33091416
0.09643177 0.18312701 0.33091416
0.14311819 0.18312701 0.33091416
0.18312701 0.18312701 0.33091416
0.22654461 0.18312701 0.33091416
0.27558389 0.18312701 0.33091416
0.33091416 0.18312701 0.33091416
0.39242900 0.18312701 0.33091416
0.45950695 0.18312701 0.33091416
0.06256172 0.22654461 0.33091416
0.09643177 0.22654461 0.33091416
0.14311819 0.22654461 0.33091416
0.18312701 0.22654461 0.33091416
0.22654461 0.22654461 0.33091416
0.27558389 0.22654461 0.33091416
0.33091416 0.22654461 0.33091416
0.39242900 0.22654461 0.33091416
0.45950695 0.22654461 0.33091416
0.06256172 0.27558389 0.33091416
0.09643177 0.27558389 0.33091416
0.14311819 0.27558389 0.33091416
0.18312701 0.27558389 0.33091416
0.22654461 0.27558389 0.33091416
0.27558389 0.27558389 0.33091416
0.33091416 0.27558389 0.33091416
0.39242900 0.27558389 0.33091416
0.45950695 0.27558389 0.33091416
0.06256172 0.33091416 0.33091416
0.09643177 0.33091416 0.33091416
0.14311819 0.33091416 0.33091416
0.18312701 0.33091416 0.33091416
0.22654461 0.33091416 0.33091416
0.27558389 0.33091416 0.33091416
0.33091416 0.33091416 0.33091416
0.39242900 0.33091416 0.33091416
0.45950695 0.33091416 0.33091416
0.06256172 0.39242900 0.33091416
0.09643177 0.39242900 0.33091416
0.14311819 0.39242900 0.33091416
0.18312701 0.39242900 0.33091416
0.22654461 0.39242900 0.33091416
0.27558389 0.39242900 0.33091416
0.33091416 0.39242900 0.33091416
0.39242900 0.39242900 0.33091416
0.45950695 0.39242900 0.33091416
0.06256172 0.45950695 0.33091416
0.09643177 0.45950695 0.33091416
0.14311819 0.45950695 0.33091416
0.18312701 0.45950695 0.33091416
0.22654461 0.45950695 0.33091416
0.27558389 0.45950695 0.33091416
0.33091416 0.45950695 0.33091416
0.39242900 0.45950695 0.33091416
0.45950695 0.45950695 0.33091416
0.06256172 0.06256172 0.39242900
0.09643177 0.06256172 0.39242900
0.14311819 0.06256172 0.39242900
0.18312701 0.06256172 0.39242900
0.22654461 0.06256172 0.39242900
0.27558389 0.06256172 0.39242900
0.33091416 0.06256172 0.39242900
0.39242900 0.06256172 0.39242900
0.45950695 0.06256172 0.39242900
0.06256172 0.09643177 0.39242900
0.09643177 0.09643177 0.39242900
0.14311819 0.09643177 0.39242900
0.18312701 0.09643177 0.39242900
0.22654461 0.09643177 0.39242900
0.27558389 0.09643177 0.39242900
0.33091416 0.09643177 0.39242900
0.39242900 0.09643177 0.39242900
0.45950695 0.09643177 0.39242900
0.06256172 0.14311819 0.39242900
0.09643177 0.14311819 0.39242900
0.14311819 0.14311819 0.39242900
0.18312701 0.14311819 0.39242900
0.22654461 0.14311819 0.39242900
0.27558389 0.14311819 0.39242900
0.33091416 0.14311819 0.39242900
0.39242900 0.14311819 0.39242900
0.45950695 0.14311819 0.39242900
0.06256172 0.18312701 0.39242900
0.09643177 0.18312701 0.39242900
0.14311819 0.18312701 0.39242900
0.18312701 0.18312701 0.39242900
0.22654461 0.18312701 0.39242900
0.27558389 0.18312701 0.39242900
0.33091416 0.18312701 0.39242900
0.39242900 0.18312701 0.39242900
0.45950695 0.18312701 0.39242900
0.06256172 0.22654461 0.39242900
0.09643177 0.22654461 0.39242900
0.14311819 0.22654461 0.39242900
0.18312701 0.22654461 0.39242900
0.22654461 0.22654461 0.39242900
0.27558389 0.22654461 0.39242900
0.33091416 0.22654461 0.39242900
0.39242900 0.22654461 0.39242900
0.45950695 0.22654461 0.39242900
0.06256172 0.27558389 0.39242900
0.09643177 0.27558389 0.39242900
0.14311819 0.27558389 0.39242900
0.18312701 0.27558389 0.39242900
0.22654461 0.27558389 0.39242900
0.27558389 0.27558389 0.39242900
0.33091416 0.27558389 0.39242900
0.39242900 0.27558389 0.39242900
0.45950695 0.27558389 0.39242900
0.06256172 0.33091416 0.39242900
0.09643177 0.33091416 0.39242900
0.14311819 0.33091416 0.39242900
0.18312701 0.33091416 0.39242900
0.22654461 0.33091416 0.39242900
0.27558389 0.33091416 0.39242900
0.33091416 0.33091416 0.39242900
0.39242900 0.33091416 0.39242900
0.45950695 0.33091416 0.39242900
0.06256172 0.39242900 0.39242900
0.09643177 0.39242900 0.39242900
0.14311819 0.39242900 0.39242900
0.18312701 0.39242900 0.39242900
0.22654461 0.39242900 0.39242900
0.27558389 0.39242900 0.39242900
0.33091416 0.39242900 0.39242900
0.39242900 0.39242900 0.39242900
0.45950695 0.39242900 0.39242900
0.06256172 0.45950695 0.39242900
0.09643177 0.45950695 0.39242900
0.14311819 0.45950695 0.39242900
0.18312701 0.45950695 0.39242900
0.22654461 0.45950695 0.39242900
0.27558389 0.45950695 0.39242900
0.33091416 0.45950695 0.39242900
0.39242900 0.45950695 0.39242900
0.45950695 0.45950695 0.39242900
0.06256172 0.06256172 0.45950695
0.09643177 0.06256172 0.45950695
0.14311819 0.06256172 0.45950695
0.18312701 0.06256172 0.45950695
0.22654461 0.06256172 0.45950695
0.27558389 0.06256172 0.45950695
0.33091416 0.06256172 0.45950695
0.39242900 0.06256172 0.45950695
0.45950695 0.06256172 0.45950695
0.06256172 0.09643177 0.45950695
0.09643177 0.09643177 0.45950695
0.14311819 0.09643177 0.45950695
0.18312701 0.09643177 0.45950695
0.22654461 0.09643177 0.45950695
0.27558389 0.09643177 0.45950695
0.33091416 0.09643177 0.45950695
0.39242900 0.09643177 0.45950695
0.45950695 0.09643177 0.45950695
0.06256172 0.14311819 0.45950695
0.09643177 0.14311819 0.45950695
0.14311819 0.14311819 0.45950695
0.18312701 0.14311819 0.45950695
0.22654461 0.14311819 0.45950695
0.27558389 0.14311819 0.45950695
0.33091416 0.14311819 0.45950695
0.39242900 0.14311819 0.45950695
0.45950695 0.14311819 0.45950695
0.06256172 0.18312701 0.45950695
0.09643177 0.18312701 0.45950695
0.14311819 0.18312701 0.45950695
0.18312701 0.18312701 0.45950695
0.22654461 0.18312701 0.45950695
0.27558389 0.18312701 0.45950695
0.33091416 0.18312701 0.45950695
0.39242900 0.18312701 0.45950695
0.45950695 0.18312701 0.45950695
0.06256172 0.22654461 0.45950695
0.09643177 0.22654461 0.45950695
0.14311819 0.22654461 0.45950695
0.18312701 0.22654461 0.45950695
0.22654461 0.22654461 0.45950695
0.27558389 0.22654461 0.45950695
0.33091416 0.22654461 0.45950695
0.39242900 0.22654461 0.45950695
0.45950695 0.22654461 0.45950695
0.06256172 0.27558389 0.45950695
0.09643177 0.27558389 0.45950695
0.14311819 0.27558389 0.45950695
0.18312701 0.27558389 0.45950695
0.22654461 0.27558389 0.45950695
0.27558389 0.27558389 0.45950695
0.33091416 0.27558389 0.45950695
0.39242900 0.27558389 0.45950695
0.45950695 0.27558389 0.45950695
0.06256172 0.33091416 0.45950695
0.09643177 0.33091416 0.45950695
0.14311819 0.33091416 0.45950695
0.18312701 0.33091416 0.45950695
0.22654461 0.33091416 0.45950695
0.27558389 0.33091416 0.45950695
0.33091416 0.33091416 0.45950695
0.39242900 0.33091416 0.45950695
0.45950695 0.33091416 0.45950695
0.06256172 0.39242900 0.45950695
0.09643177 0.39242900 0.45950695
0.14311819 0.39242900 0.45950695
0.18312701 0.39242900 0.45950695
0.22654461 0.39242900 0.45950695
0.27558389 0.39242900 0.45950695
0.33091416 0.39242900 0.45950695
0.39242900 0.39242900 0.45950695
0.45950695 0.39242900 0.45950695
0.06256172 0.45950695 0.45950695
0.09643177 0.45950695 0.45950695
0.14311819 0.45950695 0.45950695
0.18312701 0.45950695 0.45950695
0.22654461 0.45950695 0.45950695
0.27558389 0.45950695 0.45950695
0.33091416 0.45950695 0.45950695
0.39242900 0.45950695 0.45950695
0.45950695 0.45950695 0.45950695
