src/ffmpeg_scripts/luts/flog-smpte2084_3p00.cube
TITLE "flog-smpte2084_3p00"
LUT_3D_SIZE 9
# Fujifilm F-Log/Rec2020 -> PQ (EOTF Only)/Rec2020, CineEI Shift 3.00, Black Level 0.00% IRE, Input 109% -> Output 109% - Created with LUTCalc v4.01 by Ben Turley October 2020
0.06256172 0.06256172 0.06256172
0.25580167 0.06256172 0.06256172
0.39397210 0.06256172 0.06256172
0.48331134 0.06256172 0.06256172
0.56482830 0.06256172 0.06256172
0.64458935 0.06256172 0.06256172
0.72384433 0.06256172 0.06256172
0.80239536 0.06256172 0.06256172
0.87955630 0.06256172 0.06256172
0.06256172 0.25580167 0.06256172
0.25580167 0.25580167 0.06256172
0.39397210 0.25580167 0.06256172
0.48331134 0.25580167 0.06256172
0.56482830 0.25580167 0.06256172
0.64458935 0.25580167 0.06256172
0.72384433 0.25580167 0.06256172
0.80239536 0.25580167 0.06256172
0.87955630 0.25580167 0.06256172
0.06256172 0.39397210 0.06256172
0.25580167 0.39397210 0.06256172
0.39397210 0.39397210 0.06256172
0.48331134 0.39397210 0.06256172
0.56482830 0.39397210 0.06256172
0.64458935 0.39397210 0.06256172
0.72384433 0.39397210 0.06256172
0.80239536 0.39397210 0.06256172
0.87955630 0.39397210 0.06256172
0.06256172 0.48331134 0.06256172
0.25580167 0.48331134 0.06256172
0.39397210 0.48331134 0.06256172
0.48331134 0.48331134 0.06256172
0.56482830 0.48331134 0.06256172
0.64458935 0.48331134 0.06256172
0.72384433 0.48331134 0.06256172
0.80239536 0.48331134 0.06256172
0.87955630 0.48331134 0.06256172
0.06256172 0.56482830 0.06256172
0.25580167 0.56482830 0.06256172
0.39397210 0.56482830 0.06256172
0.48331134 0.56482830 0.06256172
0.56482830 0.56482830 0.06256172
0.64458935 0.56482830 0.06256172
0.72384433 0.56482830 0.06256172
0.80239536 0.56482830 0.06256172
0.87955630 0.56482830 0.06256172
0.06256172 0.64458935 0.06256172
0.25580167 0.64458935 0.06256172
0.39397210 0.64458935 0.06256172
0.48331134 0.64458935 0.06256172
0.56482830 0.64458935 0.06256172
0.64458935 0.64458935 0.06256172
0.72384433 0.64458935 0.06256172
0.80239536 0.64458935 0.06256172
0.87955630 0.64458935 0.06256172
0.06256172 0.72384433 0.06256172
0.25580167 0.72384433 0.06256172
0.39397210 0.72384433 0.06256172
0.48331134 0.72384433 0.06256172
0.56482830 0.72384433 0.06256172
0.64458935 0.72384433 0.06256172
0.72384433 0.72384433 0.06256172
0.80239536 0.72384433 0.06256172
0.87955630 0.72384433 0.06256172
0.06256172 0.80239536 0.06256172
0.25580167 0.80239536 0.06256172
0.39397210 0.80239536 0.06256172
0.48331134 0.80239536 0.06256172
0.56482830 0.80239536 0.06256172
0.64458935 0.80239536 0.06256172
0.72384433 0.80239536 0.06256172
0.80239536 0.80239536 0.06256172
0.87955630 0.80239536 0.06256172
0.06256172 0.87955630 0.06256172
0.25580167 0.87955630 0.06256172
0.39397210 0.87955630 0.06256172
0.48331134 0.87955630 0.06256172
0.56482830 0.87955630 0.06256172
0.64458935 0.87955630 0.06256172
0.72384433 0.87955630 0.06256172
0.80239536 0.87955630 0.06256172
0.87955630 0.87955630 0.06256172
0.06256172 0.06256172 0.25580167
0.25580167 0.06256172 0.25580167
0.39397210 0.06256172 0.25580167
0.48331134 0.06256172 0.25580167
0.56482830 0.06256172 0.25580167
0.64458935 0.06256172 0.25580167
0.72384433 0.06256172 0.25580167
0.80239536 0.06256172 0.25580167
0.87955630 0.06256172 0.25580167
0.06256172 0.25580167 0.25580167
0.25580167 0.25580167 0.25580167
0.39397210 0.25580167 0.25580167
0.48331134 0.25580167 0.25580167
0.56482830 0.25580167 0.25580167
0.64458935 0.25580167 0.25580167
0.72384433 0.25580167 0.25580167
0.80239536 0.25580167 0.25580167
0.87955630 0.25580167 0.25580167
0.06256172 0.39397210 0.25580167
0.25580167 0.39397210 0.25580167
0.39397210 0.39397210 0.25580167
0.48331134 0.39397210 0.25580167
0.56482830 0.39397210 0.25580167
0.64458935 0.39397210 0.25580167
0.72384433 0.39397210 0.25580167
0.80239536 0.39397210 0.25580167
0.87955630 0.39397210 0.25580167
0.06256172 0.48331134 0.25580167
0.25580167 0.48331134 0.25580167
0.39397210 0.48331134 0.25580167
0.48331134 0.48331134 0.25580167
0.56482830 0.48331134 0.25580167
0.64458935 0.48331134 0.25580167
0.72384433 0.48331134 0.25580167
0.80239536 0.48331134 0.25580167
0.87955630 0.48331134 0.25580167
0.06256172 0.56482830 0.25580167
0.25580167 0.56482830 0.25580167
0.39397210 0.56482830 0.25580167
0.48331134 0.56482830 0.25580167
0.56482830 0.56482830 0.25580167
0.64458935 0.56482830 0.25580167
0.72384433 0.56482830 0.25580167
0.80239536 0.56482830 0.25580167
0.87955630 0.56482830 0.25580167
0.06256172 0.64458935 0.25580167
0.25580167 0.64458935 0.25580167
0.39397210 0.64458935 0.25580167
0.48331134 0.64458935 0.25580167
0.56482830 0.64458935 0.25580167
0.64458935 0.64458935 0.25580167
0.72384433 0.64458935 0.25580167
0.80239536 0.64458935 0.25580167
0.87955630 0.64458935 0.25580167
0.06256172 0.72384433 0.25580167
0.25580167 0.72384433 0.25580167
0.39397210 0.72384433 0.25580167
0.48331134 0.72384433 0.25580167
0.56482830 0.72384433 0.25580167
0.64458935 0.72384433 0.25580167
0.72384433 0.72384433 0.25580167
0.80239536 0.72384433 0.25580167
0.87955630 0.72384433 0.25580167
0.06256172 0.80239536 0.25580167
0.25580167 0.80239536 0.25580167
0.39397210 0.80239536 0.25580167
0.48331134 0.80239536 0.25580167
0.56482830 0.80239536 0.25580167
0.64458935 0.80239536 0.25580167
0.72384433 0.80239536 0.25580167
0.80239536 0.80239536 0.25580167
0.87955630 0.80239536 0.25580167
0.06256172 0.87955630 0.25580167
0.25580167 0.87955630 0.25580167
0.39397210 0.87955630 0.25580167
0.48331134 0.87955630 0.25580167
0.56482830 0.87955630 0.25580167
0.64458935 0.87955630 0.25580167
0.72384433 0.87955630 0.25580167
0.80239536 0.87955630 0.25580167
0.87955630 0.87955630 0.25580167
0.06256172 0.06256172 0.39397210
0.25580167 0.06256172 0.39397210
0.39397210 0.06256172 0.39397210
0.48331134 0.06256172 0.39397210
0.56482830 0.06256172 0.39397210
0.64458935 0.06256172 0.39397210
0.72384433 0.06256172 0.39397210
0.80239536 0.06256172 0.39397210
0.87955630 0.06256172 0.39397210
0.06256172 0.25580167 0.39397210
0.25580167 0.25580167 0.39397210
0.39397210 0.25580167 0.39397210
0.48331134 0.25580167 0.39397210
0.56482830 0.25580167 0.39397210
0.64458935 0.25580167 0.39397210
0.72384433 0.25580167 0.39397210
0.80239536 0.25580167 0.39397210
0.87955630 0.25580167 0.39397210
0.06256172 0.39397210 0.39397210
0.25580167 0.39397210 0.39397210
0.39397210 0.39397210 0.39397210
0.48331134 0.39397210 0.39397210
0.56482830 0.39397210 0.39397210
0.64458935 0.39397210 0.39397210
0.72384433 0.39397210 0.39397210
0.80239536 0.39397210 0.39397210
0.87955630 0.39397210 0.39397210
0.06256172 0.48331134 0.39397210
0.25580167 0.48331134 0.39397210
0.39397210 0.48331134 0.39397210
0.48331134 0.48331134 0.39397210
0.56482830 0.48331134 0.39397210
0.64458935 0.48331134 0.39397210
0.72384433 0.48331134 0.39397210
0.80239536 0.48331134 0.39397210
0.87955630 0.48331134 0.39397210
0.06256172 0.56482830 0.39397210
0.25580167 0.56482830 0.39397210
0.39397210 0.56482830 0.39397210
0.48331134 0.56482830 0.39397210
0.56482830 0.56482830 0.39397210
0.64458935 0.56482830 0.39397210
0.72384433 0.56482830 0.39397210
0.80239536 0.56482830 0.39397210
0.87955630 0.56482830 0.39397210
0.06256172 0.64458935 0.39397210
0.25580167 0.64458935 0.39397210
0.39397210 0.64458935 0.39397210
0.48331134 0.64458935 0.39397210
0.56482830 0.64458935 0.39397210
0.64458935 0.64458935 0.39397210
0.72384433 0.64458935 0.39397210
0.80239536 0.64458935 0.39397210
0.87955630 0.64458935 0.39397210
0.06256172 0.72384433 0.39397210
0.25580167 0.72384433 0.39397210
0.39397210 0.72384433 0.39397210
0.48331134 0.72384433 0.39397210
0.56482830 0.72384433 0.39397210
0.64458935 0.72384433 0.39397210
0.72384433 0.72384433 0.39397210
0.80239536 0.72384433 0.39397210
0.87955630 0.72384433 0.39397210
0.06256172 0.80239536 0.39397210
0.25580167 0.80239536 0.39397210
0.39397210 0.80239536 0.39397210
0.48331134 0.80239536 0.39397210
0.56482830 0.80239536 0.39397210
0.64458935 0.80239536 0.39397210
0.72384433 0.80239536 0.39397210
0.80239536 0.80239536 0.39397210
0.87955630 0.80239536 0.39397210
0.06256172 0.87955630 0.39397210
0.25580167 0.87955630 0.39397210
0.39397210 0.87955630 0.39397210
0.48331134 0.87955630 0.39397210
0.56482830 0.87955630 0.39397210
0.64458935 0.87955630 0.39397210
0.72384433 0.87955630 0.39397210
0.80239536 0.87955630 0.39397210
0.87955630 0.87955630 0.39397210
0.06256172 0.06256172 0.48331134
0.25580167 0.06256172 0.48331134
0.39397210 0.06256172 0.48331134
0.48331134 0.06256172 0.48331134
0.56482830 0.06256172 0.48331134
0.64458935 0.06256172 0.48331134
0.72384433 0.06256172 0.48331134
0.80239536 0.06256172 0.48331134
0.87955630 0.06256172 0.48331134
0.06256172 0.25580167 0.48331134
0.25580167 0.25580167 0.48331134
0.39397210 0.25580167 0.48331134
0.48331134 0.25580167 0.48331134
0.56482830 0.25580167 0.48331134
0.64458935 0.25580167 0.48331134
0.72384433 0.25580167 0.48331134
0.80239536 0.25580167 0.48331134
0.87955630 0.25580167 0.48331134
0.06256172 0.39397210 0.48331134
0.25580167 0.39397210 0.48331134
0.39397210 0.39397210 0.48331134
0.48331134 0.39397210 0.48331134
0.56482830 0.39397210 0.48331134
0.64458935 0.39397210 0.48331134
0.72384433 0.39397210 0.48331134
0.80239536 0.39397210 0.48331134
0.87955630 0.39397210 0.48331134
0.06256172 0.48331134 0.48331134
0.25580167 0.48331134 0.48331134
0.39397210 0.48331134 0.48331134
0.48331134 0.48331134 0.48331134
0.56482830 0.48331134 0.48331134
0.64458935 0.48331134 0.48331134
0.72384433 0.48331134 0.48331134
0.80239536 0.48331134 0.48331134
0.87955630 0.48331134 0.48331134
0.06256172 0.56482830 0.48331134
0.25580167 0.56482830 0.48331134
0.39397210 0.56482830 0.48331134
0.48331134 0.56482830 0.48331134
0.56482830 0.56482830 0.48331134
0.64458935 0.56482830 0.48331134
0.72384433 0.56482830 0.48331134
0.80239536 0.56482830 0.48331134
0.87955630 0.56482830 0.48331134
0.06256172 0.64458935 0.48331134
0.25580167 0.64458935 0.48331134
0.39397210 0.64458935 0.48331134
0.48331134 0.64458935 0.48331134
0.56482830 0.64458935 0.48331134
0.64458935 0.64458935 0.48331134
0.72384433 0.64458935 0.48331134
0.80239536 0.64458935 0.48331134
0.87955630 0.64458935 0.48331134
0.06256172 0.72384433 0.48331134
0.25580167 0.72384433 0.48331134
0.39397210 0.72384433 0.48331134
0.48331134 0.72384433 0.48331134
0.56482830 0.72384433 0.48331134
0.64458935 0.72384433 0.48331134
0.72384433 0.72384433 0.48331134
0.80239536 0.72384433 0.48331134
0.87955630 0.72384433 0.48331134
0.06256172 0.80239536 0.48331134
0.25580167 0.80239536 0.48331134
0.39397210 0.80239536 0.48331134
0.48331134 0.80239536 0.48331134
0.56482830 0.80239536 0.48331134
0.64458935 0.80239536 0.48331134
0.72384433 0.80239536 0.48331134
0.80239536 0.80239536 0.48331134
0.87955630 0.80239536 0.48331134
0.06256172 0.87955630 0.48331134
0.25580167 0.87955630 0.48331134
0.39397210 0.87955630 0.48331134
0.48331134 0.87955630 0.48331134
0.56482830 0.87955630 0.48331134
0.64458935 0.87955630 0.48331134
0.72384433 0.87955630 0.48331134
0.80239536 0.87955630 0.48331134
0.87955630 0.87955630 0.48331134
0.06256172 0.06256172 0.56482830
0.25580167 0.06256172 0.56482830
0.39397210 0.06256172 0.56482830
0.48331134 0.06256172 0.56482830
0.56482830 0.06256172 0.56482830
0.64458935 0.06256172 0.56482830
0.72384433 0.06256172 0.56482830
0.80239536 0.06256172 0.56482830
0.87955630 0.06256172 0.56482830
0.06256172 0.25580167 0.56482830
0.25580167 0.25580167 0.56482830
0.39397210 0.25580167 0.56482830
0.48331134 0.25580167 0.56482830
0.56482830 0.25580167 0.56482830
0.64458935 0.25580167 0.56482830
0.72384433 0.25580167 0.56482830
0.80239536 0.25580167 0.56482830
0.87955630 0.25580167 0.56482830
0.06256172 0.39397210 0.56482830
0.25580167 0.39397210 0.56482830
0.39397210 0.39397210 0.56482830
0.48331134 0.39397210 0.56482830
0.56482830 0.39397210 0.56482830
0.64458935 0.39397210 0.56482830
0.72384433 0.39397210 0.56482830
0.80239536 0.39397210 0.56482830
0.87955630 0.39397210 0.56482830
0.06256172 0.48331134 0.56482830
0.25580167 0.48331134 0.56482830
0.39397210 0.48331134 0.56482830
0.48331134 0.48331134 0.56482830
0.56482830 0.48331134 0.56482830
0.64458935 0.48331134 0.56482830
0.72384433 0.48331134 0.56482830
0.80239536 0.48331134 0.56482830
0.87955630 0.48331134 0.56482830
0.06256172 0.56482830 0.56482830
0.25580167 0.56482830 0.56482830
0.39397210 0.56482830 0.56482830
0.48331134 0.56482830 0.56482830
0.56482830 0.56482830 0.56482830
0.64458935 0.56482830 0.56482830
0.72384433 0.56482830 0.56482830
0.80239536 0.56482830 0.56482830
0.87955630 0.56482830 0.56482830
0.06256172 0.64458935 0.56482830
0.25580167 0.64458935 0.56482830
0.39397210 0.64458935 0.56482830
0.48331134 0.64458935 0.56482830
0.56482830 0.64458935 0.56482830
0.64458935 0.64458935 0.56482830
0.72384433 0.64458935 0.56482830
0.80239536 0.64458935 0.56482830
0.87955630 0.64458935 0.56482830
0.06256172 0.72384433 0.56482830
0.25580167 0.72384433 0.56482830
0.39397210 0.72384433 0.56482830
0.48331134 0.72384433 0.56482830
0.56482830 0.72384433 0.56482830
0.64458935 0.72384433 0.56482830
0.72384433 0.72384433 0.56482830
0.80239536 0.72384433 0.56482830
0.87955630 0.72384433 0.56482830
0.06256172 0.80239536 0.56482830
0.25580167 0.80239536 0.56482830
0.39397210 0.80239536 0.56482830
0.48331134 0.80239536 0.56482830
0.56482830 0.80239536 0.56482830
0.64458935 0.80239536 0.56482830
0.72384433 0.80239536 0.56482830
0.80239536 0.80239536 0.56482830
0.87955630 0.80239536 0.56482830
0.06256172 0.87955630 0.56482830
0.25580167 0.87955630 0.56482830
0.39397210 0.87955630 0.56482830
0.48331134 0.87955630 0.56482830
0.56482830 0.87955630 0.56482830
0.64458935 0.87955630 0.56482830
0.72384433 0.87955630 0.56482830
0.80239536 0.87955630 0.56482830
0.87955630 0.87955630 0.56482830
0.06256172 0.06256172 0.64458935
0.25580167 0.06256172 0.64458935
0.39397210 0.06256172 0.64458935
0.48331134 0.06256172 0.64458935
0.56482830 0.06256172 0.64458935
0.64458935 0.06256172 0.64458935
0.72384433 0.06256172 0.64458935
0.80239536 0.06256172 0.64458935
0.87955630 0.06256172 0.64458935
0.06256172 0.25580167 0.64458935
0.25580167 0.25580167 0.64458935
0.39397210 0.25580167 0.64458935
0.48331134 0.25580167 0.64458935
0.56482830 0.25580167 0.64458935
0.64458935 0.25580167 0.64458935
0.72384433 0.25580167 0.64458935
0.80239536 0.25580167 0.64458935
0.87955630 0.25580167 0.64458935
0.06256172 0.39397210 0.64458935
0.25580167 0.39397210 0.64458935
0.39397210 0.39397210 0.64458935
0.48331134 0.39397210 0.64458935
0.56482830 0.39397210 0.64458935
0.64458935 0.39397210 0.64458935
0.72384433 0.39397210 0.64458935
0.80239536 0.39397210 0.64458935
0.87955630 0.39397210 0.64458935
0.06256172 0.48331134 0.64458935
0.25580167 0.48331134 0.64458935
0.39397210 0.48331134 0.64458935
0.48331134 0.48331134 0.64458935
0.56482830 0.48331134 0.64458935
0.64458935 0.48331134 0.64458935
0.72384433 0.48331134 0.64458935
0.80239536 0.48331134 0.64458935
0.87955630 0.48331134 0.64458935
0.06256172 0.56482830 0.64458935
0.25580167 0.56482830 0.64458935
0.39397210 0.56482830 0.64458935
0.48331134 0.56482830 0.64458935
0.56482830 0.56482830 0.64458935
0.64458935 0.56482830 0.64458935
0.72384433 0.56482830 0.64458935
0.80239536 0.56482830 0.64458935
0.87955630 0.56482830 0.64458935
0.06256172 0.64458935 0.64458935
0.25580167 0.64458935 0.64458935
0.39397210 0.64458935 0.64458935
0.48331134 0.64458935 0.64458935
0.56482830 0.64458935 0.64458935
0.64458935 0.64458935 0.64458935
0.72384433 0.64458935 0.64458935
0.80239536 0.64458935 0.64458935
0.87955630 0.64458935 0.64458935
0.06256172 0.72384433 0.64458935
0.25580167 0.72384433 0.64458935
0.39397210 0.72384433 0.64458935
0.48331134 0.72384433 0.64458935
0.56482830 0.72384433 0.64458935
0.64458935 0.72384433 0.64458935
0.72384433 0.72384433 0.64458935
0.80239536 0.72384433 0.64458935
0.87955630 0.72384433 0.64458935
0.06256172 0.80239536 0.64458935
0.25580167 0.80239536 0.64458935
0.39397210 0.80239536 0.64458935
0.48331134 0.80239536 0.64458935
0.56482830 0.80239536 0.64458935
0.64458935 0.80239536 0.64458935
0.72384433 0.80239536 0.64458935
0.80239536 0.80239536 0.64458935
0.87955630 0.80239536 0.64458935
0.06256172 0.87955630 0.64458935
0.25580167 0.87955630 0.64458935
0.39397210 0.87955630 0.64458935
0.48331134 0.87955630 0.64458935
0.56482830 0.87955630 0.64458935
0.64458935 0.87955630 0.64458935
0.72384433 0.87955630 0.64458935
0.80239536 0.87955630 0.64458935
0.87955630 0.87955630 0.64458935
0.06256172 0.06256172 0.72384433
0.25580167 0.06256172 0.72384433
0.39397210 0.06256172 0.72384433
0.48331134 0.06256172 0.72384433
0.56482830 0.06256172 0.72384433
0.64458935 0.06256172 0.72384433
0.72384433 0.06256172 0.72384433
0.80239536 0.06256172 0.72384433
0.87955630 0.06256172 0.72384433
0.06256172 0.25580167 0.72384433
0.25580167 0.25580167 0.72384433
0.39397210 0.25580167 0.72384433
0.48331134 0.25580167 0.72384433
0.56482830 0.25580167 0.72384433
0.64458935 0.25580167 0.72384433
0.72384433 0.25580167 0.72384433
0.80239536 0.25580167 0.72384433
0.87955630 0.25580167 0.72384433
0.06256172 0.39397210 0.72384433
0.25580167 0.39397210 0.72384433
0.39397210 0.39397210 0.72384433
0.48331134 0.39397210 0.72384433
0.56482830 0.39397210 0.72384433
0.64458935 0.39397210 0.72384433
0.72384433 0.39397210 0.72384433
0.80239536 0.39397210 0.72384433
0.87955630 0.39397210 0.72384433
0.06256172 0.48331134 0.72384433
0.25580167 0.48331134 0.72384433
0.39397210 0.48331134 0.72384433
0.48331134 0.48331134 0.72384433
0.56482830 0.48331134 0.72384433
0.64458935 0.48331134 0.72384433
0.72384433 0.48331134 0.72384433
0.80239536 0.48331134 0.72384433
0.87955630 0.48331134 0.72384433
0.06256172 0.56482830 0.72384433
0.25580167 0.56482830 0.72384433
0.39397210 0.56482830 0.72384433
0.48331134 0.56482830 0.72384433
0.56482830 0.56482830 0.72384433
0.64458935 0.56482830 0.72384433
0.72384433 0.56482830 0.72384433
0.80239536 0.56482830 0.72384433
0.87955630 0.56482830 0.72384433
0.06256172 0.64458935 0.72384433
0.25580167 0.64458935 0.72384433
0.39397210 0.64458935 0.72384433
0.48331134 0.64458935 0.72384433
0.56482830 0.64458935 0.72384433
0.64458935 0.64458935 0.72384433
0.72384433 0.64458935 0.72384433
0.80239536 0.64458935 0.72384433
0.87955630 0.64458935 0.72384433
0.06256172 0.72384433 0.72384433
0.25580167 0.72384433 0.72384433
0.39397210 0.72384433 0.72384433
0.48331134 0.72384433 0.72384433
0.56482830 0.72384433 0.72384433
0.64458935 0.72384433 0.72384433
0.72384433 0.72384433 0.72384433
0.80239536 0.72384433 0.72384433
0.87955630 0.72384433 0.72384433
0.06256172 0.80239536 0.72384433
0.25580167 0.80239536 0.72384433
0.39397210 0.80239536 0.72384433
0.48331134 0.80239536 0.72384433
0.56482830 0.80239536 0.72384433
0.64458935 0.80239536 0.72384433
0.72384433 0.80239536 0.72384433
0.80239536 0.80239536 0.72384433
0.87955630 0.80239536 0.72384433
0.06256172 0.87955630 0.72384433
0.25580167 0.87955630 0.72384433
0.39397210 0.87955630 0.72384433
0.48331134 0.87955630 0.72384433
0.56482830 0.87955630 0.72384433
0.64458935 0.87955630 0.72384433
0.72384433 0.87955630 0.72384433
0.80239536 0.87955630 0.72384433
0.87955630 0.87955630 0.72384433
0.06256172 0.06256172 0.80239536
0.25580167 0.06256172 0.80239536
0.39397210 0.06256172 0.80239536
0.48331134 0.06256172 0.80239536
0.56482830 0.06256172 0.80239536
0.64458935 0.06256172 0.80239536
0.72384433 0.06256172 0.80239536
0.80239536 0.06256172 0.80239536
0.87955630 0.06256172 0.80239536
0.06256172 0.25580167 0.80239536
0.25580167 0.25580167 0.80239536
0.39397210 0.25580167 0.80239536
0.48331134 0.25580167 0.80239536
0.56482830 0.25580167 0.80239536
0.64458935 0.25580167 0.80239536
0.72384433 0.25580167 0.80239536
0.80239536 0.25580167 0.80239536
0.87955630 0.25580167 0.80239536
0.06256172 0.39397210 0.80239536
0.25580167 0.39397210 0.80239536
0.39397210 0.39397210 0.80239536
0.48331134 0.39397210 0.80239536
0.56482830 0.39397210 0.80239536
0.64458935 0.39397210 0.80239536
0.72384433 0.39397210 0.80239536
0.80239536 0.39397210 0.80239536
0.87955630 0.39397210 0.80239536
0.06256172 0.48331134 0.80239536
0.25580167 0.48331134 0.80239536
0.39397210 0.48331134 0.80239536
0.48331134 0.48331134 0.80239536
0.56482830 0.48331134 0.80239536
0.64458935 0.48331134 0.80239536
0.72384433 0.48331134 0.80239536
0.80239536 0.48331134 0.80239536
0.87955630 0.48331134 0.80239536
0.06256172 0.56482830 0.80239536
0.25580167 0.56482830 0.80239536
0.39397210 0.56482830 0.80239536
0.48331134 0.56482830 0.80239536
0.56482830 0.56482830 0.80239536
0.64458935 0.56482830 0.80239536
0.72384433 0.56482830 0.80239536
0.80239536 0.56482830 0.80239536
0.87955630 0.56482830 0.80239536
0.06256172 0.64458935 0.80239536
0.25580167 0.64458935 0.80239536
0.39397210 0.64458935 0.80239536
0.48331134 0.64458935 0.80239536
0.56482830 0.64458935 0.80239536
0.64458935 0.64458935 0.80239536
0.72384433 0.64458935 0.80239536
0.80239536 0.64458935 0.80239536
0.87955630 0.64458935 0.80239536
0.06256172 0.72384433 0.80239536
0.25580167 0.72384433 0.80239536
0.39397210 0.72384433 0.80239536
0.48331134 0.72384433 0.80239536
0.56482830 0.72384433 0.80239536
0.64458935 0.72384433 0.80239536
0.72384433 0.72384433 0.80239536
0.80239536 0.72384433 0.80239536
0.87955630 0.72384433 0.80239536
0.06256172 0.80239536 0.80239536
0.25580167 0.80239536 0.80239536
0.39397210 0.80239536 0.80239536
0.48331134 0.80239536 0.80239536
0.56482830 0.80239536 0.80239536
0.64458935 0.80239536 0.80239536
0.72384433 0.80239536 0.80239536
0.80239536 0.80239536 0.80239536
0.87955630 0.80239536 0.80239536
0.06256172 0.87955630 0.80239536
0.25580167 0.87955630 0.80239536
0.39397210 0.87955630 0.80239536
0.48331134 0.87955630 0.80239536
0.56482830 0.87955630 0.80239536
0.64458935 0.87955630 0.80239536
0.72384433 0.87955630 0.80239536
0.80239536 0.87955630 0.80239536
0.87955630 0.87955630 0.80239536
0.06256172 0.06256172 0.87955630
0.25580167 0.06256172 0.87955630
0.39397210 0.06256172 0.87955630
0.48331134 0.06256172 0.87955630
0.56482830 0.06256172 0.87955630
0.64458935 0.06256172 0.87955630
0.72384433 0.06256172 0.87955630
0.80239536 0.06256172 0.87955630
0.87955630 0.06256172 0.87955630
0.06256172 0.25580167 0.87955630
0.25580167 0.25580167 0.87955630
0.39397210 0.25580167 0.87955630
0.48331134 0.25580167 0.87955630
0.56482830 0.25580167 0.87955630
0.64458935 0.25580167 0.87955630
0.72384433 0.25580167 0.87955630
0.80239536 0.25580167 0.87955630
0.87955630 0.25580167 0.87955630
0.06256172 0.39397210 0.87955630
0.25580167 0.39397210 0.87955630
0.39397210 0.39397210 0.87955630
0.48331134 0.39397210 0.87955630
0.56482830 0.39397210 0.87955630
0.64458935 0.39397210 0.87955630
0.72384433 0.39397210 0.87955630
0.80239536 0.39397210 0.87955630
0.87955630 0.39397210 0.87955630
0.06256172 0.48331134 0.87955630
0.25580167 0.48331134 0.87955630
0.39397210 0.48331134 0.87955630
0.48331134 0.48331134 0.87955630
0.56482830 0.48331134 0.87955630
0.64458935 0.48331134 0.87955630
0.72384433 0.48331134 0.87955630
0.80239536 0.48331134 0.87955630
0.87955630 0.48331134 0.87955630
0.06256172 0.56482830 0.87955630
0.25580167 0.56482830 0.87955630
0.39397210 0.56482830 0.87955630
0.48331134 0.56482830 0.87955630
0.56482830 0.56482830 0.87955630
0.64458935 0.56482830 0.87955630
0.72384433 0.56482830 0.87955630
0.80239536 0.56482830 0.87955630
0.87955630 0.56482830 0.87955630
0.06256172 0.64458935 0.87955630
0.25580167 0.64458935 0.87955630
0.39397210 0.64458935 0.87955630
0.48331134 0.64458935 0.87955630
0.56482830 0.64458935 0.87955630
0.64458935 0.64458935 0.87955630
0.72384433 0.64458935 0.87955630
0.80239536 0.64458935 0.87955630
0.87955630 0.64458935 0.87955630
0.06256172 0.72384433 0.87955630
0.25580167 0.72384433 0.87955630
0.39397210 0.72384433 0.87955630
0.48331134 0.72384433 0.87955630
0.56482830 0.72384433 0.87955630
0.64458935 0.72384433 0.87955630
0.72384433 0.72384433 0.87955630
0.80239536 0.72384433 0.87955630
0.87955630 0.72384433 0.87955630
0.06256172 0.80239536 0.87955630
0.25580167 0.80239536 0.87955630
0.39397210 0.80239536 0.87955630
0.48331134 0.80239536 0.87955630
0.56482830 0.80239536 0.87955630
0.64458935 0.80239536 0.87955630
0.72384433 0.80239536 0.87955630
0.80239536 0.80239536 0.87955630
0.87955630 0.80239536 0.87955630
0.06256172 0.87955630 0.87955630
0.25580167 0.87955630 0.87955630
0.39397210 0.87955630 0.87955630
0.48331134 0.87955630 0.87955630
0.56482830 0.87955630 0.87955630
0.64458935 0.87955630 0.87955630
0.72384433 0.87955630 0.87955630
0.80239536 0.87955630 0.87955630
0.87955630 0.87955630 0.87955630
