src/ffmpeg_scripts/luts/flog-smpte2084_-4p00.cube
TITLE "flog-smpte2084_-4p00"
LUT_3D_SIZE 9
# Fujifilm F-Log/Rec2020 -> PQ (EOTF Only)/Rec2020, CineEI Shift -4.00, Black Level 0.00% IRE, Input 109% -> Output 109% - Created with LUTCalc v4.01 by Ben Turley October 2020
0.06256172 0.06256172 0.06256172
0.09299619 0.06256172 0.06256172
0.13617473 0.06256172 0.06256172
0.17374648 0.06256172 0.06256172
0.21492947 0.06256172 0.06256172
0.26184421 0.06256172 0.06256172
0.31518939 0.06256172 0.06256172
0.37492303 0.06256172 0.06256172
0.44049116 0.06256172 0.06256172
0.06256172 0.09299619 0.06256172
0.09299619 0.09299619 0.06256172
0.13617473 0.09299619 0.06256172
0.17374648 0.09299619 0.06256172
0.21492947 0.09299619 0.06256172
0.26184421 0.09299619 0.06256172
0.31518939 0.09299619 0.06256172
0.37492303 0.09299619 0.06256172
0.44049116 0.09299619 0.06256172
0.06256172 0.13617473 0.06256172
0.09299619 0.13617473 0.06256172
0.13617473 0.13617473 0.06256172
0.17374648 0.13617473 0.06256172
0.21492947 0.13617473 0.06256172
0.26184421 0.13617473 0.06256172
0.31518939 0.13617473 0.06256172
0.37492303 0.13617473 0.06256172
0.44049116 0.13617473 0.06256172
0.06256172 0.17374648 0.06256172
0.09299619 0.17374648 0.06256172
0.13617473 0.17374648 0.06256172
0.17374648 0.17374648 0.06256172
0.21492947 0.17374648 0.06256172
0.26184421 0.17374648 0.06256172
0.31518939 0.17374648 0.06256172
0.37492303 0.17374648 0.06256172
0.44049116 0.17374648 0.06256172
0.06256172 0.21492947 0.06256172
0.09299619 0.21492947 0.06256172
0.13617473 0.21492947 0.06256172
0.17374648 0.21492947 0.06256172
0.21492947 0.21492947 0.06256172
0.26184421 0.21492947 0.06256172
0.31518939 0.21492947 0.06256172
0.37492303 0.21492947 0.06256172
0.44049116 0.21492947 0.06256172
0.06256172 0.26184421 0.06256172
0.09299619 0.26184421 0.06256172
0.13617473 0.26184421 0.06256172
0.17374648 0.26184421 0.06256172
0.21492947 0.26184421 0.06256172
0.26184421 0.26184421 0.06256172
0.31518939 0.26184421 0.06256172
0.37492303 0.26184421 0.06256172
0.44049116 0.26184421 0.06256172
0.06256172 0.31518939 0.06256172
0.09299619 0.31518939 0.06256172
0.13617473 0.31518939 0.06256172
0.17374648 0.31518939 0.06256172
0.21492947 0.31518939 0.06256172
0.26184421 0.31518939 0.06256172
0.31518939 0.31518939 0.06256172
0.37492303 0.31518939 0.06256172
0.44049116 0.31518939 0.06256172
0.06256172 0.37492303 0.06256172
0.09299619 0.37492303 0.06256172
0.13617473 0.37492303 0.06256172
0.17374648 0.37492303 0.06256172
0.21492947 0.37492303 0.06256172
0.26184421 0.37492303 0.06256172
0.31518939 0.37492303 0.06256172
0.37492303 0.37492303 0.06256172
0.44049116 0.37492303 0.06256172
0.06256172 0.44049116 0.06256172
0.09299619 0.44049116 0.06256172
0.13617473 0.44049116 0.06256172
0.17374648 0.44049116 0.06256172
0.21492947 0.44049116 0.06256172
0.26184421 0.44049116 0.06256172
0.31518939 0.44049116 0.06256172
0.37492303 0.44049116 0.06256172
0.44049116 0.44049116 0.06256172
0.06256172 0.06256172 0.09299619
0.09299619 0.06256172 0.09299619
0.13617473 0.06256172 0.09299619
0.17374648 0.06256172 0.09299619
0.21492947 0.06256172 0.09299619
0.26184421 0.06256172 0.09299619
0.31518939 0.06256172 0.09299619
0.37492303 0.06256172 0.09299619
0.44049116 0.06256172 0.09299619
0.06256172 0.09299619 0.09299619
0.09299619 0.09299619 0.09299619
0.13617473 0.09299619 0.09299619
0.17374648 0.09299619 0.09299619
0.21492947 0.09299619 0.09299619
0.26184421 0.09299619 0.09299619
0.31518939 0.09299619 0.09299619
0.37492303 0.09299619 0.09299619
0.44049116 0.09299619 0.09299619
0.06256172 0.13617473 0.09299619
0.09299619 0.13617473 0.09299619
0.13617473 0.13617473 0.09299619
0.17374648 0.13617473 0.09299619
0.21492947 0.13617473 0.09299619
0.26184421 0.13617473 0.09299619
0.31518939 0.13617473 0.09299619
0.37492303 0.13617473 0.09299619
0.44049116 0.13617473 0.09299619
0.06256172 0.17374648 0.09299619
0.09299619 0.17374648 0.09299619
0.13617473 0.17374648 0.09299619
0.17374648 0.17374648 0.09299619
0.21492947 0.17374648 0.09299619
0.26184421 0.17374648 0.09299619
0.31518939 0.17374648 0.09299619
0.37492303 0.17374648 0.09299619
0.44049116 0.17374648 0.09299619
0.06256172 0.21492947 0.09299619
0.09299619 0.21492947 0.09299619
0.13617473 0.21492947 0.09299619
0.17374648 0.21492947 0.09299619
0.21492947 0.21492947 0.09299619
0.26184421 0.21492947 0.09299619
0.31518939 0.21492947 0.09299619
0.37492303 0.21492947 0.09299619
0.44049116 0.21492947 0.09299619
0.06256172 0.26184421 0.09299619
0.09299619 0.26184421 0.09299619
0.13617473 0.26184421 0.09299619
0.17374648 0.26184421 0.09299619
0.21492947 0.26184421 0.09299619
0.26184421 0.26184421 0.09299619
0.31518939 0.26184421 0.09299619
0.37492303 0.26184421 0.09299619
0.44049116 0.26184421 0.09299619
0.06256172 0.31518939 0.09299619
0.09299619 0.31518939 0.09299619
0.13617473 0.31518939 0.09299619
0.17374648 0.31518939 0.09299619
0.21492947 0.31518939 0.09299619
0.26184421 0.31518939 0.09299619
0.31518939 0.31518939 0.09299619
0.37492303 0.31518939 0.09299619
0.44049116 0.31518939 0.09299619
0.06256172 0.37492303 0.09299619
0.09299619 0.37492303 0.09299619
0.13617473 0.37492303 0.09299619
0.17374648 0.37492303 0.09299619
0.21492947 0.37492303 0.09299619
0.26184421 0.37492303 0.09299619
0.31518939 0.37492303 0.09299619
0.37492303 0.37492303 0.09299619
0.44049116 0.37492303 0.09299619
0.06256172 0.44049116 0.09299619
0.09299619 0.44049116 0.09299619
0.13617473 0.44049116 0.09299619
0.17374648 0.44049116 0.09299619
0.21492947 0.44049116 0.09299619
0.26184421 0.44049116 0.09299619
0.31518939 0.44049116 0.09299619
0.37492303 0.44049116 0.09299619
0.44049116 0.44049116 0.09299619
0.06256172 0.06256172 0.13617473
0.09299619 0.06256172 0.13617473
0.13617473 0.06256172 0.13617473
0.17374648 0.06256172 0.13617473
0.21492947 0.06256172 0.13617473
0.26184421 0.06256172 0.13617473
0.31518939 0.06256172 0.13617473
0.37492303 0.06256172 0.13617473
0.44049116 0.06256172 0.13617473
0.06256172 0.09299619 0.13617473
0.09299619 0.09299619 0.13617473
0.13617473 0.09299619 0.13617473
0.17374648 0.09299619 0.13617473
0.21492947 0.09299619 0.13617473
0.26184421 0.09299619 0.13617473
0.31518939 0.09299619 0.13617473
0.37492303 0.09299619 0.13617473
0.44049116 0.09299619 0.13617473
0.06256172 0.13617473 0.13617473
0.09299619 0.13617473 0.13617473
0.13617473 0.13617473 0.13617473
0.17374648 0.13617473 0.13617473
0.21492947 0.13617473 0.13617473
0.26184421 0.13617473 0.13617473
0.31518939 0.13617473 0.13617473
0.37492303 0.13617473 0.13617473
0.44049116 0.13617473 0.13617473
0.06256172 0.17374648 0.13617473
0.09299619 0.17374648 0.13617473
0.13617473 0.17374648 0.13617473
0.17374648 0.17374648 0.13617473
0.21492947 0.17374648 0.13617473
0.26184421 0.17374648 0.13617473
0.31518939 0.17374648 0.13617473
0.37492303 0.17374648 0.13617473
0.44049116 0.17374648 0.13617473
0.06256172 0.21492947 0.13617473
0.09299619 0.21492947 0.13617473
0.13617473 0.21492947 0.13617473
0.17374648 0.21492947 0.13617473
0.21492947 0.21492947 0.13617473
0.26184421 0.21492947 0.13617473
0.31518939 0.21492947 0.13617473
0.37492303 0.21492947 0.13617473
0.44049116 0.21492947 0.13617473
0.06256172 0.26184421 0.13617473
0.09299619 0.26184421 0.13617473
0.13617473 0.26184421 0.13617473
0.17374648 0.26184421 0.13617473
0.21492947 0.26184421 0.13617473
0.26184421 0.26184421 0.13617473
0.31518939 0.26184421 0.13617473
0.37492303 0.26184421 0.13617473
0.44049116 0.26184421 0.13617473
0.06256172 0.31518939 0.13617473
0.09299619 0.31518939 0.13617473
0.13617473 0.31518939 0.13617473
0.17374648 0.31518939 0.13617473
0.21492947 0.31518939 0.13617473
0.26184421 0.31518939 0.13617473
0.31518939 0.31518939 0.13617473
0.37492303 0.31518939 0.13617473
0.44049116 0.31518939 0.13617473
0.06256172 0.37492303 0.13617473
0.09299619 0.37492303 0.13617473
0.13617473 0.37492303 0.13617473
0.17374648 0.37492303 0.13617473
0.21492947 0.37492303 0.13617473
0.26184421 0.37492303 0.13617473
0.31518939 0.37492303 0.13617473
0.37492303 0.37492303 0.13617473
0.44049116 0.37492303 0.13617473
0.06256172 0.44049116 0.13617473
0.09299619 0.44049116 0.13617473
0.13617473 0.44049116 0.13617473
0.17374648 0.44049116 0.13617473
0.21492947 0.44049116 0.13617473
0.26184421 0.44049116 0.13617473
0.31518939 0.44049116 0.13617473
0.37492303 0.44049116 0.13617473
0.44049116 0.44049116 0.13617473
0.06256172 0.06256172 0.17374648
0.09299619 0.06256172 0.17374648
0.13617473 0.06256172 0.17374648
0.17374648 0.06256172 0.17374648
0.21492947 0.06256172 0.17374648
0.26184421 0.06256172 0.17374648
0.31518939 0.06256172 0.17374648
0.37492303 0.06256172 0.17374648
0.44049116 0.06256172 0.17374648
0.06256172 0.09299619 0.17374648
0.09299619 0.09299619 0.17374648
0.13617473 0.09299619 0.17374648
0.17374648 0.09299619 0.17374648
0.21492947 0.09299619 0.17374648
0.26184421 0.09299619 0.17374648
0.31518939 0.09299619 0.17374648
0.37492303 0.09299619 0.17374648
0.44049116 0.09299619 0.17374648
0.06256172 0.13617473 0.17374648
0.09299619 0.13617473 0.17374648
0.13617473 0.13617473 0.17374648
0.17374648 0.13617473 0.17374648
0.21492947 0.13617473 0.17374648
0.26184421 0.13617473 0.17374648
0.31518939 0.13617473 0.17374648
0.37492303 0.13617473 0.17374648
0.44049116 0.13617473 0.17374648
0.06256172 0.17374648 0.17374648
0.09299619 0.17374648 0.17374648
0.13617473 0.17374648 0.17374648
0.17374648 0.17374648 0.17374648
0.21492947 0.17374648 0.17374648
0.26184421 0.17374648 0.17374648
0.31518939 0.17374648 0.17374648
0.37492303 0.17374648 0.17374648
0.44049116 0.17374648 0.17374648
0.06256172 0.21492947 0.17374648
0.09299619 0.21492947 0.17374648
0.13617473 0.21492947 0.17374648
0.17374648 0.21492947 0.17374648
0.21492947 0.21492947 0.17374648
0.26184421 0.21492947 0.17374648
0.31518939 0.21492947 0.17374648
0.37492303 0.21492947 0.17374648
0.44049116 0.21492947 0.17374648
0.06256172 0.26184421 0.17374648
0.09299619 0.26184421 0.17374648
0.13617473 0.26184421 0.17374648
0.17374648 0.26184421 0.17374648
0.21492947 0.26184421 0.17374648
0.26184421 0.26184421 0.17374648
0.31518939 0.26184421 0.17374648
0.37492303 0.26184421 0.17374648
0.44049116 0.26184421 0.17374648
0.06256172 0.31518939 0.17374648
0.09299619 0.31518939 0.17374648
0.13617473 0.31518939 0.17374648
0.17374648 0.31518939 0.17374648
0.21492947 0.31518939 0.17374648
0.26184421 0.31518939 0.17374648
0.31518939 0.31518939 0.17374648
0.37492303 0.31518939 0.17374648
0.44049116 0.31518939 0.17374648
0.06256172 0.37492303 0.17374648
0.09299619 0.37492303 0.17374648
0.13617473 0.37492303 0.17374648
0.17374648 0.37492303 0.17374648
0.21492947 0.37492303 0.17374648
0.26184421 0.37492303 0.17374648
0.31518939 0.37492303 0.17374648
0.37492303 0.37492303 0.17374648
0.44049116 0.37492303 0.17374648
0.06256172 0.44049116 0.17374648
0.09299619 0.44049116 0.17374648
0.13617473 0.44049116 0.17374648
0.17374648 0.44049116 0.17374648
0.21492947 0.44049116 0.17374648
0.26184421 0.44049116 0.17374648
0.31518939 0.44049116 0.17374648
0.37492303 0.44049116 0.17374648
0.44049116 0.44049116 0.17374648
0.06256172 0.06256172 0.21492947
0.09299619 0.06256172 0.21492947
0.13617473 0.06256172 0.21492947
0.17374648 0.06256172 0.21492947
0.21492947 0.06256172 0.21492947
0.26184421 0.06256172 0.21492947
0.31518939 0.06256172 0.21492947
0.37492303 0.06256172 0.21492947
0.44049116 0.06256172 0.21492947
0.06256172 0.09299619 0.21492947
0.09299619 0.09299619 0.21492947
0.13617473 0.09299619 0.21492947
0.17374648 0.09299619 0.21492947
0.21492947 0.09299619 0.21492947
0.26184421 0.09299619 0.21492947
0.31518939 0.09299619 0.21492947
0.37492303 0.09299619 0.21492947
0.44049116 0.09299619 0.21492947
0.06256172 0.13617473 0.21492947
0.09299619 0.13617473 0.21492947
0.13617473 0.13617473 0.21492947
0.17374648 0.13617473 0.21492947
0.21492947 0.13617473 0.21492947
0.26184421 0.13617473 0.21492947
0.31518939 0.13617473 0.21492947
0.37492303 0.13617473 0.21492947
0.44049116 0.13617473 0.21492947
0.06256172 0.17374648 0.21492947
0.09299619 0.17374648 0.21492947
0.13617473 0.17374648 0.21492947
0.17374648 0.17374648 0.21492947
0.21492947 0.17374648 0.21492947
0.26184421 0.17374648 0.21492947
0.31518939 0.17374648 0.21492947
0.37492303 0.17374648 0.21492947
0.44049116 0.17374648 0.21492947
0.06256172 0.21492947 0.21492947
0.09299619 0.21492947 0.21492947
0.13617473 0.21492947 0.21492947
0.17374648 0.21492947 0.21492947
0.21492947 0.21492947 0.21492947
0.26184421 0.21492947 0.21492947
0.31518939 0.21492947 0.21492947
0.37492303 0.21492947 0.21492947
0.44049116 0.21492947 0.21492947
0.06256172 0.26184421 0.21492947
0.09299619 0.26184421 0.21492947
0.13617473 0.26184421 0.21492947
0.17374648 0.26184421 0.21492947
0.21492947 0.26184421 0.21492947
0.26184421 0.26184421 0.21492947
0.31518939 0.26184421 0.21492947
0.37492303 0.26184421 0.21492947
0.44049116 0.26184421 0.21492947
0.06256172 0.31518939 0.21492947
0.09299619 0.31518939 0.21492947
0.13617473 0.31518939 0.21492947
0.17374648 0.31518939 0.21492947
0.21492947 0.31518939 0.21492947
0.26184421 0.31518939 0.21492947
0.31518939 0.31518939 0.21492947
0.37492303 0.31518939 0.21492947
0.44049116 0.31518939 0.21492947
0.06256172 0.37492303 0.21492947
0.09299619 0.37492303 0.21492947
0.13617473 0.37492303 0.21492947
0.17374648 0.37492303 0.21492947
0.21492947 0.37492303 0.21492947
0.26184421 0.37492303 0.21492947
0.31518939 0.37492303 0.21492947
0.37492303 0.37492303 0.21492947
0.44049116 0.37492303 0.21492947
0.06256172 0.44049116 0.21492947
0.09299619 0.44049116 0.21492947
0.13617473 0.44049116 0.21492947
0.17374648 0.44049116 0.21492947
0.21492947 0.44049116 0.21492947
0.26184421 0.44049116 0.21492947
0.31518939 0.44049116 0.21492947
0.37492303 0.44049116 0.21492947
0.44049116 0.44049116 0.21492947
0.06256172 0.06256172 0.26184421
0.09299619 0.06256172 0.26184421
0.13617473 0.06256172 0.26184421
0.17374648 0.06256172 0.26184421
0.21492947 0.06256172 0.26184421
0.26184421 0.06256172 0.26184421
0.31518939 0.06256172 0.26184421
0.37492303 0.06256172 0.26184421
0.44049116 0.06256172 0.26184421
0.06256172 0.09299619 0.26184421
0.09299619 0.09299619 0.26184421
0.13617473 0.09299619 0.26184421
0.17374648 0.09299619 0.26184421
0.21492947 0.09299619 0.26184421
0.26184421 0.09299619 0.26184421
0.31518939 0.09299619 0.26184421
0.37492303 0.09299619 0.26184421
0.44049116 0.09299619 0.26184421
0.06256172 0.13617473 0.26184421
0.09299619 0.13617473 0.26184421
0.13617473 0.13617473 0.26184421
0.17374648 0.13617473 0.26184421
0.21492947 0.13617473 0.26184421
0.26184421 0.13617473 0.26184421
0.31518939 0.13617473 0.26184421
0.37492303 0.13617473 0.26184421
0.44049116 0.13617473 0.26184421
0.06256172 0.17374648 0.26184421
0.09299619 0.17374648 0.26184421
0.13617473 0.17374648 0.26184421
0.17374648 0.17374648 0.26184421
0.21492947 0.17374648 0.26184421
0.26184421 0.17374648 0.26184421
0.31518939 0.17374648 0.26184421
0.37492303 0.17374648 0.26184421
0.44049116 0.17374648 0.26184421
0.06256172 0.21492947 0.26184421
0.09299619 0.21492947 0.26184421
0.13617473 0.21492947 0.26184421
0.17374648 0.21492947 0.26184421
0.21492947 0.21492947 0.26184421
0.26184421 0.21492947 0.26184421
0.31518939 0.21492947 0.26184421
0.37492303 0.21492947 0.26184421
0.44049116 0.21492947 0.26184421
0.06256172 0.26184421 0.26184421
0.09299619 0.26184421 0.26184421
0.13617473 0.26184421 0.26184421
0.17374648 0.26184421 0.26184421
0.21492947 0.26184421 0.26184421
0.26184421 0.26184421 0.26184421
0.31518939 0.26184421 0.26184421
0.37492303 0.26184421 0.26184421
0.44049116 0.26184421 0.26184421
0.06256172 0.31518939 0.26184421
0.09299619 0.31518939 0.26184421
0.13617473 0.31518939 0.26184421
0.17374648 0.31518939 0.26184421
0.21492947 0.31518939 0.26184421
0.26184421 0.31518939 0.26184421
0.31518939 0.31518939 0.26184421
0.37492303 0.31518939 0.26184421
0.44049116 0.31518939 0.26184421
0.06256172 0.37492303 0.26184421
0.09299619 0.37492303 0.26184421
0.13617473 0.37492303 0.26184421
0.17374648 0.37492303 0.26184421
0.21492947 0.37492303 0.26184421
0.26184421 0.37492303 0.26184421
0.31518939 0.37492303 0.26184421
0.37492303 0.37492303 0.26184421
0.44049116 0.37492303 0.26184421
0.06256172 0.44049116 0.26184421
0.09299619 0.44049116 0.26184421
0.13617473 0.44049116 0.26184421
0.17374648 0.44049116 0.26184421
0.21492947 0.44049116 0.26184421
0.26184421 0.44049116 0.26184421
0.31518939 0.44049116 0.26184421
0.37492303 0.44049116 0.26184421
0.44049116 0.44049116 0.26184421
0.06256172 0.06256172 0.31518939
0.09299619 0.06256172 0.31518939
0.13617473 0.06256172 0.31518939
0.17374648 0.06256172 0.31518939
0.21492947 0.06256172 0.31518939
0.26184421 0.06256172 0.31518939
0.31518939 0.06256172 0.31518939
0.37492303 0.06256172 0.31518939
0.44049116 0.06256172 0.31518939
0.06256172 0.09299619 0.31518939
0.09299619 0.09299619 0.31518939
0.13617473 0.09299619 0.31518939
0.17374648 0.09299619 0.31518939
0.21492947 0.09299619 0.31518939
0.26184421 0.09299619 0.31518939
0.31518939 0.09299619 0.31518939
0.37492303 0.09299619 0.31518939
0.44049116 0.09299619 0.31518939
0.06256172 0.13617473 0.31518939
0.09299619 0.13617473 0.31518939
0.13617473 0.13617473 0.31518939
0.17374648 0.13617473 0.31518939
0.21492947 0.13617473 0.31518939
0.26184421 0.13617473 0.31518939
0.31518939 0.13617473 0.31518939
0.37492303 0.13617473 0.31518939
0.44049116 0.13617473 0.31518939
0.06256172 0.17374648 0.31518939
0.09299619 0.17374648 0.31518939
0.13617473 0.17374648 0.31518939
0.17374648 0.17374648 0.31518939
0.21492947 0.17374648 0.31518939
0.26184421 0.17374648 0.31518939
0.31518939 0.17374648 0.31518939
0.37492303 0.17374648 0.31518939
0.44049116 0.17374648 0.31518939
0.06256172 0.21492947 0.31518939
0.09299619 0.21492947 0.31518939
0.13617473 0.21492947 0.31518939
0.17374648 0.21492947 0.31518939
0.21492947 0.21492947 0.31518939
0.26184421 0.21492947 0.31518939
0.31518939 0.21492947 0.31518939
0.37492303 0.21492947 0.31518939
0.44049116 0.21492947 0.31518939
0.06256172 0.26184421 0.31518939
0.09299619 0.26184421 0.31518939
0.13617473 0.26184421 0.31518939
0.17374648 0.26184421 0.31518939
0.21492947 0.26184421 0.31518939
0.26184421 0.26184421 0.31518939
0.31518939 0.26184421 0.31518939
0.37492303 0.26184421 0.31518939
0.44049116 0.26184421 0.31518939
0.06256172 0.31518939 0.31518939
0.09299619 0.31518939 0.31518939
0.13617473 0.31518939 0.31518939
0.17374648 0.31518939 0.31518939
0.21492947 0.31518939 0.31518939
0.26184421 0.31518939 0.31518939
0.31518939 0.31518939 0.31518939
0.37492303 0.31518939 0.31518939
0.44049116 0.31518939 0.31518939
0.06256172 0.37492303 0.31518939
0.09299619 0.37492303 0.31518939
0.13617473 0.37492303 0.31518939
0.17374648 0.37492303 0.31518939
0.21492947 0.37492303 0.31518939
0.26184421 0.37492303 0.31518939
0.31518939 0.37492303 0.31518939
0.37492303 0.37492303 0.31518939
0.44049116 0.37492303 0.31518939
0.06256172 0.44049116 0.31518939
0.09299619 0.44049116 0.31518939
0.13617473 0.44049116 0.31518939
0.17374648 0.44049116 0.31518939
0.21492947 0.44049116 0.31518939
0.26184421 0.44049116 0.31518939
0.31518939 0.44049116 0.31518939
0.37492303 0.44049116 0.31518939
0.44049116 0.44049116 0.31518939
0.06256172 0.06256172 0.37492303
0.09299619 0.06256172 0.37492303
0.13617473 0.06256172 0.37492303
0.17374648 0.06256172 0.37492303
0.21492947 0.06256172 0.37492303
0.26184421 0.06256172 0.37492303
0.31518939 0.06256172 0.37492303
0.37492303 0.06256172 0.37492303
0.44049116 0.06256172 0.37492303
0.06256172 0.09299619 0.37492303
0.09299619 0.09299619 0.37492303
0.13617473 0.09299619 0.37492303
0.17374648 0.09299619 0.37492303
0.21492947 0.09299619 0.37492303
0.26184421 0.09299619 0.37492303
0.31518939 0.09299619 0.37492303
0.37492303 0.09299619 0.37492303
0.44049116 0.09299619 0.37492303
0.06256172 0.13617473 0.37492303
0.09299619 0.13617473 0.37492303
0.13617473 0.13617473 0.37492303
0.17374648 0.13617473 0.37492303
0.21492947 0.13617473 0.37492303
0.26184421 0.13617473 0.37492303
0.31518939 0.13617473 0.37492303
0.37492303 0.13617473 0.37492303
0.44049116 0.13617473 0.37492303
0.06256172 0.17374648 0.37492303
0.09299619 0.17374648 0.37492303
0.13617473 0.17374648 0.37492303
0.17374648 0.17374648 0.37492303
0.21492947 0.17374648 0.37492303
0.26184421 0.17374648 0.37492303
0.31518939 0.17374648 0.37492303
0.37492303 0.17374648 0.37492303
0.44049116 0.17374648 0.37492303
0.06256172 0.21492947 0.37492303
0.09299619 0.21492947 0.37492303
0.13617473 0.21492947 0.37492303
0.17374648 0.21492947 0.37492303
0.21492947 0.21492947 0.37492303
0.26184421 0.21492947 0.37492303
0.31518939 0.21492947 0.37492303
0.37492303 0.21492947 0.37492303
0.44049116 0.21492947 0.37492303
0.06256172 0.26184421 0.37492303
0.09299619 0.26184421 0.37492303
0.13617473 0.26184421 0.37492303
0.17374648 0.26184421 0.37492303
0.21492947 0.26184421 0.37492303
0.26184421 0.26184421 0.37492303
0.31518939 0.26184421 0.37492303
0.37492303 0.26184421 0.37492303
0.44049116 0.26184421 0.37492303
0.06256172 0.31518939 0.37492303
0.09299619 0.31518939 0.37492303
0.13617473 0.31518939 0.37492303
0.17374648 0.31518939 0.37492303
0.21492947 0.31518939 0.37492303
0.26184421 0.31518939 0.37492303
0.31518939 0.31518939 0.37492303
0.37492303 0.31518939 0.37492303
0.44049116 0.31518939 0.37492303
0.06256172 0.37492303 0.37492303
0.09299619 0.37492303 0.37492303
0.13617473 0.37492303 0.37492303
0.17374648 0.37492303 0.37492303
0.21492947 0.37492303 0.37492303
0.26184421 0.37492303 0.37492303
0.31518939 0.37492303 0.37492303
0.37492303 0.37492303 0.37492303
0.44049116 0.37492303 0.37492303
0.06256172 0.44049116 0.37492303
0.09299619 0.44049116 0.37492303
0.13617473 0.44049116 0.37492303
0.17374648 0.44049116 0.37492303
0.21492947 0.44049116 0.37492303
0.26184421 0.44049116 0.37492303
0.31518939 0.44049116 0.37492303
0.37492303 0.44049116 0.37492303
0.44049116 0.44049116 0.37492303
0.06256172 0.06256172 0.44049116
0.09299619 0.06256172 0.44049116
0.13617473 0.06256172 0.44049116
0.17374648 0.06256172 0.44049116
0.21492947 0.06256172 0.44049116
0.26184421 0.06256172 0.44049116
0.31518939 0.06256172 0.44049116
0.37492303 0.06256172 0.44049116
0.44049116 0.06256172 0.44049116
0.06256172 0.09299619 0.44049116
0.09299619 0.09299619 0.44049116
0.13617473 0.09299619 0.44049116
0.17374648 0.09299619 0.44049116
0.21492947 0.09299619 0.44049116
0.26184421 0.09299619 0.44049116
0.31518939 0.09299619 0.44049116
0.37492303 0.09299619 0.44049116
0.44049116 0.09299619 0.44049116
0.06256172 0.13617473 0.44049116
0.09299619 0.13617473 0.44049116
0.13617473 0.13617473 0.44049116
0.17374648 0.13617473 0.44049116
0.21492947 0.13617473 0.44049116
0.26184421 0.13617473 0.44049116
0.31518939 0.13617473 0.44049116
0.37492303 0.13617473 0.44049116
0.44049116 0.13617473 0.44049116
0.06256172 0.17374648 0.44049116
0.09299619 0.17374648 0.44049116
0.13617473 0.17374648 0.44049116
0.17374648 0.17374648 0.44049116
0.21492947 0.17374648 0.44049116
0.26184421 0.17374648 0.44049116
0.31518939 0.17374648 0.44049116
0.37492303 0.17374648 0.44049116
0.44049116 0.17374648 0.44049116
0.06256172 0.21492947 0.44049116
0.09299619 0.21492947 0.44049116
0.13617473 0.21492947 0.44049116
0.17374648 0.21492947 0.44049116
0.21492947 0.21492947 0.44049116
0.26184421 0.21492947 0.44049116
0.31518939 0.21492947 0.44049116
0.37492303 0.21492947 0.44049116
0.44049116 0.21492947 0.44049116
0.06256172 0.26184421 0.44049116
0.09299619 0.26184421 0.44049116
0.13617473 0.26184421 0.44049116
0.17374648 0.26184421 0.44049116
0.21492947 0.26184421 0.44049116
0.26184421 0.26184421 0.44049116
0.31518939 0.26184421 0.44049116
0.37492303 0.26184421 0.44049116
0.44049116 0.26184421 0.44049116
0.06256172 0.31518939 0.44049116
0.09299619 0.31518939 0.44049116
0.13617473 0.31518939 0.44049116
0.17374648 0.31518939 0.44049116
0.21492947 0.31518939 0.44049116
0.26184421 0.31518939 0.44049116
0.31518939 0.31518939 0.44049116
0.37492303 0.31518939 0.44049116
0.44049116 0.31518939 0.44049116
0.06256172 0.37492303 0.44049116
0.09299619 0.37492303 0.44049116
0.13617473 0.37492303 0.44049116
0.17374648 0.37492303 0.44049116
0.21492947 0.37492303 0.44049116
0.26184421 0.37492303 0.44049116
0.31518939 0.37492303 0.44049116
0.37492303 0.37492303 0.44049116
0.44049116 0.37492303 0.44049116
0.06256172 0.44049116 0.44049116
0.09299619 0.44049116 0.44049116
0.13617473 0.44049116 0.44049116
0.17374648 0.44049116 0.44049116
0.21492947 0.44049116 0.44049116
0.26184421 0.44049116 0.44049116
0.31518939 0.44049116 0.44049116
0.37492303 0.44049116 0.44049116
0.44049116 0.44049116 0.44049116
