src/ffmpeg_scripts/luts/flog-experimental_-3p00.cube
TITLE "flog-experimental_-3p00"
LUT_3D_SIZE 33
# Fujifilm F-Log/Rec2020 -> PQ (EOTF Only)/Rec2020, CineEI Shift -3.00, Black Level 0.00% IRE, Input 109% -> Output 100% - Created with LUTCalc v4.01 by Ben Turley October 2020
0.00000073 0.00000073 0.00000073
0.00000073 0.00000073 0.00000073
0.00000073 0.00000073 0.00000073
0.00996846 0.00000073 0.00000073
0.06750411 0.00000073 0.00000073
0.09472515 0.00000073 0.00000073
0.11670153 0.00000073 0.00000073
0.13647879 0.00000073 0.00000073
0.15520140 0.00000073 0.00000073
0.17344346 0.00000073 0.00000073
0.19154110 0.00000073 0.00000073
0.20971124 0.00000073 0.00000073
0.22810329 0.00000073 0.00000073
0.24682487 0.00000073 0.00000073
0.26595571 0.00000073 0.00000073
0.28555582 0.00000073 0.00000073
0.30567053 0.00000073 0.00000073
0.32633376 0.00000073 0.00000073
0.34757023 0.00000073 0.00000073
0.36939699 0.00000073 0.00000073
0.39182460 0.00000073 0.00000073
0.41485797 0.00000073 0.00000073
0.43849705 0.00000073 0.00000073
0.46273737 0.00000073 0.00000073
0.48757055 0.00000073 0.00000073
0.51298466 0.00000073 0.00000073
0.53896460 0.00000073 0.00000073
0.56549244 0.00000073 0.00000073
0.59254769 0.00000073 0.00000073
0.62010759 0.00000073 0.00000073
0.64814739 0.00000073 0.00000073
0.67664058 0.00000073 0.00000073
0.70555912 0.00000073 0.00000073
0.00000073 0.00000073 0.00000073
0.00000073 0.00000073 0.00000073
0.00000073 0.00000073 0.00000073
0.00996846 0.00000073 0.00000073
0.06750411 0.00000073 0.00000073
0.09472515 0.00000073 0.00000073
0.11670153 0.00000073 0.00000073
0.13647879 0.00000073 0.00000073
0.15520140 0.00000073 0.00000073
0.17344346 0.00000073 0.00000073
0.19154110 0.00000073 0.00000073
0.20971124 0.00000073 0.00000073
0.22810329 0.00000073 0.00000073
0.24682487 0.00000073 0.00000073
0.26595571 0.00000073 0.00000073
0.28555582 0.00000073 0.00000073
0.30567053 0.00000073 0.00000073
0.32633376 0.00000073 0.00000073
0.34757023 0.00000073 0.00000073
0.36939699 0.00000073 0.00000073
0.39182460 0.00000073 0.00000073
0.41485797 0.00000073 0.00000073
0.43849705 0.00000073 0.00000073
0.46273737 0.00000073 0.00000073
0.48757055 0.00000073 0.00000073
0.51298466 0.00000073 0.00000073
0.53896460 0.00000073 0.00000073
0.56549244 0.00000073 0.00000073
0.59254769 0.00000073 0.00000073
0.62010759 0.00000073 0.00000073
0.64814739 0.00000073 0.00000073
0.67664058 0.00000073 0.00000073
0.70555912 0.00000073 0.00000073
0.00000073 0.00000073 0.00000073
0.00000073 0.00000073 0.00000073
0.00000073 0.00000073 0.00000073
0.00996846 0.00000073 0.00000073
0.06750411 0.00000073 0.00000073
0.09472515 0.00000073 0.00000073
0.11670153 0.00000073 0.00000073
0.13647879 0.00000073 0.00000073
0.15520140 0.00000073 0.00000073
0.17344346 0.00000073 0.00000073
0.19154110 0.00000073 0.00000073
0.20971124 0.00000073 0.00000073
0.22810329 0.00000073 0.00000073
0.24682487 0.00000073 0.00000073
0.26595571 0.00000073 0.00000073
0.28555582 0.00000073 0.00000073
0.30567053 0.00000073 0.00000073
0.32633376 0.00000073 0.00000073
0.34757023 0.00000073 0.00000073
0.36939699 0.00000073 0.00000073
0.39182460 0.00000073 0.00000073
0.41485797 0.00000073 0.00000073
0.43849705 0.00000073 0.00000073
0.46273737 0.00000073 0.00000073
0.48757055 0.00000073 0.00000073
0.51298466 0.00000073 0.00000073
0.53896460 0.00000073 0.00000073
0.56549244 0.00000073 0.00000073
0.59254769 0.00000073 0.00000073
0.62010759 0.00000073 0.00000073
0.64814739 0.00000073 0.00000073
0.67664058 0.00000073 0.00000073
0.70555912 0.00000073 0.00000073
0.00000073 0.00996846 0.00000073
0.00000073 0.00996846 0.00000073
0.00000073 0.00996846 0.00000073
0.00996846 0.00996846 0.00000073
0.06750411 0.00996846 0.00000073
0.09472515 0.00996846 0.00000073
0.11670153 0.00996846 0.00000073
0.13647879 0.00996846 0.00000073
0.15520140 0.00996846 0.00000073
0.17344346 0.00996846 0.00000073
0.19154110 0.00996846 0.00000073
0.20971124 0.00996846 0.00000073
0.22810329 0.00996846 0.00000073
0.24682487 0.00996846 0.00000073
0.26595571 0.00996846 0.00000073
0.28555582 0.00996846 0.00000073
0.30567053 0.00996846 0.00000073
0.32633376 0.00996846 0.00000073
0.34757023 0.00996846 0.00000073
0.36939699 0.00996846 0.00000073
0.39182460 0.00996846 0.00000073
0.41485797 0.00996846 0.00000073
0.43849705 0.00996846 0.00000073
0.46273737 0.00996846 0.00000073
0.48757055 0.00996846 0.00000073
0.51298466 0.00996846 0.00000073
0.53896460 0.00996846 0.00000073
0.56549244 0.00996846 0.00000073
0.59254769 0.00996846 0.00000073
0.62010759 0.00996846 0.00000073
0.64814739 0.00996846 0.00000073
0.67664058 0.00996846 0.00000073
0.70555912 0.00996846 0.00000073
0.00000073 0.06750411 0.00000073
0.00000073 0.06750411 0.00000073
0.00000073 0.06750411 0.00000073
0.00996846 0.06750411 0.00000073
0.06750411 0.06750411 0.00000073
0.09472515 0.06750411 0.00000073
0.11670153 0.06750411 0.00000073
0.13647879 0.06750411 0.00000073
0.15520140 0.06750411 0.00000073
0.17344346 0.06750411 0.00000073
0.19154110 0.06750411 0.00000073
0.20971124 0.06750411 0.00000073
0.22810329 0.06750411 0.00000073
0.24682487 0.06750411 0.00000073
0.26595571 0.06750411 0.00000073
0.28555582 0.06750411 0.00000073
0.30567053 0.06750411 0.00000073
0.32633376 0.06750411 0.00000073
0.34757023 0.06750411 0.00000073
0.36939699 0.06750411 0.00000073
0.39182460 0.06750411 0.00000073
0.41485797 0.06750411 0.00000073
0.43849705 0.06750411 0.00000073
0.46273737 0.06750411 0.00000073
0.48757055 0.06750411 0.00000073
0.51298466 0.06750411 0.00000073
0.53896460 0.06750411 0.00000073
0.56549244 0.06750411 0.00000073
0.59254769 0.06750411 0.00000073
0.62010759 0.06750411 0.00000073
0.64814739 0.06750411 0.00000073
0.67664058 0.06750411 0.00000073
0.70555912 0.06750411 0.00000073
0.00000073 0.09472515 0.00000073
0.00000073 0.09472515 0.00000073
0.00000073 0.09472515 0.00000073
0.00996846 0.09472515 0.00000073
0.06750411 0.09472515 0.00000073
0.09472515 0.09472515 0.00000073
0.11670153 0.09472515 0.00000073
0.13647879 0.09472515 0.00000073
0.15520140 0.09472515 0.00000073
0.17344346 0.09472515 0.00000073
0.19154110 0.09472515 0.00000073
0.20971124 0.09472515 0.00000073
0.22810329 0.09472515 0.00000073
0.24682487 0.09472515 0.00000073
0.26595571 0.09472515 0.00000073
0.28555582 0.09472515 0.00000073
0.30567053 0.09472515 0.00000073
0.32633376 0.09472515 0.00000073
0.34757023 0.09472515 0.00000073
0.36939699 0.09472515 0.00000073
0.39182460 0.09472515 0.00000073
0.41485797 0.09472515 0.00000073
0.43849705 0.09472515 0.00000073
0.46273737 0.09472515 0.00000073
0.48757055 0.09472515 0.00000073
0.51298466 0.09472515 0.00000073
0.53896460 0.09472515 0.00000073
0.56549244 0.09472515 0.00000073
0.59254769 0.09472515 0.00000073
0.62010759 0.09472515 0.00000073
0.64814739 0.09472515 0.00000073
0.67664058 0.09472515 0.00000073
0.70555912 0.09472515 0.00000073
0.00000073 0.11670153 0.00000073
0.00000073 0.11670153 0.00000073
0.00000073 0.11670153 0.00000073
0.00996846 0.11670153 0.00000073
0.06750411 0.11670153 0.00000073
0.09472515 0.11670153 0.00000073
0.11670153 0.11670153 0.00000073
0.13647879 0.11670153 0.00000073
0.15520140 0.11670153 0.00000073
0.17344346 0.11670153 0.00000073
0.19154110 0.11670153 0.00000073
0.20971124 0.11670153 0.00000073
0.22810329 0.11670153 0.00000073
0.24682487 0.11670153 0.00000073
0.26595571 0.11670153 0.00000073
0.28555582 0.11670153 0.00000073
0.30567053 0.11670153 0.00000073
0.32633376 0.11670153 0.00000073
0.34757023 0.11670153 0.00000073
0.36939699 0.11670153 0.00000073
0.39182460 0.11670153 0.00000073
0.41485797 0.11670153 0.00000073
0.43849705 0.11670153 0.00000073
0.46273737 0.11670153 0.00000073
0.48757055 0.11670153 0.00000073
0.51298466 0.11670153 0.00000073
0.53896460 0.11670153 0.00000073
0.56549244 0.11670153 0.00000073
0.59254769 0.11670153 0.00000073
0.62010759 0.11670153 0.00000073
0.64814739 0.11670153 0.00000073
0.67664058 0.11670153 0.00000073
0.70555912 0.11670153 0.00000073
0.00000073 0.13647879 0.00000073
0.00000073 0.13647879 0.00000073
0.00000073 0.13647879 0.00000073
0.00996846 0.13647879 0.00000073
0.06750411 0.13647879 0.00000073
0.09472515 0.13647879 0.00000073
0.11670153 0.13647879 0.00000073
0.13647879 0.13647879 0.00000073
0.15520140 0.13647879 0.00000073
0.17344346 0.13647879 0.00000073
0.19154110 0.13647879 0.00000073
0.20971124 0.13647879 0.00000073
0.22810329 0.13647879 0.00000073
0.24682487 0.13647879 0.00000073
0.26595571 0.13647879 0.00000073
0.28555582 0.13647879 0.00000073
0.30567053 0.13647879 0.00000073
0.32633376 0.13647879 0.00000073
0.34757023 0.13647879 0.00000073
0.36939699 0.13647879 0.00000073
0.39182460 0.13647879 0.00000073
0.41485797 0.13647879 0.00000073
0.43849705 0.13647879 0.00000073
0.46273737 0.13647879 0.00000073
0.48757055 0.13647879 0.00000073
0.51298466 0.13647879 0.00000073
0.53896460 0.13647879 0.00000073
0.56549244 0.13647879 0.00000073
0.59254769 0.13647879 0.00000073
0.62010759 0.13647879 0.00000073
0.64814739 0.13647879 0.00000073
0.67664058 0.13647879 0.00000073
0.70555912 0.13647879 0.00000073
0.00000073 0.15520140 0.00000073
0.00000073 0.15520140 0.00000073
0.00000073 0.15520140 0.00000073
0.00996846 0.15520140 0.00000073
0.06750411 0.15520140 0.00000073
0.09472515 0.15520140 0.00000073
0.11670153 0.15520140 0.00000073
0.13647879 0.15520140 0.00000073
0.15520140 0.15520140 0.00000073
0.17344346 0.15520140 0.00000073
0.19154110 0.15520140 0.00000073
0.20971124 0.15520140 0.00000073
0.22810329 0.15520140 0.00000073
0.24682487 0.15520140 0.00000073
0.26595571 0.15520140 0.00000073
0.28555582 0.15520140 0.00000073
0.30567053 0.15520140 0.00000073
0.32633376 0.15520140 0.00000073
0.34757023 0.15520140 0.00000073
0.36939699 0.15520140 0.00000073
0.39182460 0.15520140 0.00000073
0.41485797 0.15520140 0.00000073
0.43849705 0.15520140 0.00000073
0.46273737 0.15520140 0.00000073
0.48757055 0.15520140 0.00000073
0.51298466 0.15520140 0.00000073
0.53896460 0.15520140 0.00000073
0.56549244 0.15520140 0.00000073
0.59254769 0.15520140 0.00000073
0.62010759 0.15520140 0.00000073
0.64814739 0.15520140 0.00000073
0.67664058 0.15520140 0.00000073
0.70555912 0.15520140 0.00000073
0.00000073 0.17344346 0.00000073
0.00000073 0.17344346 0.00000073
0.00000073 0.17344346 0.00000073
0.00996846 0.17344346 0.00000073
0.06750411 0.17344346 0.00000073
0.09472515 0.17344346 0.00000073
0.11670153 0.17344346 0.00000073
0.13647879 0.17344346 0.00000073
0.15520140 0.17344346 0.00000073
0.17344346 0.17344346 0.00000073
0.19154110 0.17344346 0.00000073
0.20971124 0.17344346 0.00000073
0.22810329 0.17344346 0.00000073
0.24682487 0.17344346 0.00000073
0.26595571 0.17344346 0.00000073
0.28555582 0.17344346 0.00000073
0.30567053 0.17344346 0.00000073
0.32633376 0.17344346 0.00000073
0.34757023 0.17344346 0.00000073
0.36939699 0.17344346 0.00000073
0.39182460 0.17344346 0.00000073
0.41485797 0.17344346 0.00000073
0.43849705 0.17344346 0.00000073
0.46273737 0.17344346 0.00000073
0.48757055 0.17344346 0.00000073
0.51298466 0.17344346 0.00000073
0.53896460 0.17344346 0.00000073
0.56549244 0.17344346 0.00000073
0.59254769 0.17344346 0.00000073
0.62010759 0.17344346 0.00000073
0.64814739 0.17344346 0.00000073
0.67664058 0.17344346 0.00000073
0.70555912 0.17344346 0.00000073
0.00000073 0.19154110 0.00000073
0.00000073 0.19154110 0.00000073
0.00000073 0.19154110 0.00000073
0.00996846 0.19154110 0.00000073
0.06750411 0.19154110 0.00000073
0.09472515 0.19154110 0.00000073
0.11670153 0.19154110 0.00000073
0.13647879 0.19154110 0.00000073
0.15520140 0.19154110 0.00000073
0.17344346 0.19154110 0.00000073
0.19154110 0.19154110 0.00000073
0.20971124 0.19154110 0.00000073
0.22810329 0.19154110 0.00000073
0.24682487 0.19154110 0.00000073
0.26595571 0.19154110 0.00000073
0.28555582 0.19154110 0.00000073
0.30567053 0.19154110 0.00000073
0.32633376 0.19154110 0.00000073
0.34757023 0.19154110 0.00000073
0.36939699 0.19154110 0.00000073
0.39182460 0.19154110 0.00000073
0.41485797 0.19154110 0.00000073
0.43849705 0.19154110 0.00000073
0.46273737 0.19154110 0.00000073
0.48757055 0.19154110 0.00000073
0.51298466 0.19154110 0.00000073
0.53896460 0.19154110 0.00000073
0.56549244 0.19154110 0.00000073
0.59254769 0.19154110 0.00000073
0.62010759 0.19154110 0.00000073
0.64814739 0.19154110 0.00000073
0.67664058 0.19154110 0.00000073
0.70555912 0.19154110 0.00000073
0.00000073 0.20971124 0.00000073
0.00000073 0.20971124 0.00000073
0.00000073 0.20971124 0.00000073
0.00996846 0.20971124 0.00000073
0.06750411 0.20971124 0.00000073
0.09472515 0.20971124 0.00000073
0.11670153 0.20971124 0.00000073
0.13647879 0.20971124 0.00000073
0.15520140 0.20971124 0.00000073
0.17344346 0.20971124 0.00000073
0.19154110 0.20971124 0.00000073
0.20971124 0.20971124 0.00000073
0.22810329 0.20971124 0.00000073
0.24682487 0.20971124 0.00000073
0.26595571 0.20971124 0.00000073
0.28555582 0.20971124 0.00000073
0.30567053 0.20971124 0.00000073
0.32633376 0.20971124 0.00000073
0.34757023 0.20971124 0.00000073
0.36939699 0.20971124 0.00000073
0.39182460 0.20971124 0.00000073
0.41485797 0.20971124 0.00000073
0.43849705 0.20971124 0.00000073
0.46273737 0.20971124 0.00000073
0.48757055 0.20971124 0.00000073
0.51298466 0.20971124 0.00000073
0.53896460 0.20971124 0.00000073
0.56549244 0.20971124 0.00000073
0.59254769 0.20971124 0.00000073
0.62010759 0.20971124 0.00000073
0.64814739 0.20971124 0.00000073
0.67664058 0.20971124 0.00000073
0.70555912 0.20971124 0.00000073
0.00000073 0.22810329 0.00000073
0.00000073 0.22810329 0.00000073
0.00000073 0.22810329 0.00000073
0.00996846 0.22810329 0.00000073
0.06750411 0.22810329 0.00000073
0.09472515 0.22810329 0.00000073
0.11670153 0.22810329 0.00000073
0.13647879 0.22810329 0.00000073
0.15520140 0.22810329 0.00000073
0.17344346 0.22810329 0.00000073
0.19154110 0.22810329 0.00000073
0.20971124 0.22810329 0.00000073
0.22810329 0.22810329 0.00000073
0.24682487 0.22810329 0.00000073
0.26595571 0.22810329 0.00000073
0.28555582 0.22810329 0.00000073
0.30567053 0.22810329 0.00000073
0.32633376 0.22810329 0.00000073
0.34757023 0.22810329 0.00000073
0.36939699 0.22810329 0.00000073
0.39182460 0.22810329 0.00000073
0.41485797 0.22810329 0.00000073
0.43849705 0.22810329 0.00000073
0.46273737 0.22810329 0.00000073
0.48757055 0.22810329 0.00000073
0.51298466 0.22810329 0.00000073
0.53896460 0.22810329 0.00000073
0.56549244 0.22810329 0.00000073
0.59254769 0.22810329 0.00000073
0.62010759 0.22810329 0.00000073
0.64814739 0.22810329 0.00000073
0.67664058 0.22810329 0.00000073
0.70555912 0.22810329 0.00000073
0.00000073 0.24682487 0.00000073
0.00000073 0.24682487 0.00000073
0.00000073 0.24682487 0.00000073
0.00996846 0.24682487 0.00000073
0.06750411 0.24682487 0.00000073
0.09472515 0.24682487 0.00000073
0.11670153 0.24682487 0.00000073
0.13647879 0.24682487 0.00000073
0.15520140 0.24682487 0.00000073
0.17344346 0.24682487 0.00000073
0.19154110 0.24682487 0.00000073
0.20971124 0.24682487 0.00000073
0.22810329 0.24682487 0.00000073
0.24682487 0.24682487 0.00000073
0.26595571 0.24682487 0.00000073
0.28555582 0.24682487 0.00000073
0.30567053 0.24682487 0.00000073
0.32633376 0.24682487 0.00000073
0.34757023 0.24682487 0.00000073
0.36939699 0.24682487 0.00000073
0.39182460 0.24682487 0.00000073
0.41485797 0.24682487 0.00000073
0.43849705 0.24682487 0.00000073
0.46273737 0.24682487 0.00000073
0.48757055 0.24682487 0.00000073
0.51298466 0.24682487 0.00000073
0.53896460 0.24682487 0.00000073
0.56549244 0.24682487 0.00000073
0.59254769 0.24682487 0.00000073
0.62010759 0.24682487 0.00000073
0.64814739 0.24682487 0.00000073
0.67664058 0.24682487 0.00000073
0.70555912 0.24682487 0.00000073
0.00000073 0.26595571 0.00000073
0.00000073 0.26595571 0.00000073
0.00000073 0.26595571 0.00000073
0.00996846 0.26595571 0.00000073
0.06750411 0.26595571 0.00000073
0.09472515 0.26595571 0.00000073
0.11670153 0.26595571 0.00000073
0.13647879 0.26595571 0.00000073
0.15520140 0.26595571 0.00000073
0.17344346 0.26595571 0.00000073
0.19154110 0.26595571 0.00000073
0.20971124 0.26595571 0.00000073
0.22810329 0.26595571 0.00000073
0.24682487 0.26595571 0.00000073
0.26595571 0.26595571 0.00000073
0.28555582 0.26595571 0.00000073
0.30567053 0.26595571 0.00000073
0.32633376 0.26595571 0.00000073
0.34757023 0.26595571 0.00000073
0.36939699 0.26595571 0.00000073
0.39182460 0.26595571 0.00000073
0.41485797 0.26595571 0.00000073
0.43849705 0.26595571 0.00000073
0.46273737 0.26595571 0.00000073
0.48757055 0.26595571 0.00000073
0.51298466 0.26595571 0.00000073
0.53896460 0.26595571 0.00000073
0.56549244 0.26595571 0.00000073
0.59254769 0.26595571 0.00000073
0.62010759 0.26595571 0.00000073
0.64814739 0.26595571 0.00000073
0.67664058 0.26595571 0.00000073
0.70555912 0.26595571 0.00000073
0.00000073 0.28555582 0.00000073
0.00000073 0.28555582 0.00000073
0.00000073 0.28555582 0.00000073
0.00996846 0.28555582 0.00000073
0.06750411 0.28555582 0.00000073
0.09472515 0.28555582 0.00000073
0.11670153 0.28555582 0.00000073
0.13647879 0.28555582 0.00000073
0.15520140 0.28555582 0.00000073
0.17344346 0.28555582 0.00000073
0.19154110 0.28555582 0.00000073
0.20971124 0.28555582 0.00000073
0.22810329 0.28555582 0.00000073
0.24682487 0.28555582 0.00000073
0.26595571 0.28555582 0.00000073
0.28555582 0.28555582 0.00000073
0.30567053 0.28555582 0.00000073
0.32633376 0.28555582 0.00000073
0.34757023 0.28555582 0.00000073
0.36939699 0.28555582 0.00000073
0.39182460 0.28555582 0.00000073
0.41485797 0.28555582 0.00000073
0.43849705 0.28555582 0.00000073
0.46273737 0.28555582 0.00000073
0.48757055 0.28555582 0.00000073
0.51298466 0.28555582 0.00000073
0.53896460 0.28555582 0.00000073
0.56549244 0.28555582 0.00000073
0.59254769 0.28555582 0.00000073
0.62010759 0.28555582 0.00000073
0.64814739 0.28555582 0.00000073
0.67664058 0.28555582 0.00000073
0.70555912 0.28555582 0.00000073
0.00000073 0.30567053 0.00000073
0.00000073 0.30567053 0.00000073
0.00000073 0.30567053 0.00000073
0.00996846 0.30567053 0.00000073
0.06750411 0.30567053 0.00000073
0.09472515 0.30567053 0.00000073
0.11670153 0.30567053 0.00000073
0.13647879 0.30567053 0.00000073
0.15520140 0.30567053 0.00000073
0.17344346 0.30567053 0.00000073
0.19154110 0.30567053 0.00000073
0.20971124 0.30567053 0.00000073
0.22810329 0.30567053 0.00000073
0.24682487 0.30567053 0.00000073
0.26595571 0.30567053 0.00000073
0.28555582 0.30567053 0.00000073
0.30567053 0.30567053 0.00000073
0.32633376 0.30567053 0.00000073
0.34757023 0.30567053 0.00000073
0.36939699 0.30567053 0.00000073
0.39182460 0.30567053 0.00000073
0.41485797 0.30567053 0.00000073
0.43849705 0.30567053 0.00000073
0.46273737 0.30567053 0.00000073
0.48757055 0.30567053 0.00000073
0.51298466 0.30567053 0.00000073
0.53896460 0.30567053 0.00000073
0.56549244 0.30567053 0.00000073
0.59254769 0.30567053 0.00000073
0.62010759 0.30567053 0.00000073
0.64814739 0.30567053 0.00000073
0.67664058 0.30567053 0.00000073
0.70555912 0.30567053 0.00000073
0.00000073 0.32633376 0.00000073
0.00000073 0.32633376 0.00000073
0.00000073 0.32633376 0.00000073
0.00996846 0.32633376 0.00000073
0.06750411 0.32633376 0.00000073
0.09472515 0.32633376 0.00000073
0.11670153 0.32633376 0.00000073
0.13647879 0.32633376 0.00000073
0.15520140 0.32633376 0.00000073
0.17344346 0.32633376 0.00000073
0.19154110 0.32633376 0.00000073
0.20971124 0.32633376 0.00000073
0.22810329 0.32633376 0.00000073
0.24682487 0.32633376 0.00000073
0.26595571 0.32633376 0.00000073
0.28555582 0.32633376 0.00000073
0.30567053 0.32633376 0.00000073
0.32633376 0.32633376 0.00000073
0.34757023 0.32633376 0.00000073
0.36939699 0.32633376 0.00000073
0.39182460 0.32633376 0.00000073
0.41485797 0.32633376 0.00000073
0.43849705 0.32633376 0.00000073
0.46273737 0.32633376 0.00000073
0.48757055 0.32633376 0.00000073
0.51298466 0.32633376 0.00000073
0.53896460 0.32633376 0.00000073
0.56549244 0.32633376 0.00000073
0.59254769 0.32633376 0.00000073
0.62010759 0.32633376 0.00000073
0.64814739 0.32633376 0.00000073
0.67664058 0.32633376 0.00000073
0.70555912 0.32633376 0.00000073
0.00000073 0.34757023 0.00000073
0.00000073 0.34757023 0.00000073
0.00000073 0.34757023 0.00000073
0.00996846 0.34757023 0.00000073
0.06750411 0.34757023 0.00000073
0.09472515 0.34757023 0.00000073
0.11670153 0.34757023 0.00000073
0.13647879 0.34757023 0.00000073
0.15520140 0.34757023 0.00000073
0.17344346 0.34757023 0.00000073
0.19154110 0.34757023 0.00000073
0.20971124 0.34757023 0.00000073
0.22810329 0.34757023 0.00000073
0.24682487 0.34757023 0.00000073
0.26595571 0.34757023 0.00000073
0.28555582 0.34757023 0.00000073
0.30567053 0.34757023 0.00000073
0.32633376 0.34757023 0.00000073
0.34757023 0.34757023 0.00000073
0.36939699 0.34757023 0.00000073
0.39182460 0.34757023 0.00000073
0.41485797 0.34757023 0.00000073
0.43849705 0.34757023 0.00000073
0.46273737 0.34757023 0.00000073
0.48757055 0.34757023 0.00000073
0.51298466 0.34757023 0.00000073
0.53896460 0.34757023 0.00000073
0.56549244 0.34757023 0.00000073
0.59254769 0.34757023 0.00000073
0.62010759 0.34757023 0.00000073
0.64814739 0.34757023 0.00000073
0.67664058 0.34757023 0.00000073
0.70555912 0.34757023 0.00000073
0.00000073 0.36939699 0.00000073
0.00000073 0.36939699 0.00000073
0.00000073 0.36939699 0.00000073
0.00996846 0.36939699 0.00000073
0.06750411 0.36939699 0.00000073
0.09472515 0.36939699 0.00000073
0.11670153 0.36939699 0.00000073
0.13647879 0.36939699 0.00000073
0.15520140 0.36939699 0.00000073
0.17344346 0.36939699 0.00000073
0.19154110 0.36939699 0.00000073
0.20971124 0.36939699 0.00000073
0.22810329 0.36939699 0.00000073
0.24682487 0.36939699 0.00000073
0.26595571 0.36939699 0.00000073
0.28555582 0.36939699 0.00000073
0.30567053 0.36939699 0.00000073
0.32633376 0.36939699 0.00000073
0.34757023 0.36939699 0.00000073
0.36939699 0.36939699 0.00000073
0.39182460 0.36939699 0.00000073
0.41485797 0.36939699 0.00000073
0.43849705 0.36939699 0.00000073
0.46273737 0.36939699 0.00000073
0.48757055 0.36939699 0.00000073
0.51298466 0.36939699 0.00000073
0.53896460 0.36939699 0.00000073
0.56549244 0.36939699 0.00000073
0.59254769 0.36939699 0.00000073
0.62010759 0.36939699 0.00000073
0.64814739 0.36939699 0.00000073
0.67664058 0.36939699 0.00000073
0.70555912 0.36939699 0.00000073
0.00000073 0.39182460 0.00000073
0.00000073 0.39182460 0.00000073
0.00000073 0.39182460 0.00000073
0.00996846 0.39182460 0.00000073
0.06750411 0.39182460 0.00000073
0.09472515 0.39182460 0.00000073
0.11670153 0.39182460 0.00000073
0.13647879 0.39182460 0.00000073
0.15520140 0.39182460 0.00000073
0.17344346 0.39182460 0.00000073
0.19154110 0.39182460 0.00000073
0.20971124 0.39182460 0.00000073
0.22810329 0.39182460 0.00000073
0.24682487 0.39182460 0.00000073
0.26595571 0.39182460 0.00000073
0.28555582 0.39182460 0.00000073
0.30567053 0.39182460 0.00000073
0.32633376 0.39182460 0.00000073
0.34757023 0.39182460 0.00000073
0.36939699 0.39182460 0.00000073
0.39182460 0.39182460 0.00000073
0.41485797 0.39182460 0.00000073
0.43849705 0.39182460 0.00000073
0.46273737 0.39182460 0.00000073
0.48757055 0.39182460 0.00000073
0.51298466 0.39182460 0.00000073
0.53896460 0.39182460 0.00000073
0.56549244 0.39182460 0.00000073
0.59254769 0.39182460 0.00000073
0.62010759 0.39182460 0.00000073
0.64814739 0.39182460 0.00000073
0.67664058 0.39182460 0.00000073
0.70555912 0.39182460 0.00000073
0.00000073 0.41485797 0.00000073
0.00000073 0.41485797 0.00000073
0.00000073 0.41485797 0.00000073
0.00996846 0.41485797 0.00000073
0.06750411 0.41485797 0.00000073
0.09472515 0.41485797 0.00000073
0.11670153 0.41485797 0.00000073
0.13647879 0.41485797 0.00000073
0.15520140 0.41485797 0.00000073
0.17344346 0.41485797 0.00000073
0.19154110 0.41485797 0.00000073
0.20971124 0.41485797 0.00000073
0.22810329 0.41485797 0.00000073
0.24682487 0.41485797 0.00000073
0.26595571 0.41485797 0.00000073
0.28555582 0.41485797 0.00000073
0.30567053 0.41485797 0.00000073
0.32633376 0.41485797 0.00000073
0.34757023 0.41485797 0.00000073
0.36939699 0.41485797 0.00000073
0.39182460 0.41485797 0.00000073
0.41485797 0.41485797 0.00000073
0.43849705 0.41485797 0.00000073
0.46273737 0.41485797 0.00000073
0.48757055 0.41485797 0.00000073
0.51298466 0.41485797 0.00000073
0.53896460 0.41485797 0.00000073
