src/ffmpeg_scripts/luts/flog-smpte2084_-3p00.cube
TITLE "flog-smpte2084_-3p00"
LUT_3D_SIZE 5
# Fujifilm F-Log/Rec2020 -> PQ (EOTF Only)/Rec2020, CineEI Shift -3.00, Black Level 0.00% IRE, Input 109% -> Output 109% - Created with LUTCalc v4.01 by Ben Turley October 2020
0.06256172 0.06256172 0.06256172
0.15847574 0.06256172 0.06256172
0.25146566 0.06256172 0.06256172
0.36387988 0.06256172 0.06256172
0.49859683 0.06256172 0.06256172
0.06256172 0.15847574 0.06256172
0.15847574 0.15847574 0.06256172
0.25146566 0.15847574 0.06256172
0.36387988 0.15847574 0.06256172
0.49859683 0.15847574 0.06256172
0.06256172 0.25146566 0.06256172
0.15847574 0.25146566 0.06256172
0.25146566 0.25146566 0.06256172
0.36387988 0.25146566 0.06256172
0.49859683 0.25146566 0.06256172
0.06256172 0.36387988 0.06256172
0.15847574 0.36387988 0.06256172
0.25146566 0.36387988 0.06256172
0.36387988 0.36387988 0.06256172
0.49859683 0.36387988 0.06256172
0.06256172 0.49859683 0.06256172
0.15847574 0.49859683 0.06256172
0.25146566 0.49859683 0.06256172
0.36387988 0.49859683 0.06256172
0.49859683 0.49859683 0.06256172
0.06256172 0.06256172 0.15847574
0.15847574 0.06256172 0.15847574
0.25146566 0.06256172 0.15847574
0.36387988 0.06256172 0.15847574
0.49859683 0.06256172 0.15847574
0.06256172 0.15847574 0.15847574
0.15847574 0.15847574 0.15847574
0.25146566 0.15847574 0.15847574
0.36387988 0.15847574 0.15847574
0.49859683 0.15847574 0.15847574
0.06256172 0.25146566 0.15847574
0.15847574 0.25146566 0.15847574
0.25146566 0.25146566 0.15847574
0.36387988 0.25146566 0.15847574
0.49859683 0.25146566 0.15847574
0.06256172 0.36387988 0.15847574
0.15847574 0.36387988 0.15847574
0.25146566 0.36387988 0.15847574
0.36387988 0.36387988 0.15847574
0.49859683 0.36387988 0.15847574
0.06256172 0.49859683 0.15847574
0.15847574 0.49859683 0.15847574
0.25146566 0.49859683 0.15847574
0.36387988 0.49859683 0.15847574
0.49859683 0.49859683 0.15847574
0.06256172 0.06256172 0.25146566
0.15847574 0.06256172 0.25146566
0.25146566 0.06256172 0.25146566
0.36387988 0.06256172 0.25146566
0.49859683 0.06256172 0.25146566
0.06256172 0.15847574 0.25146566
0.15847574 0.15847574 0.25146566
0.25146566 0.15847574 0.25146566
0.36387988 0.15847574 0.25146566
0.49859683 0.15847574 0.25146566
0.06256172 0.25146566 0.25146566
0.15847574 0.25146566 0.25146566
0.25146566 0.25146566 0.25146566
0.36387988 0.25146566 0.25146566
0.49859683 0.25146566 0.25146566
0.06256172 0.36387988 0.25146566
0.15847574 0.36387988 0.25146566
0.25146566 0.36387988 0.25146566
0.36387988 0.36387988 0.25146566
0.49859683 0.36387988 0.25146566
0.06256172 0.49859683 0.25146566
0.15847574 0.49859683 0.25146566
0.25146566 0.49859683 0.25146566
0.36387988 0.49859683 0.25146566
0.49859683 0.49859683 0.25146566
0.06256172 0.06256172 0.36387988
0.15847574 0.06256172 0.36387988
0.25146566 0.06256172 0.36387988
0.36387988 0.06256172 0.36387988
0.49859683 0.06256172 0.36387988
0.06256172 0.15847574 0.36387988
0.15847574 0.15847574 0.36387988
0.25146566 0.15847574 0.36387988
0.36387988 0.15847574 0.36387988
0.49859683 0.15847574 0.36387988
0.06256172 0.25146566 0.36387988
0.15847574 0.25146566 0.36387988
0.25146566 0.25146566 0.36387988
0.36387988 0.25146566 0.36387988
0.49859683 0.25146566 0.36387988
0.06256172 0.36387988 0.36387988
0.15847574 0.36387988 0.36387988
0.25146566 0.36387988 0.36387988
0.36387988 0.36387988 0.36387988
0.49859683 0.36387988 0.36387988
0.06256172 0.49859683 0.36387988
0.15847574 0.49859683 0.36387988
0.25146566 0.49859683 0.36387988
0.36387988 0.49859683 0.36387988
0.49859683 0.49859683 0.36387988
0.06256172 0.06256172 0.49859683
0.15847574 0.06256172 0.49859683
0.25146566 0.06256172 0.49859683
0.36387988 0.06256172 0.49859683
0.49859683 0.06256172 0.49859683
0.06256172 0.15847574 0.49859683
0.15847574 0.15847574 0.49859683
0.25146566 0.15847574 0.49859683
0.36387988 0.15847574 0.49859683
0.49859683 0.15847574 0.49859683
0.06256172 0.25146566 0.49859683
0.15847574 0.25146566 0.49859683
0.25146566 0.25146566 0.49859683
0.36387988 0.25146566 0.49859683
0.49859683 0.25146566 0.49859683
0.06256172 0.36387988 0.49859683
0.15847574 0.36387988 0.49859683
0.25146566 0.36387988 0.49859683
0.36387988 0.36387988 0.49859683
0.49859683 0.36387988 0.49859683
0.06256172 0.49859683 0.49859683
0.15847574 0.49859683 0.49859683
0.25146566 0.49859683 0.49859683
0.36387988 0.49859683 0.49859683
0.49859683 0.49859683 0.49859683
