src/ffmpeg_scripts/luts/flog-smpte2084_0p67.cube
TITLE "flog-smpte2084_0p67"
LUT_3D_SIZE 5
# Fujifilm F-Log/Rec2020 -> PQ (EOTF Only)/Rec2020, CineEI Shift 0.67, Black Level 0.00% IRE, Input 109% -> Output 109% - Created with LUTCalc v4.01 by Ben Turley October 2020
0.06256172 0.06256172 0.06256172
0.28148384 0.06256172 0.06256172
0.42663486 0.06256172 0.06256172
0.57458494 0.06256172 0.06256172
0.72972209 0.06256172 0.06256172
0.06256172 0.28148384 0.06256172
0.28148384 0.28148384 0.06256172
0.42663486 0.28148384 0.06256172
0.57458494 0.28148384 0.06256172
0.72972209 0.28148384 0.06256172
0.06256172 0.42663486 0.06256172
0.28148384 0.42663486 0.06256172
0.42663486 0.42663486 0.06256172
0.57458494 0.42663486 0.06256172
0.72972209 0.42663486 0.06256172
0.06256172 0.57458494 0.06256172
0.28148384 0.57458494 0.06256172
0.42663486 0.57458494 0.06256172
0.57458494 0.57458494 0.06256172
0.72972209 0.57458494 0.06256172
0.06256172 0.72972209 0.06256172
0.28148384 0.72972209 0.06256172
0.42663486 0.72972209 0.06256172
0.57458494 0.72972209 0.06256172
0.72972209 0.72972209 0.06256172
0.06256172 0.06256172 0.28148384
0.28148384 0.06256172 0.28148384
0.42663486 0.06256172 0.28148384
0.57458494 0.06256172 0.28148384
0.72972209 0.06256172 0.28148384
0.06256172 0.28148384 0.28148384
0.28148384 0.28148384 0.28148384
0.42663486 0.28148384 0.28148384
0.57458494 0.28148384 0.28148384
0.72972209 0.28148384 0.28148384
0.06256172 0.42663486 0.28148384
0.28148384 0.42663486 0.28148384
0.42663486 0.42663486 0.28148384
0.57458494 0.42663486 0.28148384
0.72972209 0.42663486 0.28148384
0.06256172 0.57458494 0.28148384
0.28148384 0.57458494 0.28148384
0.42663486 0.57458494 0.28148384
0.57458494 0.57458494 0.28148384
0.72972209 0.57458494 0.28148384
0.06256172 0.72972209 0.28148384
0.28148384 0.72972209 0.28148384
0.42663486 0.72972209 0.28148384
0.57458494 0.72972209 0.28148384
0.72972209 0.72972209 0.28148384
0.06256172 0.06256172 0.42663486
0.28148384 0.06256172 0.42663486
0.42663486 0.06256172 0.42663486
0.57458494 0.06256172 0.42663486
0.72972209 0.06256172 0.42663486
0.06256172 0.28148384 0.42663486
0.28148384 0.28148384 0.42663486
0.42663486 0.28148384 0.42663486
0.57458494 0.28148384 0.42663486
0.72972209 0.28148384 0.42663486
0.06256172 0.42663486 0.42663486
0.28148384 0.42663486 0.42663486
0.42663486 0.42663486 0.42663486
0.57458494 0.42663486 0.42663486
0.72972209 0.42663486 0.42663486
0.06256172 0.57458494 0.42663486
0.28148384 0.57458494 0.42663486
0.42663486 0.57458494 0.42663486
0.57458494 0.57458494 0.42663486
0.72972209 0.57458494 0.42663486
0.06256172 0.72972209 0.42663486
0.28148384 0.72972209 0.42663486
0.42663486 0.72972209 0.42663486
0.57458494 0.72972209 0.42663486
0.72972209 0.72972209 0.42663486
0.06256172 0.06256172 0.57458494
0.28148384 0.06256172 0.57458494
0.42663486 0.06256172 0.57458494
0.57458494 0.06256172 0.57458494
0.72972209 0.06256172 0.57458494
0.06256172 0.28148384 0.57458494
0.28148384 0.28148384 0.57458494
0.42663486 0.28148384 0.57458494
0.57458494 0.28148384 0.57458494
0.72972209 0.28148384 0.57458494
0.06256172 0.42663486 0.57458494
0.28148384 0.42663486 0.57458494
0.42663486 0.42663486 0.57458494
0.57458494 0.42663486 0.57458494
0.72972209 0.42663486 0.57458494
0.06256172 0.57458494 0.57458494
0.28148384 0.57458494 0.57458494
0.42663486 0.57458494 0.57458494
0.57458494 0.57458494 0.57458494
0.72972209 0.57458494 0.57458494
0.06256172 0.72972209 0.57458494
0.28148384 0.72972209 0.57458494
0.42663486 0.72972209 0.57458494
0.57458494 0.72972209 0.57458494
0.72972209 0.72972209 0.57458494
0.06256172 0.06256172 0.72972209
0.28148384 0.06256172 0.72972209
0.42663486 0.06256172 0.72972209
0.57458494 0.06256172 0.72972209
0.72972209 0.06256172 0.72972209
0.06256172 0.28148384 0.72972209
0.28148384 0.28148384 0.72972209
0.42663486 0.28148384 0.72972209
0.57458494 0.28148384 0.72972209
0.72972209 0.28148384 0.72972209
0.06256172 0.42663486 0.72972209
0.28148384 0.42663486 0.72972209
0.42663486 0.42663486 0.72972209
0.57458494 0.42663486 0.72972209
0.72972209 0.42663486 0.72972209
0.06256172 0.57458494 0.72972209
0.28148384 0.57458494 0.72972209
0.42663486 0.57458494 0.72972209
0.57458494 0.57458494 0.72972209
0.72972209 0.57458494 0.72972209
0.06256172 0.72972209 0.72972209
0.28148384 0.72972209 0.72972209
0.42663486 0.72972209 0.72972209
0.57458494 0.72972209 0.72972209
0.72972209 0.72972209 0.72972209
