src/ffmpeg_scripts/luts/flog-experimental_2p00.cube
TITLE "flog-experimental_2p00"
LUT_3D_SIZE 5
# Fujifilm F-Log/Rec2020 -> PQ (EOTF Only)/Rec2020, CineEI Shift 2.00, Black Level 0.00% IRE, Input 109% -> Output 100% - Created with LUTCalc v4.01 by Ben Turley October 2020
0.00000073 0.00000073 0.00000073
0.45337282 0.00000073 0.00000073
0.71388076 0.00000073 0.00000073
0.96553298 0.00000073 0.00000073
1.00000000 0.00000073 0.00000073
0.00000073 0.45337282 0.00000073
0.45337282 0.45337282 0.00000073
0.71388076 0.45337282 0.00000073
0.96553298 0.45337282 0.00000073
1.00000000 0.45337282 0.00000073
0.00000073 0.71388076 0.00000073
0.45337282 0.71388076 0.00000073
0.71388076 0.71388076 0.00000073
0.96553298 0.71388076 0.00000073
1.00000000 0.71388076 0.00000073
0.00000073 0.96553298 0.00000073
0.45337282 0.96553298 0.00000073
0.71388076 0.96553298 0.00000073
0.96553298 0.96553298 0.00000073
1.00000000 0.96553298 0.00000073
0.00000073 1.00000000 0.00000073
0.45337282 1.00000000 0.00000073
0.71388076 1.00000000 0.00000073
0.96553298 1.00000000 0.00000073
1.00000000 1.00000000 0.00000073
0.00000073 0.00000073 0.45337282
0.45337282 0.00000073 0.45337282
0.71388076 0.00000073 0.45337282
0.96553298 0.00000073 0.45337282
1.00000000 0.00000073 0.45337282
0.00000073 0.45337282 0.45337282
0.45337282 0.45337282 0.45337282
0.71388076 0.45337282 0.45337282
0.96553298 0.45337282 0.45337282
1.00000000 0.45337282 0.45337282
0.00000073 0.71388076 0.45337282
0.45337282 0.71388076 0.45337282
0.71388076 0.71388076 0.45337282
0.96553298 0.71388076 0.45337282
1.00000000 0.71388076 0.45337282
0.00000073 0.96553298 0.45337282
0.45337282 0.96553298 0.45337282
0.71388076 0.96553298 0.45337282
0.96553298 0.96553298 0.45337282
1.00000000 0.96553298 0.45337282
0.00000073 1.00000000 0.45337282
0.45337282 1.00000000 0.45337282
0.71388076 1.00000000 0.45337282
0.96553298 1.00000000 0.45337282
1.00000000 1.00000000 0.45337282
0.00000073 0.00000073 0.71388076
0.45337282 0.00000073 0.71388076
0.71388076 0.00000073 0.71388076
0.96553298 0.00000073 0.71388076
1.00000000 0.00000073 0.71388076
0.00000073 0.45337282 0.71388076
0.45337282 0.45337282 0.71388076
0.71388076 0.45337282 0.71388076
0.96553298 0.45337282 0.71388076
1.00000000 0.45337282 0.71388076
0.00000073 0.71388076 0.71388076
0.45337282 0.71388076 0.71388076
0.71388076 0.71388076 0.71388076
0.96553298 0.71388076 0.71388076
1.00000000 0.71388076 0.71388076
0.00000073 0.96553298 0.71388076
0.45337282 0.96553298 0.71388076
0.71388076 0.96553298 0.71388076
0.96553298 0.96553298 0.71388076
1.00000000 0.96553298 0.71388076
0.00000073 1.00000000 0.71388076
0.45337282 1.00000000 0.71388076
0.71388076 1.00000000 0.71388076
0.96553298 1.00000000 0.71388076
1.00000000 1.00000000 0.71388076
0.00000073 0.00000073 0.96553298
0.45337282 0.00000073 0.96553298
0.71388076 0.00000073 0.96553298
0.96553298 0.00000073 0.96553298
1.00000000 0.00000073 0.96553298
0.00000073 0.45337282 0.96553298
0.45337282 0.45337282 0.96553298
0.71388076 0.45337282 0.96553298
0.96553298 0.45337282 0.96553298
1.00000000 0.45337282 0.96553298
0.00000073 0.71388076 0.96553298
0.45337282 0.71388076 0.96553298
0.71388076 0.71388076 0.96553298
0.96553298 0.71388076 0.96553298
1.00000000 0.71388076 0.96553298
0.00000073 0.96553298 0.96553298
0.45337282 0.96553298 0.96553298
0.71388076 0.96553298 0.96553298
0.96553298 0.96553298 0.96553298
1.00000000 0.96553298 0.96553298
0.00000073 1.00000000 0.96553298
0.45337282 1.00000000 0.96553298
0.71388076 1.00000000 0.96553298
0.96553298 1.00000000 0.96553298
1.00000000 1.00000000 0.96553298
0.00000073 0.00000073 1.00000000
0.45337282 0.00000073 1.00000000
0.71388076 0.00000073 1.00000000
0.96553298 0.00000073 1.00000000
1.00000000 0.00000073 1.00000000
0.00000073 0.45337282 1.00000000
0.45337282 0.45337282 1.00000000
0.71388076 0.45337282 1.00000000
0.96553298 0.45337282 1.00000000
1.00000000 0.45337282 1.00000000
0.00000073 0.71388076 1.00000000
0.45337282 0.71388076 1.00000000
0.71388076 0.71388076 1.00000000
0.96553298 0.71388076 1.00000000
1.00000000 0.71388076 1.00000000
0.00000073 0.96553298 1.00000000
0.45337282 0.96553298 1.00000000
0.71388076 0.96553298 1.00000000
0.96553298 0.96553298 1.00000000
1.00000000 0.96553298 1.00000000
0.00000073 1.00000000 1.00000000
0.45337282 1.00000000 1.00000000
0.71388076 1.00000000 1.00000000
0.96553298 1.00000000 1.00000000
1.00000000 1.00000000 1.00000000
