src/ffmpeg_scripts/luts/flog-smpte2084_-1p33.cube
TITLE "flog-smpte2084_-1p33"
LUT_3D_SIZE 9
# Fujifilm F-Log/Rec2020 -> PQ (EOTF Only)/Rec2020, CineEI Shift -1.33, Black Level 0.00% IRE, Input 109% -> Output 109% - Created with LUTCalc v4.01 by Ben Turley October 2020
0.06256172 0.06256172 0.06256172
0.13051194 0.06256172 0.06256172
0.20605540 0.06256172 0.06256172
0.26433105 0.06256172 0.06256172
0.32346792 0.06256172 0.06256172
0.38659163 0.06256172 0.06256172
0.45429244 0.06256172 0.06256172
0.52615191 0.06256172 0.06256172
0.60124722 0.06256172 0.06256172
0.06256172 0.13051194 0.06256172
0.13051194 0.13051194 0.06256172
0.20605540 0.13051194 0.06256172
0.26433105 0.13051194 0.06256172
0.32346792 0.13051194 0.06256172
0.38659163 0.13051194 0.06256172
0.45429244 0.13051194 0.06256172
0.52615191 0.13051194 0.06256172
0.60124722 0.13051194 0.06256172
0.06256172 0.20605540 0.06256172
0.13051194 0.20605540 0.06256172
0.20605540 0.20605540 0.06256172
0.26433105 0.20605540 0.06256172
0.32346792 0.20605540 0.06256172
0.38659163 0.20605540 0.06256172
0.45429244 0.20605540 0.06256172
0.52615191 0.20605540 0.06256172
0.60124722 0.20605540 0.06256172
0.06256172 0.26433105 0.06256172
0.13051194 0.26433105 0.06256172
0.20605540 0.26433105 0.06256172
0.26433105 0.26433105 0.06256172
0.32346792 0.26433105 0.06256172
0.38659163 0.26433105 0.06256172
0.45429244 0.26433105 0.06256172
0.52615191 0.26433105 0.06256172
0.60124722 0.26433105 0.06256172
0.06256172 0.32346792 0.06256172
0.13051194 0.32346792 0.06256172
0.20605540 0.32346792 0.06256172
0.26433105 0.32346792 0.06256172
0.32346792 0.32346792 0.06256172
0.38659163 0.32346792 0.06256172
0.45429244 0.32346792 0.06256172
0.52615191 0.32346792 0.06256172
0.60124722 0.32346792 0.06256172
0.06256172 0.38659163 0.06256172
0.13051194 0.38659163 0.06256172
0.20605540 0.38659163 0.06256172
0.26433105 0.38659163 0.06256172
0.32346792 0.38659163 0.06256172
0.38659163 0.38659163 0.06256172
0.45429244 0.38659163 0.06256172
0.52615191 0.38659163 0.06256172
0.60124722 0.38659163 0.06256172
0.06256172 0.45429244 0.06256172
0.13051194 0.45429244 0.06256172
0.20605540 0.45429244 0.06256172
0.26433105 0.45429244 0.06256172
0.32346792 0.45429244 0.06256172
0.38659163 0.45429244 0.06256172
0.45429244 0.45429244 0.06256172
0.52615191 0.45429244 0.06256172
0.60124722 0.45429244 0.06256172
0.06256172 0.52615191 0.06256172
0.13051194 0.52615191 0.06256172
0.20605540 0.52615191 0.06256172
0.26433105 0.52615191 0.06256172
0.32346792 0.52615191 0.06256172
0.38659163 0.52615191 0.06256172
0.45429244 0.52615191 0.06256172
0.52615191 0.52615191 0.06256172
0.60124722 0.52615191 0.06256172
0.06256172 0.60124722 0.06256172
0.13051194 0.60124722 0.06256172
0.20605540 0.60124722 0.06256172
0.26433105 0.60124722 0.06256172
0.32346792 0.60124722 0.06256172
0.38659163 0.60124722 0.06256172
0.45429244 0.60124722 0.06256172
0.52615191 0.60124722 0.06256172
0.60124722 0.60124722 0.06256172
0.06256172 0.06256172 0.13051194
0.13051194 0.06256172 0.13051194
0.20605540 0.06256172 0.13051194
0.26433105 0.06256172 0.13051194
0.32346792 0.06256172 0.13051194
0.38659163 0.06256172 0.13051194
0.45429244 0.06256172 0.13051194
0.52615191 0.06256172 0.13051194
0.60124722 0.06256172 0.13051194
0.06256172 0.13051194 0.13051194
0.13051194 0.13051194 0.13051194
0.20605540 0.13051194 0.13051194
0.26433105 0.13051194 0.13051194
0.32346792 0.13051194 0.13051194
0.38659163 0.13051194 0.13051194
0.45429244 0.13051194 0.13051194
0.52615191 0.13051194 0.13051194
0.60124722 0.13051194 0.13051194
0.06256172 0.20605540 0.13051194
0.13051194 0.20605540 0.13051194
0.20605540 0.20605540 0.13051194
0.26433105 0.20605540 0.13051194
0.32346792 0.20605540 0.13051194
0.38659163 0.20605540 0.13051194
0.45429244 0.20605540 0.13051194
0.52615191 0.20605540 0.13051194
0.60124722 0.20605540 0.13051194
0.06256172 0.26433105 0.13051194
0.13051194 0.26433105 0.13051194
0.20605540 0.26433105 0.13051194
0.26433105 0.26433105 0.13051194
0.32346792 0.26433105 0.13051194
0.38659163 0.26433105 0.13051194
0.45429244 0.26433105 0.13051194
0.52615191 0.26433105 0.13051194
0.60124722 0.26433105 0.13051194
0.06256172 0.32346792 0.13051194
0.13051194 0.32346792 0.13051194
0.20605540 0.32346792 0.13051194
0.26433105 0.32346792 0.13051194
0.32346792 0.32346792 0.13051194
0.38659163 0.32346792 0.13051194
0.45429244 0.32346792 0.13051194
0.52615191 0.32346792 0.13051194
0.60124722 0.32346792 0.13051194
0.06256172 0.38659163 0.13051194
0.13051194 0.38659163 0.13051194
0.20605540 0.38659163 0.13051194
0.26433105 0.38659163 0.13051194
0.32346792 0.38659163 0.13051194
0.38659163 0.38659163 0.13051194
0.45429244 0.38659163 0.13051194
0.52615191 0.38659163 0.13051194
0.60124722 0.38659163 0.13051194
0.06256172 0.45429244 0.13051194
0.13051194 0.45429244 0.13051194
0.20605540 0.45429244 0.13051194
0.26433105 0.45429244 0.13051194
0.32346792 0.45429244 0.13051194
0.38659163 0.45429244 0.13051194
0.45429244 0.45429244 0.13051194
0.52615191 0.45429244 0.13051194
0.60124722 0.45429244 0.13051194
0.06256172 0.52615191 0.13051194
0.13051194 0.52615191 0.13051194
0.20605540 0.52615191 0.13051194
0.26433105 0.52615191 0.13051194
0.32346792 0.52615191 0.13051194
0.38659163 0.52615191 0.13051194
0.45429244 0.52615191 0.13051194
0.52615191 0.52615191 0.13051194
0.60124722 0.52615191 0.13051194
0.06256172 0.60124722 0.13051194
0.13051194 0.60124722 0.13051194
0.20605540 0.60124722 0.13051194
0.26433105 0.60124722 0.13051194
0.32346792 0.60124722 0.13051194
0.38659163 0.60124722 0.13051194
0.45429244 0.60124722 0.13051194
0.52615191 0.60124722 0.13051194
0.60124722 0.60124722 0.13051194
0.06256172 0.06256172 0.20605540
0.13051194 0.06256172 0.20605540
0.20605540 0.06256172 0.20605540
0.26433105 0.06256172 0.20605540
0.32346792 0.06256172 0.20605540
0.38659163 0.06256172 0.20605540
0.45429244 0.06256172 0.20605540
0.52615191 0.06256172 0.20605540
0.60124722 0.06256172 0.20605540
0.06256172 0.13051194 0.20605540
0.13051194 0.13051194 0.20605540
0.20605540 0.13051194 0.20605540
0.26433105 0.13051194 0.20605540
0.32346792 0.13051194 0.20605540
0.38659163 0.13051194 0.20605540
0.45429244 0.13051194 0.20605540
0.52615191 0.13051194 0.20605540
0.60124722 0.13051194 0.20605540
0.06256172 0.20605540 0.20605540
0.13051194 0.20605540 0.20605540
0.20605540 0.20605540 0.20605540
0.26433105 0.20605540 0.20605540
0.32346792 0.20605540 0.20605540
0.38659163 0.20605540 0.20605540
0.45429244 0.20605540 0.20605540
0.52615191 0.20605540 0.20605540
0.60124722 0.20605540 0.20605540
0.06256172 0.26433105 0.20605540
0.13051194 0.26433105 0.20605540
0.20605540 0.26433105 0.20605540
0.26433105 0.26433105 0.20605540
0.32346792 0.26433105 0.20605540
0.38659163 0.26433105 0.20605540
0.45429244 0.26433105 0.20605540
0.52615191 0.26433105 0.20605540
0.60124722 0.26433105 0.20605540
0.06256172 0.32346792 0.20605540
0.13051194 0.32346792 0.20605540
0.20605540 0.32346792 0.20605540
0.26433105 0.32346792 0.20605540
0.32346792 0.32346792 0.20605540
0.38659163 0.32346792 0.20605540
0.45429244 0.32346792 0.20605540
0.52615191 0.32346792 0.20605540
0.60124722 0.32346792 0.20605540
0.06256172 0.38659163 0.20605540
0.13051194 0.38659163 0.20605540
0.20605540 0.38659163 0.20605540
0.26433105 0.38659163 0.20605540
0.32346792 0.38659163 0.20605540
0.38659163 0.38659163 0.20605540
0.45429244 0.38659163 0.20605540
0.52615191 0.38659163 0.20605540
0.60124722 0.38659163 0.20605540
0.06256172 0.45429244 0.20605540
0.13051194 0.45429244 0.20605540
0.20605540 0.45429244 0.20605540
0.26433105 0.45429244 0.20605540
0.32346792 0.45429244 0.20605540
0.38659163 0.45429244 0.20605540
0.45429244 0.45429244 0.20605540
0.52615191 0.45429244 0.20605540
0.60124722 0.45429244 0.20605540
0.06256172 0.52615191 0.20605540
0.13051194 0.52615191 0.20605540
0.20605540 0.52615191 0.20605540
0.26433105 0.52615191 0.20605540
0.32346792 0.52615191 0.20605540
0.38659163 0.52615191 0.20605540
0.45429244 0.52615191 0.20605540
0.52615191 0.52615191 0.20605540
0.60124722 0.52615191 0.20605540
0.06256172 0.60124722 0.20605540
0.13051194 0.60124722 0.20605540
0.20605540 0.60124722 0.20605540
0.26433105 0.60124722 0.20605540
0.32346792 0.60124722 0.20605540
0.38659163 0.60124722 0.20605540
0.45429244 0.60124722 0.20605540
0.52615191 0.60124722 0.20605540
0.60124722 0.60124722 0.20605540
0.06256172 0.06256172 0.26433105
0.13051194 0.06256172 0.26433105
0.20605540 0.06256172 0.26433105
0.26433105 0.06256172 0.26433105
0.32346792 0.06256172 0.26433105
0.38659163 0.06256172 0.26433105
0.45429244 0.06256172 0.26433105
0.52615191 0.06256172 0.26433105
0.60124722 0.06256172 0.26433105
0.06256172 0.13051194 0.26433105
0.13051194 0.13051194 0.26433105
0.20605540 0.13051194 0.26433105
0.26433105 0.13051194 0.26433105
0.32346792 0.13051194 0.26433105
0.38659163 0.13051194 0.26433105
0.45429244 0.13051194 0.26433105
0.52615191 0.13051194 0.26433105
0.60124722 0.13051194 0.26433105
0.06256172 0.20605540 0.26433105
0.13051194 0.20605540 0.26433105
0.20605540 0.20605540 0.26433105
0.26433105 0.20605540 0.26433105
0.32346792 0.20605540 0.26433105
0.38659163 0.20605540 0.26433105
0.45429244 0.20605540 0.26433105
0.52615191 0.20605540 0.26433105
0.60124722 0.20605540 0.26433105
0.06256172 0.26433105 0.26433105
0.13051194 0.26433105 0.26433105
0.20605540 0.26433105 0.26433105
0.26433105 0.26433105 0.26433105
0.32346792 0.26433105 0.26433105
0.38659163 0.26433105 0.26433105
0.45429244 0.26433105 0.26433105
0.52615191 0.26433105 0.26433105
0.60124722 0.26433105 0.26433105
0.06256172 0.32346792 0.26433105
0.13051194 0.32346792 0.26433105
0.20605540 0.32346792 0.26433105
0.26433105 0.32346792 0.26433105
0.32346792 0.32346792 0.26433105
0.38659163 0.32346792 0.26433105
0.45429244 0.32346792 0.26433105
0.52615191 0.32346792 0.26433105
0.60124722 0.32346792 0.26433105
0.06256172 0.38659163 0.26433105
0.13051194 0.38659163 0.26433105
0.20605540 0.38659163 0.26433105
0.26433105 0.38659163 0.26433105
0.32346792 0.38659163 0.26433105
0.38659163 0.38659163 0.26433105
0.45429244 0.38659163 0.26433105
0.52615191 0.38659163 0.26433105
0.60124722 0.38659163 0.26433105
0.06256172 0.45429244 0.26433105
0.13051194 0.45429244 0.26433105
0.20605540 0.45429244 0.26433105
0.26433105 0.45429244 0.26433105
0.32346792 0.45429244 0.26433105
0.38659163 0.45429244 0.26433105
0.45429244 0.45429244 0.26433105
0.52615191 0.45429244 0.26433105
0.60124722 0.45429244 0.26433105
0.06256172 0.52615191 0.26433105
0.13051194 0.52615191 0.26433105
0.20605540 0.52615191 0.26433105
0.26433105 0.52615191 0.26433105
0.32346792 0.52615191 0.26433105
0.38659163 0.52615191 0.26433105
0.45429244 0.52615191 0.26433105
0.52615191 0.52615191 0.26433105
0.60124722 0.52615191 0.26433105
0.06256172 0.60124722 0.26433105
0.13051194 0.60124722 0.26433105
0.20605540 0.60124722 0.26433105
0.26433105 0.60124722 0.26433105
0.32346792 0.60124722 0.26433105
0.38659163 0.60124722 0.26433105
0.45429244 0.60124722 0.26433105
0.52615191 0.60124722 0.26433105
0.60124722 0.60124722 0.26433105
0.06256172 0.06256172 0.32346792
0.13051194 0.06256172 0.32346792
0.20605540 0.06256172 0.32346792
0.26433105 0.06256172 0.32346792
0.32346792 0.06256172 0.32346792
0.38659163 0.06256172 0.32346792
0.45429244 0.06256172 0.32346792
0.52615191 0.06256172 0.32346792
0.60124722 0.06256172 0.32346792
0.06256172 0.13051194 0.32346792
0.13051194 0.13051194 0.32346792
0.20605540 0.13051194 0.32346792
0.26433105 0.13051194 0.32346792
0.32346792 0.13051194 0.32346792
0.38659163 0.13051194 0.32346792
0.45429244 0.13051194 0.32346792
0.52615191 0.13051194 0.32346792
0.60124722 0.13051194 0.32346792
0.06256172 0.20605540 0.32346792
0.13051194 0.20605540 0.32346792
0.20605540 0.20605540 0.32346792
0.26433105 0.20605540 0.32346792
0.32346792 0.20605540 0.32346792
0.38659163 0.20605540 0.32346792
0.45429244 0.20605540 0.32346792
0.52615191 0.20605540 0.32346792
0.60124722 0.20605540 0.32346792
0.06256172 0.26433105 0.32346792
0.13051194 0.26433105 0.32346792
0.20605540 0.26433105 0.32346792
0.26433105 0.26433105 0.32346792
0.32346792 0.26433105 0.32346792
0.38659163 0.26433105 0.32346792
0.45429244 0.26433105 0.32346792
0.52615191 0.26433105 0.32346792
0.60124722 0.26433105 0.32346792
0.06256172 0.32346792 0.32346792
0.13051194 0.32346792 0.32346792
0.20605540 0.32346792 0.32346792
0.26433105 0.32346792 0.32346792
0.32346792 0.32346792 0.32346792
0.38659163 0.32346792 0.32346792
0.45429244 0.32346792 0.32346792
0.52615191 0.32346792 0.32346792
0.60124722 0.32346792 0.32346792
0.06256172 0.38659163 0.32346792
0.13051194 0.38659163 0.32346792
0.20605540 0.38659163 0.32346792
0.26433105 0.38659163 0.32346792
0.32346792 0.38659163 0.32346792
0.38659163 0.38659163 0.32346792
0.45429244 0.38659163 0.32346792
0.52615191 0.38659163 0.32346792
0.60124722 0.38659163 0.32346792
0.06256172 0.45429244 0.32346792
0.13051194 0.45429244 0.32346792
0.20605540 0.45429244 0.32346792
0.26433105 0.45429244 0.32346792
0.32346792 0.45429244 0.32346792
0.38659163 0.45429244 0.32346792
0.45429244 0.45429244 0.32346792
0.52615191 0.45429244 0.32346792
0.60124722 0.45429244 0.32346792
0.06256172 0.52615191 0.32346792
0.13051194 0.52615191 0.32346792
0.20605540 0.52615191 0.32346792
0.26433105 0.52615191 0.32346792
0.32346792 0.52615191 0.32346792
0.38659163 0.52615191 0.32346792
0.45429244 0.52615191 0.32346792
0.52615191 0.52615191 0.32346792
0.60124722 0.52615191 0.32346792
0.06256172 0.60124722 0.32346792
0.13051194 0.60124722 0.32346792
0.20605540 0.60124722 0.32346792
0.26433105 0.60124722 0.32346792
0.32346792 0.60124722 0.32346792
0.38659163 0.60124722 0.32346792
0.45429244 0.60124722 0.32346792
0.52615191 0.60124722 0.32346792
0.60124722 0.60124722 0.32346792
0.06256172 0.06256172 0.38659163
0.13051194 0.06256172 0.38659163
0.20605540 0.06256172 0.38659163
0.26433105 0.06256172 0.38659163
0.32346792 0.06256172 0.38659163
0.38659163 0.06256172 0.38659163
0.45429244 0.06256172 0.38659163
0.52615191 0.06256172 0.38659163
0.60124722 0.06256172 0.38659163
0.06256172 0.13051194 0.38659163
0.13051194 0.13051194 0.38659163
0.20605540 0.13051194 0.38659163
0.26433105 0.13051194 0.38659163
0.32346792 0.13051194 0.38659163
0.38659163 0.13051194 0.38659163
0.45429244 0.13051194 0.38659163
0.52615191 0.13051194 0.38659163
0.60124722 0.13051194 0.38659163
0.06256172 0.20605540 0.38659163
0.13051194 0.20605540 0.38659163
0.20605540 0.20605540 0.38659163
0.26433105 0.20605540 0.38659163
0.32346792 0.20605540 0.38659163
0.38659163 0.20605540 0.38659163
0.45429244 0.20605540 0.38659163
0.52615191 0.20605540 0.38659163
0.60124722 0.20605540 0.38659163
0.06256172 0.26433105 0.38659163
0.13051194 0.26433105 0.38659163
0.20605540 0.26433105 0.38659163
0.26433105 0.26433105 0.38659163
0.32346792 0.26433105 0.38659163
0.38659163 0.26433105 0.38659163
0.45429244 0.26433105 0.38659163
0.52615191 0.26433105 0.38659163
0.60124722 0.26433105 0.38659163
0.06256172 0.32346792 0.38659163
0.13051194 0.32346792 0.38659163
0.20605540 0.32346792 0.38659163
0.26433105 0.32346792 0.38659163
0.32346792 0.32346792 0.38659163
0.38659163 0.32346792 0.38659163
0.45429244 0.32346792 0.38659163
0.52615191 0.32346792 0.38659163
0.60124722 0.32346792 0.38659163
0.06256172 0.38659163 0.38659163
0.13051194 0.38659163 0.38659163
0.20605540 0.38659163 0.38659163
0.26433105 0.38659163 0.38659163
0.32346792 0.38659163 0.38659163
0.38659163 0.38659163 0.38659163
0.45429244 0.38659163 0.38659163
0.52615191 0.38659163 0.38659163
0.60124722 0.38659163 0.38659163
0.06256172 0.45429244 0.38659163
0.13051194 0.45429244 0.38659163
0.20605540 0.45429244 0.38659163
0.26433105 0.45429244 0.38659163
0.32346792 0.45429244 0.38659163
0.38659163 0.45429244 0.38659163
0.45429244 0.45429244 0.38659163
0.52615191 0.45429244 0.38659163
0.60124722 0.45429244 0.38659163
0.06256172 0.52615191 0.38659163
0.13051194 0.52615191 0.38659163
0.20605540 0.52615191 0.38659163
0.26433105 0.52615191 0.38659163
0.32346792 0.52615191 0.38659163
0.38659163 0.52615191 0.38659163
0.45429244 0.52615191 0.38659163
0.52615191 0.52615191 0.38659163
0.60124722 0.52615191 0.38659163
0.06256172 0.60124722 0.38659163
0.13051194 0.60124722 0.38659163
0.20605540 0.60124722 0.38659163
0.26433105 0.60124722 0.38659163
0.32346792 0.60124722 0.38659163
0.38659163 0.60124722 0.38659163
0.45429244 0.60124722 0.38659163
0.52615191 0.60124722 0.38659163
0.60124722 0.60124722 0.38659163
0.06256172 0.06256172 0.45429244
0.13051194 0.06256172 0.45429244
0.20605540 0.06256172 0.45429244
0.26433105 0.06256172 0.45429244
0.32346792 0.06256172 0.45429244
0.38659163 0.06256172 0.45429244
0.45429244 0.06256172 0.45429244
0.52615191 0.06256172 0.45429244
0.60124722 0.06256172 0.45429244
0.06256172 0.13051194 0.45429244
0.13051194 0.13051194 0.45429244
0.20605540 0.13051194 0.45429244
0.26433105 0.13051194 0.45429244
0.32346792 0.13051194 0.45429244
0.38659163 0.13051194 0.45429244
0.45429244 0.13051194 0.45429244
0.52615191 0.13051194 0.45429244
0.60124722 0.13051194 0.45429244
0.06256172 0.20605540 0.45429244
0.13051194 0.20605540 0.45429244
0.20605540 0.20605540 0.45429244
0.26433105 0.20605540 0.45429244
0.32346792 0.20605540 0.45429244
0.38659163 0.20605540 0.45429244
0.45429244 0.20605540 0.45429244
0.52615191 0.20605540 0.45429244
0.60124722 0.20605540 0.45429244
0.06256172 0.26433105 0.45429244
0.13051194 0.26433105 0.45429244
0.20605540 0.26433105 0.45429244
0.26433105 0.26433105 0.45429244
0.32346792 0.26433105 0.45429244
0.38659163 0.26433105 0.45429244
0.45429244 0.26433105 0.45429244
0.52615191 0.26433105 0.45429244
0.60124722 0.26433105 0.45429244
0.06256172 0.32346792 0.45429244
0.13051194 0.32346792 0.45429244
0.20605540 0.32346792 0.45429244
0.26433105 0.32346792 0.45429244
0.32346792 0.32346792 0.45429244
0.38659163 0.32346792 0.45429244
0.45429244 0.32346792 0.45429244
0.52615191 0.32346792 0.45429244
0.60124722 0.32346792 0.45429244
0.06256172 0.38659163 0.45429244
0.13051194 0.38659163 0.45429244
0.20605540 0.38659163 0.45429244
0.26433105 0.38659163 0.45429244
0.32346792 0.38659163 0.45429244
0.38659163 0.38659163 0.45429244
0.45429244 0.38659163 0.45429244
0.52615191 0.38659163 0.45429244
0.60124722 0.38659163 0.45429244
0.06256172 0.45429244 0.45429244
0.13051194 0.45429244 0.45429244
0.20605540 0.45429244 0.45429244
0.26433105 0.45429244 0.45429244
0.32346792 0.45429244 0.45429244
0.38659163 0.45429244 0.45429244
0.45429244 0.45429244 0.45429244
0.52615191 0.45429244 0.45429244
0.60124722 0.45429244 0.45429244
0.06256172 0.52615191 0.45429244
0.13051194 0.52615191 0.45429244
0.20605540 0.52615191 0.45429244
0.26433105 0.52615191 0.45429244
0.32346792 0.52615191 0.45429244
0.38659163 0.52615191 0.45429244
0.45429244 0.52615191 0.45429244
0.52615191 0.52615191 0.45429244
0.60124722 0.52615191 0.45429244
0.06256172 0.60124722 0.45429244
0.13051194 0.60124722 0.45429244
0.20605540 0.60124722 0.45429244
0.26433105 0.60124722 0.45429244
0.32346792 0.60124722 0.45429244
0.38659163 0.60124722 0.45429244
0.45429244 0.60124722 0.45429244
0.52615191 0.60124722 0.45429244
0.60124722 0.60124722 0.45429244
0.06256172 0.06256172 0.52615191
0.13051194 0.06256172 0.52615191
0.20605540 0.06256172 0.52615191
0.26433105 0.06256172 0.52615191
0.32346792 0.06256172 0.52615191
0.38659163 0.06256172 0.52615191
0.45429244 0.06256172 0.52615191
0.52615191 0.06256172 0.52615191
0.60124722 0.06256172 0.52615191
0.06256172 0.13051194 0.52615191
0.13051194 0.13051194 0.52615191
0.20605540 0.13051194 0.52615191
0.26433105 0.13051194 0.52615191
0.32346792 0.13051194 0.52615191
0.38659163 0.13051194 0.52615191
0.45429244 0.13051194 0.52615191
0.52615191 0.13051194 0.52615191
0.60124722 0.13051194 0.52615191
0.06256172 0.20605540 0.52615191
0.13051194 0.20605540 0.52615191
0.20605540 0.20605540 0.52615191
0.26433105 0.20605540 0.52615191
0.32346792 0.20605540 0.52615191
0.38659163 0.20605540 0.52615191
0.45429244 0.20605540 0.52615191
0.52615191 0.20605540 0.52615191
0.60124722 0.20605540 0.52615191
0.06256172 0.26433105 0.52615191
0.13051194 0.26433105 0.52615191
0.20605540 0.26433105 0.52615191
0.26433105 0.26433105 0.52615191
0.32346792 0.26433105 0.52615191
0.38659163 0.26433105 0.52615191
0.45429244 0.26433105 0.52615191
0.52615191 0.26433105 0.52615191
0.60124722 0.26433105 0.52615191
0.06256172 0.32346792 0.52615191
0.13051194 0.32346792 0.52615191
0.20605540 0.32346792 0.52615191
0.26433105 0.32346792 0.52615191
0.32346792 0.32346792 0.52615191
0.38659163 0.32346792 0.52615191
0.45429244 0.32346792 0.52615191
0.52615191 0.32346792 0.52615191
0.60124722 0.32346792 0.52615191
0.06256172 0.38659163 0.52615191
0.13051194 0.38659163 0.52615191
0.20605540 0.38659163 0.52615191
0.26433105 0.38659163 0.52615191
0.32346792 0.38659163 0.52615191
0.38659163 0.38659163 0.52615191
0.45429244 0.38659163 0.52615191
0.52615191 0.38659163 0.52615191
0.60124722 0.38659163 0.52615191
0.06256172 0.45429244 0.52615191
0.13051194 0.45429244 0.52615191
0.20605540 0.45429244 0.52615191
0.26433105 0.45429244 0.52615191
0.32346792 0.45429244 0.52615191
0.38659163 0.45429244 0.52615191
0.45429244 0.45429244 0.52615191
0.52615191 0.45429244 0.52615191
0.60124722 0.45429244 0.52615191
0.06256172 0.52615191 0.52615191
0.13051194 0.52615191 0.52615191
0.20605540 0.52615191 0.52615191
0.26433105 0.52615191 0.52615191
0.32346792 0.52615191 0.52615191
0.38659163 0.52615191 0.52615191
0.45429244 0.52615191 0.52615191
0.52615191 0.52615191 0.52615191
0.60124722 0.52615191 0.52615191
0.06256172 0.60124722 0.52615191
0.13051194 0.60124722 0.52615191
0.20605540 0.60124722 0.52615191
0.26433105 0.60124722 0.52615191
0.32346792 0.60124722 0.52615191
0.38659163 0.60124722 0.52615191
0.45429244 0.60124722 0.52615191
0.52615191 0.60124722 0.52615191
0.60124722 0.60124722 0.52615191
0.06256172 0.06256172 0.60124722
0.13051194 0.06256172 0.60124722
0.20605540 0.06256172 0.60124722
0.26433105 0.06256172 0.60124722
0.32346792 0.06256172 0.60124722
0.38659163 0.06256172 0.60124722
0.45429244 0.06256172 0.60124722
0.52615191 0.06256172 0.60124722
0.60124722 0.06256172 0.60124722
0.06256172 0.13051194 0.60124722
0.13051194 0.13051194 0.60124722
0.20605540 0.13051194 0.60124722
0.26433105 0.13051194 0.60124722
0.32346792 0.13051194 0.60124722
0.38659163 0.13051194 0.60124722
0.45429244 0.13051194 0.60124722
0.52615191 0.13051194 0.60124722
0.60124722 0.13051194 0.60124722
0.06256172 0.20605540 0.60124722
0.13051194 0.20605540 0.60124722
0.20605540 0.20605540 0.60124722
0.26433105 0.20605540 0.60124722
0.32346792 0.20605540 0.60124722
0.38659163 0.20605540 0.60124722
0.45429244 0.20605540 0.60124722
0.52615191 0.20605540 0.60124722
0.60124722 0.20605540 0.60124722
0.06256172 0.26433105 0.60124722
0.13051194 0.26433105 0.60124722
0.20605540 0.26433105 0.60124722
0.26433105 0.26433105 0.60124722
0.32346792 0.26433105 0.60124722
0.38659163 0.26433105 0.60124722
0.45429244 0.26433105 0.60124722
0.52615191 0.26433105 0.60124722
0.60124722 0.26433105 0.60124722
0.06256172 0.32346792 0.60124722
0.13051194 0.32346792 0.60124722
0.20605540 0.32346792 0.60124722
0.26433105 0.32346792 0.60124722
0.32346792 0.32346792 0.60124722
0.38659163 0.32346792 0.60124722
0.45429244 0.32346792 0.60124722
0.52615191 0.32346792 0.60124722
0.60124722 0.32346792 0.60124722
0.06256172 0.38659163 0.60124722
0.13051194 0.38659163 0.60124722
0.20605540 0.38659163 0.60124722
0.26433105 0.38659163 0.60124722
0.32346792 0.38659163 0.60124722
0.38659163 0.38659163 0.60124722
0.45429244 0.38659163 0.60124722
0.52615191 0.38659163 0.60124722
0.60124722 0.38659163 0.60124722
0.06256172 0.45429244 0.60124722
0.13051194 0.45429244 0.60124722
0.20605540 0.45429244 0.60124722
0.26433105 0.45429244 0.60124722
0.32346792 0.45429244 0.60124722
0.38659163 0.45429244 0.60124722
0.45429244 0.45429244 0.60124722
0.52615191 0.45429244 0.60124722
0.60124722 0.45429244 0.60124722
0.06256172 0.52615191 0.60124722
0.13051194 0.52615191 0.60124722
0.20605540 0.52615191 0.60124722
0.26433105 0.52615191 0.60124722
0.32346792 0.52615191 0.60124722
0.38659163 0.52615191 0.60124722
0.45429244 0.52615191 0.60124722
0.52615191 0.52615191 0.60124722
0.60124722 0.52615191 0.60124722
0.06256172 0.60124722 0.60124722
0.13051194 0.60124722 0.60124722
0.20605540 0.60124722 0.60124722
0.26433105 0.60124722 0.60124722
0.32346792 0.60124722 0.60124722
0.38659163 0.60124722 0.60124722
0.45429244 0.60124722 0.60124722
0.52615191 0.60124722 0.60124722
0.60124722 0.60124722 0.60124722
