src/ffmpeg_scripts/luts/flog-experimental_3p67.cube
TITLE "flog-experimental_3p67"
LUT_3D_SIZE 33
# Fujifilm F-Log/Rec2020 -> PQ (EOTF Only)/Rec2020, CineEI Shift 3.67, Black Level 0.00% IRE, Input 109% -> Output 100% - Created with LUTCalc v4.01 by Ben Turley October 2020
0.00000073 0.00000073 0.00000073
0.00000073 0.00000073 0.00000073
0.00000073 0.00000073 0.00000073
0.09601480 0.00000073 0.00000073
0.35723330 0.00000073 0.00000073
0.44151139 0.00000073 0.00000073
0.50160880 0.00000073 0.00000073
0.55125620 0.00000073 0.00000073
0.59516356 0.00000073 0.00000073
0.63553376 0.00000073 0.00000073
0.67357602 0.00000073 0.00000073
0.71002223 0.00000073 0.00000073
0.74534468 0.00000073 0.00000073
0.77986153 0.00000073 0.00000073
0.81379314 0.00000073 0.00000073
0.84729460 0.00000073 0.00000073
0.88047571 0.00000073 0.00000073
0.91341378 0.00000073 0.00000073
0.94616228 0.00000073 0.00000073
0.97875682 0.00000073 0.00000073
1.00000000 0.00000073 0.00000073
1.00000000 0.00000073 0.00000073
1.00000000 0.00000073 0.00000073
1.00000000 0.00000073 0.00000073
1.00000000 0.00000073 0.00000073
1.00000000 0.00000073 0.00000073
1.00000000 0.00000073 0.00000073
1.00000000 0.00000073 0.00000073
1.00000000 0.00000073 0.00000073
1.00000000 0.00000073 0.00000073
1.00000000 0.00000073 0.00000073
1.00000000 0.00000073 0.00000073
1.00000000 0.00000073 0.00000073
0.00000073 0.00000073 0.00000073
0.00000073 0.00000073 0.00000073
0.00000073 0.00000073 0.00000073
0.09601480 0.00000073 0.00000073
0.35723330 0.00000073 0.00000073
0.44151139 0.00000073 0.00000073
0.50160880 0.00000073 0.00000073
0.55125620 0.00000073 0.00000073
0.59516356 0.00000073 0.00000073
0.63553376 0.00000073 0.00000073
0.67357602 0.00000073 0.00000073
0.71002223 0.00000073 0.00000073
0.74534468 0.00000073 0.00000073
0.77986153 0.00000073 0.00000073
0.81379314 0.00000073 0.00000073
0.84729460 0.00000073 0.00000073
0.88047571 0.00000073 0.00000073
0.91341378 0.00000073 0.00000073
0.94616228 0.00000073 0.00000073
0.97875682 0.00000073 0.00000073
1.00000000 0.00000073 0.00000073
1.00000000 0.00000073 0.00000073
1.00000000 0.00000073 0.00000073
1.00000000 0.00000073 0.00000073
1.00000000 0.00000073 0.00000073
1.00000000 0.00000073 0.00000073
1.00000000 0.00000073 0.00000073
1.00000000 0.00000073 0.00000073
1.00000000 0.00000073 0.00000073
1.00000000 0.00000073 0.00000073
1.00000000 0.00000073 0.00000073
1.00000000 0.00000073 0.00000073
1.00000000 0.00000073 0.00000073
0.00000073 0.00000073 0.00000073
0.00000073 0.00000073 0.00000073
0.00000073 0.00000073 0.00000073
0.09601480 0.00000073 0.00000073
0.35723330 0.00000073 0.00000073
0.44151139 0.00000073 0.00000073
0.50160880 0.00000073 0.00000073
0.55125620 0.00000073 0.00000073
0.59516356 0.00000073 0.00000073
0.63553376 0.00000073 0.00000073
0.67357602 0.00000073 0.00000073
0.71002223 0.00000073 0.00000073
0.74534468 0.00000073 0.00000073
0.77986153 0.00000073 0.00000073
0.81379314 0.00000073 0.00000073
0.84729460 0.00000073 0.00000073
0.88047571 0.00000073 0.00000073
0.91341378 0.00000073 0.00000073
0.94616228 0.00000073 0.00000073
0.97875682 0.00000073 0.00000073
1.00000000 0.00000073 0.00000073
1.00000000 0.00000073 0.00000073
1.00000000 0.00000073 0.00000073
1.00000000 0.00000073 0.00000073
1.00000000 0.00000073 0.00000073
1.00000000 0.00000073 0.00000073
1.00000000 0.00000073 0.00000073
1.00000000 0.00000073 0.00000073
1.00000000 0.00000073 0.00000073
1.00000000 0.00000073 0.00000073
1.00000000 0.00000073 0.00000073
1.00000000 0.00000073 0.00000073
1.00000000 0.00000073 0.00000073
0.00000073 0.09601480 0.00000073
0.00000073 0.09601480 0.00000073
0.00000073 0.09601480 0.00000073
0.09601480 0.09601480 0.00000073
0.35723330 0.09601480 0.00000073
0.44151139 0.09601480 0.00000073
0.50160880 0.09601480 0.00000073
0.55125620 0.09601480 0.00000073
0.59516356 0.09601480 0.00000073
0.63553376 0.09601480 0.00000073
0.67357602 0.09601480 0.00000073
0.71002223 0.09601480 0.00000073
0.74534468 0.09601480 0.00000073
0.77986153 0.09601480 0.00000073
0.81379314 0.09601480 0.00000073
0.84729460 0.09601480 0.00000073
0.88047571 0.09601480 0.00000073
0.91341378 0.09601480 0.00000073
0.94616228 0.09601480 0.00000073
0.97875682 0.09601480 0.00000073
1.00000000 0.09601480 0.00000073
1.00000000 0.09601480 0.00000073
1.00000000 0.09601480 0.00000073
1.00000000 0.09601480 0.00000073
1.00000000 0.09601480 0.00000073
1.00000000 0.09601480 0.00000073
1.00000000 0.09601480 0.00000073
1.00000000 0.09601480 0.00000073
1.00000000 0.09601480 0.00000073
1.00000000 0.09601480 0.00000073
1.00000000 0.09601480 0.00000073
1.00000000 0.09601480 0.00000073
1.00000000 0.09601480 0.00000073
0.00000073 0.35723330 0.00000073
0.00000073 0.35723330 0.00000073
0.00000073 0.35723330 0.00000073
0.09601480 0.35723330 0.00000073
0.35723330 0.35723330 0.00000073
0.44151139 0.35723330 0.00000073
0.50160880 0.35723330 0.00000073
0.55125620 0.35723330 0.00000073
0.59516356 0.35723330 0.00000073
0.63553376 0.35723330 0.00000073
0.67357602 0.35723330 0.00000073
0.71002223 0.35723330 0.00000073
0.74534468 0.35723330 0.00000073
0.77986153 0.35723330 0.00000073
0.81379314 0.35723330 0.00000073
0.84729460 0.35723330 0.00000073
0.88047571 0.35723330 0.00000073
0.91341378 0.35723330 0.00000073
0.94616228 0.35723330 0.00000073
0.97875682 0.35723330 0.00000073
1.00000000 0.35723330 0.00000073
1.00000000 0.35723330 0.00000073
1.00000000 0.35723330 0.00000073
1.00000000 0.35723330 0.00000073
1.00000000 0.35723330 0.00000073
1.00000000 0.35723330 0.00000073
1.00000000 0.35723330 0.00000073
1.00000000 0.35723330 0.00000073
1.00000000 0.35723330 0.00000073
1.00000000 0.35723330 0.00000073
1.00000000 0.35723330 0.00000073
1.00000000 0.35723330 0.00000073
1.00000000 0.35723330 0.00000073
0.00000073 0.44151139 0.00000073
0.00000073 0.44151139 0.00000073
0.00000073 0.44151139 0.00000073
0.09601480 0.44151139 0.00000073
0.35723330 0.44151139 0.00000073
0.44151139 0.44151139 0.00000073
0.50160880 0.44151139 0.00000073
0.55125620 0.44151139 0.00000073
0.59516356 0.44151139 0.00000073
0.63553376 0.44151139 0.00000073
0.67357602 0.44151139 0.00000073
0.71002223 0.44151139 0.00000073
0.74534468 0.44151139 0.00000073
0.77986153 0.44151139 0.00000073
0.81379314 0.44151139 0.00000073
0.84729460 0.44151139 0.00000073
0.88047571 0.44151139 0.00000073
0.91341378 0.44151139 0.00000073
0.94616228 0.44151139 0.00000073
0.97875682 0.44151139 0.00000073
1.00000000 0.44151139 0.00000073
1.00000000 0.44151139 0.00000073
1.00000000 0.44151139 0.00000073
1.00000000 0.44151139 0.00000073
1.00000000 0.44151139 0.00000073
1.00000000 0.44151139 0.00000073
1.00000000 0.44151139 0.00000073
1.00000000 0.44151139 0.00000073
1.00000000 0.44151139 0.00000073
1.00000000 0.44151139 0.00000073
1.00000000 0.44151139 0.00000073
1.00000000 0.44151139 0.00000073
1.00000000 0.44151139 0.00000073
0.00000073 0.50160880 0.00000073
0.00000073 0.50160880 0.00000073
0.00000073 0.50160880 0.00000073
0.09601480 0.50160880 0.00000073
0.35723330 0.50160880 0.00000073
0.44151139 0.50160880 0.00000073
0.50160880 0.50160880 0.00000073
0.55125620 0.50160880 0.00000073
0.59516356 0.50160880 0.00000073
0.63553376 0.50160880 0.00000073
0.67357602 0.50160880 0.00000073
0.71002223 0.50160880 0.00000073
0.74534468 0.50160880 0.00000073
0.77986153 0.50160880 0.00000073
0.81379314 0.50160880 0.00000073
0.84729460 0.50160880 0.00000073
0.88047571 0.50160880 0.00000073
0.91341378 0.50160880 0.00000073
0.94616228 0.50160880 0.00000073
0.97875682 0.50160880 0.00000073
1.00000000 0.50160880 0.00000073
1.00000000 0.50160880 0.00000073
1.00000000 0.50160880 0.00000073
1.00000000 0.50160880 0.00000073
1.00000000 0.50160880 0.00000073
1.00000000 0.50160880 0.00000073
1.00000000 0.50160880 0.00000073
1.00000000 0.50160880 0.00000073
1.00000000 0.50160880 0.00000073
1.00000000 0.50160880 0.00000073
1.00000000 0.50160880 0.00000073
1.00000000 0.50160880 0.00000073
1.00000000 0.50160880 0.00000073
0.00000073 0.55125620 0.00000073
0.00000073 0.55125620 0.00000073
0.00000073 0.55125620 0.00000073
0.09601480 0.55125620 0.00000073
0.35723330 0.55125620 0.00000073
0.44151139 0.55125620 0.00000073
0.50160880 0.55125620 0.00000073
0.55125620 0.55125620 0.00000073
0.59516356 0.55125620 0.00000073
0.63553376 0.55125620 0.00000073
0.67357602 0.55125620 0.00000073
0.71002223 0.55125620 0.00000073
0.74534468 0.55125620 0.00000073
0.77986153 0.55125620 0.00000073
0.81379314 0.55125620 0.00000073
0.84729460 0.55125620 0.00000073
0.88047571 0.55125620 0.00000073
0.91341378 0.55125620 0.00000073
0.94616228 0.55125620 0.00000073
0.97875682 0.55125620 0.00000073
1.00000000 0.55125620 0.00000073
1.00000000 0.55125620 0.00000073
1.00000000 0.55125620 0.00000073
1.00000000 0.55125620 0.00000073
1.00000000 0.55125620 0.00000073
1.00000000 0.55125620 0.00000073
1.00000000 0.55125620 0.00000073
1.00000000 0.55125620 0.00000073
1.00000000 0.55125620 0.00000073
1.00000000 0.55125620 0.00000073
1.00000000 0.55125620 0.00000073
1.00000000 0.55125620 0.00000073
1.00000000 0.55125620 0.00000073
0.00000073 0.59516356 0.00000073
0.00000073 0.59516356 0.00000073
0.00000073 0.59516356 0.00000073
0.09601480 0.59516356 0.00000073
0.35723330 0.59516356 0.00000073
0.44151139 0.59516356 0.00000073
0.50160880 0.59516356 0.00000073
0.55125620 0.59516356 0.00000073
0.59516356 0.59516356 0.00000073
0.63553376 0.59516356 0.00000073
0.67357602 0.59516356 0.00000073
0.71002223 0.59516356 0.00000073
0.74534468 0.59516356 0.00000073
0.77986153 0.59516356 0.00000073
0.81379314 0.59516356 0.00000073
0.84729460 0.59516356 0.00000073
0.88047571 0.59516356 0.00000073
0.91341378 0.59516356 0.00000073
0.94616228 0.59516356 0.00000073
0.97875682 0.59516356 0.00000073
1.00000000 0.59516356 0.00000073
1.00000000 0.59516356 0.00000073
1.00000000 0.59516356 0.00000073
1.00000000 0.59516356 0.00000073
1.00000000 0.59516356 0.00000073
1.00000000 0.59516356 0.00000073
1.00000000 0.59516356 0.00000073
1.00000000 0.59516356 0.00000073
1.00000000 0.59516356 0.00000073
1.00000000 0.59516356 0.00000073
1.00000000 0.59516356 0.00000073
1.00000000 0.59516356 0.00000073
1.00000000 0.59516356 0.00000073
0.00000073 0.63553376 0.00000073
0.00000073 0.63553376 0.00000073
0.00000073 0.63553376 0.00000073
0.09601480 0.63553376 0.00000073
0.35723330 0.63553376 0.00000073
0.44151139 0.63553376 0.00000073
0.50160880 0.63553376 0.00000073
0.55125620 0.63553376 0.00000073
0.59516356 0.63553376 0.00000073
0.63553376 0.63553376 0.00000073
0.67357602 0.63553376 0.00000073
0.71002223 0.63553376 0.00000073
0.74534468 0.63553376 0.00000073
0.77986153 0.63553376 0.00000073
0.81379314 0.63553376 0.00000073
0.84729460 0.63553376 0.00000073
0.88047571 0.63553376 0.00000073
0.91341378 0.63553376 0.00000073
0.94616228 0.63553376 0.00000073
0.97875682 0.63553376 0.00000073
1.00000000 0.63553376 0.00000073
1.00000000 0.63553376 0.00000073
1.00000000 0.63553376 0.00000073
1.00000000 0.63553376 0.00000073
1.00000000 0.63553376 0.00000073
1.00000000 0.63553376 0.00000073
1.00000000 0.63553376 0.00000073
1.00000000 0.63553376 0.00000073
1.00000000 0.63553376 0.00000073
1.00000000 0.63553376 0.00000073
1.00000000 0.63553376 0.00000073
1.00000000 0.63553376 0.00000073
1.00000000 0.63553376 0.00000073
0.00000073 0.67357602 0.00000073
0.00000073 0.67357602 0.00000073
0.00000073 0.67357602 0.00000073
0.09601480 0.67357602 0.00000073
0.35723330 0.67357602 0.00000073
0.44151139 0.67357602 0.00000073
0.50160880 0.67357602 0.00000073
0.55125620 0.67357602 0.00000073
0.59516356 0.67357602 0.00000073
0.63553376 0.67357602 0.00000073
0.67357602 0.67357602 0.00000073
0.71002223 0.67357602 0.00000073
0.74534468 0.67357602 0.00000073
0.77986153 0.67357602 0.00000073
0.81379314 0.67357602 0.00000073
0.84729460 0.67357602 0.00000073
0.88047571 0.67357602 0.00000073
0.91341378 0.67357602 0.00000073
0.94616228 0.67357602 0.00000073
0.97875682 0.67357602 0.00000073
1.00000000 0.67357602 0.00000073
1.00000000 0.67357602 0.00000073
1.00000000 0.67357602 0.00000073
1.00000000 0.67357602 0.00000073
1.00000000 0.67357602 0.00000073
1.00000000 0.67357602 0.00000073
1.00000000 0.67357602 0.00000073
1.00000000 0.67357602 0.00000073
1.00000000 0.67357602 0.00000073
1.00000000 0.67357602 0.00000073
1.00000000 0.67357602 0.00000073
1.00000000 0.67357602 0.00000073
1.00000000 0.67357602 0.00000073
0.00000073 0.71002223 0.00000073
0.00000073 0.71002223 0.00000073
0.00000073 0.71002223 0.00000073
0.09601480 0.71002223 0.00000073
0.35723330 0.71002223 0.00000073
0.44151139 0.71002223 0.00000073
0.50160880 0.71002223 0.00000073
0.55125620 0.71002223 0.00000073
0.59516356 0.71002223 0.00000073
0.63553376 0.71002223 0.00000073
0.67357602 0.71002223 0.00000073
0.71002223 0.71002223 0.00000073
0.74534468 0.71002223 0.00000073
0.77986153 0.71002223 0.00000073
0.81379314 0.71002223 0.00000073
0.84729460 0.71002223 0.00000073
0.88047571 0.71002223 0.00000073
0.91341378 0.71002223 0.00000073
0.94616228 0.71002223 0.00000073
0.97875682 0.71002223 0.00000073
1.00000000 0.71002223 0.00000073
1.00000000 0.71002223 0.00000073
1.00000000 0.71002223 0.00000073
1.00000000 0.71002223 0.00000073
1.00000000 0.71002223 0.00000073
1.00000000 0.71002223 0.00000073
1.00000000 0.71002223 0.00000073
1.00000000 0.71002223 0.00000073
1.00000000 0.71002223 0.00000073
1.00000000 0.71002223 0.00000073
1.00000000 0.71002223 0.00000073
1.00000000 0.71002223 0.00000073
1.00000000 0.71002223 0.00000073
0.00000073 0.74534468 0.00000073
0.00000073 0.74534468 0.00000073
0.00000073 0.74534468 0.00000073
0.09601480 0.74534468 0.00000073
0.35723330 0.74534468 0.00000073
0.44151139 0.74534468 0.00000073
0.50160880 0.74534468 0.00000073
0.55125620 0.74534468 0.00000073
0.59516356 0.74534468 0.00000073
0.63553376 0.74534468 0.00000073
0.67357602 0.74534468 0.00000073
0.71002223 0.74534468 0.00000073
0.74534468 0.74534468 0.00000073
0.77986153 0.74534468 0.00000073
0.81379314 0.74534468 0.00000073
0.84729460 0.74534468 0.00000073
0.88047571 0.74534468 0.00000073
0.91341378 0.74534468 0.00000073
0.94616228 0.74534468 0.00000073
0.97875682 0.74534468 0.00000073
1.00000000 0.74534468 0.00000073
1.00000000 0.74534468 0.00000073
1.00000000 0.74534468 0.00000073
1.00000000 0.74534468 0.00000073
1.00000000 0.74534468 0.00000073
1.00000000 0.74534468 0.00000073
1.00000000 0.74534468 0.00000073
1.00000000 0.74534468 0.00000073
1.00000000 0.74534468 0.00000073
1.00000000 0.74534468 0.00000073
1.00000000 0.74534468 0.00000073
1.00000000 0.74534468 0.00000073
1.00000000 0.74534468 0.00000073
0.00000073 0.77986153 0.00000073
0.00000073 0.77986153 0.00000073
0.00000073 0.77986153 0.00000073
0.09601480 0.77986153 0.00000073
0.35723330 0.77986153 0.00000073
0.44151139 0.77986153 0.00000073
0.50160880 0.77986153 0.00000073
0.55125620 0.77986153 0.00000073
0.59516356 0.77986153 0.00000073
0.63553376 0.77986153 0.00000073
0.67357602 0.77986153 0.00000073
0.71002223 0.77986153 0.00000073
0.74534468 0.77986153 0.00000073
0.77986153 0.77986153 0.00000073
0.81379314 0.77986153 0.00000073
0.84729460 0.77986153 0.00000073
0.88047571 0.77986153 0.00000073
0.91341378 0.77986153 0.00000073
0.94616228 0.77986153 0.00000073
0.97875682 0.77986153 0.00000073
1.00000000 0.77986153 0.00000073
1.00000000 0.77986153 0.00000073
1.00000000 0.77986153 0.00000073
1.00000000 0.77986153 0.00000073
1.00000000 0.77986153 0.00000073
1.00000000 0.77986153 0.00000073
1.00000000 0.77986153 0.00000073
1.00000000 0.77986153 0.00000073
1.00000000 0.77986153 0.00000073
1.00000000 0.77986153 0.00000073
1.00000000 0.77986153 0.00000073
1.00000000 0.77986153 0.00000073
1.00000000 0.77986153 0.00000073
0.00000073 0.81379314 0.00000073
0.00000073 0.81379314 0.00000073
0.00000073 0.81379314 0.00000073
0.09601480 0.81379314 0.00000073
0.35723330 0.81379314 0.00000073
0.44151139 0.81379314 0.00000073
0.50160880 0.81379314 0.00000073
0.55125620 0.81379314 0.00000073
0.59516356 0.81379314 0.00000073
0.63553376 0.81379314 0.00000073
0.67357602 0.81379314 0.00000073
0.71002223 0.81379314 0.00000073
0.74534468 0.81379314 0.00000073
0.77986153 0.81379314 0.00000073
0.81379314 0.81379314 0.00000073
0.84729460 0.81379314 0.00000073
0.88047571 0.81379314 0.00000073
0.91341378 0.81379314 0.00000073
0.94616228 0.81379314 0.00000073
0.97875682 0.81379314 0.00000073
1.00000000 0.81379314 0.00000073
1.00000000 0.81379314 0.00000073
1.00000000 0.81379314 0.00000073
1.00000000 0.81379314 0.00000073
1.00000000 0.81379314 0.00000073
1.00000000 0.81379314 0.00000073
1.00000000 0.81379314 0.00000073
1.00000000 0.81379314 0.00000073
1.00000000 0.81379314 0.00000073
1.00000000 0.81379314 0.00000073
1.00000000 0.81379314 0.00000073
1.00000000 0.81379314 0.00000073
1.00000000 0.81379314 0.00000073
0.00000073 0.84729460 0.00000073
0.00000073 0.84729460 0.00000073
0.00000073 0.84729460 0.00000073
0.09601480 0.84729460 0.00000073
0.35723330 0.84729460 0.00000073
0.44151139 0.84729460 0.00000073
0.50160880 0.84729460 0.00000073
0.55125620 0.84729460 0.00000073
0.59516356 0.84729460 0.00000073
0.63553376 0.84729460 0.00000073
0.67357602 0.84729460 0.00000073
0.71002223 0.84729460 0.00000073
0.74534468 0.84729460 0.00000073
0.77986153 0.84729460 0.00000073
0.81379314 0.84729460 0.00000073
0.84729460 0.84729460 0.00000073
0.88047571 0.84729460 0.00000073
0.91341378 0.84729460 0.00000073
0.94616228 0.84729460 0.00000073
0.97875682 0.84729460 0.00000073
1.00000000 0.84729460 0.00000073
1.00000000 0.84729460 0.00000073
1.00000000 0.84729460 0.00000073
1.00000000 0.84729460 0.00000073
1.00000000 0.84729460 0.00000073
1.00000000 0.84729460 0.00000073
1.00000000 0.84729460 0.00000073
1.00000000 0.84729460 0.00000073
1.00000000 0.84729460 0.00000073
1.00000000 0.84729460 0.00000073
1.00000000 0.84729460 0.00000073
1.00000000 0.84729460 0.00000073
1.00000000 0.84729460 0.00000073
0.00000073 0.88047571 0.00000073
0.00000073 0.88047571 0.00000073
0.00000073 0.88047571 0.00000073
0.09601480 0.88047571 0.00000073
0.35723330 0.88047571 0.00000073
0.44151139 0.88047571 0.00000073
0.50160880 0.88047571 0.00000073
0.55125620 0.88047571 0.00000073
0.59516356 0.88047571 0.00000073
0.63553376 0.88047571 0.00000073
0.67357602 0.88047571 0.00000073
0.71002223 0.88047571 0.00000073
0.74534468 0.88047571 0.00000073
0.77986153 0.88047571 0.00000073
0.81379314 0.88047571 0.00000073
0.84729460 0.88047571 0.00000073
0.88047571 0.88047571 0.00000073
0.91341378 0.88047571 0.00000073
0.94616228 0.88047571 0.00000073
0.97875682 0.88047571 0.00000073
1.00000000 0.88047571 0.00000073
1.00000000 0.88047571 0.00000073
1.00000000 0.88047571 0.00000073
1.00000000 0.88047571 0.00000073
1.00000000 0.88047571 0.00000073
1.00000000 0.88047571 0.00000073
1.00000000 0.88047571 0.00000073
1.00000000 0.88047571 0.00000073
1.00000000 0.88047571 0.00000073
1.00000000 0.88047571 0.00000073
1.00000000 0.88047571 0.00000073
1.00000000 0.88047571 0.00000073
1.00000000 0.88047571 0.00000073
0.00000073 0.91341378 0.00000073
0.00000073 0.91341378 0.00000073
0.00000073 0.91341378 0.00000073
0.09601480 0.91341378 0.00000073
0.35723330 0.91341378 0.00000073
0.44151139 0.91341378 0.00000073
0.50160880 0.91341378 0.00000073
0.55125620 0.91341378 0.00000073
0.59516356 0.91341378 0.00000073
0.63553376 0.91341378 0.00000073
0.67357602 0.91341378 0.00000073
0.71002223 0.91341378 0.00000073
0.74534468 0.91341378 0.00000073
0.77986153 0.91341378 0.00000073
0.81379314 0.91341378 0.00000073
0.84729460 0.91341378 0.00000073
0.88047571 0.91341378 0.00000073
0.91341378 0.91341378 0.00000073
0.94616228 0.91341378 0.00000073
0.97875682 0.91341378 0.00000073
1.00000000 0.91341378 0.00000073
1.00000000 0.91341378 0.00000073
1.00000000 0.91341378 0.00000073
1.00000000 0.91341378 0.00000073
1.00000000 0.91341378 0.00000073
1.00000000 0.91341378 0.00000073
1.00000000 0.91341378 0.00000073
1.00000000 0.91341378 0.00000073
1.00000000 0.91341378 0.00000073
1.00000000 0.91341378 0.00000073
1.00000000 0.91341378 0.00000073
1.00000000 0.91341378 0.00000073
1.00000000 0.91341378 0.00000073
0.00000073 0.94616228 0.00000073
0.00000073 0.94616228 0.00000073
0.00000073 0.94616228 0.00000073
0.09601480 0.94616228 0.00000073
0.35723330 0.94616228 0.00000073
0.44151139 0.94616228 0.00000073
0.50160880 0.94616228 0.00000073
0.55125620 0.94616228 0.00000073
0.59516356 0.94616228 0.00000073
0.63553376 0.94616228 0.00000073
0.67357602 0.94616228 0.00000073
0.71002223 0.94616228 0.00000073
0.74534468 0.94616228 0.00000073
0.77986153 0.94616228 0.00000073
0.81379314 0.94616228 0.00000073
0.84729460 0.94616228 0.00000073
0.88047571 0.94616228 0.00000073
0.91341378 0.94616228 0.00000073
0.94616228 0.94616228 0.00000073
0.97875682 0.94616228 0.00000073
1.00000000 0.94616228 0.00000073
1.00000000 0.94616228 0.00000073
1.00000000 0.94616228 0.00000073
1.00000000 0.94616228 0.00000073
1.00000000 0.94616228 0.00000073
1.00000000 0.94616228 0.00000073
1.00000000 0.94616228 0.00000073
1.00000000 0.94616228 0.00000073
1.00000000 0.94616228 0.00000073
1.00000000 0.94616228 0.00000073
1.00000000 0.94616228 0.00000073
1.00000000 0.94616228 0.00000073
1.00000000 0.94616228 0.00000073
0.00000073 0.97875682 0.00000073
0.00000073 0.97875682 0.00000073
0.00000073 0.97875682 0.00000073
0.09601480 0.97875682 0.00000073
0.35723330 0.97875682 0.00000073
0.44151139 0.97875682 0.00000073
0.50160880 0.97875682 0.00000073
0.55125620 0.97875682 0.00000073
0.59516356 0.97875682 0.00000073
0.63553376 0.97875682 0.00000073
0.67357602 0.97875682 0.00000073
0.71002223 0.97875682 0.00000073
0.74534468 0.97875682 0.00000073
0.77986153 0.97875682 0.00000073
0.81379314 0.97875682 0.00000073
0.84729460 0.97875682 0.00000073
0.88047571 0.97875682 0.00000073
0.91341378 0.97875682 0.00000073
0.94616228 0.97875682 0.00000073
0.97875682 0.97875682 0.00000073
1.00000000 0.97875682 0.00000073
1.00000000 0.97875682 0.00000073
1.00000000 0.97875682 0.00000073
1.00000000 0.97875682 0.00000073
1.00000000 0.97875682 0.00000073
1.00000000 0.97875682 0.00000073
1.00000000 0.97875682 0.00000073
1.00000000 0.97875682 0.00000073
1.00000000 0.97875682 0.00000073
1.00000000 0.97875682 0.00000073
1.00000000 0.97875682 0.00000073
1.00000000 0.97875682 0.00000073
1.00000000 0.97875682 0.00000073
0.00000073 1.00000000 0.00000073
0.00000073 1.00000000 0.00000073
0.00000073 1.00000000 0.00000073
0.09601480 1.00000000 0.00000073
0.35723330 1.00000000 0.00000073
0.44151139 1.00000000 0.00000073
0.50160880 1.00000000 0.00000073
0.55125620 1.00000000 0.00000073
0.59516356 1.00000000 0.00000073
0.63553376 1.00000000 0.00000073
0.67357602 1.00000000 0.00000073
0.71002223 1.00000000 0.00000073
0.74534468 1.00000000 0.00000073
0.77986153 1.00000000 0.00000073
0.81379314 1.00000000 0.00000073
0.84729460 1.00000000 0.00000073
0.88047571 1.00000000 0.00000073
0.91341378 1.00000000 0.00000073
0.94616228 1.00000000 0.00000073
0.97875682 1.00000000 0.00000073
1.00000000 1.00000000 0.00000073
1.00000000 1.00000000 0.00000073
1.00000000 1.00000000 0.00000073
1.00000000 1.00000000 0.00000073
1.00000000 1.00000000 0.00000073
1.00000000 1.00000000 0.00000073
1.00000000 1.00000000 0.00000073
1.00000000 1.00000000 0.00000073
1.00000000 1.00000000 0.00000073
1.00000000 1.00000000 0.00000073
1.00000000 1.00000000 0.00000073
1.00000000 1.00000000 0.00000073
1.00000000 1.00000000 0.00000073
0.00000073 1.00000000 0.00000073
0.00000073 1.00000000 0.00000073
0.00000073 1.00000000 0.00000073
0.09601480 1.00000000 0.00000073
0.35723330 1.00000000 0.00000073
0.44151139 1.00000000 0.00000073
0.50160880 1.00000000 0.00000073
0.55125620 1.00000000 0.00000073
0.59516356 1.00000000 0.00000073
0.63553376 1.00000000 0.00000073
0.67357602 1.00000000 0.00000073
0.71002223 1.00000000 0.00000073
0.74534468 1.00000000 0.00000073
0.77986153 1.00000000 0.00000073
0.81379314 1.00000000 0.00000073
0.84729460 1.00000000 0.00000073
0.88047571 1.00000000 0.00000073
0.91341378 1.00000000 0.00000073
0.94616228 1.00000000 0.00000073
0.97875682 1.00000000 0.00000073
1.00000000 1.00000000 0.00000073
1.00000000 1.00000000 0.00000073
1.00000000 1.00000000 0.00000073
1.00000000 1.00000000 0.00000073
1.00000000 1.00000000 0.00000073
1.00000000 1.00000000 0.00000073
1.00000000 1.00000000 0.00000073
