src/ffmpeg_scripts/luts/flog-smpte2084_1p33.cube
TITLE "flog-smpte2084_1p33"
LUT_3D_SIZE 9
# Fujifilm F-Log/Rec2020 -> PQ (EOTF Only)/Rec2020, CineEI Shift 1.33, Black Level 0.00% IRE, Input 109% -> Output 109% - Created with LUTCalc v4.01 by Ben Turley October 2020
0.06256172 0.06256172 0.06256172
0.19678935 0.06256172 0.06256172
0.31106041 0.06256172 0.06256172
0.38983525 0.06256172 0.06256172
0.46447813 0.06256172 0.06256172
0.53978100 0.06256172 0.06256172
0.61662467 0.06256172 0.06256172
0.69461452 0.06256172 0.06256172
0.77287378 0.06256172 0.06256172
0.06256172 0.19678935 0.06256172
0.19678935 0.19678935 0.06256172
0.31106041 0.19678935 0.06256172
0.38983525 0.19678935 0.06256172
0.46447813 0.19678935 0.06256172
0.53978100 0.19678935 0.06256172
0.61662467 0.19678935 0.06256172
0.69461452 0.19678935 0.06256172
0.77287378 0.19678935 0.06256172
0.06256172 0.31106041 0.06256172
0.19678935 0.31106041 0.06256172
0.31106041 0.31106041 0.06256172
0.38983525 0.31106041 0.06256172
0.46447813 0.31106041 0.06256172
0.53978100 0.31106041 0.06256172
0.61662467 0.31106041 0.06256172
0.69461452 0.31106041 0.06256172
0.77287378 0.31106041 0.06256172
0.06256172 0.38983525 0.06256172
0.19678935 0.38983525 0.06256172
0.31106041 0.38983525 0.06256172
0.38983525 0.38983525 0.06256172
0.46447813 0.38983525 0.06256172
0.53978100 0.38983525 0.06256172
0.61662467 0.38983525 0.06256172
0.69461452 0.38983525 0.06256172
0.77287378 0.38983525 0.06256172
0.06256172 0.46447813 0.06256172
0.19678935 0.46447813 0.06256172
0.31106041 0.46447813 0.06256172
0.38983525 0.46447813 0.06256172
0.46447813 0.46447813 0.06256172
0.53978100 0.46447813 0.06256172
0.61662467 0.46447813 0.06256172
0.69461452 0.46447813 0.06256172
0.77287378 0.46447813 0.06256172
0.06256172 0.53978100 0.06256172
0.19678935 0.53978100 0.06256172
0.31106041 0.53978100 0.06256172
0.38983525 0.53978100 0.06256172
0.46447813 0.53978100 0.06256172
0.53978100 0.53978100 0.06256172
0.61662467 0.53978100 0.06256172
0.69461452 0.53978100 0.06256172
0.77287378 0.53978100 0.06256172
0.06256172 0.61662467 0.06256172
0.19678935 0.61662467 0.06256172
0.31106041 0.61662467 0.06256172
0.38983525 0.61662467 0.06256172
0.46447813 0.61662467 0.06256172
0.53978100 0.61662467 0.06256172
0.61662467 0.61662467 0.06256172
0.69461452 0.61662467 0.06256172
0.77287378 0.61662467 0.06256172
0.06256172 0.69461452 0.06256172
0.19678935 0.69461452 0.06256172
0.31106041 0.69461452 0.06256172
0.38983525 0.69461452 0.06256172
0.46447813 0.69461452 0.06256172
0.53978100 0.69461452 0.06256172
0.61662467 0.69461452 0.06256172
0.69461452 0.69461452 0.06256172
0.77287378 0.69461452 0.06256172
0.06256172 0.77287378 0.06256172
0.19678935 0.77287378 0.06256172
0.31106041 0.77287378 0.06256172
0.38983525 0.77287378 0.06256172
0.46447813 0.77287378 0.06256172
0.53978100 0.77287378 0.06256172
0.61662467 0.77287378 0.06256172
0.69461452 0.77287378 0.06256172
0.77287378 0.77287378 0.06256172
0.06256172 0.06256172 0.19678935
0.19678935 0.06256172 0.19678935
0.31106041 0.06256172 0.19678935
0.38983525 0.06256172 0.19678935
0.46447813 0.06256172 0.19678935
0.53978100 0.06256172 0.19678935
0.61662467 0.06256172 0.19678935
0.69461452 0.06256172 0.19678935
0.77287378 0.06256172 0.19678935
0.06256172 0.19678935 0.19678935
0.19678935 0.19678935 0.19678935
0.31106041 0.19678935 0.19678935
0.38983525 0.19678935 0.19678935
0.46447813 0.19678935 0.19678935
0.53978100 0.19678935 0.19678935
0.61662467 0.19678935 0.19678935
0.69461452 0.19678935 0.19678935
0.77287378 0.19678935 0.19678935
0.06256172 0.31106041 0.19678935
0.19678935 0.31106041 0.19678935
0.31106041 0.31106041 0.19678935
0.38983525 0.31106041 0.19678935
0.46447813 0.31106041 0.19678935
0.53978100 0.31106041 0.19678935
0.61662467 0.31106041 0.19678935
0.69461452 0.31106041 0.19678935
0.77287378 0.31106041 0.19678935
0.06256172 0.38983525 0.19678935
0.19678935 0.38983525 0.19678935
0.31106041 0.38983525 0.19678935
0.38983525 0.38983525 0.19678935
0.46447813 0.38983525 0.19678935
0.53978100 0.38983525 0.19678935
0.61662467 0.38983525 0.19678935
0.69461452 0.38983525 0.19678935
0.77287378 0.38983525 0.19678935
0.06256172 0.46447813 0.19678935
0.19678935 0.46447813 0.19678935
0.31106041 0.46447813 0.19678935
0.38983525 0.46447813 0.19678935
0.46447813 0.46447813 0.19678935
0.53978100 0.46447813 0.19678935
0.61662467 0.46447813 0.19678935
0.69461452 0.46447813 0.19678935
0.77287378 0.46447813 0.19678935
0.06256172 0.53978100 0.19678935
0.19678935 0.53978100 0.19678935
0.31106041 0.53978100 0.19678935
0.38983525 0.53978100 0.19678935
0.46447813 0.53978100 0.19678935
0.53978100 0.53978100 0.19678935
0.61662467 0.53978100 0.19678935
0.69461452 0.53978100 0.19678935
0.77287378 0.53978100 0.19678935
0.06256172 0.61662467 0.19678935
0.19678935 0.61662467 0.19678935
0.31106041 0.61662467 0.19678935
0.38983525 0.61662467 0.19678935
0.46447813 0.61662467 0.19678935
0.53978100 0.61662467 0.19678935
0.61662467 0.61662467 0.19678935
0.69461452 0.61662467 0.19678935
0.77287378 0.61662467 0.19678935
0.06256172 0.69461452 0.19678935
0.19678935 0.69461452 0.19678935
0.31106041 0.69461452 0.19678935
0.38983525 0.69461452 0.19678935
0.46447813 0.69461452 0.19678935
0.53978100 0.69461452 0.19678935
0.61662467 0.69461452 0.19678935
0.69461452 0.69461452 0.19678935
0.77287378 0.69461452 0.19678935
0.06256172 0.77287378 0.19678935
0.19678935 0.77287378 0.19678935
0.31106041 0.77287378 0.19678935
0.38983525 0.77287378 0.19678935
0.46447813 0.77287378 0.19678935
0.53978100 0.77287378 0.19678935
0.61662467 0.77287378 0.19678935
0.69461452 0.77287378 0.19678935
0.77287378 0.77287378 0.19678935
0.06256172 0.06256172 0.31106041
0.19678935 0.06256172 0.31106041
0.31106041 0.06256172 0.31106041
0.38983525 0.06256172 0.31106041
0.46447813 0.06256172 0.31106041
0.53978100 0.06256172 0.31106041
0.61662467 0.06256172 0.31106041
0.69461452 0.06256172 0.31106041
0.77287378 0.06256172 0.31106041
0.06256172 0.19678935 0.31106041
0.19678935 0.19678935 0.31106041
0.31106041 0.19678935 0.31106041
0.38983525 0.19678935 0.31106041
0.46447813 0.19678935 0.31106041
0.53978100 0.19678935 0.31106041
0.61662467 0.19678935 0.31106041
0.69461452 0.19678935 0.31106041
0.77287378 0.19678935 0.31106041
0.06256172 0.31106041 0.31106041
0.19678935 0.31106041 0.31106041
0.31106041 0.31106041 0.31106041
0.38983525 0.31106041 0.31106041
0.46447813 0.31106041 0.31106041
0.53978100 0.31106041 0.31106041
0.61662467 0.31106041 0.31106041
0.69461452 0.31106041 0.31106041
0.77287378 0.31106041 0.31106041
0.06256172 0.38983525 0.31106041
0.19678935 0.38983525 0.31106041
0.31106041 0.38983525 0.31106041
0.38983525 0.38983525 0.31106041
0.46447813 0.38983525 0.31106041
0.53978100 0.38983525 0.31106041
0.61662467 0.38983525 0.31106041
0.69461452 0.38983525 0.31106041
0.77287378 0.38983525 0.31106041
0.06256172 0.46447813 0.31106041
0.19678935 0.46447813 0.31106041
0.31106041 0.46447813 0.31106041
0.38983525 0.46447813 0.31106041
0.46447813 0.46447813 0.31106041
0.53978100 0.46447813 0.31106041
0.61662467 0.46447813 0.31106041
0.69461452 0.46447813 0.31106041
0.77287378 0.46447813 0.31106041
0.06256172 0.53978100 0.31106041
0.19678935 0.53978100 0.31106041
0.31106041 0.53978100 0.31106041
0.38983525 0.53978100 0.31106041
0.46447813 0.53978100 0.31106041
0.53978100 0.53978100 0.31106041
0.61662467 0.53978100 0.31106041
0.69461452 0.53978100 0.31106041
0.77287378 0.53978100 0.31106041
0.06256172 0.61662467 0.31106041
0.19678935 0.61662467 0.31106041
0.31106041 0.61662467 0.31106041
0.38983525 0.61662467 0.31106041
0.46447813 0.61662467 0.31106041
0.53978100 0.61662467 0.31106041
0.61662467 0.61662467 0.31106041
0.69461452 0.61662467 0.31106041
0.77287378 0.61662467 0.31106041
0.06256172 0.69461452 0.31106041
0.19678935 0.69461452 0.31106041
0.31106041 0.69461452 0.31106041
0.38983525 0.69461452 0.31106041
0.46447813 0.69461452 0.31106041
0.53978100 0.69461452 0.31106041
0.61662467 0.69461452 0.31106041
0.69461452 0.69461452 0.31106041
0.77287378 0.69461452 0.31106041
0.06256172 0.77287378 0.31106041
0.19678935 0.77287378 0.31106041
0.31106041 0.77287378 0.31106041
0.38983525 0.77287378 0.31106041
0.46447813 0.77287378 0.31106041
0.53978100 0.77287378 0.31106041
0.61662467 0.77287378 0.31106041
0.69461452 0.77287378 0.31106041
0.77287378 0.77287378 0.31106041
0.06256172 0.06256172 0.38983525
0.19678935 0.06256172 0.38983525
0.31106041 0.06256172 0.38983525
0.38983525 0.06256172 0.38983525
0.46447813 0.06256172 0.38983525
0.53978100 0.06256172 0.38983525
0.61662467 0.06256172 0.38983525
0.69461452 0.06256172 0.38983525
0.77287378 0.06256172 0.38983525
0.06256172 0.19678935 0.38983525
0.19678935 0.19678935 0.38983525
0.31106041 0.19678935 0.38983525
0.38983525 0.19678935 0.38983525
0.46447813 0.19678935 0.38983525
0.53978100 0.19678935 0.38983525
0.61662467 0.19678935 0.38983525
0.69461452 0.19678935 0.38983525
0.77287378 0.19678935 0.38983525
0.06256172 0.31106041 0.38983525
0.19678935 0.31106041 0.38983525
0.31106041 0.31106041 0.38983525
0.38983525 0.31106041 0.38983525
0.46447813 0.31106041 0.38983525
0.53978100 0.31106041 0.38983525
0.61662467 0.31106041 0.38983525
0.69461452 0.31106041 0.38983525
0.77287378 0.31106041 0.38983525
0.06256172 0.38983525 0.38983525
0.19678935 0.38983525 0.38983525
0.31106041 0.38983525 0.38983525
0.38983525 0.38983525 0.38983525
0.46447813 0.38983525 0.38983525
0.53978100 0.38983525 0.38983525
0.61662467 0.38983525 0.38983525
0.69461452 0.38983525 0.38983525
0.77287378 0.38983525 0.38983525
0.06256172 0.46447813 0.38983525
0.19678935 0.46447813 0.38983525
0.31106041 0.46447813 0.38983525
0.38983525 0.46447813 0.38983525
0.46447813 0.46447813 0.38983525
0.53978100 0.46447813 0.38983525
0.61662467 0.46447813 0.38983525
0.69461452 0.46447813 0.38983525
0.77287378 0.46447813 0.38983525
0.06256172 0.53978100 0.38983525
0.19678935 0.53978100 0.38983525
0.31106041 0.53978100 0.38983525
0.38983525 0.53978100 0.38983525
0.46447813 0.53978100 0.38983525
0.53978100 0.53978100 0.38983525
0.61662467 0.53978100 0.38983525
0.69461452 0.53978100 0.38983525
0.77287378 0.53978100 0.38983525
0.06256172 0.61662467 0.38983525
0.19678935 0.61662467 0.38983525
0.31106041 0.61662467 0.38983525
0.38983525 0.61662467 0.38983525
0.46447813 0.61662467 0.38983525
0.53978100 0.61662467 0.38983525
0.61662467 0.61662467 0.38983525
0.69461452 0.61662467 0.38983525
0.77287378 0.61662467 0.38983525
0.06256172 0.69461452 0.38983525
0.19678935 0.69461452 0.38983525
0.31106041 0.69461452 0.38983525
0.38983525 0.69461452 0.38983525
0.46447813 0.69461452 0.38983525
0.53978100 0.69461452 0.38983525
0.61662467 0.69461452 0.38983525
0.69461452 0.69461452 0.38983525
0.77287378 0.69461452 0.38983525
0.06256172 0.77287378 0.38983525
0.19678935 0.77287378 0.38983525
0.31106041 0.77287378 0.38983525
0.38983525 0.77287378 0.38983525
0.46447813 0.77287378 0.38983525
0.53978100 0.77287378 0.38983525
0.61662467 0.77287378 0.38983525
0.69461452 0.77287378 0.38983525
0.77287378 0.77287378 0.38983525
0.06256172 0.06256172 0.46447813
0.19678935 0.06256172 0.46447813
0.31106041 0.06256172 0.46447813
0.38983525 0.06256172 0.46447813
0.46447813 0.06256172 0.46447813
0.53978100 0.06256172 0.46447813
0.61662467 0.06256172 0.46447813
0.69461452 0.06256172 0.46447813
0.77287378 0.06256172 0.46447813
0.06256172 0.19678935 0.46447813
0.19678935 0.19678935 0.46447813
0.31106041 0.19678935 0.46447813
0.38983525 0.19678935 0.46447813
0.46447813 0.19678935 0.46447813
0.53978100 0.19678935 0.46447813
0.61662467 0.19678935 0.46447813
0.69461452 0.19678935 0.46447813
0.77287378 0.19678935 0.46447813
0.06256172 0.31106041 0.46447813
0.19678935 0.31106041 0.46447813
0.31106041 0.31106041 0.46447813
0.38983525 0.31106041 0.46447813
0.46447813 0.31106041 0.46447813
0.53978100 0.31106041 0.46447813
0.61662467 0.31106041 0.46447813
0.69461452 0.31106041 0.46447813
0.77287378 0.31106041 0.46447813
0.06256172 0.38983525 0.46447813
0.19678935 0.38983525 0.46447813
0.31106041 0.38983525 0.46447813
0.38983525 0.38983525 0.46447813
0.46447813 0.38983525 0.46447813
0.53978100 0.38983525 0.46447813
0.61662467 0.38983525 0.46447813
0.69461452 0.38983525 0.46447813
0.77287378 0.38983525 0.46447813
0.06256172 0.46447813 0.46447813
0.19678935 0.46447813 0.46447813
0.31106041 0.46447813 0.46447813
0.38983525 0.46447813 0.46447813
0.46447813 0.46447813 0.46447813
0.53978100 0.46447813 0.46447813
0.61662467 0.46447813 0.46447813
0.69461452 0.46447813 0.46447813
0.77287378 0.46447813 0.46447813
0.06256172 0.53978100 0.46447813
0.19678935 0.53978100 0.46447813
0.31106041 0.53978100 0.46447813
0.38983525 0.53978100 0.46447813
0.46447813 0.53978100 0.46447813
0.53978100 0.53978100 0.46447813
0.61662467 0.53978100 0.46447813
0.69461452 0.53978100 0.46447813
0.77287378 0.53978100 0.46447813
0.06256172 0.61662467 0.46447813
0.19678935 0.61662467 0.46447813
0.31106041 0.61662467 0.46447813
0.38983525 0.61662467 0.46447813
0.46447813 0.61662467 0.46447813
0.53978100 0.61662467 0.46447813
0.61662467 0.61662467 0.46447813
0.69461452 0.61662467 0.46447813
0.77287378 0.61662467 0.46447813
0.06256172 0.69461452 0.46447813
0.19678935 0.69461452 0.46447813
0.31106041 0.69461452 0.46447813
0.38983525 0.69461452 0.46447813
0.46447813 0.69461452 0.46447813
0.53978100 0.69461452 0.46447813
0.61662467 0.69461452 0.46447813
0.69461452 0.69461452 0.46447813
0.77287378 0.69461452 0.46447813
0.06256172 0.77287378 0.46447813
0.19678935 0.77287378 0.46447813
0.31106041 0.77287378 0.46447813
0.38983525 0.77287378 0.46447813
0.46447813 0.77287378 0.46447813
0.53978100 0.77287378 0.46447813
0.61662467 0.77287378 0.46447813
0.69461452 0.77287378 0.46447813
0.77287378 0.77287378 0.46447813
0.06256172 0.06256172 0.53978100
0.19678935 0.06256172 0.53978100
0.31106041 0.06256172 0.53978100
0.38983525 0.06256172 0.53978100
0.46447813 0.06256172 0.53978100
0.53978100 0.06256172 0.53978100
0.61662467 0.06256172 0.53978100
0.69461452 0.06256172 0.53978100
0.77287378 0.06256172 0.53978100
0.06256172 0.19678935 0.53978100
0.19678935 0.19678935 0.53978100
0.31106041 0.19678935 0.53978100
0.38983525 0.19678935 0.53978100
0.46447813 0.19678935 0.53978100
0.53978100 0.19678935 0.53978100
0.61662467 0.19678935 0.53978100
0.69461452 0.19678935 0.53978100
0.77287378 0.19678935 0.53978100
0.06256172 0.31106041 0.53978100
0.19678935 0.31106041 0.53978100
0.31106041 0.31106041 0.53978100
0.38983525 0.31106041 0.53978100
0.46447813 0.31106041 0.53978100
0.53978100 0.31106041 0.53978100
0.61662467 0.31106041 0.53978100
0.69461452 0.31106041 0.53978100
0.77287378 0.31106041 0.53978100
0.06256172 0.38983525 0.53978100
0.19678935 0.38983525 0.53978100
0.31106041 0.38983525 0.53978100
0.38983525 0.38983525 0.53978100
0.46447813 0.38983525 0.53978100
0.53978100 0.38983525 0.53978100
0.61662467 0.38983525 0.53978100
0.69461452 0.38983525 0.53978100
0.77287378 0.38983525 0.53978100
0.06256172 0.46447813 0.53978100
0.19678935 0.46447813 0.53978100
0.31106041 0.46447813 0.53978100
0.38983525 0.46447813 0.53978100
0.46447813 0.46447813 0.53978100
0.53978100 0.46447813 0.53978100
0.61662467 0.46447813 0.53978100
0.69461452 0.46447813 0.53978100
0.77287378 0.46447813 0.53978100
0.06256172 0.53978100 0.53978100
0.19678935 0.53978100 0.53978100
0.31106041 0.53978100 0.53978100
0.38983525 0.53978100 0.53978100
0.46447813 0.53978100 0.53978100
0.53978100 0.53978100 0.53978100
0.61662467 0.53978100 0.53978100
0.69461452 0.53978100 0.53978100
0.77287378 0.53978100 0.53978100
0.06256172 0.61662467 0.53978100
0.19678935 0.61662467 0.53978100
0.31106041 0.61662467 0.53978100
0.38983525 0.61662467 0.53978100
0.46447813 0.61662467 0.53978100
0.53978100 0.61662467 0.53978100
0.61662467 0.61662467 0.53978100
0.69461452 0.61662467 0.53978100
0.77287378 0.61662467 0.53978100
0.06256172 0.69461452 0.53978100
0.19678935 0.69461452 0.53978100
0.31106041 0.69461452 0.53978100
0.38983525 0.69461452 0.53978100
0.46447813 0.69461452 0.53978100
0.53978100 0.69461452 0.53978100
0.61662467 0.69461452 0.53978100
0.69461452 0.69461452 0.53978100
0.77287378 0.69461452 0.53978100
0.06256172 0.77287378 0.53978100
0.19678935 0.77287378 0.53978100
0.31106041 0.77287378 0.53978100
0.38983525 0.77287378 0.53978100
0.46447813 0.77287378 0.53978100
0.53978100 0.77287378 0.53978100
0.61662467 0.77287378 0.53978100
0.69461452 0.77287378 0.53978100
0.77287378 0.77287378 0.53978100
0.06256172 0.06256172 0.61662467
0.19678935 0.06256172 0.61662467
0.31106041 0.06256172 0.61662467
0.38983525 0.06256172 0.61662467
0.46447813 0.06256172 0.61662467
0.53978100 0.06256172 0.61662467
0.61662467 0.06256172 0.61662467
0.69461452 0.06256172 0.61662467
0.77287378 0.06256172 0.61662467
0.06256172 0.19678935 0.61662467
0.19678935 0.19678935 0.61662467
0.31106041 0.19678935 0.61662467
0.38983525 0.19678935 0.61662467
0.46447813 0.19678935 0.61662467
0.53978100 0.19678935 0.61662467
0.61662467 0.19678935 0.61662467
0.69461452 0.19678935 0.61662467
0.77287378 0.19678935 0.61662467
0.06256172 0.31106041 0.61662467
0.19678935 0.31106041 0.61662467
0.31106041 0.31106041 0.61662467
0.38983525 0.31106041 0.61662467
0.46447813 0.31106041 0.61662467
0.53978100 0.31106041 0.61662467
0.61662467 0.31106041 0.61662467
0.69461452 0.31106041 0.61662467
0.77287378 0.31106041 0.61662467
0.06256172 0.38983525 0.61662467
0.19678935 0.38983525 0.61662467
0.31106041 0.38983525 0.61662467
0.38983525 0.38983525 0.61662467
0.46447813 0.38983525 0.61662467
0.53978100 0.38983525 0.61662467
0.61662467 0.38983525 0.61662467
0.69461452 0.38983525 0.61662467
0.77287378 0.38983525 0.61662467
0.06256172 0.46447813 0.61662467
0.19678935 0.46447813 0.61662467
0.31106041 0.46447813 0.61662467
0.38983525 0.46447813 0.61662467
0.46447813 0.46447813 0.61662467
0.53978100 0.46447813 0.61662467
0.61662467 0.46447813 0.61662467
0.69461452 0.46447813 0.61662467
0.77287378 0.46447813 0.61662467
0.06256172 0.53978100 0.61662467
0.19678935 0.53978100 0.61662467
0.31106041 0.53978100 0.61662467
0.38983525 0.53978100 0.61662467
0.46447813 0.53978100 0.61662467
0.53978100 0.53978100 0.61662467
0.61662467 0.53978100 0.61662467
0.69461452 0.53978100 0.61662467
0.77287378 0.53978100 0.61662467
0.06256172 0.61662467 0.61662467
0.19678935 0.61662467 0.61662467
0.31106041 0.61662467 0.61662467
0.38983525 0.61662467 0.61662467
0.46447813 0.61662467 0.61662467
0.53978100 0.61662467 0.61662467
0.61662467 0.61662467 0.61662467
0.69461452 0.61662467 0.61662467
0.77287378 0.61662467 0.61662467
0.06256172 0.69461452 0.61662467
0.19678935 0.69461452 0.61662467
0.31106041 0.69461452 0.61662467
0.38983525 0.69461452 0.61662467
0.46447813 0.69461452 0.61662467
0.53978100 0.69461452 0.61662467
0.61662467 0.69461452 0.61662467
0.69461452 0.69461452 0.61662467
0.77287378 0.69461452 0.61662467
0.06256172 0.77287378 0.61662467
0.19678935 0.77287378 0.61662467
0.31106041 0.77287378 0.61662467
0.38983525 0.77287378 0.61662467
0.46447813 0.77287378 0.61662467
0.53978100 0.77287378 0.61662467
0.61662467 0.77287378 0.61662467
0.69461452 0.77287378 0.61662467
0.77287378 0.77287378 0.61662467
0.06256172 0.06256172 0.69461452
0.19678935 0.06256172 0.69461452
0.31106041 0.06256172 0.69461452
0.38983525 0.06256172 0.69461452
0.46447813 0.06256172 0.69461452
0.53978100 0.06256172 0.69461452
0.61662467 0.06256172 0.69461452
0.69461452 0.06256172 0.69461452
0.77287378 0.06256172 0.69461452
0.06256172 0.19678935 0.69461452
0.19678935 0.19678935 0.69461452
0.31106041 0.19678935 0.69461452
0.38983525 0.19678935 0.69461452
0.46447813 0.19678935 0.69461452
0.53978100 0.19678935 0.69461452
0.61662467 0.19678935 0.69461452
0.69461452 0.19678935 0.69461452
0.77287378 0.19678935 0.69461452
0.06256172 0.31106041 0.69461452
0.19678935 0.31106041 0.69461452
0.31106041 0.31106041 0.69461452
0.38983525 0.31106041 0.69461452
0.46447813 0.31106041 0.69461452
0.53978100 0.31106041 0.69461452
0.61662467 0.31106041 0.69461452
0.69461452 0.31106041 0.69461452
0.77287378 0.31106041 0.69461452
0.06256172 0.38983525 0.69461452
0.19678935 0.38983525 0.69461452
0.31106041 0.38983525 0.69461452
0.38983525 0.38983525 0.69461452
0.46447813 0.38983525 0.69461452
0.53978100 0.38983525 0.69461452
0.61662467 0.38983525 0.69461452
0.69461452 0.38983525 0.69461452
0.77287378 0.38983525 0.69461452
0.06256172 0.46447813 0.69461452
0.19678935 0.46447813 0.69461452
0.31106041 0.46447813 0.69461452
0.38983525 0.46447813 0.69461452
0.46447813 0.46447813 0.69461452
0.53978100 0.46447813 0.69461452
0.61662467 0.46447813 0.69461452
0.69461452 0.46447813 0.69461452
0.77287378 0.46447813 0.69461452
0.06256172 0.53978100 0.69461452
0.19678935 0.53978100 0.69461452
0.31106041 0.53978100 0.69461452
0.38983525 0.53978100 0.69461452
0.46447813 0.53978100 0.69461452
0.53978100 0.53978100 0.69461452
0.61662467 0.53978100 0.69461452
0.69461452 0.53978100 0.69461452
0.77287378 0.53978100 0.69461452
0.06256172 0.61662467 0.69461452
0.19678935 0.61662467 0.69461452
0.31106041 0.61662467 0.69461452
0.38983525 0.61662467 0.69461452
0.46447813 0.61662467 0.69461452
0.53978100 0.61662467 0.69461452
0.61662467 0.61662467 0.69461452
0.69461452 0.61662467 0.69461452
0.77287378 0.61662467 0.69461452
0.06256172 0.69461452 0.69461452
0.19678935 0.69461452 0.69461452
0.31106041 0.69461452 0.69461452
0.38983525 0.69461452 0.69461452
0.46447813 0.69461452 0.69461452
0.53978100 0.69461452 0.69461452
0.61662467 0.69461452 0.69461452
0.69461452 0.69461452 0.69461452
0.77287378 0.69461452 0.69461452
0.06256172 0.77287378 0.69461452
0.19678935 0.77287378 0.69461452
0.31106041 0.77287378 0.69461452
0.38983525 0.77287378 0.69461452
0.46447813 0.77287378 0.69461452
0.53978100 0.77287378 0.69461452
0.61662467 0.77287378 0.69461452
0.69461452 0.77287378 0.69461452
0.77287378 0.77287378 0.69461452
0.06256172 0.06256172 0.77287378
0.19678935 0.06256172 0.77287378
0.31106041 0.06256172 0.77287378
0.38983525 0.06256172 0.77287378
0.46447813 0.06256172 0.77287378
0.53978100 0.06256172 0.77287378
0.61662467 0.06256172 0.77287378
0.69461452 0.06256172 0.77287378
0.77287378 0.06256172 0.77287378
0.06256172 0.19678935 0.77287378
0.19678935 0.19678935 0.77287378
0.31106041 0.19678935 0.77287378
0.38983525 0.19678935 0.77287378
0.46447813 0.19678935 0.77287378
0.53978100 0.19678935 0.77287378
0.61662467 0.19678935 0.77287378
0.69461452 0.19678935 0.77287378
0.77287378 0.19678935 0.77287378
0.06256172 0.31106041 0.77287378
0.19678935 0.31106041 0.77287378
0.31106041 0.31106041 0.77287378
0.38983525 0.31106041 0.77287378
0.46447813 0.31106041 0.77287378
0.53978100 0.31106041 0.77287378
0.61662467 0.31106041 0.77287378
0.69461452 0.31106041 0.77287378
0.77287378 0.31106041 0.77287378
0.06256172 0.38983525 0.77287378
0.19678935 0.38983525 0.77287378
0.31106041 0.38983525 0.77287378
0.38983525 0.38983525 0.77287378
0.46447813 0.38983525 0.77287378
0.53978100 0.38983525 0.77287378
0.61662467 0.38983525 0.77287378
0.69461452 0.38983525 0.77287378
0.77287378 0.38983525 0.77287378
0.06256172 0.46447813 0.77287378
0.19678935 0.46447813 0.77287378
0.31106041 0.46447813 0.77287378
0.38983525 0.46447813 0.77287378
0.46447813 0.46447813 0.77287378
0.53978100 0.46447813 0.77287378
0.61662467 0.46447813 0.77287378
0.69461452 0.46447813 0.77287378
0.77287378 0.46447813 0.77287378
0.06256172 0.53978100 0.77287378
0.19678935 0.53978100 0.77287378
0.31106041 0.53978100 0.77287378
0.38983525 0.53978100 0.77287378
0.46447813 0.53978100 0.77287378
0.53978100 0.53978100 0.77287378
0.61662467 0.53978100 0.77287378
0.69461452 0.53978100 0.77287378
0.77287378 0.53978100 0.77287378
0.06256172 0.61662467 0.77287378
0.19678935 0.61662467 0.77287378
0.31106041 0.61662467 0.77287378
0.38983525 0.61662467 0.77287378
0.46447813 0.61662467 0.77287378
0.53978100 0.61662467 0.77287378
0.61662467 0.61662467 0.77287378
0.69461452 0.61662467 0.77287378
0.77287378 0.61662467 0.77287378
0.06256172 0.69461452 0.77287378
0.19678935 0.69461452 0.77287378
0.31106041 0.69461452 0.77287378
0.38983525 0.69461452 0.77287378
0.46447813 0.69461452 0.77287378
0.53978100 0.69461452 0.77287378
0.61662467 0.69461452 0.77287378
0.69461452 0.69461452 0.77287378
0.77287378 0.69461452 0.77287378
0.06256172 0.77287378 0.77287378
0.19678935 0.77287378 0.77287378
0.31106041 0.77287378 0.77287378
0.38983525 0.77287378 0.77287378
0.46447813 0.77287378 0.77287378
0.53978100 0.77287378 0.77287378
0.61662467 0.77287378 0.77287378
0.69461452 0.77287378 0.77287378
0.77287378 0.77287378 0.77287378
