src/ffmpeg_scripts/luts/flog-experimental_3p33.cube
TITLE "flog-experimental_3p33"
LUT_3D_SIZE 33
# Fujifilm F-Log/Rec2020 -> PQ (EOTF Only)/Rec2020, CineEI Shift 3.33, Black Level 0.00% IRE, Input 109% -> Output 100% - Created with LUTCalc v4.01 by Ben Turley October 2020
0.00000073 0.00000073 0.00000073
0.00000073 0.00000073 0.00000073
0.00000073 0.00000073 0.00000073
0.08718162 0.00000073 0.00000073
0.33451146 0.00000073 0.00000073
0.41583275 0.00000073 0.00000073
0.47414106 0.00000073 0.00000073
0.52248928 0.00000073 0.00000073
0.56537210 0.00000073 0.00000073
0.60489699 0.00000073 0.00000073
0.64222298 0.00000073 0.00000073
0.67805263 0.00000073 0.00000073
0.71283983 0.00000073 0.00000073
0.74689056 0.00000073 0.00000073
0.78041678 0.00000073 0.00000073
0.81356763 0.00000073 0.00000073
0.84644850 0.00000073 0.00000073
0.87913339 0.00000073 0.00000073
0.91167313 0.00000073 0.00000073
0.94410125 0.00000073 0.00000073
0.97643804 0.00000073 0.00000073
1.00000000 0.00000073 0.00000073
1.00000000 0.00000073 0.00000073
1.00000000 0.00000073 0.00000073
1.00000000 0.00000073 0.00000073
1.00000000 0.00000073 0.00000073
1.00000000 0.00000073 0.00000073
1.00000000 0.00000073 0.00000073
1.00000000 0.00000073 0.00000073
1.00000000 0.00000073 0.00000073
1.00000000 0.00000073 0.00000073
1.00000000 0.00000073 0.00000073
1.00000000 0.00000073 0.00000073
0.00000073 0.00000073 0.00000073
0.00000073 0.00000073 0.00000073
0.00000073 0.00000073 0.00000073
0.08718162 0.00000073 0.00000073
0.33451146 0.00000073 0.00000073
0.41583275 0.00000073 0.00000073
0.47414106 0.00000073 0.00000073
0.52248928 0.00000073 0.00000073
0.56537210 0.00000073 0.00000073
0.60489699 0.00000073 0.00000073
0.64222298 0.00000073 0.00000073
0.67805263 0.00000073 0.00000073
0.71283983 0.00000073 0.00000073
0.74689056 0.00000073 0.00000073
0.78041678 0.00000073 0.00000073
0.81356763 0.00000073 0.00000073
0.84644850 0.00000073 0.00000073
0.87913339 0.00000073 0.00000073
0.91167313 0.00000073 0.00000073
0.94410125 0.00000073 0.00000073
0.97643804 0.00000073 0.00000073
1.00000000 0.00000073 0.00000073
1.00000000 0.00000073 0.00000073
1.00000000 0.00000073 0.00000073
1.00000000 0.00000073 0.00000073
1.00000000 0.00000073 0.00000073
1.00000000 0.00000073 0.00000073
1.00000000 0.00000073 0.00000073
1.00000000 0.00000073 0.00000073
1.00000000 0.00000073 0.00000073
1.00000000 0.00000073 0.00000073
1.00000000 0.00000073 0.00000073
1.00000000 0.00000073 0.00000073
0.00000073 0.00000073 0.00000073
0.00000073 0.00000073 0.00000073
0.00000073 0.00000073 0.00000073
0.08718162 0.00000073 0.00000073
0.33451146 0.00000073 0.00000073
0.41583275 0.00000073 0.00000073
0.47414106 0.00000073 0.00000073
0.52248928 0.00000073 0.00000073
0.56537210 0.00000073 0.00000073
0.60489699 0.00000073 0.00000073
0.64222298 0.00000073 0.00000073
0.67805263 0.00000073 0.00000073
0.71283983 0.00000073 0.00000073
0.74689056 0.00000073 0.00000073
0.78041678 0.00000073 0.00000073
0.81356763 0.00000073 0.00000073
0.84644850 0.00000073 0.00000073
0.87913339 0.00000073 0.00000073
0.91167313 0.00000073 0.00000073
0.94410125 0.00000073 0.00000073
0.97643804 0.00000073 0.00000073
1.00000000 0.00000073 0.00000073
1.00000000 0.00000073 0.00000073
1.00000000 0.00000073 0.00000073
1.00000000 0.00000073 0.00000073
1.00000000 0.00000073 0.00000073
1.00000000 0.00000073 0.00000073
1.00000000 0.00000073 0.00000073
1.00000000 0.00000073 0.00000073
1.00000000 0.00000073 0.00000073
1.00000000 0.00000073 0.00000073
1.00000000 0.00000073 0.00000073
1.00000000 0.00000073 0.00000073
0.00000073 0.08718162 0.00000073
0.00000073 0.08718162 0.00000073
0.00000073 0.08718162 0.00000073
0.08718162 0.08718162 0.00000073
0.33451146 0.08718162 0.00000073
0.41583275 0.08718162 0.00000073
0.47414106 0.08718162 0.00000073
0.52248928 0.08718162 0.00000073
0.56537210 0.08718162 0.00000073
0.60489699 0.08718162 0.00000073
0.64222298 0.08718162 0.00000073
0.67805263 0.08718162 0.00000073
0.71283983 0.08718162 0.00000073
0.74689056 0.08718162 0.00000073
0.78041678 0.08718162 0.00000073
0.81356763 0.08718162 0.00000073
0.84644850 0.08718162 0.00000073
0.87913339 0.08718162 0.00000073
0.91167313 0.08718162 0.00000073
0.94410125 0.08718162 0.00000073
0.97643804 0.08718162 0.00000073
1.00000000 0.08718162 0.00000073
1.00000000 0.08718162 0.00000073
1.00000000 0.08718162 0.00000073
1.00000000 0.08718162 0.00000073
1.00000000 0.08718162 0.00000073
1.00000000 0.08718162 0.00000073
1.00000000 0.08718162 0.00000073
1.00000000 0.08718162 0.00000073
1.00000000 0.08718162 0.00000073
1.00000000 0.08718162 0.00000073
1.00000000 0.08718162 0.00000073
1.00000000 0.08718162 0.00000073
0.00000073 0.33451146 0.00000073
0.00000073 0.33451146 0.00000073
0.00000073 0.33451146 0.00000073
0.08718162 0.33451146 0.00000073
0.33451146 0.33451146 0.00000073
0.41583275 0.33451146 0.00000073
0.47414106 0.33451146 0.00000073
0.52248928 0.33451146 0.00000073
0.56537210 0.33451146 0.00000073
0.60489699 0.33451146 0.00000073
0.64222298 0.33451146 0.00000073
0.67805263 0.33451146 0.00000073
0.71283983 0.33451146 0.00000073
0.74689056 0.33451146 0.00000073
0.78041678 0.33451146 0.00000073
0.81356763 0.33451146 0.00000073
0.84644850 0.33451146 0.00000073
0.87913339 0.33451146 0.00000073
0.91167313 0.33451146 0.00000073
0.94410125 0.33451146 0.00000073
0.97643804 0.33451146 0.00000073
1.00000000 0.33451146 0.00000073
1.00000000 0.33451146 0.00000073
1.00000000 0.33451146 0.00000073
1.00000000 0.33451146 0.00000073
1.00000000 0.33451146 0.00000073
1.00000000 0.33451146 0.00000073
1.00000000 0.33451146 0.00000073
1.00000000 0.33451146 0.00000073
1.00000000 0.33451146 0.00000073
1.00000000 0.33451146 0.00000073
1.00000000 0.33451146 0.00000073
1.00000000 0.33451146 0.00000073
0.00000073 0.41583275 0.00000073
0.00000073 0.41583275 0.00000073
0.00000073 0.41583275 0.00000073
0.08718162 0.41583275 0.00000073
0.33451146 0.41583275 0.00000073
0.41583275 0.41583275 0.00000073
0.47414106 0.41583275 0.00000073
0.52248928 0.41583275 0.00000073
0.56537210 0.41583275 0.00000073
0.60489699 0.41583275 0.00000073
0.64222298 0.41583275 0.00000073
0.67805263 0.41583275 0.00000073
0.71283983 0.41583275 0.00000073
0.74689056 0.41583275 0.00000073
0.78041678 0.41583275 0.00000073
0.81356763 0.41583275 0.00000073
0.84644850 0.41583275 0.00000073
0.87913339 0.41583275 0.00000073
0.91167313 0.41583275 0.00000073
0.94410125 0.41583275 0.00000073
0.97643804 0.41583275 0.00000073
1.00000000 0.41583275 0.00000073
1.00000000 0.41583275 0.00000073
1.00000000 0.41583275 0.00000073
1.00000000 0.41583275 0.00000073
1.00000000 0.41583275 0.00000073
1.00000000 0.41583275 0.00000073
1.00000000 0.41583275 0.00000073
1.00000000 0.41583275 0.00000073
1.00000000 0.41583275 0.00000073
1.00000000 0.41583275 0.00000073
1.00000000 0.41583275 0.00000073
1.00000000 0.41583275 0.00000073
0.00000073 0.47414106 0.00000073
0.00000073 0.47414106 0.00000073
0.00000073 0.47414106 0.00000073
0.08718162 0.47414106 0.00000073
0.33451146 0.47414106 0.00000073
0.41583275 0.47414106 0.00000073
0.47414106 0.47414106 0.00000073
0.52248928 0.47414106 0.00000073
0.56537210 0.47414106 0.00000073
0.60489699 0.47414106 0.00000073
0.64222298 0.47414106 0.00000073
0.67805263 0.47414106 0.00000073
0.71283983 0.47414106 0.00000073
0.74689056 0.47414106 0.00000073
0.78041678 0.47414106 0.00000073
0.81356763 0.47414106 0.00000073
0.84644850 0.47414106 0.00000073
0.87913339 0.47414106 0.00000073
0.91167313 0.47414106 0.00000073
0.94410125 0.47414106 0.00000073
0.97643804 0.47414106 0.00000073
1.00000000 0.47414106 0.00000073
1.00000000 0.47414106 0.00000073
1.00000000 0.47414106 0.00000073
1.00000000 0.47414106 0.00000073
1.00000000 0.47414106 0.00000073
1.00000000 0.47414106 0.00000073
1.00000000 0.47414106 0.00000073
1.00000000 0.47414106 0.00000073
1.00000000 0.47414106 0.00000073
1.00000000 0.47414106 0.00000073
1.00000000 0.47414106 0.00000073
1.00000000 0.47414106 0.00000073
0.00000073 0.52248928 0.00000073
0.00000073 0.52248928 0.00000073
0.00000073 0.52248928 0.00000073
0.08718162 0.52248928 0.00000073
0.33451146 0.52248928 0.00000073
0.41583275 0.52248928 0.00000073
0.47414106 0.52248928 0.00000073
0.52248928 0.52248928 0.00000073
0.56537210 0.52248928 0.00000073
0.60489699 0.52248928 0.00000073
0.64222298 0.52248928 0.00000073
0.67805263 0.52248928 0.00000073
0.71283983 0.52248928 0.00000073
0.74689056 0.52248928 0.00000073
0.78041678 0.52248928 0.00000073
0.81356763 0.52248928 0.00000073
0.84644850 0.52248928 0.00000073
0.87913339 0.52248928 0.00000073
0.91167313 0.52248928 0.00000073
0.94410125 0.52248928 0.00000073
0.97643804 0.52248928 0.00000073
1.00000000 0.52248928 0.00000073
1.00000000 0.52248928 0.00000073
1.00000000 0.52248928 0.00000073
1.00000000 0.52248928 0.00000073
1.00000000 0.52248928 0.00000073
1.00000000 0.52248928 0.00000073
1.00000000 0.52248928 0.00000073
1.00000000 0.52248928 0.00000073
1.00000000 0.52248928 0.00000073
1.00000000 0.52248928 0.00000073
1.00000000 0.52248928 0.00000073
1.00000000 0.52248928 0.00000073
0.00000073 0.56537210 0.00000073
0.00000073 0.56537210 0.00000073
0.00000073 0.56537210 0.00000073
0.08718162 0.56537210 0.00000073
0.33451146 0.56537210 0.00000073
0.41583275 0.56537210 0.00000073
0.47414106 0.56537210 0.00000073
0.52248928 0.56537210 0.00000073
0.56537210 0.56537210 0.00000073
0.60489699 0.56537210 0.00000073
0.64222298 0.56537210 0.00000073
0.67805263 0.56537210 0.00000073
0.71283983 0.56537210 0.00000073
0.74689056 0.56537210 0.00000073
0.78041678 0.56537210 0.00000073
0.81356763 0.56537210 0.00000073
0.84644850 0.56537210 0.00000073
0.87913339 0.56537210 0.00000073
0.91167313 0.56537210 0.00000073
0.94410125 0.56537210 0.00000073
0.97643804 0.56537210 0.00000073
1.00000000 0.56537210 0.00000073
1.00000000 0.56537210 0.00000073
1.00000000 0.56537210 0.00000073
1.00000000 0.56537210 0.00000073
1.00000000 0.56537210 0.00000073
1.00000000 0.56537210 0.00000073
1.00000000 0.56537210 0.00000073
1.00000000 0.56537210 0.00000073
1.00000000 0.56537210 0.00000073
1.00000000 0.56537210 0.00000073
1.00000000 0.56537210 0.00000073
1.00000000 0.56537210 0.00000073
0.00000073 0.60489699 0.00000073
0.00000073 0.60489699 0.00000073
0.00000073 0.60489699 0.00000073
0.08718162 0.60489699 0.00000073
0.33451146 0.60489699 0.00000073
0.41583275 0.60489699 0.00000073
0.47414106 0.60489699 0.00000073
0.52248928 0.60489699 0.00000073
0.56537210 0.60489699 0.00000073
0.60489699 0.60489699 0.00000073
0.64222298 0.60489699 0.00000073
0.67805263 0.60489699 0.00000073
0.71283983 0.60489699 0.00000073
0.74689056 0.60489699 0.00000073
0.78041678 0.60489699 0.00000073
0.81356763 0.60489699 0.00000073
0.84644850 0.60489699 0.00000073
0.87913339 0.60489699 0.00000073
0.91167313 0.60489699 0.00000073
0.94410125 0.60489699 0.00000073
0.97643804 0.60489699 0.00000073
1.00000000 0.60489699 0.00000073
1.00000000 0.60489699 0.00000073
1.00000000 0.60489699 0.00000073
1.00000000 0.60489699 0.00000073
1.00000000 0.60489699 0.00000073
1.00000000 0.60489699 0.00000073
1.00000000 0.60489699 0.00000073
1.00000000 0.60489699 0.00000073
1.00000000 0.60489699 0.00000073
1.00000000 0.60489699 0.00000073
1.00000000 0.60489699 0.00000073
1.00000000 0.60489699 0.00000073
0.00000073 0.64222298 0.00000073
0.00000073 0.64222298 0.00000073
0.00000073 0.64222298 0.00000073
0.08718162 0.64222298 0.00000073
0.33451146 0.64222298 0.00000073
0.41583275 0.64222298 0.00000073
0.47414106 0.64222298 0.00000073
0.52248928 0.64222298 0.00000073
0.56537210 0.64222298 0.00000073
0.60489699 0.64222298 0.00000073
0.64222298 0.64222298 0.00000073
0.67805263 0.64222298 0.00000073
0.71283983 0.64222298 0.00000073
0.74689056 0.64222298 0.00000073
0.78041678 0.64222298 0.00000073
0.81356763 0.64222298 0.00000073
0.84644850 0.64222298 0.00000073
0.87913339 0.64222298 0.00000073
0.91167313 0.64222298 0.00000073
0.94410125 0.64222298 0.00000073
0.97643804 0.64222298 0.00000073
1.00000000 0.64222298 0.00000073
1.00000000 0.64222298 0.00000073
1.00000000 0.64222298 0.00000073
1.00000000 0.64222298 0.00000073
1.00000000 0.64222298 0.00000073
1.00000000 0.64222298 0.00000073
1.00000000 0.64222298 0.00000073
1.00000000 0.64222298 0.00000073
1.00000000 0.64222298 0.00000073
1.00000000 0.64222298 0.00000073
1.00000000 0.64222298 0.00000073
1.00000000 0.64222298 0.00000073
0.00000073 0.67805263 0.00000073
0.00000073 0.67805263 0.00000073
0.00000073 0.67805263 0.00000073
0.08718162 0.67805263 0.00000073
0.33451146 0.67805263 0.00000073
0.41583275 0.67805263 0.00000073
0.47414106 0.67805263 0.00000073
0.52248928 0.67805263 0.00000073
0.56537210 0.67805263 0.00000073
0.60489699 0.67805263 0.00000073
0.64222298 0.67805263 0.00000073
0.67805263 0.67805263 0.00000073
0.71283983 0.67805263 0.00000073
0.74689056 0.67805263 0.00000073
0.78041678 0.67805263 0.00000073
0.81356763 0.67805263 0.00000073
0.84644850 0.67805263 0.00000073
0.87913339 0.67805263 0.00000073
0.91167313 0.67805263 0.00000073
0.94410125 0.67805263 0.00000073
0.97643804 0.67805263 0.00000073
1.00000000 0.67805263 0.00000073
1.00000000 0.67805263 0.00000073
1.00000000 0.67805263 0.00000073
1.00000000 0.67805263 0.00000073
1.00000000 0.67805263 0.00000073
1.00000000 0.67805263 0.00000073
1.00000000 0.67805263 0.00000073
1.00000000 0.67805263 0.00000073
1.00000000 0.67805263 0.00000073
1.00000000 0.67805263 0.00000073
1.00000000 0.67805263 0.00000073
1.00000000 0.67805263 0.00000073
0.00000073 0.71283983 0.00000073
0.00000073 0.71283983 0.00000073
0.00000073 0.71283983 0.00000073
0.08718162 0.71283983 0.00000073
0.33451146 0.71283983 0.00000073
0.41583275 0.71283983 0.00000073
0.47414106 0.71283983 0.00000073
0.52248928 0.71283983 0.00000073
0.56537210 0.71283983 0.00000073
0.60489699 0.71283983 0.00000073
0.64222298 0.71283983 0.00000073
0.67805263 0.71283983 0.00000073
0.71283983 0.71283983 0.00000073
0.74689056 0.71283983 0.00000073
0.78041678 0.71283983 0.00000073
0.81356763 0.71283983 0.00000073
0.84644850 0.71283983 0.00000073
0.87913339 0.71283983 0.00000073
0.91167313 0.71283983 0.00000073
0.94410125 0.71283983 0.00000073
0.97643804 0.71283983 0.00000073
1.00000000 0.71283983 0.00000073
1.00000000 0.71283983 0.00000073
1.00000000 0.71283983 0.00000073
1.00000000 0.71283983 0.00000073
1.00000000 0.71283983 0.00000073
1.00000000 0.71283983 0.00000073
1.00000000 0.71283983 0.00000073
1.00000000 0.71283983 0.00000073
1.00000000 0.71283983 0.00000073
1.00000000 0.71283983 0.00000073
1.00000000 0.71283983 0.00000073
1.00000000 0.71283983 0.00000073
0.00000073 0.74689056 0.00000073
0.00000073 0.74689056 0.00000073
0.00000073 0.74689056 0.00000073
0.08718162 0.74689056 0.00000073
0.33451146 0.74689056 0.00000073
0.41583275 0.74689056 0.00000073
0.47414106 0.74689056 0.00000073
0.52248928 0.74689056 0.00000073
0.56537210 0.74689056 0.00000073
0.60489699 0.74689056 0.00000073
0.64222298 0.74689056 0.00000073
0.67805263 0.74689056 0.00000073
0.71283983 0.74689056 0.00000073
0.74689056 0.74689056 0.00000073
0.78041678 0.74689056 0.00000073
0.81356763 0.74689056 0.00000073
0.84644850 0.74689056 0.00000073
0.87913339 0.74689056 0.00000073
0.91167313 0.74689056 0.00000073
0.94410125 0.74689056 0.00000073
0.97643804 0.74689056 0.00000073
1.00000000 0.74689056 0.00000073
1.00000000 0.74689056 0.00000073
1.00000000 0.74689056 0.00000073
1.00000000 0.74689056 0.00000073
1.00000000 0.74689056 0.00000073
1.00000000 0.74689056 0.00000073
1.00000000 0.74689056 0.00000073
1.00000000 0.74689056 0.00000073
1.00000000 0.74689056 0.00000073
1.00000000 0.74689056 0.00000073
1.00000000 0.74689056 0.00000073
1.00000000 0.74689056 0.00000073
0.00000073 0.78041678 0.00000073
0.00000073 0.78041678 0.00000073
0.00000073 0.78041678 0.00000073
0.08718162 0.78041678 0.00000073
0.33451146 0.78041678 0.00000073
0.41583275 0.78041678 0.00000073
0.47414106 0.78041678 0.00000073
0.52248928 0.78041678 0.00000073
0.56537210 0.78041678 0.00000073
0.60489699 0.78041678 0.00000073
0.64222298 0.78041678 0.00000073
0.67805263 0.78041678 0.00000073
0.71283983 0.78041678 0.00000073
0.74689056 0.78041678 0.00000073
0.78041678 0.78041678 0.00000073
0.81356763 0.78041678 0.00000073
0.84644850 0.78041678 0.00000073
0.87913339 0.78041678 0.00000073
0.91167313 0.78041678 0.00000073
0.94410125 0.78041678 0.00000073
0.97643804 0.78041678 0.00000073
1.00000000 0.78041678 0.00000073
1.00000000 0.78041678 0.00000073
1.00000000 0.78041678 0.00000073
1.00000000 0.78041678 0.00000073
1.00000000 0.78041678 0.00000073
1.00000000 0.78041678 0.00000073
1.00000000 0.78041678 0.00000073
1.00000000 0.78041678 0.00000073
1.00000000 0.78041678 0.00000073
1.00000000 0.78041678 0.00000073
1.00000000 0.78041678 0.00000073
1.00000000 0.78041678 0.00000073
0.00000073 0.81356763 0.00000073
0.00000073 0.81356763 0.00000073
0.00000073 0.81356763 0.00000073
0.08718162 0.81356763 0.00000073
0.33451146 0.81356763 0.00000073
0.41583275 0.81356763 0.00000073
0.47414106 0.81356763 0.00000073
0.52248928 0.81356763 0.00000073
0.56537210 0.81356763 0.00000073
0.60489699 0.81356763 0.00000073
0.64222298 0.81356763 0.00000073
0.67805263 0.81356763 0.00000073
0.71283983 0.81356763 0.00000073
0.74689056 0.81356763 0.00000073
0.78041678 0.81356763 0.00000073
0.81356763 0.81356763 0.00000073
0.84644850 0.81356763 0.00000073
0.87913339 0.81356763 0.00000073
0.91167313 0.81356763 0.00000073
0.94410125 0.81356763 0.00000073
0.97643804 0.81356763 0.00000073
1.00000000 0.81356763 0.00000073
1.00000000 0.81356763 0.00000073
1.00000000 0.81356763 0.00000073
1.00000000 0.81356763 0.00000073
1.00000000 0.81356763 0.00000073
1.00000000 0.81356763 0.00000073
1.00000000 0.81356763 0.00000073
1.00000000 0.81356763 0.00000073
1.00000000 0.81356763 0.00000073
1.00000000 0.81356763 0.00000073
1.00000000 0.81356763 0.00000073
1.00000000 0.81356763 0.00000073
0.00000073 0.84644850 0.00000073
0.00000073 0.84644850 0.00000073
0.00000073 0.84644850 0.00000073
0.08718162 0.84644850 0.00000073
0.33451146 0.84644850 0.00000073
0.41583275 0.84644850 0.00000073
0.47414106 0.84644850 0.00000073
0.52248928 0.84644850 0.00000073
0.56537210 0.84644850 0.00000073
0.60489699 0.84644850 0.00000073
0.64222298 0.84644850 0.00000073
0.67805263 0.84644850 0.00000073
0.71283983 0.84644850 0.00000073
0.74689056 0.84644850 0.00000073
0.78041678 0.84644850 0.00000073
0.81356763 0.84644850 0.00000073
0.84644850 0.84644850 0.00000073
0.87913339 0.84644850 0.00000073
0.91167313 0.84644850 0.00000073
0.94410125 0.84644850 0.00000073
0.97643804 0.84644850 0.00000073
1.00000000 0.84644850 0.00000073
1.00000000 0.84644850 0.00000073
1.00000000 0.84644850 0.00000073
1.00000000 0.84644850 0.00000073
1.00000000 0.84644850 0.00000073
1.00000000 0.84644850 0.00000073
1.00000000 0.84644850 0.00000073
1.00000000 0.84644850 0.00000073
1.00000000 0.84644850 0.00000073
1.00000000 0.84644850 0.00000073
1.00000000 0.84644850 0.00000073
1.00000000 0.84644850 0.00000073
0.00000073 0.87913339 0.00000073
0.00000073 0.87913339 0.00000073
0.00000073 0.87913339 0.00000073
0.08718162 0.87913339 0.00000073
0.33451146 0.87913339 0.00000073
0.41583275 0.87913339 0.00000073
0.47414106 0.87913339 0.00000073
0.52248928 0.87913339 0.00000073
0.56537210 0.87913339 0.00000073
0.60489699 0.87913339 0.00000073
0.64222298 0.87913339 0.00000073
0.67805263 0.87913339 0.00000073
0.71283983 0.87913339 0.00000073
0.74689056 0.87913339 0.00000073
0.78041678 0.87913339 0.00000073
0.81356763 0.87913339 0.00000073
0.84644850 0.87913339 0.00000073
0.87913339 0.87913339 0.00000073
0.91167313 0.87913339 0.00000073
0.94410125 0.87913339 0.00000073
0.97643804 0.87913339 0.00000073
1.00000000 0.87913339 0.00000073
1.00000000 0.87913339 0.00000073
1.00000000 0.87913339 0.00000073
1.00000000 0.87913339 0.00000073
1.00000000 0.87913339 0.00000073
1.00000000 0.87913339 0.00000073
1.00000000 0.87913339 0.00000073
1.00000000 0.87913339 0.00000073
1.00000000 0.87913339 0.00000073
1.00000000 0.87913339 0.00000073
1.00000000 0.87913339 0.00000073
1.00000000 0.87913339 0.00000073
0.00000073 0.91167313 0.00000073
0.00000073 0.91167313 0.00000073
0.00000073 0.91167313 0.00000073
0.08718162 0.91167313 0.00000073
0.33451146 0.91167313 0.00000073
0.41583275 0.91167313 0.00000073
0.47414106 0.91167313 0.00000073
0.52248928 0.91167313 0.00000073
0.56537210 0.91167313 0.00000073
0.60489699 0.91167313 0.00000073
0.64222298 0.91167313 0.00000073
0.67805263 0.91167313 0.00000073
0.71283983 0.91167313 0.00000073
0.74689056 0.91167313 0.00000073
0.78041678 0.91167313 0.00000073
0.81356763 0.91167313 0.00000073
0.84644850 0.91167313 0.00000073
0.87913339 0.91167313 0.00000073
0.91167313 0.91167313 0.00000073
0.94410125 0.91167313 0.00000073
0.97643804 0.91167313 0.00000073
1.00000000 0.91167313 0.00000073
1.00000000 0.91167313 0.00000073
1.00000000 0.91167313 0.00000073
1.00000000 0.91167313 0.00000073
1.00000000 0.91167313 0.00000073
1.00000000 0.91167313 0.00000073
1.00000000 0.91167313 0.00000073
1.00000000 0.91167313 0.00000073
1.00000000 0.91167313 0.00000073
1.00000000 0.91167313 0.00000073
1.00000000 0.91167313 0.00000073
1.00000000 0.91167313 0.00000073
0.00000073 0.94410125 0.00000073
0.00000073 0.94410125 0.00000073
0.00000073 0.94410125 0.00000073
0.08718162 0.94410125 0.00000073
0.33451146 0.94410125 0.00000073
0.41583275 0.94410125 0.00000073
0.47414106 0.94410125 0.00000073
0.52248928 0.94410125 0.00000073
0.56537210 0.94410125 0.00000073
0.60489699 0.94410125 0.00000073
0.64222298 0.94410125 0.00000073
0.67805263 0.94410125 0.00000073
0.71283983 0.94410125 0.00000073
0.74689056 0.94410125 0.00000073
0.78041678 0.94410125 0.00000073
0.81356763 0.94410125 0.00000073
0.84644850 0.94410125 0.00000073
0.87913339 0.94410125 0.00000073
0.91167313 0.94410125 0.00000073
0.94410125 0.94410125 0.00000073
0.97643804 0.94410125 0.00000073
1.00000000 0.94410125 0.00000073
1.00000000 0.94410125 0.00000073
1.00000000 0.94410125 0.00000073
1.00000000 0.94410125 0.00000073
1.00000000 0.94410125 0.00000073
1.00000000 0.94410125 0.00000073
1.00000000 0.94410125 0.00000073
1.00000000 0.94410125 0.00000073
1.00000000 0.94410125 0.00000073
1.00000000 0.94410125 0.00000073
1.00000000 0.94410125 0.00000073
1.00000000 0.94410125 0.00000073
0.00000073 0.97643804 0.00000073
0.00000073 0.97643804 0.00000073
0.00000073 0.97643804 0.00000073
0.08718162 0.97643804 0.00000073
0.33451146 0.97643804 0.00000073
0.41583275 0.97643804 0.00000073
0.47414106 0.97643804 0.00000073
0.52248928 0.97643804 0.00000073
0.56537210 0.97643804 0.00000073
0.60489699 0.97643804 0.00000073
0.64222298 0.97643804 0.00000073
0.67805263 0.97643804 0.00000073
0.71283983 0.97643804 0.00000073
0.74689056 0.97643804 0.00000073
0.78041678 0.97643804 0.00000073
0.81356763 0.97643804 0.00000073
0.84644850 0.97643804 0.00000073
0.87913339 0.97643804 0.00000073
0.91167313 0.97643804 0.00000073
0.94410125 0.97643804 0.00000073
0.97643804 0.97643804 0.00000073
1.00000000 0.97643804 0.00000073
1.00000000 0.97643804 0.00000073
1.00000000 0.97643804 0.00000073
1.00000000 0.97643804 0.00000073
1.00000000 0.97643804 0.00000073
1.00000000 0.97643804 0.00000073
1.00000000 0.97643804 0.00000073
1.00000000 0.97643804 0.00000073
1.00000000 0.97643804 0.00000073
1.00000000 0.97643804 0.00000073
1.00000000 0.97643804 0.00000073
1.00000000 0.97643804 0.00000073
0.00000073 1.00000000 0.00000073
0.00000073 1.00000000 0.00000073
0.00000073 1.00000000 0.00000073
0.08718162 1.00000000 0.00000073
0.33451146 1.00000000 0.00000073
0.41583275 1.00000000 0.00000073
0.47414106 1.00000000 0.00000073
0.52248928 1.00000000 0.00000073
0.56537210 1.00000000 0.00000073
0.60489699 1.00000000 0.00000073
0.64222298 1.00000000 0.00000073
0.67805263 1.00000000 0.00000073
0.71283983 1.00000000 0.00000073
0.74689056 1.00000000 0.00000073
0.78041678 1.00000000 0.00000073
0.81356763 1.00000000 0.00000073
0.84644850 1.00000000 0.00000073
0.87913339 1.00000000 0.00000073
0.91167313 1.00000000 0.00000073
0.94410125 1.00000000 0.00000073
0.97643804 1.00000000 0.00000073
1.00000000 1.00000000 0.00000073
1.00000000 1.00000000 0.00000073
1.00000000 1.00000000 0.00000073
1.00000000 1.00000000 0.00000073
1.00000000 1.00000000 0.00000073
1.00000000 1.00000000 0.00000073
