src/ffmpeg_scripts/luts/flog-experimental_2p67.cube
TITLE "flog-experimental_2p67"
LUT_3D_SIZE 33
# Fujifilm F-Log/Rec2020 -> PQ (EOTF Only)/Rec2020, CineEI Shift 2.67, Black Level 0.00% IRE, Input 109% -> Output 100% - Created with LUTCalc v4.01 by Ben Turley October 2020
0.00000073 0.00000073 0.00000073
0.00000073 0.00000073 0.00000073
0.00000073 0.00000073 0.00000073
0.07146803 0.00000073 0.00000073
0.29176757 0.00000073 0.00000073
0.36702293 0.00000073 0.00000073
0.42159344 0.00000073 0.00000073
0.46718866 0.00000073 0.00000073
0.50787266 0.00000073 0.00000073
0.54556097 0.00000073 0.00000073
0.58131130 0.00000073 0.00000073
0.61576686 0.00000073 0.00000073
0.64934431 0.00000073 0.00000073
0.68232500 0.00000073 0.00000073
0.71490404 0.00000073 0.00000073
0.74721860 0.00000073 0.00000073
0.77936536 0.00000073 0.00000073
0.81141178 0.00000073 0.00000073
0.84340367 0.00000073 0.00000073
0.87537051 0.00000073 0.00000073
0.90732925 0.00000073 0.00000073
0.93928717 0.00000073 0.00000073
0.97124404 0.00000073 0.00000073
1.00000000 0.00000073 0.00000073
1.00000000 0.00000073 0.00000073
1.00000000 0.00000073 0.00000073
1.00000000 0.00000073 0.00000073
1.00000000 0.00000073 0.00000073
1.00000000 0.00000073 0.00000073
1.00000000 0.00000073 0.00000073
1.00000000 0.00000073 0.00000073
1.00000000 0.00000073 0.00000073
1.00000000 0.00000073 0.00000073
0.00000073 0.00000073 0.00000073
0.00000073 0.00000073 0.00000073
0.00000073 0.00000073 0.00000073
0.07146803 0.00000073 0.00000073
0.29176757 0.00000073 0.00000073
0.36702293 0.00000073 0.00000073
0.42159344 0.00000073 0.00000073
0.46718866 0.00000073 0.00000073
0.50787266 0.00000073 0.00000073
0.54556097 0.00000073 0.00000073
0.58131130 0.00000073 0.00000073
0.61576686 0.00000073 0.00000073
0.64934431 0.00000073 0.00000073
0.68232500 0.00000073 0.00000073
0.71490404 0.00000073 0.00000073
0.74721860 0.00000073 0.00000073
0.77936536 0.00000073 0.00000073
0.81141178 0.00000073 0.00000073
0.84340367 0.00000073 0.00000073
0.87537051 0.00000073 0.00000073
0.90732925 0.00000073 0.00000073
0.93928717 0.00000073 0.00000073
0.97124404 0.00000073 0.00000073
1.00000000 0.00000073 0.00000073
1.00000000 0.00000073 0.00000073
1.00000000 0.00000073 0.00000073
1.00000000 0.00000073 0.00000073
1.00000000 0.00000073 0.00000073
1.00000000 0.00000073 0.00000073
1.00000000 0.00000073 0.00000073
1.00000000 0.00000073 0.00000073
1.00000000 0.00000073 0.00000073
1.00000000 0.00000073 0.00000073
0.00000073 0.00000073 0.00000073
0.00000073 0.00000073 0.00000073
0.00000073 0.00000073 0.00000073
0.07146803 0.00000073 0.00000073
0.29176757 0.00000073 0.00000073
0.36702293 0.00000073 0.00000073
0.42159344 0.00000073 0.00000073
0.46718866 0.00000073 0.00000073
0.50787266 0.00000073 0.00000073
0.54556097 0.00000073 0.00000073
0.58131130 0.00000073 0.00000073
0.61576686 0.00000073 0.00000073
0.64934431 0.00000073 0.00000073
0.68232500 0.00000073 0.00000073
0.71490404 0.00000073 0.00000073
0.74721860 0.00000073 0.00000073
0.77936536 0.00000073 0.00000073
0.81141178 0.00000073 0.00000073
0.84340367 0.00000073 0.00000073
0.87537051 0.00000073 0.00000073
0.90732925 0.00000073 0.00000073
0.93928717 0.00000073 0.00000073
0.97124404 0.00000073 0.00000073
1.00000000 0.00000073 0.00000073
1.00000000 0.00000073 0.00000073
1.00000000 0.00000073 0.00000073
1.00000000 0.00000073 0.00000073
1.00000000 0.00000073 0.00000073
1.00000000 0.00000073 0.00000073
1.00000000 0.00000073 0.00000073
1.00000000 0.00000073 0.00000073
1.00000000 0.00000073 0.00000073
1.00000000 0.00000073 0.00000073
0.00000073 0.07146803 0.00000073
0.00000073 0.07146803 0.00000073
0.00000073 0.07146803 0.00000073
0.07146803 0.07146803 0.00000073
0.29176757 0.07146803 0.00000073
0.36702293 0.07146803 0.00000073
0.42159344 0.07146803 0.00000073
0.46718866 0.07146803 0.00000073
0.50787266 0.07146803 0.00000073
0.54556097 0.07146803 0.00000073
0.58131130 0.07146803 0.00000073
0.61576686 0.07146803 0.00000073
0.64934431 0.07146803 0.00000073
0.68232500 0.07146803 0.00000073
0.71490404 0.07146803 0.00000073
0.74721860 0.07146803 0.00000073
0.77936536 0.07146803 0.00000073
0.81141178 0.07146803 0.00000073
0.84340367 0.07146803 0.00000073
0.87537051 0.07146803 0.00000073
0.90732925 0.07146803 0.00000073
0.93928717 0.07146803 0.00000073
0.97124404 0.07146803 0.00000073
1.00000000 0.07146803 0.00000073
1.00000000 0.07146803 0.00000073
1.00000000 0.07146803 0.00000073
1.00000000 0.07146803 0.00000073
1.00000000 0.07146803 0.00000073
1.00000000 0.07146803 0.00000073
1.00000000 0.07146803 0.00000073
1.00000000 0.07146803 0.00000073
1.00000000 0.07146803 0.00000073
1.00000000 0.07146803 0.00000073
0.00000073 0.29176757 0.00000073
0.00000073 0.29176757 0.00000073
0.00000073 0.29176757 0.00000073
0.07146803 0.29176757 0.00000073
0.29176757 0.29176757 0.00000073
0.36702293 0.29176757 0.00000073
0.42159344 0.29176757 0.00000073
0.46718866 0.29176757 0.00000073
0.50787266 0.29176757 0.00000073
0.54556097 0.29176757 0.00000073
0.58131130 0.29176757 0.00000073
0.61576686 0.29176757 0.00000073
0.64934431 0.29176757 0.00000073
0.68232500 0.29176757 0.00000073
0.71490404 0.29176757 0.00000073
0.74721860 0.29176757 0.00000073
0.77936536 0.29176757 0.00000073
0.81141178 0.29176757 0.00000073
0.84340367 0.29176757 0.00000073
0.87537051 0.29176757 0.00000073
0.90732925 0.29176757 0.00000073
0.93928717 0.29176757 0.00000073
0.97124404 0.29176757 0.00000073
1.00000000 0.29176757 0.00000073
1.00000000 0.29176757 0.00000073
1.00000000 0.29176757 0.00000073
1.00000000 0.29176757 0.00000073
1.00000000 0.29176757 0.00000073
1.00000000 0.29176757 0.00000073
1.00000000 0.29176757 0.00000073
1.00000000 0.29176757 0.00000073
1.00000000 0.29176757 0.00000073
1.00000000 0.29176757 0.00000073
0.00000073 0.36702293 0.00000073
0.00000073 0.36702293 0.00000073
0.00000073 0.36702293 0.00000073
0.07146803 0.36702293 0.00000073
0.29176757 0.36702293 0.00000073
0.36702293 0.36702293 0.00000073
0.42159344 0.36702293 0.00000073
0.46718866 0.36702293 0.00000073
0.50787266 0.36702293 0.00000073
0.54556097 0.36702293 0.00000073
0.58131130 0.36702293 0.00000073
0.61576686 0.36702293 0.00000073
0.64934431 0.36702293 0.00000073
0.68232500 0.36702293 0.00000073
0.71490404 0.36702293 0.00000073
0.74721860 0.36702293 0.00000073
0.77936536 0.36702293 0.00000073
0.81141178 0.36702293 0.00000073
0.84340367 0.36702293 0.00000073
0.87537051 0.36702293 0.00000073
0.90732925 0.36702293 0.00000073
0.93928717 0.36702293 0.00000073
0.97124404 0.36702293 0.00000073
1.00000000 0.36702293 0.00000073
1.00000000 0.36702293 0.00000073
1.00000000 0.36702293 0.00000073
1.00000000 0.36702293 0.00000073
1.00000000 0.36702293 0.00000073
1.00000000 0.36702293 0.00000073
1.00000000 0.36702293 0.00000073
1.00000000 0.36702293 0.00000073
1.00000000 0.36702293 0.00000073
1.00000000 0.36702293 0.00000073
0.00000073 0.42159344 0.00000073
0.00000073 0.42159344 0.00000073
0.00000073 0.42159344 0.00000073
0.07146803 0.42159344 0.00000073
0.29176757 0.42159344 0.00000073
0.36702293 0.42159344 0.00000073
0.42159344 0.42159344 0.00000073
0.46718866 0.42159344 0.00000073
0.50787266 0.42159344 0.00000073
0.54556097 0.42159344 0.00000073
0.58131130 0.42159344 0.00000073
0.61576686 0.42159344 0.00000073
0.64934431 0.42159344 0.00000073
0.68232500 0.42159344 0.00000073
0.71490404 0.42159344 0.00000073
0.74721860 0.42159344 0.00000073
0.77936536 0.42159344 0.00000073
0.81141178 0.42159344 0.00000073
0.84340367 0.42159344 0.00000073
0.87537051 0.42159344 0.00000073
0.90732925 0.42159344 0.00000073
0.93928717 0.42159344 0.00000073
0.97124404 0.42159344 0.00000073
1.00000000 0.42159344 0.00000073
1.00000000 0.42159344 0.00000073
1.00000000 0.42159344 0.00000073
1.00000000 0.42159344 0.00000073
1.00000000 0.42159344 0.00000073
1.00000000 0.42159344 0.00000073
1.00000000 0.42159344 0.00000073
1.00000000 0.42159344 0.00000073
1.00000000 0.42159344 0.00000073
1.00000000 0.42159344 0.00000073
0.00000073 0.46718866 0.00000073
0.00000073 0.46718866 0.00000073
0.00000073 0.46718866 0.00000073
0.07146803 0.46718866 0.00000073
0.29176757 0.46718866 0.00000073
0.36702293 0.46718866 0.00000073
0.42159344 0.46718866 0.00000073
0.46718866 0.46718866 0.00000073
0.50787266 0.46718866 0.00000073
0.54556097 0.46718866 0.00000073
0.58131130 0.46718866 0.00000073
0.61576686 0.46718866 0.00000073
0.64934431 0.46718866 0.00000073
0.68232500 0.46718866 0.00000073
0.71490404 0.46718866 0.00000073
0.74721860 0.46718866 0.00000073
0.77936536 0.46718866 0.00000073
0.81141178 0.46718866 0.00000073
0.84340367 0.46718866 0.00000073
0.87537051 0.46718866 0.00000073
0.90732925 0.46718866 0.00000073
0.93928717 0.46718866 0.00000073
0.97124404 0.46718866 0.00000073
1.00000000 0.46718866 0.00000073
1.00000000 0.46718866 0.00000073
1.00000000 0.46718866 0.00000073
1.00000000 0.46718866 0.00000073
1.00000000 0.46718866 0.00000073
1.00000000 0.46718866 0.00000073
1.00000000 0.46718866 0.00000073
1.00000000 0.46718866 0.00000073
1.00000000 0.46718866 0.00000073
1.00000000 0.46718866 0.00000073
0.00000073 0.50787266 0.00000073
0.00000073 0.50787266 0.00000073
0.00000073 0.50787266 0.00000073
0.07146803 0.50787266 0.00000073
0.29176757 0.50787266 0.00000073
0.36702293 0.50787266 0.00000073
0.42159344 0.50787266 0.00000073
0.46718866 0.50787266 0.00000073
0.50787266 0.50787266 0.00000073
0.54556097 0.50787266 0.00000073
0.58131130 0.50787266 0.00000073
0.61576686 0.50787266 0.00000073
0.64934431 0.50787266 0.00000073
0.68232500 0.50787266 0.00000073
0.71490404 0.50787266 0.00000073
0.74721860 0.50787266 0.00000073
0.77936536 0.50787266 0.00000073
0.81141178 0.50787266 0.00000073
0.84340367 0.50787266 0.00000073
0.87537051 0.50787266 0.00000073
0.90732925 0.50787266 0.00000073
0.93928717 0.50787266 0.00000073
0.97124404 0.50787266 0.00000073
1.00000000 0.50787266 0.00000073
1.00000000 0.50787266 0.00000073
1.00000000 0.50787266 0.00000073
1.00000000 0.50787266 0.00000073
1.00000000 0.50787266 0.00000073
1.00000000 0.50787266 0.00000073
1.00000000 0.50787266 0.00000073
1.00000000 0.50787266 0.00000073
1.00000000 0.50787266 0.00000073
1.00000000 0.50787266 0.00000073
0.00000073 0.54556097 0.00000073
0.00000073 0.54556097 0.00000073
0.00000073 0.54556097 0.00000073
0.07146803 0.54556097 0.00000073
0.29176757 0.54556097 0.00000073
0.36702293 0.54556097 0.00000073
0.42159344 0.54556097 0.00000073
0.46718866 0.54556097 0.00000073
0.50787266 0.54556097 0.00000073
0.54556097 0.54556097 0.00000073
0.58131130 0.54556097 0.00000073
0.61576686 0.54556097 0.00000073
0.64934431 0.54556097 0.00000073
0.68232500 0.54556097 0.00000073
0.71490404 0.54556097 0.00000073
0.74721860 0.54556097 0.00000073
0.77936536 0.54556097 0.00000073
0.81141178 0.54556097 0.00000073
0.84340367 0.54556097 0.00000073
0.87537051 0.54556097 0.00000073
0.90732925 0.54556097 0.00000073
0.93928717 0.54556097 0.00000073
0.97124404 0.54556097 0.00000073
1.00000000 0.54556097 0.00000073
1.00000000 0.54556097 0.00000073
1.00000000 0.54556097 0.00000073
1.00000000 0.54556097 0.00000073
1.00000000 0.54556097 0.00000073
1.00000000 0.54556097 0.00000073
1.00000000 0.54556097 0.00000073
1.00000000 0.54556097 0.00000073
1.00000000 0.54556097 0.00000073
1.00000000 0.54556097 0.00000073
0.00000073 0.58131130 0.00000073
0.00000073 0.58131130 0.00000073
0.00000073 0.58131130 0.00000073
0.07146803 0.58131130 0.00000073
0.29176757 0.58131130 0.00000073
0.36702293 0.58131130 0.00000073
0.42159344 0.58131130 0.00000073
0.46718866 0.58131130 0.00000073
0.50787266 0.58131130 0.00000073
0.54556097 0.58131130 0.00000073
0.58131130 0.58131130 0.00000073
0.61576686 0.58131130 0.00000073
0.64934431 0.58131130 0.00000073
0.68232500 0.58131130 0.00000073
0.71490404 0.58131130 0.00000073
0.74721860 0.58131130 0.00000073
0.77936536 0.58131130 0.00000073
0.81141178 0.58131130 0.00000073
0.84340367 0.58131130 0.00000073
0.87537051 0.58131130 0.00000073
0.90732925 0.58131130 0.00000073
0.93928717 0.58131130 0.00000073
0.97124404 0.58131130 0.00000073
1.00000000 0.58131130 0.00000073
1.00000000 0.58131130 0.00000073
1.00000000 0.58131130 0.00000073
1.00000000 0.58131130 0.00000073
1.00000000 0.58131130 0.00000073
1.00000000 0.58131130 0.00000073
1.00000000 0.58131130 0.00000073
1.00000000 0.58131130 0.00000073
1.00000000 0.58131130 0.00000073
1.00000000 0.58131130 0.00000073
0.00000073 0.61576686 0.00000073
0.00000073 0.61576686 0.00000073
0.00000073 0.61576686 0.00000073
0.07146803 0.61576686 0.00000073
0.29176757 0.61576686 0.00000073
0.36702293 0.61576686 0.00000073
0.42159344 0.61576686 0.00000073
0.46718866 0.61576686 0.00000073
0.50787266 0.61576686 0.00000073
0.54556097 0.61576686 0.00000073
0.58131130 0.61576686 0.00000073
0.61576686 0.61576686 0.00000073
0.64934431 0.61576686 0.00000073
0.68232500 0.61576686 0.00000073
0.71490404 0.61576686 0.00000073
0.74721860 0.61576686 0.00000073
0.77936536 0.61576686 0.00000073
0.81141178 0.61576686 0.00000073
0.84340367 0.61576686 0.00000073
0.87537051 0.61576686 0.00000073
0.90732925 0.61576686 0.00000073
0.93928717 0.61576686 0.00000073
0.97124404 0.61576686 0.00000073
1.00000000 0.61576686 0.00000073
1.00000000 0.61576686 0.00000073
1.00000000 0.61576686 0.00000073
1.00000000 0.61576686 0.00000073
1.00000000 0.61576686 0.00000073
1.00000000 0.61576686 0.00000073
1.00000000 0.61576686 0.00000073
1.00000000 0.61576686 0.00000073
1.00000000 0.61576686 0.00000073
1.00000000 0.61576686 0.00000073
0.00000073 0.64934431 0.00000073
0.00000073 0.64934431 0.00000073
0.00000073 0.64934431 0.00000073
0.07146803 0.64934431 0.00000073
0.29176757 0.64934431 0.00000073
0.36702293 0.64934431 0.00000073
0.42159344 0.64934431 0.00000073
0.46718866 0.64934431 0.00000073
0.50787266 0.64934431 0.00000073
0.54556097 0.64934431 0.00000073
0.58131130 0.64934431 0.00000073
0.61576686 0.64934431 0.00000073
0.64934431 0.64934431 0.00000073
0.68232500 0.64934431 0.00000073
0.71490404 0.64934431 0.00000073
0.74721860 0.64934431 0.00000073
0.77936536 0.64934431 0.00000073
0.81141178 0.64934431 0.00000073
0.84340367 0.64934431 0.00000073
0.87537051 0.64934431 0.00000073
0.90732925 0.64934431 0.00000073
0.93928717 0.64934431 0.00000073
0.97124404 0.64934431 0.00000073
1.00000000 0.64934431 0.00000073
1.00000000 0.64934431 0.00000073
1.00000000 0.64934431 0.00000073
1.00000000 0.64934431 0.00000073
1.00000000 0.64934431 0.00000073
1.00000000 0.64934431 0.00000073
1.00000000 0.64934431 0.00000073
1.00000000 0.64934431 0.00000073
1.00000000 0.64934431 0.00000073
1.00000000 0.64934431 0.00000073
0.00000073 0.68232500 0.00000073
0.00000073 0.68232500 0.00000073
0.00000073 0.68232500 0.00000073
0.07146803 0.68232500 0.00000073
0.29176757 0.68232500 0.00000073
0.36702293 0.68232500 0.00000073
0.42159344 0.68232500 0.00000073
0.46718866 0.68232500 0.00000073
0.50787266 0.68232500 0.00000073
0.54556097 0.68232500 0.00000073
0.58131130 0.68232500 0.00000073
0.61576686 0.68232500 0.00000073
0.64934431 0.68232500 0.00000073
0.68232500 0.68232500 0.00000073
0.71490404 0.68232500 0.00000073
0.74721860 0.68232500 0.00000073
0.77936536 0.68232500 0.00000073
0.81141178 0.68232500 0.00000073
0.84340367 0.68232500 0.00000073
0.87537051 0.68232500 0.00000073
0.90732925 0.68232500 0.00000073
0.93928717 0.68232500 0.00000073
0.97124404 0.68232500 0.00000073
1.00000000 0.68232500 0.00000073
1.00000000 0.68232500 0.00000073
1.00000000 0.68232500 0.00000073
1.00000000 0.68232500 0.00000073
1.00000000 0.68232500 0.00000073
1.00000000 0.68232500 0.00000073
1.00000000 0.68232500 0.00000073
1.00000000 0.68232500 0.00000073
1.00000000 0.68232500 0.00000073
1.00000000 0.68232500 0.00000073
0.00000073 0.71490404 0.00000073
0.00000073 0.71490404 0.00000073
0.00000073 0.71490404 0.00000073
0.07146803 0.71490404 0.00000073
0.29176757 0.71490404 0.00000073
0.36702293 0.71490404 0.00000073
0.42159344 0.71490404 0.00000073
0.46718866 0.71490404 0.00000073
0.50787266 0.71490404 0.00000073
0.54556097 0.71490404 0.00000073
0.58131130 0.71490404 0.00000073
0.61576686 0.71490404 0.00000073
0.64934431 0.71490404 0.00000073
0.68232500 0.71490404 0.00000073
0.71490404 0.71490404 0.00000073
0.74721860 0.71490404 0.00000073
0.77936536 0.71490404 0.00000073
0.81141178 0.71490404 0.00000073
0.84340367 0.71490404 0.00000073
0.87537051 0.71490404 0.00000073
0.90732925 0.71490404 0.00000073
0.93928717 0.71490404 0.00000073
0.97124404 0.71490404 0.00000073
1.00000000 0.71490404 0.00000073
1.00000000 0.71490404 0.00000073
1.00000000 0.71490404 0.00000073
1.00000000 0.71490404 0.00000073
1.00000000 0.71490404 0.00000073
1.00000000 0.71490404 0.00000073
1.00000000 0.71490404 0.00000073
1.00000000 0.71490404 0.00000073
1.00000000 0.71490404 0.00000073
1.00000000 0.71490404 0.00000073
0.00000073 0.74721860 0.00000073
0.00000073 0.74721860 0.00000073
0.00000073 0.74721860 0.00000073
0.07146803 0.74721860 0.00000073
0.29176757 0.74721860 0.00000073
0.36702293 0.74721860 0.00000073
0.42159344 0.74721860 0.00000073
0.46718866 0.74721860 0.00000073
0.50787266 0.74721860 0.00000073
0.54556097 0.74721860 0.00000073
0.58131130 0.74721860 0.00000073
0.61576686 0.74721860 0.00000073
0.64934431 0.74721860 0.00000073
0.68232500 0.74721860 0.00000073
0.71490404 0.74721860 0.00000073
0.74721860 0.74721860 0.00000073
0.77936536 0.74721860 0.00000073
0.81141178 0.74721860 0.00000073
0.84340367 0.74721860 0.00000073
0.87537051 0.74721860 0.00000073
0.90732925 0.74721860 0.00000073
0.93928717 0.74721860 0.00000073
0.97124404 0.74721860 0.00000073
1.00000000 0.74721860 0.00000073
1.00000000 0.74721860 0.00000073
1.00000000 0.74721860 0.00000073
1.00000000 0.74721860 0.00000073
1.00000000 0.74721860 0.00000073
1.00000000 0.74721860 0.00000073
1.00000000 0.74721860 0.00000073
1.00000000 0.74721860 0.00000073
1.00000000 0.74721860 0.00000073
1.00000000 0.74721860 0.00000073
0.00000073 0.77936536 0.00000073
0.00000073 0.77936536 0.00000073
0.00000073 0.77936536 0.00000073
0.07146803 0.77936536 0.00000073
0.29176757 0.77936536 0.00000073
0.36702293 0.77936536 0.00000073
0.42159344 0.77936536 0.00000073
0.46718866 0.77936536 0.00000073
0.50787266 0.77936536 0.00000073
0.54556097 0.77936536 0.00000073
0.58131130 0.77936536 0.00000073
0.61576686 0.77936536 0.00000073
0.64934431 0.77936536 0.00000073
0.68232500 0.77936536 0.00000073
0.71490404 0.77936536 0.00000073
0.74721860 0.77936536 0.00000073
0.77936536 0.77936536 0.00000073
0.81141178 0.77936536 0.00000073
0.84340367 0.77936536 0.00000073
0.87537051 0.77936536 0.00000073
0.90732925 0.77936536 0.00000073
0.93928717 0.77936536 0.00000073
0.97124404 0.77936536 0.00000073
1.00000000 0.77936536 0.00000073
1.00000000 0.77936536 0.00000073
1.00000000 0.77936536 0.00000073
1.00000000 0.77936536 0.00000073
1.00000000 0.77936536 0.00000073
1.00000000 0.77936536 0.00000073
1.00000000 0.77936536 0.00000073
1.00000000 0.77936536 0.00000073
1.00000000 0.77936536 0.00000073
1.00000000 0.77936536 0.00000073
0.00000073 0.81141178 0.00000073
0.00000073 0.81141178 0.00000073
0.00000073 0.81141178 0.00000073
0.07146803 0.81141178 0.00000073
0.29176757 0.81141178 0.00000073
0.36702293 0.81141178 0.00000073
0.42159344 0.81141178 0.00000073
0.46718866 0.81141178 0.00000073
0.50787266 0.81141178 0.00000073
0.54556097 0.81141178 0.00000073
0.58131130 0.81141178 0.00000073
0.61576686 0.81141178 0.00000073
0.64934431 0.81141178 0.00000073
0.68232500 0.81141178 0.00000073
0.71490404 0.81141178 0.00000073
0.74721860 0.81141178 0.00000073
0.77936536 0.81141178 0.00000073
0.81141178 0.81141178 0.00000073
0.84340367 0.81141178 0.00000073
0.87537051 0.81141178 0.00000073
0.90732925 0.81141178 0.00000073
0.93928717 0.81141178 0.00000073
0.97124404 0.81141178 0.00000073
1.00000000 0.81141178 0.00000073
1.00000000 0.81141178 0.00000073
1.00000000 0.81141178 0.00000073
1.00000000 0.81141178 0.00000073
1.00000000 0.81141178 0.00000073
1.00000000 0.81141178 0.00000073
1.00000000 0.81141178 0.00000073
1.00000000 0.81141178 0.00000073
1.00000000 0.81141178 0.00000073
1.00000000 0.81141178 0.00000073
0.00000073 0.84340367 0.00000073
0.00000073 0.84340367 0.00000073
0.00000073 0.84340367 0.00000073
0.07146803 0.84340367 0.00000073
0.29176757 0.84340367 0.00000073
0.36702293 0.84340367 0.00000073
0.42159344 0.84340367 0.00000073
0.46718866 0.84340367 0.00000073
0.50787266 0.84340367 0.00000073
0.54556097 0.84340367 0.00000073
0.58131130 0.84340367 0.00000073
0.61576686 0.84340367 0.00000073
0.64934431 0.84340367 0.00000073
0.68232500 0.84340367 0.00000073
0.71490404 0.84340367 0.00000073
0.74721860 0.84340367 0.00000073
0.77936536 0.84340367 0.00000073
0.81141178 0.84340367 0.00000073
0.84340367 0.84340367 0.00000073
0.87537051 0.84340367 0.00000073
0.90732925 0.84340367 0.00000073
0.93928717 0.84340367 0.00000073
0.97124404 0.84340367 0.00000073
1.00000000 0.84340367 0.00000073
1.00000000 0.84340367 0.00000073
1.00000000 0.84340367 0.00000073
1.00000000 0.84340367 0.00000073
1.00000000 0.84340367 0.00000073
1.00000000 0.84340367 0.00000073
1.00000000 0.84340367 0.00000073
1.00000000 0.84340367 0.00000073
1.00000000 0.84340367 0.00000073
1.00000000 0.84340367 0.00000073
0.00000073 0.87537051 0.00000073
0.00000073 0.87537051 0.00000073
0.00000073 0.87537051 0.00000073
0.07146803 0.87537051 0.00000073
0.29176757 0.87537051 0.00000073
0.36702293 0.87537051 0.00000073
0.42159344 0.87537051 0.00000073
0.46718866 0.87537051 0.00000073
0.50787266 0.87537051 0.00000073
0.54556097 0.87537051 0.00000073
0.58131130 0.87537051 0.00000073
0.61576686 0.87537051 0.00000073
0.64934431 0.87537051 0.00000073
0.68232500 0.87537051 0.00000073
0.71490404 0.87537051 0.00000073
0.74721860 0.87537051 0.00000073
0.77936536 0.87537051 0.00000073
0.81141178 0.87537051 0.00000073
0.84340367 0.87537051 0.00000073
0.87537051 0.87537051 0.00000073
0.90732925 0.87537051 0.00000073
0.93928717 0.87537051 0.00000073
0.97124404 0.87537051 0.00000073
1.00000000 0.87537051 0.00000073
1.00000000 0.87537051 0.00000073
1.00000000 0.87537051 0.00000073
1.00000000 0.87537051 0.00000073
1.00000000 0.87537051 0.00000073
1.00000000 0.87537051 0.00000073
1.00000000 0.87537051 0.00000073
1.00000000 0.87537051 0.00000073
1.00000000 0.87537051 0.00000073
1.00000000 0.87537051 0.00000073
0.00000073 0.90732925 0.00000073
0.00000073 0.90732925 0.00000073
0.00000073 0.90732925 0.00000073
0.07146803 0.90732925 0.00000073
0.29176757 0.90732925 0.00000073
0.36702293 0.90732925 0.00000073
0.42159344 0.90732925 0.00000073
0.46718866 0.90732925 0.00000073
0.50787266 0.90732925 0.00000073
0.54556097 0.90732925 0.00000073
0.58131130 0.90732925 0.00000073
0.61576686 0.90732925 0.00000073
0.64934431 0.90732925 0.00000073
0.68232500 0.90732925 0.00000073
0.71490404 0.90732925 0.00000073
0.74721860 0.90732925 0.00000073
0.77936536 0.90732925 0.00000073
0.81141178 0.90732925 0.00000073
0.84340367 0.90732925 0.00000073
0.87537051 0.90732925 0.00000073
0.90732925 0.90732925 0.00000073
0.93928717 0.90732925 0.00000073
0.97124404 0.90732925 0.00000073
1.00000000 0.90732925 0.00000073
1.00000000 0.90732925 0.00000073
1.00000000 0.90732925 0.00000073
1.00000000 0.90732925 0.00000073
1.00000000 0.90732925 0.00000073
1.00000000 0.90732925 0.00000073
1.00000000 0.90732925 0.00000073
1.00000000 0.90732925 0.00000073
1.00000000 0.90732925 0.00000073
1.00000000 0.90732925 0.00000073
0.00000073 0.93928717 0.00000073
0.00000073 0.93928717 0.00000073
0.00000073 0.93928717 0.00000073
0.07146803 0.93928717 0.00000073
0.29176757 0.93928717 0.00000073
0.36702293 0.93928717 0.00000073
0.42159344 0.93928717 0.00000073
0.46718866 0.93928717 0.00000073
0.50787266 0.93928717 0.00000073
0.54556097 0.93928717 0.00000073
0.58131130 0.93928717 0.00000073
0.61576686 0.93928717 0.00000073
0.64934431 0.93928717 0.00000073
0.68232500 0.93928717 0.00000073
0.71490404 0.93928717 0.00000073
0.74721860 0.93928717 0.00000073
0.77936536 0.93928717 0.00000073
0.81141178 0.93928717 0.00000073
0.84340367 0.93928717 0.00000073
0.87537051 0.93928717 0.00000073
0.90732925 0.93928717 0.00000073
0.93928717 0.93928717 0.00000073
0.97124404 0.93928717 0.00000073
1.00000000 0.93928717 0.00000073
1.00000000 0.93928717 0.00000073
1.00000000 0.93928717 0.00000073
1.00000000 0.93928717 0.00000073
