src/ffmpeg_scripts/luts/flog-experimental_0p33.cube
TITLE "flog-experimental_0p33"
LUT_3D_SIZE 5
# Fujifilm F-Log/Rec2020 -> PQ (EOTF Only)/Rec2020, CineEI Shift 0.33, Black Level 0.00% IRE, Input 109% -> Output 100% - Created with LUTCalc v4.01 by Ben Turley October 2020
0.00000073 0.00000073 0.00000073
0.33163726 0.00000073 0.00000073
0.55945882 0.00000073 0.00000073
0.79498079 0.00000073 0.00000073
1.00000000 0.00000073 0.00000073
0.00000073 0.33163726 0.00000073
0.33163726 0.33163726 0.00000073
0.55945882 0.33163726 0.00000073
0.79498079 0.33163726 0.00000073
1.00000000 0.33163726 0.00000073
0.00000073 0.55945882 0.00000073
0.33163726 0.55945882 0.00000073
0.55945882 0.55945882 0.00000073
0.79498079 0.55945882 0.00000073
1.00000000 0.55945882 0.00000073
0.00000073 0.79498079 0.00000073
0.33163726 0.79498079 0.00000073
0.55945882 0.79498079 0.00000073
0.79498079 0.79498079 0.00000073
1.00000000 0.79498079 0.00000073
0.00000073 1.00000000 0.00000073
0.33163726 1.00000000 0.00000073
0.55945882 1.00000000 0.00000073
0.79498079 1.00000000 0.00000073
1.00000000 1.00000000 0.00000073
0.00000073 0.00000073 0.33163726
0.33163726 0.00000073 0.33163726
0.55945882 0.00000073 0.33163726
0.79498079 0.00000073 0.33163726
1.00000000 0.00000073 0.33163726
0.00000073 0.33163726 0.33163726
0.33163726 0.33163726 0.33163726
0.55945882 0.33163726 0.33163726
0.79498079 0.33163726 0.33163726
1.00000000 0.33163726 0.33163726
0.00000073 0.55945882 0.33163726
0.33163726 0.55945882 0.33163726
0.55945882 0.55945882 0.33163726
0.79498079 0.55945882 0.33163726
1.00000000 0.55945882 0.33163726
0.00000073 0.79498079 0.33163726
0.33163726 0.79498079 0.33163726
0.55945882 0.79498079 0.33163726
0.79498079 0.79498079 0.33163726
1.00000000 0.79498079 0.33163726
0.00000073 1.00000000 0.33163726
0.33163726 1.00000000 0.33163726
0.55945882 1.00000000 0.33163726
0.79498079 1.00000000 0.33163726
1.00000000 1.00000000 0.33163726
0.00000073 0.00000073 0.55945882
0.33163726 0.00000073 0.55945882
0.55945882 0.00000073 0.55945882
0.79498079 0.00000073 0.55945882
1.00000000 0.00000073 0.55945882
0.00000073 0.33163726 0.55945882
0.33163726 0.33163726 0.55945882
0.55945882 0.33163726 0.55945882
0.79498079 0.33163726 0.55945882
1.00000000 0.33163726 0.55945882
0.00000073 0.55945882 0.55945882
0.33163726 0.55945882 0.55945882
0.55945882 0.55945882 0.55945882
0.79498079 0.55945882 0.55945882
1.00000000 0.55945882 0.55945882
0.00000073 0.79498079 0.55945882
0.33163726 0.79498079 0.55945882
0.55945882 0.79498079 0.55945882
0.79498079 0.79498079 0.55945882
1.00000000 0.79498079 0.55945882
0.00000073 1.00000000 0.55945882
0.33163726 1.00000000 0.55945882
0.55945882 1.00000000 0.55945882
0.79498079 1.00000000 0.55945882
1.00000000 1.00000000 0.55945882
0.00000073 0.00000073 0.79498079
0.33163726 0.00000073 0.79498079
0.55945882 0.00000073 0.79498079
0.79498079 0.00000073 0.79498079
1.00000000 0.00000073 0.79498079
0.00000073 0.33163726 0.79498079
0.33163726 0.33163726 0.79498079
0.55945882 0.33163726 0.79498079
0.79498079 0.33163726 0.79498079
1.00000000 0.33163726 0.79498079
0.00000073 0.55945882 0.79498079
0.33163726 0.55945882 0.79498079
0.55945882 0.55945882 0.79498079
0.79498079 0.55945882 0.79498079
1.00000000 0.55945882 0.79498079
0.00000073 0.79498079 0.79498079
0.33163726 0.79498079 0.79498079
0.55945882 0.79498079 0.79498079
0.79498079 0.79498079 0.79498079
1.00000000 0.79498079 0.79498079
0.00000073 1.00000000 0.79498079
0.33163726 1.00000000 0.79498079
0.55945882 1.00000000 0.79498079
0.79498079 1.00000000 0.79498079
1.00000000 1.00000000 0.79498079
0.00000073 0.00000073 1.00000000
0.33163726 0.00000073 1.00000000
0.55945882 0.00000073 1.00000000
0.79498079 0.00000073 1.00000000
1.00000000 0.00000073 1.00000000
0.00000073 0.33163726 1.00000000
0.33163726 0.33163726 1.00000000
0.55945882 0.33163726 1.00000000
0.79498079 0.33163726 1.00000000
1.00000000 0.33163726 1.00000000
0.00000073 0.55945882 1.00000000
0.33163726 0.55945882 1.00000000
0.55945882 0.55945882 1.00000000
0.79498079 0.55945882 1.00000000
1.00000000 0.55945882 1.00000000
0.00000073 0.79498079 1.00000000
0.33163726 0.79498079 1.00000000
0.55945882 0.79498079 1.00000000
0.79498079 0.79498079 1.00000000
1.00000000 0.79498079 1.00000000
0.00000073 1.00000000 1.00000000
0.33163726 1.00000000 1.00000000
0.55945882 1.00000000 1.00000000
0.79498079 1.00000000 1.00000000
1.00000000 1.00000000 1.00000000
