src/ffmpeg_scripts/luts/flog-smpte2084_2p33.cube
TITLE "flog-smpte2084_2p33"
LUT_3D_SIZE 33
# Fujifilm F-Log/Rec2020 -> PQ (EOTF Only)/Rec2020, CineEI Shift 2.33, Black Level 0.00% IRE, Input 109% -> Output 109% - Created with LUTCalc v4.01 by Ben Turley October 2020
0.06256172 0.06256172 0.06256172
0.06256172 0.06256172 0.06256172
0.06256172 0.06256172 0.06256172
0.10243726 0.06256172 0.06256172
0.23050841 0.06256172 0.06256172
0.27510902 0.06256172 0.06256172
0.30763785 0.06256172 0.06256172
0.33492330 0.06256172 0.06256172
0.35934491 0.06256172 0.06256172
0.38202731 0.06256172 0.06256172
0.40359280 0.06256172 0.06256172
0.42442052 0.06256172 0.06256172
0.44475640 0.06256172 0.06256172
0.46476672 0.06256172 0.06256172
0.48456684 0.06256172 0.06256172
0.50423787 0.06256172 0.06256172
0.52383692 0.06256172 0.06256172
0.54340373 0.06256172 0.06256172
0.56296513 0.06256172 0.06256172
0.58253816 0.06256172 0.06256172
0.60213235 0.06256172 0.06256172
0.62175140 0.06256172 0.06256172
0.64139446 0.06256172 0.06256172
0.66105709 0.06256172 0.06256172
0.68073210 0.06256172 0.06256172
0.70041014 0.06256172 0.06256172
0.72008021 0.06256172 0.06256172
0.73973012 0.06256172 0.06256172
0.75934677 0.06256172 0.06256172
0.77891650 0.06256172 0.06256172
0.79842529 0.06256172 0.06256172
0.81785897 0.06256172 0.06256172
0.83720337 0.06256172 0.06256172
0.06256172 0.06256172 0.06256172
0.06256172 0.06256172 0.06256172
0.06256172 0.06256172 0.06256172
0.10243726 0.06256172 0.06256172
0.23050841 0.06256172 0.06256172
0.27510902 0.06256172 0.06256172
0.30763785 0.06256172 0.06256172
0.33492330 0.06256172 0.06256172
0.35934491 0.06256172 0.06256172
0.38202731 0.06256172 0.06256172
0.40359280 0.06256172 0.06256172
0.42442052 0.06256172 0.06256172
0.44475640 0.06256172 0.06256172
0.46476672 0.06256172 0.06256172
0.48456684 0.06256172 0.06256172
0.50423787 0.06256172 0.06256172
0.52383692 0.06256172 0.06256172
0.54340373 0.06256172 0.06256172
0.56296513 0.06256172 0.06256172
0.58253816 0.06256172 0.06256172
0.60213235 0.06256172 0.06256172
0.62175140 0.06256172 0.06256172
0.64139446 0.06256172 0.06256172
0.66105709 0.06256172 0.06256172
0.68073210 0.06256172 0.06256172
0.70041014 0.06256172 0.06256172
0.72008021 0.06256172 0.06256172
0.73973012 0.06256172 0.06256172
0.75934677 0.06256172 0.06256172
0.77891650 0.06256172 0.06256172
0.79842529 0.06256172 0.06256172
0.81785897 0.06256172 0.06256172
0.83720337 0.06256172 0.06256172
0.06256172 0.06256172 0.06256172
0.06256172 0.06256172 0.06256172
0.06256172 0.06256172 0.06256172
0.10243726 0.06256172 0.06256172
0.23050841 0.06256172 0.06256172
0.27510902 0.06256172 0.06256172
0.30763785 0.06256172 0.06256172
0.33492330 0.06256172 0.06256172
0.35934491 0.06256172 0.06256172
0.38202731 0.06256172 0.06256172
0.40359280 0.06256172 0.06256172
0.42442052 0.06256172 0.06256172
0.44475640 0.06256172 0.06256172
0.46476672 0.06256172 0.06256172
0.48456684 0.06256172 0.06256172
0.50423787 0.06256172 0.06256172
0.52383692 0.06256172 0.06256172
0.54340373 0.06256172 0.06256172
0.56296513 0.06256172 0.06256172
0.58253816 0.06256172 0.06256172
0.60213235 0.06256172 0.06256172
0.62175140 0.06256172 0.06256172
0.64139446 0.06256172 0.06256172
0.66105709 0.06256172 0.06256172
0.68073210 0.06256172 0.06256172
0.70041014 0.06256172 0.06256172
0.72008021 0.06256172 0.06256172
0.73973012 0.06256172 0.06256172
0.75934677 0.06256172 0.06256172
0.77891650 0.06256172 0.06256172
0.79842529 0.06256172 0.06256172
0.81785897 0.06256172 0.06256172
0.83720337 0.06256172 0.06256172
0.06256172 0.10243726 0.06256172
0.06256172 0.10243726 0.06256172
0.06256172 0.10243726 0.06256172
0.10243726 0.10243726 0.06256172
0.23050841 0.10243726 0.06256172
0.27510902 0.10243726 0.06256172
0.30763785 0.10243726 0.06256172
0.33492330 0.10243726 0.06256172
0.35934491 0.10243726 0.06256172
0.38202731 0.10243726 0.06256172
0.40359280 0.10243726 0.06256172
0.42442052 0.10243726 0.06256172
0.44475640 0.10243726 0.06256172
0.46476672 0.10243726 0.06256172
0.48456684 0.10243726 0.06256172
0.50423787 0.10243726 0.06256172
0.52383692 0.10243726 0.06256172
0.54340373 0.10243726 0.06256172
0.56296513 0.10243726 0.06256172
0.58253816 0.10243726 0.06256172
0.60213235 0.10243726 0.06256172
0.62175140 0.10243726 0.06256172
0.64139446 0.10243726 0.06256172
0.66105709 0.10243726 0.06256172
0.68073210 0.10243726 0.06256172
0.70041014 0.10243726 0.06256172
0.72008021 0.10243726 0.06256172
0.73973012 0.10243726 0.06256172
0.75934677 0.10243726 0.06256172
0.77891650 0.10243726 0.06256172
0.79842529 0.10243726 0.06256172
0.81785897 0.10243726 0.06256172
0.83720337 0.10243726 0.06256172
0.06256172 0.23050841 0.06256172
0.06256172 0.23050841 0.06256172
0.06256172 0.23050841 0.06256172
0.10243726 0.23050841 0.06256172
0.23050841 0.23050841 0.06256172
0.27510902 0.23050841 0.06256172
0.30763785 0.23050841 0.06256172
0.33492330 0.23050841 0.06256172
0.35934491 0.23050841 0.06256172
0.38202731 0.23050841 0.06256172
0.40359280 0.23050841 0.06256172
0.42442052 0.23050841 0.06256172
0.44475640 0.23050841 0.06256172
0.46476672 0.23050841 0.06256172
0.48456684 0.23050841 0.06256172
0.50423787 0.23050841 0.06256172
0.52383692 0.23050841 0.06256172
0.54340373 0.23050841 0.06256172
0.56296513 0.23050841 0.06256172
0.58253816 0.23050841 0.06256172
0.60213235 0.23050841 0.06256172
0.62175140 0.23050841 0.06256172
0.64139446 0.23050841 0.06256172
0.66105709 0.23050841 0.06256172
0.68073210 0.23050841 0.06256172
0.70041014 0.23050841 0.06256172
0.72008021 0.23050841 0.06256172
0.73973012 0.23050841 0.06256172
0.75934677 0.23050841 0.06256172
0.77891650 0.23050841 0.06256172
0.79842529 0.23050841 0.06256172
0.81785897 0.23050841 0.06256172
0.83720337 0.23050841 0.06256172
0.06256172 0.27510902 0.06256172
0.06256172 0.27510902 0.06256172
0.06256172 0.27510902 0.06256172
0.10243726 0.27510902 0.06256172
0.23050841 0.27510902 0.06256172
0.27510902 0.27510902 0.06256172
0.30763785 0.27510902 0.06256172
0.33492330 0.27510902 0.06256172
0.35934491 0.27510902 0.06256172
0.38202731 0.27510902 0.06256172
0.40359280 0.27510902 0.06256172
0.42442052 0.27510902 0.06256172
0.44475640 0.27510902 0.06256172
0.46476672 0.27510902 0.06256172
0.48456684 0.27510902 0.06256172
0.50423787 0.27510902 0.06256172
0.52383692 0.27510902 0.06256172
0.54340373 0.27510902 0.06256172
0.56296513 0.27510902 0.06256172
0.58253816 0.27510902 0.06256172
0.60213235 0.27510902 0.06256172
0.62175140 0.27510902 0.06256172
0.64139446 0.27510902 0.06256172
0.66105709 0.27510902 0.06256172
0.68073210 0.27510902 0.06256172
0.70041014 0.27510902 0.06256172
0.72008021 0.27510902 0.06256172
0.73973012 0.27510902 0.06256172
0.75934677 0.27510902 0.06256172
0.77891650 0.27510902 0.06256172
0.79842529 0.27510902 0.06256172
0.81785897 0.27510902 0.06256172
0.83720337 0.27510902 0.06256172
0.06256172 0.30763785 0.06256172
0.06256172 0.30763785 0.06256172
0.06256172 0.30763785 0.06256172
0.10243726 0.30763785 0.06256172
0.23050841 0.30763785 0.06256172
0.27510902 0.30763785 0.06256172
0.30763785 0.30763785 0.06256172
0.33492330 0.30763785 0.06256172
0.35934491 0.30763785 0.06256172
0.38202731 0.30763785 0.06256172
0.40359280 0.30763785 0.06256172
0.42442052 0.30763785 0.06256172
0.44475640 0.30763785 0.06256172
0.46476672 0.30763785 0.06256172
0.48456684 0.30763785 0.06256172
0.50423787 0.30763785 0.06256172
0.52383692 0.30763785 0.06256172
0.54340373 0.30763785 0.06256172
0.56296513 0.30763785 0.06256172
0.58253816 0.30763785 0.06256172
0.60213235 0.30763785 0.06256172
0.62175140 0.30763785 0.06256172
0.64139446 0.30763785 0.06256172
0.66105709 0.30763785 0.06256172
0.68073210 0.30763785 0.06256172
0.70041014 0.30763785 0.06256172
0.72008021 0.30763785 0.06256172
0.73973012 0.30763785 0.06256172
0.75934677 0.30763785 0.06256172
0.77891650 0.30763785 0.06256172
0.79842529 0.30763785 0.06256172
0.81785897 0.30763785 0.06256172
0.83720337 0.30763785 0.06256172
0.06256172 0.33492330 0.06256172
0.06256172 0.33492330 0.06256172
0.06256172 0.33492330 0.06256172
0.10243726 0.33492330 0.06256172
0.23050841 0.33492330 0.06256172
0.27510902 0.33492330 0.06256172
0.30763785 0.33492330 0.06256172
0.33492330 0.33492330 0.06256172
0.35934491 0.33492330 0.06256172
0.38202731 0.33492330 0.06256172
0.40359280 0.33492330 0.06256172
0.42442052 0.33492330 0.06256172
0.44475640 0.33492330 0.06256172
0.46476672 0.33492330 0.06256172
0.48456684 0.33492330 0.06256172
0.50423787 0.33492330 0.06256172
0.52383692 0.33492330 0.06256172
0.54340373 0.33492330 0.06256172
0.56296513 0.33492330 0.06256172
0.58253816 0.33492330 0.06256172
0.60213235 0.33492330 0.06256172
0.62175140 0.33492330 0.06256172
0.64139446 0.33492330 0.06256172
0.66105709 0.33492330 0.06256172
0.68073210 0.33492330 0.06256172
0.70041014 0.33492330 0.06256172
0.72008021 0.33492330 0.06256172
0.73973012 0.33492330 0.06256172
0.75934677 0.33492330 0.06256172
0.77891650 0.33492330 0.06256172
0.79842529 0.33492330 0.06256172
0.81785897 0.33492330 0.06256172
0.83720337 0.33492330 0.06256172
0.06256172 0.35934491 0.06256172
0.06256172 0.35934491 0.06256172
0.06256172 0.35934491 0.06256172
0.10243726 0.35934491 0.06256172
0.23050841 0.35934491 0.06256172
0.27510902 0.35934491 0.06256172
0.30763785 0.35934491 0.06256172
0.33492330 0.35934491 0.06256172
0.35934491 0.35934491 0.06256172
0.38202731 0.35934491 0.06256172
0.40359280 0.35934491 0.06256172
0.42442052 0.35934491 0.06256172
0.44475640 0.35934491 0.06256172
0.46476672 0.35934491 0.06256172
0.48456684 0.35934491 0.06256172
0.50423787 0.35934491 0.06256172
0.52383692 0.35934491 0.06256172
0.54340373 0.35934491 0.06256172
0.56296513 0.35934491 0.06256172
0.58253816 0.35934491 0.06256172
0.60213235 0.35934491 0.06256172
0.62175140 0.35934491 0.06256172
0.64139446 0.35934491 0.06256172
0.66105709 0.35934491 0.06256172
0.68073210 0.35934491 0.06256172
0.70041014 0.35934491 0.06256172
0.72008021 0.35934491 0.06256172
0.73973012 0.35934491 0.06256172
0.75934677 0.35934491 0.06256172
0.77891650 0.35934491 0.06256172
0.79842529 0.35934491 0.06256172
0.81785897 0.35934491 0.06256172
0.83720337 0.35934491 0.06256172
0.06256172 0.38202731 0.06256172
0.06256172 0.38202731 0.06256172
0.06256172 0.38202731 0.06256172
0.10243726 0.38202731 0.06256172
0.23050841 0.38202731 0.06256172
0.27510902 0.38202731 0.06256172
0.30763785 0.38202731 0.06256172
0.33492330 0.38202731 0.06256172
0.35934491 0.38202731 0.06256172
0.38202731 0.38202731 0.06256172
0.40359280 0.38202731 0.06256172
0.42442052 0.38202731 0.06256172
0.44475640 0.38202731 0.06256172
0.46476672 0.38202731 0.06256172
0.48456684 0.38202731 0.06256172
0.50423787 0.38202731 0.06256172
0.52383692 0.38202731 0.06256172
0.54340373 0.38202731 0.06256172
0.56296513 0.38202731 0.06256172
0.58253816 0.38202731 0.06256172
0.60213235 0.38202731 0.06256172
0.62175140 0.38202731 0.06256172
0.64139446 0.38202731 0.06256172
0.66105709 0.38202731 0.06256172
0.68073210 0.38202731 0.06256172
0.70041014 0.38202731 0.06256172
0.72008021 0.38202731 0.06256172
0.73973012 0.38202731 0.06256172
0.75934677 0.38202731 0.06256172
0.77891650 0.38202731 0.06256172
0.79842529 0.38202731 0.06256172
0.81785897 0.38202731 0.06256172
0.83720337 0.38202731 0.06256172
0.06256172 0.40359280 0.06256172
0.06256172 0.40359280 0.06256172
0.06256172 0.40359280 0.06256172
0.10243726 0.40359280 0.06256172
0.23050841 0.40359280 0.06256172
0.27510902 0.40359280 0.06256172
0.30763785 0.40359280 0.06256172
0.33492330 0.40359280 0.06256172
0.35934491 0.40359280 0.06256172
0.38202731 0.40359280 0.06256172
0.40359280 0.40359280 0.06256172
0.42442052 0.40359280 0.06256172
0.44475640 0.40359280 0.06256172
0.46476672 0.40359280 0.06256172
0.48456684 0.40359280 0.06256172
0.50423787 0.40359280 0.06256172
0.52383692 0.40359280 0.06256172
0.54340373 0.40359280 0.06256172
0.56296513 0.40359280 0.06256172
0.58253816 0.40359280 0.06256172
0.60213235 0.40359280 0.06256172
0.62175140 0.40359280 0.06256172
0.64139446 0.40359280 0.06256172
0.66105709 0.40359280 0.06256172
0.68073210 0.40359280 0.06256172
0.70041014 0.40359280 0.06256172
0.72008021 0.40359280 0.06256172
0.73973012 0.40359280 0.06256172
0.75934677 0.40359280 0.06256172
0.77891650 0.40359280 0.06256172
0.79842529 0.40359280 0.06256172
0.81785897 0.40359280 0.06256172
0.83720337 0.40359280 0.06256172
0.06256172 0.42442052 0.06256172
0.06256172 0.42442052 0.06256172
0.06256172 0.42442052 0.06256172
0.10243726 0.42442052 0.06256172
0.23050841 0.42442052 0.06256172
0.27510902 0.42442052 0.06256172
0.30763785 0.42442052 0.06256172
0.33492330 0.42442052 0.06256172
0.35934491 0.42442052 0.06256172
0.38202731 0.42442052 0.06256172
0.40359280 0.42442052 0.06256172
0.42442052 0.42442052 0.06256172
0.44475640 0.42442052 0.06256172
0.46476672 0.42442052 0.06256172
0.48456684 0.42442052 0.06256172
0.50423787 0.42442052 0.06256172
0.52383692 0.42442052 0.06256172
0.54340373 0.42442052 0.06256172
0.56296513 0.42442052 0.06256172
0.58253816 0.42442052 0.06256172
0.60213235 0.42442052 0.06256172
0.62175140 0.42442052 0.06256172
0.64139446 0.42442052 0.06256172
0.66105709 0.42442052 0.06256172
0.68073210 0.42442052 0.06256172
0.70041014 0.42442052 0.06256172
0.72008021 0.42442052 0.06256172
0.73973012 0.42442052 0.06256172
0.75934677 0.42442052 0.06256172
0.77891650 0.42442052 0.06256172
0.79842529 0.42442052 0.06256172
0.81785897 0.42442052 0.06256172
0.83720337 0.42442052 0.06256172
0.06256172 0.44475640 0.06256172
0.06256172 0.44475640 0.06256172
0.06256172 0.44475640 0.06256172
0.10243726 0.44475640 0.06256172
0.23050841 0.44475640 0.06256172
0.27510902 0.44475640 0.06256172
0.30763785 0.44475640 0.06256172
0.33492330 0.44475640 0.06256172
0.35934491 0.44475640 0.06256172
0.38202731 0.44475640 0.06256172
0.40359280 0.44475640 0.06256172
0.42442052 0.44475640 0.06256172
0.44475640 0.44475640 0.06256172
0.46476672 0.44475640 0.06256172
0.48456684 0.44475640 0.06256172
0.50423787 0.44475640 0.06256172
0.52383692 0.44475640 0.06256172
0.54340373 0.44475640 0.06256172
0.56296513 0.44475640 0.06256172
0.58253816 0.44475640 0.06256172
0.60213235 0.44475640 0.06256172
0.62175140 0.44475640 0.06256172
0.64139446 0.44475640 0.06256172
0.66105709 0.44475640 0.06256172
0.68073210 0.44475640 0.06256172
0.70041014 0.44475640 0.06256172
0.72008021 0.44475640 0.06256172
0.73973012 0.44475640 0.06256172
0.75934677 0.44475640 0.06256172
0.77891650 0.44475640 0.06256172
0.79842529 0.44475640 0.06256172
0.81785897 0.44475640 0.06256172
0.83720337 0.44475640 0.06256172
0.06256172 0.46476672 0.06256172
0.06256172 0.46476672 0.06256172
0.06256172 0.46476672 0.06256172
0.10243726 0.46476672 0.06256172
0.23050841 0.46476672 0.06256172
0.27510902 0.46476672 0.06256172
0.30763785 0.46476672 0.06256172
0.33492330 0.46476672 0.06256172
0.35934491 0.46476672 0.06256172
0.38202731 0.46476672 0.06256172
0.40359280 0.46476672 0.06256172
0.42442052 0.46476672 0.06256172
0.44475640 0.46476672 0.06256172
0.46476672 0.46476672 0.06256172
0.48456684 0.46476672 0.06256172
0.50423787 0.46476672 0.06256172
0.52383692 0.46476672 0.06256172
0.54340373 0.46476672 0.06256172
0.56296513 0.46476672 0.06256172
0.58253816 0.46476672 0.06256172
0.60213235 0.46476672 0.06256172
0.62175140 0.46476672 0.06256172
0.64139446 0.46476672 0.06256172
0.66105709 0.46476672 0.06256172
0.68073210 0.46476672 0.06256172
0.70041014 0.46476672 0.06256172
0.72008021 0.46476672 0.06256172
0.73973012 0.46476672 0.06256172
0.75934677 0.46476672 0.06256172
0.77891650 0.46476672 0.06256172
0.79842529 0.46476672 0.06256172
0.81785897 0.46476672 0.06256172
0.83720337 0.46476672 0.06256172
0.06256172 0.48456684 0.06256172
0.06256172 0.48456684 0.06256172
0.06256172 0.48456684 0.06256172
0.10243726 0.48456684 0.06256172
0.23050841 0.48456684 0.06256172
0.27510902 0.48456684 0.06256172
0.30763785 0.48456684 0.06256172
0.33492330 0.48456684 0.06256172
0.35934491 0.48456684 0.06256172
0.38202731 0.48456684 0.06256172
0.40359280 0.48456684 0.06256172
0.42442052 0.48456684 0.06256172
0.44475640 0.48456684 0.06256172
0.46476672 0.48456684 0.06256172
0.48456684 0.48456684 0.06256172
0.50423787 0.48456684 0.06256172
0.52383692 0.48456684 0.06256172
0.54340373 0.48456684 0.06256172
0.56296513 0.48456684 0.06256172
0.58253816 0.48456684 0.06256172
0.60213235 0.48456684 0.06256172
0.62175140 0.48456684 0.06256172
0.64139446 0.48456684 0.06256172
0.66105709 0.48456684 0.06256172
0.68073210 0.48456684 0.06256172
0.70041014 0.48456684 0.06256172
0.72008021 0.48456684 0.06256172
0.73973012 0.48456684 0.06256172
0.75934677 0.48456684 0.06256172
0.77891650 0.48456684 0.06256172
0.79842529 0.48456684 0.06256172
0.81785897 0.48456684 0.06256172
0.83720337 0.48456684 0.06256172
0.06256172 0.50423787 0.06256172
0.06256172 0.50423787 0.06256172
0.06256172 0.50423787 0.06256172
0.10243726 0.50423787 0.06256172
0.23050841 0.50423787 0.06256172
0.27510902 0.50423787 0.06256172
0.30763785 0.50423787 0.06256172
0.33492330 0.50423787 0.06256172
0.35934491 0.50423787 0.06256172
0.38202731 0.50423787 0.06256172
0.40359280 0.50423787 0.06256172
0.42442052 0.50423787 0.06256172
0.44475640 0.50423787 0.06256172
0.46476672 0.50423787 0.06256172
0.48456684 0.50423787 0.06256172
0.50423787 0.50423787 0.06256172
0.52383692 0.50423787 0.06256172
0.54340373 0.50423787 0.06256172
0.56296513 0.50423787 0.06256172
0.58253816 0.50423787 0.06256172
0.60213235 0.50423787 0.06256172
0.62175140 0.50423787 0.06256172
0.64139446 0.50423787 0.06256172
0.66105709 0.50423787 0.06256172
0.68073210 0.50423787 0.06256172
0.70041014 0.50423787 0.06256172
0.72008021 0.50423787 0.06256172
0.73973012 0.50423787 0.06256172
0.75934677 0.50423787 0.06256172
0.77891650 0.50423787 0.06256172
0.79842529 0.50423787 0.06256172
0.81785897 0.50423787 0.06256172
0.83720337 0.50423787 0.06256172
0.06256172 0.52383692 0.06256172
0.06256172 0.52383692 0.06256172
0.06256172 0.52383692 0.06256172
0.10243726 0.52383692 0.06256172
0.23050841 0.52383692 0.06256172
0.27510902 0.52383692 0.06256172
0.30763785 0.52383692 0.06256172
0.33492330 0.52383692 0.06256172
0.35934491 0.52383692 0.06256172
0.38202731 0.52383692 0.06256172
0.40359280 0.52383692 0.06256172
0.42442052 0.52383692 0.06256172
0.44475640 0.52383692 0.06256172
0.46476672 0.52383692 0.06256172
0.48456684 0.52383692 0.06256172
0.50423787 0.52383692 0.06256172
0.52383692 0.52383692 0.06256172
0.54340373 0.52383692 0.06256172
0.56296513 0.52383692 0.06256172
0.58253816 0.52383692 0.06256172
0.60213235 0.52383692 0.06256172
0.62175140 0.52383692 0.06256172
0.64139446 0.52383692 0.06256172
0.66105709 0.52383692 0.06256172
0.68073210 0.52383692 0.06256172
0.70041014 0.52383692 0.06256172
0.72008021 0.52383692 0.06256172
0.73973012 0.52383692 0.06256172
0.75934677 0.52383692 0.06256172
0.77891650 0.52383692 0.06256172
0.79842529 0.52383692 0.06256172
0.81785897 0.52383692 0.06256172
0.83720337 0.52383692 0.06256172
0.06256172 0.54340373 0.06256172
0.06256172 0.54340373 0.06256172
0.06256172 0.54340373 0.06256172
0.10243726 0.54340373 0.06256172
0.23050841 0.54340373 0.06256172
0.27510902 0.54340373 0.06256172
0.30763785 0.54340373 0.06256172
0.33492330 0.54340373 0.06256172
0.35934491 0.54340373 0.06256172
0.38202731 0.54340373 0.06256172
0.40359280 0.54340373 0.06256172
0.42442052 0.54340373 0.06256172
0.44475640 0.54340373 0.06256172
0.46476672 0.54340373 0.06256172
0.48456684 0.54340373 0.06256172
0.50423787 0.54340373 0.06256172
0.52383692 0.54340373 0.06256172
0.54340373 0.54340373 0.06256172
0.56296513 0.54340373 0.06256172
0.58253816 0.54340373 0.06256172
0.60213235 0.54340373 0.06256172
0.62175140 0.54340373 0.06256172
0.64139446 0.54340373 0.06256172
0.66105709 0.54340373 0.06256172
0.68073210 0.54340373 0.06256172
0.70041014 0.54340373 0.06256172
0.72008021 0.54340373 0.06256172
0.73973012 0.54340373 0.06256172
0.75934677 0.54340373 0.06256172
0.77891650 0.54340373 0.06256172
0.79842529 0.54340373 0.06256172
0.81785897 0.54340373 0.06256172
0.83720337 0.54340373 0.06256172
0.06256172 0.56296513 0.06256172
0.06256172 0.56296513 0.06256172
0.06256172 0.56296513 0.06256172
0.10243726 0.56296513 0.06256172
0.23050841 0.56296513 0.06256172
0.27510902 0.56296513 0.06256172
0.30763785 0.56296513 0.06256172
0.33492330 0.56296513 0.06256172
0.35934491 0.56296513 0.06256172
0.38202731 0.56296513 0.06256172
0.40359280 0.56296513 0.06256172
0.42442052 0.56296513 0.06256172
0.44475640 0.56296513 0.06256172
0.46476672 0.56296513 0.06256172
0.48456684 0.56296513 0.06256172
0.50423787 0.56296513 0.06256172
0.52383692 0.56296513 0.06256172
0.54340373 0.56296513 0.06256172
0.56296513 0.56296513 0.06256172
0.58253816 0.56296513 0.06256172
0.60213235 0.56296513 0.06256172
0.62175140 0.56296513 0.06256172
0.64139446 0.56296513 0.06256172
0.66105709 0.56296513 0.06256172
0.68073210 0.56296513 0.06256172
0.70041014 0.56296513 0.06256172
0.72008021 0.56296513 0.06256172
0.73973012 0.56296513 0.06256172
0.75934677 0.56296513 0.06256172
0.77891650 0.56296513 0.06256172
0.79842529 0.56296513 0.06256172
0.81785897 0.56296513 0.06256172
0.83720337 0.56296513 0.06256172
0.06256172 0.58253816 0.06256172
0.06256172 0.58253816 0.06256172
0.06256172 0.58253816 0.06256172
0.10243726 0.58253816 0.06256172
0.23050841 0.58253816 0.06256172
0.27510902 0.58253816 0.06256172
0.30763785 0.58253816 0.06256172
0.33492330 0.58253816 0.06256172
0.35934491 0.58253816 0.06256172
0.38202731 0.58253816 0.06256172
0.40359280 0.58253816 0.06256172
0.42442052 0.58253816 0.06256172
0.44475640 0.58253816 0.06256172
0.46476672 0.58253816 0.06256172
0.48456684 0.58253816 0.06256172
0.50423787 0.58253816 0.06256172
0.52383692 0.58253816 0.06256172
0.54340373 0.58253816 0.06256172
0.56296513 0.58253816 0.06256172
0.58253816 0.58253816 0.06256172
0.60213235 0.58253816 0.06256172
0.62175140 0.58253816 0.06256172
0.64139446 0.58253816 0.06256172
0.66105709 0.58253816 0.06256172
0.68073210 0.58253816 0.06256172
0.70041014 0.58253816 0.06256172
0.72008021 0.58253816 0.06256172
0.73973012 0.58253816 0.06256172
0.75934677 0.58253816 0.06256172
0.77891650 0.58253816 0.06256172
0.79842529 0.58253816 0.06256172
0.81785897 0.58253816 0.06256172
0.83720337 0.58253816 0.06256172
0.06256172 0.60213235 0.06256172
0.06256172 0.60213235 0.06256172
0.06256172 0.60213235 0.06256172
0.10243726 0.60213235 0.06256172
0.23050841 0.60213235 0.06256172
0.27510902 0.60213235 0.06256172
0.30763785 0.60213235 0.06256172
0.33492330 0.60213235 0.06256172
0.35934491 0.60213235 0.06256172
0.38202731 0.60213235 0.06256172
0.40359280 0.60213235 0.06256172
0.42442052 0.60213235 0.06256172
0.44475640 0.60213235 0.06256172
0.46476672 0.60213235 0.06256172
0.48456684 0.60213235 0.06256172
0.50423787 0.60213235 0.06256172
0.52383692 0.60213235 0.06256172
0.54340373 0.60213235 0.06256172
0.56296513 0.60213235 0.06256172
0.58253816 0.60213235 0.06256172
0.60213235 0.60213235 0.06256172
0.62175140 0.60213235 0.06256172
0.64139446 0.60213235 0.06256172
0.66105709 0.60213235 0.06256172
0.68073210 0.60213235 0.06256172
0.70041014 0.60213235 0.06256172
0.72008021 0.60213235 0.06256172
0.73973012 0.60213235 0.06256172
0.75934677 0.60213235 0.06256172
0.77891650 0.60213235 0.06256172
0.79842529 0.60213235 0.06256172
0.81785897 0.60213235 0.06256172
0.83720337 0.60213235 0.06256172
0.06256172 0.62175140 0.06256172
0.06256172 0.62175140 0.06256172
0.06256172 0.62175140 0.06256172
0.10243726 0.62175140 0.06256172
0.23050841 0.62175140 0.06256172
0.27510902 0.62175140 0.06256172
0.30763785 0.62175140 0.06256172
0.33492330 0.62175140 0.06256172
0.35934491 0.62175140 0.06256172
0.38202731 0.62175140 0.06256172
0.40359280 0.62175140 0.06256172
0.42442052 0.62175140 0.06256172
0.44475640 0.62175140 0.06256172
0.46476672 0.62175140 0.06256172
0.48456684 0.62175140 0.06256172
0.50423787 0.62175140 0.06256172
0.52383692 0.62175140 0.06256172
0.54340373 0.62175140 0.06256172
0.56296513 0.62175140 0.06256172
0.58253816 0.62175140 0.06256172
0.60213235 0.62175140 0.06256172
0.62175140 0.62175140 0.06256172
0.64139446 0.62175140 0.06256172
0.66105709 0.62175140 0.06256172
0.68073210 0.62175140 0.06256172
0.70041014 0.62175140 0.06256172
0.72008021 0.62175140 0.06256172
