src/ffmpeg_scripts/luts/flog-smpte2084_-0p67.cube
TITLE "flog-smpte2084_-0p67"
LUT_3D_SIZE 9
# Fujifilm F-Log/Rec2020 -> PQ (EOTF Only)/Rec2020, CineEI Shift -0.67, Black Level 0.00% IRE, Input 109% -> Output 109% - Created with LUTCalc v4.01 by Ben Turley October 2020
0.06256172 0.06256172 0.06256172
0.14405158 0.06256172 0.06256172
0.22894991 0.06256172 0.06256172
0.29256434 0.06256172 0.06256172
0.35596548 0.06256172 0.06256172
0.42263577 0.06256172 0.06256172
0.49319765 0.06256172 0.06256172
0.56719940 0.06256172 0.06256172
0.64369240 0.06256172 0.06256172
0.06256172 0.14405158 0.06256172
0.14405158 0.14405158 0.06256172
0.22894991 0.14405158 0.06256172
0.29256434 0.14405158 0.06256172
0.35596548 0.14405158 0.06256172
0.42263577 0.14405158 0.06256172
0.49319765 0.14405158 0.06256172
0.56719940 0.14405158 0.06256172
0.64369240 0.14405158 0.06256172
0.06256172 0.22894991 0.06256172
0.14405158 0.22894991 0.06256172
0.22894991 0.22894991 0.06256172
0.29256434 0.22894991 0.06256172
0.35596548 0.22894991 0.06256172
0.42263577 0.22894991 0.06256172
0.49319765 0.22894991 0.06256172
0.56719940 0.22894991 0.06256172
0.64369240 0.22894991 0.06256172
0.06256172 0.29256434 0.06256172
0.14405158 0.29256434 0.06256172
0.22894991 0.29256434 0.06256172
0.29256434 0.29256434 0.06256172
0.35596548 0.29256434 0.06256172
0.42263577 0.29256434 0.06256172
0.49319765 0.29256434 0.06256172
0.56719940 0.29256434 0.06256172
0.64369240 0.29256434 0.06256172
0.06256172 0.35596548 0.06256172
0.14405158 0.35596548 0.06256172
0.22894991 0.35596548 0.06256172
0.29256434 0.35596548 0.06256172
0.35596548 0.35596548 0.06256172
0.42263577 0.35596548 0.06256172
0.49319765 0.35596548 0.06256172
0.56719940 0.35596548 0.06256172
0.64369240 0.35596548 0.06256172
0.06256172 0.42263577 0.06256172
0.14405158 0.42263577 0.06256172
0.22894991 0.42263577 0.06256172
0.29256434 0.42263577 0.06256172
0.35596548 0.42263577 0.06256172
0.42263577 0.42263577 0.06256172
0.49319765 0.42263577 0.06256172
0.56719940 0.42263577 0.06256172
0.64369240 0.42263577 0.06256172
0.06256172 0.49319765 0.06256172
0.14405158 0.49319765 0.06256172
0.22894991 0.49319765 0.06256172
0.29256434 0.49319765 0.06256172
0.35596548 0.49319765 0.06256172
0.42263577 0.49319765 0.06256172
0.49319765 0.49319765 0.06256172
0.56719940 0.49319765 0.06256172
0.64369240 0.49319765 0.06256172
0.06256172 0.56719940 0.06256172
0.14405158 0.56719940 0.06256172
0.22894991 0.56719940 0.06256172
0.29256434 0.56719940 0.06256172
0.35596548 0.56719940 0.06256172
0.42263577 0.56719940 0.06256172
0.49319765 0.56719940 0.06256172
0.56719940 0.56719940 0.06256172
0.64369240 0.56719940 0.06256172
0.06256172 0.64369240 0.06256172
0.14405158 0.64369240 0.06256172
0.22894991 0.64369240 0.06256172
0.29256434 0.64369240 0.06256172
0.35596548 0.64369240 0.06256172
0.42263577 0.64369240 0.06256172
0.49319765 0.64369240 0.06256172
0.56719940 0.64369240 0.06256172
0.64369240 0.64369240 0.06256172
0.06256172 0.06256172 0.14405158
0.14405158 0.06256172 0.14405158
0.22894991 0.06256172 0.14405158
0.29256434 0.06256172 0.14405158
0.35596548 0.06256172 0.14405158
0.42263577 0.06256172 0.14405158
0.49319765 0.06256172 0.14405158
0.56719940 0.06256172 0.14405158
0.64369240 0.06256172 0.14405158
0.06256172 0.14405158 0.14405158
0.14405158 0.14405158 0.14405158
0.22894991 0.14405158 0.14405158
0.29256434 0.14405158 0.14405158
0.35596548 0.14405158 0.14405158
0.42263577 0.14405158 0.14405158
0.49319765 0.14405158 0.14405158
0.56719940 0.14405158 0.14405158
0.64369240 0.14405158 0.14405158
0.06256172 0.22894991 0.14405158
0.14405158 0.22894991 0.14405158
0.22894991 0.22894991 0.14405158
0.29256434 0.22894991 0.14405158
0.35596548 0.22894991 0.14405158
0.42263577 0.22894991 0.14405158
0.49319765 0.22894991 0.14405158
0.56719940 0.22894991 0.14405158
0.64369240 0.22894991 0.14405158
0.06256172 0.29256434 0.14405158
0.14405158 0.29256434 0.14405158
0.22894991 0.29256434 0.14405158
0.29256434 0.29256434 0.14405158
0.35596548 0.29256434 0.14405158
0.42263577 0.29256434 0.14405158
0.49319765 0.29256434 0.14405158
0.56719940 0.29256434 0.14405158
0.64369240 0.29256434 0.14405158
0.06256172 0.35596548 0.14405158
0.14405158 0.35596548 0.14405158
0.22894991 0.35596548 0.14405158
0.29256434 0.35596548 0.14405158
0.35596548 0.35596548 0.14405158
0.42263577 0.35596548 0.14405158
0.49319765 0.35596548 0.14405158
0.56719940 0.35596548 0.14405158
0.64369240 0.35596548 0.14405158
0.06256172 0.42263577 0.14405158
0.14405158 0.42263577 0.14405158
0.22894991 0.42263577 0.14405158
0.29256434 0.42263577 0.14405158
0.35596548 0.42263577 0.14405158
0.42263577 0.42263577 0.14405158
0.49319765 0.42263577 0.14405158
0.56719940 0.42263577 0.14405158
0.64369240 0.42263577 0.14405158
0.06256172 0.49319765 0.14405158
0.14405158 0.49319765 0.14405158
0.22894991 0.49319765 0.14405158
0.29256434 0.49319765 0.14405158
0.35596548 0.49319765 0.14405158
0.42263577 0.49319765 0.14405158
0.49319765 0.49319765 0.14405158
0.56719940 0.49319765 0.14405158
0.64369240 0.49319765 0.14405158
0.06256172 0.56719940 0.14405158
0.14405158 0.56719940 0.14405158
0.22894991 0.56719940 0.14405158
0.29256434 0.56719940 0.14405158
0.35596548 0.56719940 0.14405158
0.42263577 0.56719940 0.14405158
0.49319765 0.56719940 0.14405158
0.56719940 0.56719940 0.14405158
0.64369240 0.56719940 0.14405158
0.06256172 0.64369240 0.14405158
0.14405158 0.64369240 0.14405158
0.22894991 0.64369240 0.14405158
0.29256434 0.64369240 0.14405158
0.35596548 0.64369240 0.14405158
0.42263577 0.64369240 0.14405158
0.49319765 0.64369240 0.14405158
0.56719940 0.64369240 0.14405158
0.64369240 0.64369240 0.14405158
0.06256172 0.06256172 0.22894991
0.14405158 0.06256172 0.22894991
0.22894991 0.06256172 0.22894991
0.29256434 0.06256172 0.22894991
0.35596548 0.06256172 0.22894991
0.42263577 0.06256172 0.22894991
0.49319765 0.06256172 0.22894991
0.56719940 0.06256172 0.22894991
0.64369240 0.06256172 0.22894991
0.06256172 0.14405158 0.22894991
0.14405158 0.14405158 0.22894991
0.22894991 0.14405158 0.22894991
0.29256434 0.14405158 0.22894991
0.35596548 0.14405158 0.22894991
0.42263577 0.14405158 0.22894991
0.49319765 0.14405158 0.22894991
0.56719940 0.14405158 0.22894991
0.64369240 0.14405158 0.22894991
0.06256172 0.22894991 0.22894991
0.14405158 0.22894991 0.22894991
0.22894991 0.22894991 0.22894991
0.29256434 0.22894991 0.22894991
0.35596548 0.22894991 0.22894991
0.42263577 0.22894991 0.22894991
0.49319765 0.22894991 0.22894991
0.56719940 0.22894991 0.22894991
0.64369240 0.22894991 0.22894991
0.06256172 0.29256434 0.22894991
0.14405158 0.29256434 0.22894991
0.22894991 0.29256434 0.22894991
0.29256434 0.29256434 0.22894991
0.35596548 0.29256434 0.22894991
0.42263577 0.29256434 0.22894991
0.49319765 0.29256434 0.22894991
0.56719940 0.29256434 0.22894991
0.64369240 0.29256434 0.22894991
0.06256172 0.35596548 0.22894991
0.14405158 0.35596548 0.22894991
0.22894991 0.35596548 0.22894991
0.29256434 0.35596548 0.22894991
0.35596548 0.35596548 0.22894991
0.42263577 0.35596548 0.22894991
0.49319765 0.35596548 0.22894991
0.56719940 0.35596548 0.22894991
0.64369240 0.35596548 0.22894991
0.06256172 0.42263577 0.22894991
0.14405158 0.42263577 0.22894991
0.22894991 0.42263577 0.22894991
0.29256434 0.42263577 0.22894991
0.35596548 0.42263577 0.22894991
0.42263577 0.42263577 0.22894991
0.49319765 0.42263577 0.22894991
0.56719940 0.42263577 0.22894991
0.64369240 0.42263577 0.22894991
0.06256172 0.49319765 0.22894991
0.14405158 0.49319765 0.22894991
0.22894991 0.49319765 0.22894991
0.29256434 0.49319765 0.22894991
0.35596548 0.49319765 0.22894991
0.42263577 0.49319765 0.22894991
0.49319765 0.49319765 0.22894991
0.56719940 0.49319765 0.22894991
0.64369240 0.49319765 0.22894991
0.06256172 0.56719940 0.22894991
0.14405158 0.56719940 0.22894991
0.22894991 0.56719940 0.22894991
0.29256434 0.56719940 0.22894991
0.35596548 0.56719940 0.22894991
0.42263577 0.56719940 0.22894991
0.49319765 0.56719940 0.22894991
0.56719940 0.56719940 0.22894991
0.64369240 0.56719940 0.22894991
0.06256172 0.64369240 0.22894991
0.14405158 0.64369240 0.22894991
0.22894991 0.64369240 0.22894991
0.29256434 0.64369240 0.22894991
0.35596548 0.64369240 0.22894991
0.42263577 0.64369240 0.22894991
0.49319765 0.64369240 0.22894991
0.56719940 0.64369240 0.22894991
0.64369240 0.64369240 0.22894991
0.06256172 0.06256172 0.29256434
0.14405158 0.06256172 0.29256434
0.22894991 0.06256172 0.29256434
0.29256434 0.06256172 0.29256434
0.35596548 0.06256172 0.29256434
0.42263577 0.06256172 0.29256434
0.49319765 0.06256172 0.29256434
0.56719940 0.06256172 0.29256434
0.64369240 0.06256172 0.29256434
0.06256172 0.14405158 0.29256434
0.14405158 0.14405158 0.29256434
0.22894991 0.14405158 0.29256434
0.29256434 0.14405158 0.29256434
0.35596548 0.14405158 0.29256434
0.42263577 0.14405158 0.29256434
0.49319765 0.14405158 0.29256434
0.56719940 0.14405158 0.29256434
0.64369240 0.14405158 0.29256434
0.06256172 0.22894991 0.29256434
0.14405158 0.22894991 0.29256434
0.22894991 0.22894991 0.29256434
0.29256434 0.22894991 0.29256434
0.35596548 0.22894991 0.29256434
0.42263577 0.22894991 0.29256434
0.49319765 0.22894991 0.29256434
0.56719940 0.22894991 0.29256434
0.64369240 0.22894991 0.29256434
0.06256172 0.29256434 0.29256434
0.14405158 0.29256434 0.29256434
0.22894991 0.29256434 0.29256434
0.29256434 0.29256434 0.29256434
0.35596548 0.29256434 0.29256434
0.42263577 0.29256434 0.29256434
0.49319765 0.29256434 0.29256434
0.56719940 0.29256434 0.29256434
0.64369240 0.29256434 0.29256434
0.06256172 0.35596548 0.29256434
0.14405158 0.35596548 0.29256434
0.22894991 0.35596548 0.29256434
0.29256434 0.35596548 0.29256434
0.35596548 0.35596548 0.29256434
0.42263577 0.35596548 0.29256434
0.49319765 0.35596548 0.29256434
0.56719940 0.35596548 0.29256434
0.64369240 0.35596548 0.29256434
0.06256172 0.42263577 0.29256434
0.14405158 0.42263577 0.29256434
0.22894991 0.42263577 0.29256434
0.29256434 0.42263577 0.29256434
0.35596548 0.42263577 0.29256434
0.42263577 0.42263577 0.29256434
0.49319765 0.42263577 0.29256434
0.56719940 0.42263577 0.29256434
0.64369240 0.42263577 0.29256434
0.06256172 0.49319765 0.29256434
0.14405158 0.49319765 0.29256434
0.22894991 0.49319765 0.29256434
0.29256434 0.49319765 0.29256434
0.35596548 0.49319765 0.29256434
0.42263577 0.49319765 0.29256434
0.49319765 0.49319765 0.29256434
0.56719940 0.49319765 0.29256434
0.64369240 0.49319765 0.29256434
0.06256172 0.56719940 0.29256434
0.14405158 0.56719940 0.29256434
0.22894991 0.56719940 0.29256434
0.29256434 0.56719940 0.29256434
0.35596548 0.56719940 0.29256434
0.42263577 0.56719940 0.29256434
0.49319765 0.56719940 0.29256434
0.56719940 0.56719940 0.29256434
0.64369240 0.56719940 0.29256434
0.06256172 0.64369240 0.29256434
0.14405158 0.64369240 0.29256434
0.22894991 0.64369240 0.29256434
0.29256434 0.64369240 0.29256434
0.35596548 0.64369240 0.29256434
0.42263577 0.64369240 0.29256434
0.49319765 0.64369240 0.29256434
0.56719940 0.64369240 0.29256434
0.64369240 0.64369240 0.29256434
0.06256172 0.06256172 0.35596548
0.14405158 0.06256172 0.35596548
0.22894991 0.06256172 0.35596548
0.29256434 0.06256172 0.35596548
0.35596548 0.06256172 0.35596548
0.42263577 0.06256172 0.35596548
0.49319765 0.06256172 0.35596548
0.56719940 0.06256172 0.35596548
0.64369240 0.06256172 0.35596548
0.06256172 0.14405158 0.35596548
0.14405158 0.14405158 0.35596548
0.22894991 0.14405158 0.35596548
0.29256434 0.14405158 0.35596548
0.35596548 0.14405158 0.35596548
0.42263577 0.14405158 0.35596548
0.49319765 0.14405158 0.35596548
0.56719940 0.14405158 0.35596548
0.64369240 0.14405158 0.35596548
0.06256172 0.22894991 0.35596548
0.14405158 0.22894991 0.35596548
0.22894991 0.22894991 0.35596548
0.29256434 0.22894991 0.35596548
0.35596548 0.22894991 0.35596548
0.42263577 0.22894991 0.35596548
0.49319765 0.22894991 0.35596548
0.56719940 0.22894991 0.35596548
0.64369240 0.22894991 0.35596548
0.06256172 0.29256434 0.35596548
0.14405158 0.29256434 0.35596548
0.22894991 0.29256434 0.35596548
0.29256434 0.29256434 0.35596548
0.35596548 0.29256434 0.35596548
0.42263577 0.29256434 0.35596548
0.49319765 0.29256434 0.35596548
0.56719940 0.29256434 0.35596548
0.64369240 0.29256434 0.35596548
0.06256172 0.35596548 0.35596548
0.14405158 0.35596548 0.35596548
0.22894991 0.35596548 0.35596548
0.29256434 0.35596548 0.35596548
0.35596548 0.35596548 0.35596548
0.42263577 0.35596548 0.35596548
0.49319765 0.35596548 0.35596548
0.56719940 0.35596548 0.35596548
0.64369240 0.35596548 0.35596548
0.06256172 0.42263577 0.35596548
0.14405158 0.42263577 0.35596548
0.22894991 0.42263577 0.35596548
0.29256434 0.42263577 0.35596548
0.35596548 0.42263577 0.35596548
0.42263577 0.42263577 0.35596548
0.49319765 0.42263577 0.35596548
0.56719940 0.42263577 0.35596548
0.64369240 0.42263577 0.35596548
0.06256172 0.49319765 0.35596548
0.14405158 0.49319765 0.35596548
0.22894991 0.49319765 0.35596548
0.29256434 0.49319765 0.35596548
0.35596548 0.49319765 0.35596548
0.42263577 0.49319765 0.35596548
0.49319765 0.49319765 0.35596548
0.56719940 0.49319765 0.35596548
0.64369240 0.49319765 0.35596548
0.06256172 0.56719940 0.35596548
0.14405158 0.56719940 0.35596548
0.22894991 0.56719940 0.35596548
0.29256434 0.56719940 0.35596548
0.35596548 0.56719940 0.35596548
0.42263577 0.56719940 0.35596548
0.49319765 0.56719940 0.35596548
0.56719940 0.56719940 0.35596548
0.64369240 0.56719940 0.35596548
0.06256172 0.64369240 0.35596548
0.14405158 0.64369240 0.35596548
0.22894991 0.64369240 0.35596548
0.29256434 0.64369240 0.35596548
0.35596548 0.64369240 0.35596548
0.42263577 0.64369240 0.35596548
0.49319765 0.64369240 0.35596548
0.56719940 0.64369240 0.35596548
0.64369240 0.64369240 0.35596548
0.06256172 0.06256172 0.42263577
0.14405158 0.06256172 0.42263577
0.22894991 0.06256172 0.42263577
0.29256434 0.06256172 0.42263577
0.35596548 0.06256172 0.42263577
0.42263577 0.06256172 0.42263577
0.49319765 0.06256172 0.42263577
0.56719940 0.06256172 0.42263577
0.64369240 0.06256172 0.42263577
0.06256172 0.14405158 0.42263577
0.14405158 0.14405158 0.42263577
0.22894991 0.14405158 0.42263577
0.29256434 0.14405158 0.42263577
0.35596548 0.14405158 0.42263577
0.42263577 0.14405158 0.42263577
0.49319765 0.14405158 0.42263577
0.56719940 0.14405158 0.42263577
0.64369240 0.14405158 0.42263577
0.06256172 0.22894991 0.42263577
0.14405158 0.22894991 0.42263577
0.22894991 0.22894991 0.42263577
0.29256434 0.22894991 0.42263577
0.35596548 0.22894991 0.42263577
0.42263577 0.22894991 0.42263577
0.49319765 0.22894991 0.42263577
0.56719940 0.22894991 0.42263577
0.64369240 0.22894991 0.42263577
0.06256172 0.29256434 0.42263577
0.14405158 0.29256434 0.42263577
0.22894991 0.29256434 0.42263577
0.29256434 0.29256434 0.42263577
0.35596548 0.29256434 0.42263577
0.42263577 0.29256434 0.42263577
0.49319765 0.29256434 0.42263577
0.56719940 0.29256434 0.42263577
0.64369240 0.29256434 0.42263577
0.06256172 0.35596548 0.42263577
0.14405158 0.35596548 0.42263577
0.22894991 0.35596548 0.42263577
0.29256434 0.35596548 0.42263577
0.35596548 0.35596548 0.42263577
0.42263577 0.35596548 0.42263577
0.49319765 0.35596548 0.42263577
0.56719940 0.35596548 0.42263577
0.64369240 0.35596548 0.42263577
0.06256172 0.42263577 0.42263577
0.14405158 0.42263577 0.42263577
0.22894991 0.42263577 0.42263577
0.29256434 0.42263577 0.42263577
0.35596548 0.42263577 0.42263577
0.42263577 0.42263577 0.42263577
0.49319765 0.42263577 0.42263577
0.56719940 0.42263577 0.42263577
0.64369240 0.42263577 0.42263577
0.06256172 0.49319765 0.42263577
0.14405158 0.49319765 0.42263577
0.22894991 0.49319765 0.42263577
0.29256434 0.49319765 0.42263577
0.35596548 0.49319765 0.42263577
0.42263577 0.49319765 0.42263577
0.49319765 0.49319765 0.42263577
0.56719940 0.49319765 0.42263577
0.64369240 0.49319765 0.42263577
0.06256172 0.56719940 0.42263577
0.14405158 0.56719940 0.42263577
0.22894991 0.56719940 0.42263577
0.29256434 0.56719940 0.42263577
0.35596548 0.56719940 0.42263577
0.42263577 0.56719940 0.42263577
0.49319765 0.56719940 0.42263577
0.56719940 0.56719940 0.42263577
0.64369240 0.56719940 0.42263577
0.06256172 0.64369240 0.42263577
0.14405158 0.64369240 0.42263577
0.22894991 0.64369240 0.42263577
0.29256434 0.64369240 0.42263577
0.35596548 0.64369240 0.42263577
0.42263577 0.64369240 0.42263577
0.49319765 0.64369240 0.42263577
0.56719940 0.64369240 0.42263577
0.64369240 0.64369240 0.42263577
0.06256172 0.06256172 0.49319765
0.14405158 0.06256172 0.49319765
0.22894991 0.06256172 0.49319765
0.29256434 0.06256172 0.49319765
0.35596548 0.06256172 0.49319765
0.42263577 0.06256172 0.49319765
0.49319765 0.06256172 0.49319765
0.56719940 0.06256172 0.49319765
0.64369240 0.06256172 0.49319765
0.06256172 0.14405158 0.49319765
0.14405158 0.14405158 0.49319765
0.22894991 0.14405158 0.49319765
0.29256434 0.14405158 0.49319765
0.35596548 0.14405158 0.49319765
0.42263577 0.14405158 0.49319765
0.49319765 0.14405158 0.49319765
0.56719940 0.14405158 0.49319765
0.64369240 0.14405158 0.49319765
0.06256172 0.22894991 0.49319765
0.14405158 0.22894991 0.49319765
0.22894991 0.22894991 0.49319765
0.29256434 0.22894991 0.49319765
0.35596548 0.22894991 0.49319765
0.42263577 0.22894991 0.49319765
0.49319765 0.22894991 0.49319765
0.56719940 0.22894991 0.49319765
0.64369240 0.22894991 0.49319765
0.06256172 0.29256434 0.49319765
0.14405158 0.29256434 0.49319765
0.22894991 0.29256434 0.49319765
0.29256434 0.29256434 0.49319765
0.35596548 0.29256434 0.49319765
0.42263577 0.29256434 0.49319765
0.49319765 0.29256434 0.49319765
0.56719940 0.29256434 0.49319765
0.64369240 0.29256434 0.49319765
0.06256172 0.35596548 0.49319765
0.14405158 0.35596548 0.49319765
0.22894991 0.35596548 0.49319765
0.29256434 0.35596548 0.49319765
0.35596548 0.35596548 0.49319765
0.42263577 0.35596548 0.49319765
0.49319765 0.35596548 0.49319765
0.56719940 0.35596548 0.49319765
0.64369240 0.35596548 0.49319765
0.06256172 0.42263577 0.49319765
0.14405158 0.42263577 0.49319765
0.22894991 0.42263577 0.49319765
0.29256434 0.42263577 0.49319765
0.35596548 0.42263577 0.49319765
0.42263577 0.42263577 0.49319765
0.49319765 0.42263577 0.49319765
0.56719940 0.42263577 0.49319765
0.64369240 0.42263577 0.49319765
0.06256172 0.49319765 0.49319765
0.14405158 0.49319765 0.49319765
0.22894991 0.49319765 0.49319765
0.29256434 0.49319765 0.49319765
0.35596548 0.49319765 0.49319765
0.42263577 0.49319765 0.49319765
0.49319765 0.49319765 0.49319765
0.56719940 0.49319765 0.49319765
0.64369240 0.49319765 0.49319765
0.06256172 0.56719940 0.49319765
0.14405158 0.56719940 0.49319765
0.22894991 0.56719940 0.49319765
0.29256434 0.56719940 0.49319765
0.35596548 0.56719940 0.49319765
0.42263577 0.56719940 0.49319765
0.49319765 0.56719940 0.49319765
0.56719940 0.56719940 0.49319765
0.64369240 0.56719940 0.49319765
0.06256172 0.64369240 0.49319765
0.14405158 0.64369240 0.49319765
0.22894991 0.64369240 0.49319765
0.29256434 0.64369240 0.49319765
0.35596548 0.64369240 0.49319765
0.42263577 0.64369240 0.49319765
0.49319765 0.64369240 0.49319765
0.56719940 0.64369240 0.49319765
0.64369240 0.64369240 0.49319765
0.06256172 0.06256172 0.56719940
0.14405158 0.06256172 0.56719940
0.22894991 0.06256172 0.56719940
0.29256434 0.06256172 0.56719940
0.35596548 0.06256172 0.56719940
0.42263577 0.06256172 0.56719940
0.49319765 0.06256172 0.56719940
0.56719940 0.06256172 0.56719940
0.64369240 0.06256172 0.56719940
0.06256172 0.14405158 0.56719940
0.14405158 0.14405158 0.56719940
0.22894991 0.14405158 0.56719940
0.29256434 0.14405158 0.56719940
0.35596548 0.14405158 0.56719940
0.42263577 0.14405158 0.56719940
0.49319765 0.14405158 0.56719940
0.56719940 0.14405158 0.56719940
0.64369240 0.14405158 0.56719940
0.06256172 0.22894991 0.56719940
0.14405158 0.22894991 0.56719940
0.22894991 0.22894991 0.56719940
0.29256434 0.22894991 0.56719940
0.35596548 0.22894991 0.56719940
0.42263577 0.22894991 0.56719940
0.49319765 0.22894991 0.56719940
0.56719940 0.22894991 0.56719940
0.64369240 0.22894991 0.56719940
0.06256172 0.29256434 0.56719940
0.14405158 0.29256434 0.56719940
0.22894991 0.29256434 0.56719940
0.29256434 0.29256434 0.56719940
0.35596548 0.29256434 0.56719940
0.42263577 0.29256434 0.56719940
0.49319765 0.29256434 0.56719940
0.56719940 0.29256434 0.56719940
0.64369240 0.29256434 0.56719940
0.06256172 0.35596548 0.56719940
0.14405158 0.35596548 0.56719940
0.22894991 0.35596548 0.56719940
0.29256434 0.35596548 0.56719940
0.35596548 0.35596548 0.56719940
0.42263577 0.35596548 0.56719940
0.49319765 0.35596548 0.56719940
0.56719940 0.35596548 0.56719940
0.64369240 0.35596548 0.56719940
0.06256172 0.42263577 0.56719940
0.14405158 0.42263577 0.56719940
0.22894991 0.42263577 0.56719940
0.29256434 0.42263577 0.56719940
0.35596548 0.42263577 0.56719940
0.42263577 0.42263577 0.56719940
0.49319765 0.42263577 0.56719940
0.56719940 0.42263577 0.56719940
0.64369240 0.42263577 0.56719940
0.06256172 0.49319765 0.56719940
0.14405158 0.49319765 0.56719940
0.22894991 0.49319765 0.56719940
0.29256434 0.49319765 0.56719940
0.35596548 0.49319765 0.56719940
0.42263577 0.49319765 0.56719940
0.49319765 0.49319765 0.56719940
0.56719940 0.49319765 0.56719940
0.64369240 0.49319765 0.56719940
0.06256172 0.56719940 0.56719940
0.14405158 0.56719940 0.56719940
0.22894991 0.56719940 0.56719940
0.29256434 0.56719940 0.56719940
0.35596548 0.56719940 0.56719940
0.42263577 0.56719940 0.56719940
0.49319765 0.56719940 0.56719940
0.56719940 0.56719940 0.56719940
0.64369240 0.56719940 0.56719940
0.06256172 0.64369240 0.56719940
0.14405158 0.64369240 0.56719940
0.22894991 0.64369240 0.56719940
0.29256434 0.64369240 0.56719940
0.35596548 0.64369240 0.56719940
0.42263577 0.64369240 0.56719940
0.49319765 0.64369240 0.56719940
0.56719940 0.64369240 0.56719940
0.64369240 0.64369240 0.56719940
0.06256172 0.06256172 0.64369240
0.14405158 0.06256172 0.64369240
0.22894991 0.06256172 0.64369240
0.29256434 0.06256172 0.64369240
0.35596548 0.06256172 0.64369240
0.42263577 0.06256172 0.64369240
0.49319765 0.06256172 0.64369240
0.56719940 0.06256172 0.64369240
0.64369240 0.06256172 0.64369240
0.06256172 0.14405158 0.64369240
0.14405158 0.14405158 0.64369240
0.22894991 0.14405158 0.64369240
0.29256434 0.14405158 0.64369240
0.35596548 0.14405158 0.64369240
0.42263577 0.14405158 0.64369240
0.49319765 0.14405158 0.64369240
0.56719940 0.14405158 0.64369240
0.64369240 0.14405158 0.64369240
0.06256172 0.22894991 0.64369240
0.14405158 0.22894991 0.64369240
0.22894991 0.22894991 0.64369240
0.29256434 0.22894991 0.64369240
0.35596548 0.22894991 0.64369240
0.42263577 0.22894991 0.64369240
0.49319765 0.22894991 0.64369240
0.56719940 0.22894991 0.64369240
0.64369240 0.22894991 0.64369240
0.06256172 0.29256434 0.64369240
0.14405158 0.29256434 0.64369240
0.22894991 0.29256434 0.64369240
0.29256434 0.29256434 0.64369240
0.35596548 0.29256434 0.64369240
0.42263577 0.29256434 0.64369240
0.49319765 0.29256434 0.64369240
0.56719940 0.29256434 0.64369240
0.64369240 0.29256434 0.64369240
0.06256172 0.35596548 0.64369240
0.14405158 0.35596548 0.64369240
0.22894991 0.35596548 0.64369240
0.29256434 0.35596548 0.64369240
0.35596548 0.35596548 0.64369240
0.42263577 0.35596548 0.64369240
0.49319765 0.35596548 0.64369240
0.56719940 0.35596548 0.64369240
0.64369240 0.35596548 0.64369240
0.06256172 0.42263577 0.64369240
0.14405158 0.42263577 0.64369240
0.22894991 0.42263577 0.64369240
0.29256434 0.42263577 0.64369240
0.35596548 0.42263577 0.64369240
0.42263577 0.42263577 0.64369240
0.49319765 0.42263577 0.64369240
0.56719940 0.42263577 0.64369240
0.64369240 0.42263577 0.64369240
0.06256172 0.49319765 0.64369240
0.14405158 0.49319765 0.64369240
0.22894991 0.49319765 0.64369240
0.29256434 0.49319765 0.64369240
0.35596548 0.49319765 0.64369240
0.42263577 0.49319765 0.64369240
0.49319765 0.49319765 0.64369240
0.56719940 0.49319765 0.64369240
0.64369240 0.49319765 0.64369240
0.06256172 0.56719940 0.64369240
0.14405158 0.56719940 0.64369240
0.22894991 0.56719940 0.64369240
0.29256434 0.56719940 0.64369240
0.35596548 0.56719940 0.64369240
0.42263577 0.56719940 0.64369240
0.49319765 0.56719940 0.64369240
0.56719940 0.56719940 0.64369240
0.64369240 0.56719940 0.64369240
0.06256172 0.64369240 0.64369240
0.14405158 0.64369240 0.64369240
0.22894991 0.64369240 0.64369240
0.29256434 0.64369240 0.64369240
0.35596548 0.64369240 0.64369240
0.42263577 0.64369240 0.64369240
0.49319765 0.64369240 0.64369240
0.56719940 0.64369240 0.64369240
0.64369240 0.64369240 0.64369240
