src/ffmpeg_scripts/luts/flog-experimental_0p67.cube
TITLE "flog-experimental_0p67"
LUT_3D_SIZE 5
# Fujifilm F-Log/Rec2020 -> PQ (EOTF Only)/Rec2020, CineEI Shift 0.67, Black Level 0.00% IRE, Input 109% -> Output 100% - Created with LUTCalc v4.01 by Ben Turley October 2020
0.00000073 0.00000073 0.00000073
0.35424363 0.00000073 0.00000073
0.58911581 0.00000073 0.00000073
0.82851722 0.00000073 0.00000073
1.00000000 0.00000073 0.00000073
0.00000073 0.35424363 0.00000073
0.35424363 0.35424363 0.00000073
0.58911581 0.35424363 0.00000073
0.82851722 0.35424363 0.00000073
1.00000000 0.35424363 0.00000073
0.00000073 0.58911581 0.00000073
0.35424363 0.58911581 0.00000073
0.58911581 0.58911581 0.00000073
0.82851722 0.58911581 0.00000073
1.00000000 0.58911581 0.00000073
0.00000073 0.82851722 0.00000073
0.35424363 0.82851722 0.00000073
0.58911581 0.82851722 0.00000073
0.82851722 0.82851722 0.00000073
1.00000000 0.82851722 0.00000073
0.00000073 1.00000000 0.00000073
0.35424363 1.00000000 0.00000073
0.58911581 1.00000000 0.00000073
0.82851722 1.00000000 0.00000073
1.00000000 1.00000000 0.00000073
0.00000073 0.00000073 0.35424363
0.35424363 0.00000073 0.35424363
0.58911581 0.00000073 0.35424363
0.82851722 0.00000073 0.35424363
1.00000000 0.00000073 0.35424363
0.00000073 0.35424363 0.35424363
0.35424363 0.35424363 0.35424363
0.58911581 0.35424363 0.35424363
0.82851722 0.35424363 0.35424363
1.00000000 0.35424363 0.35424363
0.00000073 0.58911581 0.35424363
0.35424363 0.58911581 0.35424363
0.58911581 0.58911581 0.35424363
0.82851722 0.58911581 0.35424363
1.00000000 0.58911581 0.35424363
0.00000073 0.82851722 0.35424363
0.35424363 0.82851722 0.35424363
0.58911581 0.82851722 0.35424363
0.82851722 0.82851722 0.35424363
1.00000000 0.82851722 0.35424363
0.00000073 1.00000000 0.35424363
0.35424363 1.00000000 0.35424363
0.58911581 1.00000000 0.35424363
0.82851722 1.00000000 0.35424363
1.00000000 1.00000000 0.35424363
0.00000073 0.00000073 0.58911581
0.35424363 0.00000073 0.58911581
0.58911581 0.00000073 0.58911581
0.82851722 0.00000073 0.58911581
1.00000000 0.00000073 0.58911581
0.00000073 0.35424363 0.58911581
0.35424363 0.35424363 0.58911581
0.58911581 0.35424363 0.58911581
0.82851722 0.35424363 0.58911581
1.00000000 0.35424363 0.58911581
0.00000073 0.58911581 0.58911581
0.35424363 0.58911581 0.58911581
0.58911581 0.58911581 0.58911581
0.82851722 0.58911581 0.58911581
1.00000000 0.58911581 0.58911581
0.00000073 0.82851722 0.58911581
0.35424363 0.82851722 0.58911581
0.58911581 0.82851722 0.58911581
0.82851722 0.82851722 0.58911581
1.00000000 0.82851722 0.58911581
0.00000073 1.00000000 0.58911581
0.35424363 1.00000000 0.58911581
0.58911581 1.00000000 0.58911581
0.82851722 1.00000000 0.58911581
1.00000000 1.00000000 0.58911581
0.00000073 0.00000073 0.82851722
0.35424363 0.00000073 0.82851722
0.58911581 0.00000073 0.82851722
0.82851722 0.00000073 0.82851722
1.00000000 0.00000073 0.82851722
0.00000073 0.35424363 0.82851722
0.35424363 0.35424363 0.82851722
0.58911581 0.35424363 0.82851722
0.82851722 0.35424363 0.82851722
1.00000000 0.35424363 0.82851722
0.00000073 0.58911581 0.82851722
0.35424363 0.58911581 0.82851722
0.58911581 0.58911581 0.82851722
0.82851722 0.58911581 0.82851722
1.00000000 0.58911581 0.82851722
0.00000073 0.82851722 0.82851722
0.35424363 0.82851722 0.82851722
0.58911581 0.82851722 0.82851722
0.82851722 0.82851722 0.82851722
1.00000000 0.82851722 0.82851722
0.00000073 1.00000000 0.82851722
0.35424363 1.00000000 0.82851722
0.58911581 1.00000000 0.82851722
0.82851722 1.00000000 0.82851722
1.00000000 1.00000000 0.82851722
0.00000073 0.00000073 1.00000000
0.35424363 0.00000073 1.00000000
0.58911581 0.00000073 1.00000000
0.82851722 0.00000073 1.00000000
1.00000000 0.00000073 1.00000000
0.00000073 0.35424363 1.00000000
0.35424363 0.35424363 1.00000000
0.58911581 0.35424363 1.00000000
0.82851722 0.35424363 1.00000000
1.00000000 0.35424363 1.00000000
0.00000073 0.58911581 1.00000000
0.35424363 0.58911581 1.00000000
0.58911581 0.58911581 1.00000000
0.82851722 0.58911581 1.00000000
1.00000000 0.58911581 1.00000000
0.00000073 0.82851722 1.00000000
0.35424363 0.82851722 1.00000000
0.58911581 0.82851722 1.00000000
0.82851722 0.82851722 1.00000000
1.00000000 0.82851722 1.00000000
0.00000073 1.00000000 1.00000000
0.35424363 1.00000000 1.00000000
0.58911581 1.00000000 1.00000000
0.82851722 1.00000000 1.00000000
1.00000000 1.00000000 1.00000000
