src/ffmpeg_scripts/luts/flog-smpte2084_-1p00.cube
TITLE "flog-smpte2084_-1p00"
LUT_3D_SIZE 5
# Fujifilm F-Log/Rec2020 -> PQ (EOTF Only)/Rec2020, CineEI Shift -1.00, Black Level 0.00% IRE, Input 109% -> Output 109% - Created with LUTCalc v4.01 by Ben Turley October 2020
0.06256172 0.06256172 0.06256172
0.21722142 0.06256172 0.06256172
0.33946543 0.06256172 0.06256172
0.47357368 0.06256172 0.06256172
0.62239914 0.06256172 0.06256172
0.06256172 0.21722142 0.06256172
0.21722142 0.21722142 0.06256172
0.33946543 0.21722142 0.06256172
0.47357368 0.21722142 0.06256172
0.62239914 0.21722142 0.06256172
0.06256172 0.33946543 0.06256172
0.21722142 0.33946543 0.06256172
0.33946543 0.33946543 0.06256172
0.47357368 0.33946543 0.06256172
0.62239914 0.33946543 0.06256172
0.06256172 0.47357368 0.06256172
0.21722142 0.47357368 0.06256172
0.33946543 0.47357368 0.06256172
0.47357368 0.47357368 0.06256172
0.62239914 0.47357368 0.06256172
0.06256172 0.62239914 0.06256172
0.21722142 0.62239914 0.06256172
0.33946543 0.62239914 0.06256172
0.47357368 0.62239914 0.06256172
0.62239914 0.62239914 0.06256172
0.06256172 0.06256172 0.21722142
0.21722142 0.06256172 0.21722142
0.33946543 0.06256172 0.21722142
0.47357368 0.06256172 0.21722142
0.62239914 0.06256172 0.21722142
0.06256172 0.21722142 0.21722142
0.21722142 0.21722142 0.21722142
0.33946543 0.21722142 0.21722142
0.47357368 0.21722142 0.21722142
0.62239914 0.21722142 0.21722142
0.06256172 0.33946543 0.21722142
0.21722142 0.33946543 0.21722142
0.33946543 0.33946543 0.21722142
0.47357368 0.33946543 0.21722142
0.62239914 0.33946543 0.21722142
0.06256172 0.47357368 0.21722142
0.21722142 0.47357368 0.21722142
0.33946543 0.47357368 0.21722142
0.47357368 0.47357368 0.21722142
0.62239914 0.47357368 0.21722142
0.06256172 0.62239914 0.21722142
0.21722142 0.62239914 0.21722142
0.33946543 0.62239914 0.21722142
0.47357368 0.62239914 0.21722142
0.62239914 0.62239914 0.21722142
0.06256172 0.06256172 0.33946543
0.21722142 0.06256172 0.33946543
0.33946543 0.06256172 0.33946543
0.47357368 0.06256172 0.33946543
0.62239914 0.06256172 0.33946543
0.06256172 0.21722142 0.33946543
0.21722142 0.21722142 0.33946543
0.33946543 0.21722142 0.33946543
0.47357368 0.21722142 0.33946543
0.62239914 0.21722142 0.33946543
0.06256172 0.33946543 0.33946543
0.21722142 0.33946543 0.33946543
0.33946543 0.33946543 0.33946543
0.47357368 0.33946543 0.33946543
0.62239914 0.33946543 0.33946543
0.06256172 0.47357368 0.33946543
0.21722142 0.47357368 0.33946543
0.33946543 0.47357368 0.33946543
0.47357368 0.47357368 0.33946543
0.62239914 0.47357368 0.33946543
0.06256172 0.62239914 0.33946543
0.21722142 0.62239914 0.33946543
0.33946543 0.62239914 0.33946543
0.47357368 0.62239914 0.33946543
0.62239914 0.62239914 0.33946543
0.06256172 0.06256172 0.47357368
0.21722142 0.06256172 0.47357368
0.33946543 0.06256172 0.47357368
0.47357368 0.06256172 0.47357368
0.62239914 0.06256172 0.47357368
0.06256172 0.21722142 0.47357368
0.21722142 0.21722142 0.47357368
0.33946543 0.21722142 0.47357368
0.47357368 0.21722142 0.47357368
0.62239914 0.21722142 0.47357368
0.06256172 0.33946543 0.47357368
0.21722142 0.33946543 0.47357368
0.33946543 0.33946543 0.47357368
0.47357368 0.33946543 0.47357368
0.62239914 0.33946543 0.47357368
0.06256172 0.47357368 0.47357368
0.21722142 0.47357368 0.47357368
0.33946543 0.47357368 0.47357368
0.47357368 0.47357368 0.47357368
0.62239914 0.47357368 0.47357368
0.06256172 0.62239914 0.47357368
0.21722142 0.62239914 0.47357368
0.33946543 0.62239914 0.47357368
0.47357368 0.62239914 0.47357368
0.62239914 0.62239914 0.47357368
0.06256172 0.06256172 0.62239914
0.21722142 0.06256172 0.62239914
0.33946543 0.06256172 0.62239914
0.47357368 0.06256172 0.62239914
0.62239914 0.06256172 0.62239914
0.06256172 0.21722142 0.62239914
0.21722142 0.21722142 0.62239914
0.33946543 0.21722142 0.62239914
0.47357368 0.21722142 0.62239914
0.62239914 0.21722142 0.62239914
0.06256172 0.33946543 0.62239914
0.21722142 0.33946543 0.62239914
0.33946543 0.33946543 0.62239914
0.47357368 0.33946543 0.62239914
0.62239914 0.33946543 0.62239914
0.06256172 0.47357368 0.62239914
0.21722142 0.47357368 0.62239914
0.33946543 0.47357368 0.62239914
0.47357368 0.47357368 0.62239914
0.62239914 0.47357368 0.62239914
0.06256172 0.62239914 0.62239914
0.21722142 0.62239914 0.62239914
0.33946543 0.62239914 0.62239914
0.47357368 0.62239914 0.62239914
0.62239914 0.62239914 0.62239914
