src/ffmpeg_scripts/luts/flog-smpte2084_-2p67.cube
TITLE "flog-smpte2084_-2p67"
LUT_3D_SIZE 33
# Fujifilm F-Log/Rec2020 -> PQ (EOTF Only)/Rec2020, CineEI Shift -2.67, Black Level 0.00% IRE, Input 109% -> Output 109% - Created with LUTCalc v4.01 by Ben Turley October 2020
0.06256172 0.06256172 0.06256172
0.06256172 0.06256172 0.06256172
0.06256172 0.06256172 0.06256172
0.06956138 0.06256172 0.06256172
0.10873003 0.06256172 0.06256172
0.12692646 0.06256172 0.06256172
0.14151970 0.06256172 0.06256172
0.15459116 0.06256172 0.06256172
0.16691878 0.06256172 0.06256172
0.17889082 0.06256172 0.06256172
0.19073337 0.06256172 0.06256172
0.20259144 0.06256172 0.06256172
0.21456423 0.06256172 0.06256172
0.22672261 0.06256172 0.06256172
0.23911861 0.06256172 0.06256172
0.25179103 0.06256172 0.06256172
0.26476882 0.06256172 0.06256172
0.27807332 0.06256172 0.06256172
0.29171981 0.06256172 0.06256172
0.30571852 0.06256172 0.06256172
0.32007548 0.06256172 0.06256172
0.33479305 0.06256172 0.06256172
0.34987044 0.06256172 0.06256172
0.36530406 0.06256172 0.06256172
0.38108786 0.06256172 0.06256172
0.39721360 0.06256172 0.06256172
0.41367109 0.06256172 0.06256172
0.43044842 0.06256172 0.06256172
0.44753214 0.06256172 0.06256172
0.46490748 0.06256172 0.06256172
0.48255847 0.06256172 0.06256172
0.50046815 0.06256172 0.06256172
0.51861870 0.06256172 0.06256172
0.06256172 0.06256172 0.06256172
0.06256172 0.06256172 0.06256172
0.06256172 0.06256172 0.06256172
0.06956138 0.06256172 0.06256172
0.10873003 0.06256172 0.06256172
0.12692646 0.06256172 0.06256172
0.14151970 0.06256172 0.06256172
0.15459116 0.06256172 0.06256172
0.16691878 0.06256172 0.06256172
0.17889082 0.06256172 0.06256172
0.19073337 0.06256172 0.06256172
0.20259144 0.06256172 0.06256172
0.21456423 0.06256172 0.06256172
0.22672261 0.06256172 0.06256172
0.23911861 0.06256172 0.06256172
0.25179103 0.06256172 0.06256172
0.26476882 0.06256172 0.06256172
0.27807332 0.06256172 0.06256172
0.29171981 0.06256172 0.06256172
0.30571852 0.06256172 0.06256172
0.32007548 0.06256172 0.06256172
0.33479305 0.06256172 0.06256172
0.34987044 0.06256172 0.06256172
0.36530406 0.06256172 0.06256172
0.38108786 0.06256172 0.06256172
0.39721360 0.06256172 0.06256172
0.41367109 0.06256172 0.06256172
0.43044842 0.06256172 0.06256172
0.44753214 0.06256172 0.06256172
0.46490748 0.06256172 0.06256172
0.48255847 0.06256172 0.06256172
0.50046815 0.06256172 0.06256172
0.51861870 0.06256172 0.06256172
0.06256172 0.06256172 0.06256172
0.06256172 0.06256172 0.06256172
0.06256172 0.06256172 0.06256172
0.06956138 0.06256172 0.06256172
0.10873003 0.06256172 0.06256172
0.12692646 0.06256172 0.06256172
0.14151970 0.06256172 0.06256172
0.15459116 0.06256172 0.06256172
0.16691878 0.06256172 0.06256172
0.17889082 0.06256172 0.06256172
0.19073337 0.06256172 0.06256172
0.20259144 0.06256172 0.06256172
0.21456423 0.06256172 0.06256172
0.22672261 0.06256172 0.06256172
0.23911861 0.06256172 0.06256172
0.25179103 0.06256172 0.06256172
0.26476882 0.06256172 0.06256172
0.27807332 0.06256172 0.06256172
0.29171981 0.06256172 0.06256172
0.30571852 0.06256172 0.06256172
0.32007548 0.06256172 0.06256172
0.33479305 0.06256172 0.06256172
0.34987044 0.06256172 0.06256172
0.36530406 0.06256172 0.06256172
0.38108786 0.06256172 0.06256172
0.39721360 0.06256172 0.06256172
0.41367109 0.06256172 0.06256172
0.43044842 0.06256172 0.06256172
0.44753214 0.06256172 0.06256172
0.46490748 0.06256172 0.06256172
0.48255847 0.06256172 0.06256172
0.50046815 0.06256172 0.06256172
0.51861870 0.06256172 0.06256172
0.06256172 0.06956138 0.06256172
0.06256172 0.06956138 0.06256172
0.06256172 0.06956138 0.06256172
0.06956138 0.06956138 0.06256172
0.10873003 0.06956138 0.06256172
0.12692646 0.06956138 0.06256172
0.14151970 0.06956138 0.06256172
0.15459116 0.06956138 0.06256172
0.16691878 0.06956138 0.06256172
0.17889082 0.06956138 0.06256172
0.19073337 0.06956138 0.06256172
0.20259144 0.06956138 0.06256172
0.21456423 0.06956138 0.06256172
0.22672261 0.06956138 0.06256172
0.23911861 0.06956138 0.06256172
0.25179103 0.06956138 0.06256172
0.26476882 0.06956138 0.06256172
0.27807332 0.06956138 0.06256172
0.29171981 0.06956138 0.06256172
0.30571852 0.06956138 0.06256172
0.32007548 0.06956138 0.06256172
0.33479305 0.06956138 0.06256172
0.34987044 0.06956138 0.06256172
0.36530406 0.06956138 0.06256172
0.38108786 0.06956138 0.06256172
0.39721360 0.06956138 0.06256172
0.41367109 0.06956138 0.06256172
0.43044842 0.06956138 0.06256172
0.44753214 0.06956138 0.06256172
0.46490748 0.06956138 0.06256172
0.48255847 0.06956138 0.06256172
0.50046815 0.06956138 0.06256172
0.51861870 0.06956138 0.06256172
0.06256172 0.10873003 0.06256172
0.06256172 0.10873003 0.06256172
0.06256172 0.10873003 0.06256172
0.06956138 0.10873003 0.06256172
0.10873003 0.10873003 0.06256172
0.12692646 0.10873003 0.06256172
0.14151970 0.10873003 0.06256172
0.15459116 0.10873003 0.06256172
0.16691878 0.10873003 0.06256172
0.17889082 0.10873003 0.06256172
0.19073337 0.10873003 0.06256172
0.20259144 0.10873003 0.06256172
0.21456423 0.10873003 0.06256172
0.22672261 0.10873003 0.06256172
0.23911861 0.10873003 0.06256172
0.25179103 0.10873003 0.06256172
0.26476882 0.10873003 0.06256172
0.27807332 0.10873003 0.06256172
0.29171981 0.10873003 0.06256172
0.30571852 0.10873003 0.06256172
0.32007548 0.10873003 0.06256172
0.33479305 0.10873003 0.06256172
0.34987044 0.10873003 0.06256172
0.36530406 0.10873003 0.06256172
0.38108786 0.10873003 0.06256172
0.39721360 0.10873003 0.06256172
0.41367109 0.10873003 0.06256172
0.43044842 0.10873003 0.06256172
0.44753214 0.10873003 0.06256172
0.46490748 0.10873003 0.06256172
0.48255847 0.10873003 0.06256172
0.50046815 0.10873003 0.06256172
0.51861870 0.10873003 0.06256172
0.06256172 0.12692646 0.06256172
0.06256172 0.12692646 0.06256172
0.06256172 0.12692646 0.06256172
0.06956138 0.12692646 0.06256172
0.10873003 0.12692646 0.06256172
0.12692646 0.12692646 0.06256172
0.14151970 0.12692646 0.06256172
0.15459116 0.12692646 0.06256172
0.16691878 0.12692646 0.06256172
0.17889082 0.12692646 0.06256172
0.19073337 0.12692646 0.06256172
0.20259144 0.12692646 0.06256172
0.21456423 0.12692646 0.06256172
0.22672261 0.12692646 0.06256172
0.23911861 0.12692646 0.06256172
0.25179103 0.12692646 0.06256172
0.26476882 0.12692646 0.06256172
0.27807332 0.12692646 0.06256172
0.29171981 0.12692646 0.06256172
0.30571852 0.12692646 0.06256172
0.32007548 0.12692646 0.06256172
0.33479305 0.12692646 0.06256172
0.34987044 0.12692646 0.06256172
0.36530406 0.12692646 0.06256172
0.38108786 0.12692646 0.06256172
0.39721360 0.12692646 0.06256172
0.41367109 0.12692646 0.06256172
0.43044842 0.12692646 0.06256172
0.44753214 0.12692646 0.06256172
0.46490748 0.12692646 0.06256172
0.48255847 0.12692646 0.06256172
0.50046815 0.12692646 0.06256172
0.51861870 0.12692646 0.06256172
0.06256172 0.14151970 0.06256172
0.06256172 0.14151970 0.06256172
0.06256172 0.14151970 0.06256172
0.06956138 0.14151970 0.06256172
0.10873003 0.14151970 0.06256172
0.12692646 0.14151970 0.06256172
0.14151970 0.14151970 0.06256172
0.15459116 0.14151970 0.06256172
0.16691878 0.14151970 0.06256172
0.17889082 0.14151970 0.06256172
0.19073337 0.14151970 0.06256172
0.20259144 0.14151970 0.06256172
0.21456423 0.14151970 0.06256172
0.22672261 0.14151970 0.06256172
0.23911861 0.14151970 0.06256172
0.25179103 0.14151970 0.06256172
0.26476882 0.14151970 0.06256172
0.27807332 0.14151970 0.06256172
0.29171981 0.14151970 0.06256172
0.30571852 0.14151970 0.06256172
0.32007548 0.14151970 0.06256172
0.33479305 0.14151970 0.06256172
0.34987044 0.14151970 0.06256172
0.36530406 0.14151970 0.06256172
0.38108786 0.14151970 0.06256172
0.39721360 0.14151970 0.06256172
0.41367109 0.14151970 0.06256172
0.43044842 0.14151970 0.06256172
0.44753214 0.14151970 0.06256172
0.46490748 0.14151970 0.06256172
0.48255847 0.14151970 0.06256172
0.50046815 0.14151970 0.06256172
0.51861870 0.14151970 0.06256172
0.06256172 0.15459116 0.06256172
0.06256172 0.15459116 0.06256172
0.06256172 0.15459116 0.06256172
0.06956138 0.15459116 0.06256172
0.10873003 0.15459116 0.06256172
0.12692646 0.15459116 0.06256172
0.14151970 0.15459116 0.06256172
0.15459116 0.15459116 0.06256172
0.16691878 0.15459116 0.06256172
0.17889082 0.15459116 0.06256172
0.19073337 0.15459116 0.06256172
0.20259144 0.15459116 0.06256172
0.21456423 0.15459116 0.06256172
0.22672261 0.15459116 0.06256172
0.23911861 0.15459116 0.06256172
0.25179103 0.15459116 0.06256172
0.26476882 0.15459116 0.06256172
0.27807332 0.15459116 0.06256172
0.29171981 0.15459116 0.06256172
0.30571852 0.15459116 0.06256172
0.32007548 0.15459116 0.06256172
0.33479305 0.15459116 0.06256172
0.34987044 0.15459116 0.06256172
0.36530406 0.15459116 0.06256172
0.38108786 0.15459116 0.06256172
0.39721360 0.15459116 0.06256172
0.41367109 0.15459116 0.06256172
0.43044842 0.15459116 0.06256172
0.44753214 0.15459116 0.06256172
0.46490748 0.15459116 0.06256172
0.48255847 0.15459116 0.06256172
0.50046815 0.15459116 0.06256172
0.51861870 0.15459116 0.06256172
0.06256172 0.16691878 0.06256172
0.06256172 0.16691878 0.06256172
0.06256172 0.16691878 0.06256172
0.06956138 0.16691878 0.06256172
0.10873003 0.16691878 0.06256172
0.12692646 0.16691878 0.06256172
0.14151970 0.16691878 0.06256172
0.15459116 0.16691878 0.06256172
0.16691878 0.16691878 0.06256172
0.17889082 0.16691878 0.06256172
0.19073337 0.16691878 0.06256172
0.20259144 0.16691878 0.06256172
0.21456423 0.16691878 0.06256172
0.22672261 0.16691878 0.06256172
0.23911861 0.16691878 0.06256172
0.25179103 0.16691878 0.06256172
0.26476882 0.16691878 0.06256172
0.27807332 0.16691878 0.06256172
0.29171981 0.16691878 0.06256172
0.30571852 0.16691878 0.06256172
0.32007548 0.16691878 0.06256172
0.33479305 0.16691878 0.06256172
0.34987044 0.16691878 0.06256172
0.36530406 0.16691878 0.06256172
0.38108786 0.16691878 0.06256172
0.39721360 0.16691878 0.06256172
0.41367109 0.16691878 0.06256172
0.43044842 0.16691878 0.06256172
0.44753214 0.16691878 0.06256172
0.46490748 0.16691878 0.06256172
0.48255847 0.16691878 0.06256172
0.50046815 0.16691878 0.06256172
0.51861870 0.16691878 0.06256172
0.06256172 0.17889082 0.06256172
0.06256172 0.17889082 0.06256172
0.06256172 0.17889082 0.06256172
0.06956138 0.17889082 0.06256172
0.10873003 0.17889082 0.06256172
0.12692646 0.17889082 0.06256172
0.14151970 0.17889082 0.06256172
0.15459116 0.17889082 0.06256172
0.16691878 0.17889082 0.06256172
0.17889082 0.17889082 0.06256172
0.19073337 0.17889082 0.06256172
0.20259144 0.17889082 0.06256172
0.21456423 0.17889082 0.06256172
0.22672261 0.17889082 0.06256172
0.23911861 0.17889082 0.06256172
0.25179103 0.17889082 0.06256172
0.26476882 0.17889082 0.06256172
0.27807332 0.17889082 0.06256172
0.29171981 0.17889082 0.06256172
0.30571852 0.17889082 0.06256172
0.32007548 0.17889082 0.06256172
0.33479305 0.17889082 0.06256172
0.34987044 0.17889082 0.06256172
0.36530406 0.17889082 0.06256172
0.38108786 0.17889082 0.06256172
0.39721360 0.17889082 0.06256172
0.41367109 0.17889082 0.06256172
0.43044842 0.17889082 0.06256172
0.44753214 0.17889082 0.06256172
0.46490748 0.17889082 0.06256172
0.48255847 0.17889082 0.06256172
0.50046815 0.17889082 0.06256172
0.51861870 0.17889082 0.06256172
0.06256172 0.19073337 0.06256172
0.06256172 0.19073337 0.06256172
0.06256172 0.19073337 0.06256172
0.06956138 0.19073337 0.06256172
0.10873003 0.19073337 0.06256172
0.12692646 0.19073337 0.06256172
0.14151970 0.19073337 0.06256172
0.15459116 0.19073337 0.06256172
0.16691878 0.19073337 0.06256172
0.17889082 0.19073337 0.06256172
0.19073337 0.19073337 0.06256172
0.20259144 0.19073337 0.06256172
0.21456423 0.19073337 0.06256172
0.22672261 0.19073337 0.06256172
0.23911861 0.19073337 0.06256172
0.25179103 0.19073337 0.06256172
0.26476882 0.19073337 0.06256172
0.27807332 0.19073337 0.06256172
0.29171981 0.19073337 0.06256172
0.30571852 0.19073337 0.06256172
0.32007548 0.19073337 0.06256172
0.33479305 0.19073337 0.06256172
0.34987044 0.19073337 0.06256172
0.36530406 0.19073337 0.06256172
0.38108786 0.19073337 0.06256172
0.39721360 0.19073337 0.06256172
0.41367109 0.19073337 0.06256172
0.43044842 0.19073337 0.06256172
0.44753214 0.19073337 0.06256172
0.46490748 0.19073337 0.06256172
0.48255847 0.19073337 0.06256172
0.50046815 0.19073337 0.06256172
0.51861870 0.19073337 0.06256172
0.06256172 0.20259144 0.06256172
0.06256172 0.20259144 0.06256172
0.06256172 0.20259144 0.06256172
0.06956138 0.20259144 0.06256172
0.10873003 0.20259144 0.06256172
0.12692646 0.20259144 0.06256172
0.14151970 0.20259144 0.06256172
0.15459116 0.20259144 0.06256172
0.16691878 0.20259144 0.06256172
0.17889082 0.20259144 0.06256172
0.19073337 0.20259144 0.06256172
0.20259144 0.20259144 0.06256172
0.21456423 0.20259144 0.06256172
0.22672261 0.20259144 0.06256172
0.23911861 0.20259144 0.06256172
0.25179103 0.20259144 0.06256172
0.26476882 0.20259144 0.06256172
0.27807332 0.20259144 0.06256172
0.29171981 0.20259144 0.06256172
0.30571852 0.20259144 0.06256172
0.32007548 0.20259144 0.06256172
0.33479305 0.20259144 0.06256172
0.34987044 0.20259144 0.06256172
0.36530406 0.20259144 0.06256172
0.38108786 0.20259144 0.06256172
0.39721360 0.20259144 0.06256172
0.41367109 0.20259144 0.06256172
0.43044842 0.20259144 0.06256172
0.44753214 0.20259144 0.06256172
0.46490748 0.20259144 0.06256172
0.48255847 0.20259144 0.06256172
0.50046815 0.20259144 0.06256172
0.51861870 0.20259144 0.06256172
0.06256172 0.21456423 0.06256172
0.06256172 0.21456423 0.06256172
0.06256172 0.21456423 0.06256172
0.06956138 0.21456423 0.06256172
0.10873003 0.21456423 0.06256172
0.12692646 0.21456423 0.06256172
0.14151970 0.21456423 0.06256172
0.15459116 0.21456423 0.06256172
0.16691878 0.21456423 0.06256172
0.17889082 0.21456423 0.06256172
0.19073337 0.21456423 0.06256172
0.20259144 0.21456423 0.06256172
0.21456423 0.21456423 0.06256172
0.22672261 0.21456423 0.06256172
0.23911861 0.21456423 0.06256172
0.25179103 0.21456423 0.06256172
0.26476882 0.21456423 0.06256172
0.27807332 0.21456423 0.06256172
0.29171981 0.21456423 0.06256172
0.30571852 0.21456423 0.06256172
0.32007548 0.21456423 0.06256172
0.33479305 0.21456423 0.06256172
0.34987044 0.21456423 0.06256172
0.36530406 0.21456423 0.06256172
0.38108786 0.21456423 0.06256172
0.39721360 0.21456423 0.06256172
0.41367109 0.21456423 0.06256172
0.43044842 0.21456423 0.06256172
0.44753214 0.21456423 0.06256172
0.46490748 0.21456423 0.06256172
0.48255847 0.21456423 0.06256172
0.50046815 0.21456423 0.06256172
0.51861870 0.21456423 0.06256172
0.06256172 0.22672261 0.06256172
0.06256172 0.22672261 0.06256172
0.06256172 0.22672261 0.06256172
0.06956138 0.22672261 0.06256172
0.10873003 0.22672261 0.06256172
0.12692646 0.22672261 0.06256172
0.14151970 0.22672261 0.06256172
0.15459116 0.22672261 0.06256172
0.16691878 0.22672261 0.06256172
0.17889082 0.22672261 0.06256172
0.19073337 0.22672261 0.06256172
0.20259144 0.22672261 0.06256172
0.21456423 0.22672261 0.06256172
0.22672261 0.22672261 0.06256172
0.23911861 0.22672261 0.06256172
0.25179103 0.22672261 0.06256172
0.26476882 0.22672261 0.06256172
0.27807332 0.22672261 0.06256172
0.29171981 0.22672261 0.06256172
0.30571852 0.22672261 0.06256172
0.32007548 0.22672261 0.06256172
0.33479305 0.22672261 0.06256172
0.34987044 0.22672261 0.06256172
0.36530406 0.22672261 0.06256172
0.38108786 0.22672261 0.06256172
0.39721360 0.22672261 0.06256172
0.41367109 0.22672261 0.06256172
0.43044842 0.22672261 0.06256172
0.44753214 0.22672261 0.06256172
0.46490748 0.22672261 0.06256172
0.48255847 0.22672261 0.06256172
0.50046815 0.22672261 0.06256172
0.51861870 0.22672261 0.06256172
0.06256172 0.23911861 0.06256172
0.06256172 0.23911861 0.06256172
0.06256172 0.23911861 0.06256172
0.06956138 0.23911861 0.06256172
0.10873003 0.23911861 0.06256172
0.12692646 0.23911861 0.06256172
0.14151970 0.23911861 0.06256172
0.15459116 0.23911861 0.06256172
0.16691878 0.23911861 0.06256172
0.17889082 0.23911861 0.06256172
0.19073337 0.23911861 0.06256172
0.20259144 0.23911861 0.06256172
0.21456423 0.23911861 0.06256172
0.22672261 0.23911861 0.06256172
0.23911861 0.23911861 0.06256172
0.25179103 0.23911861 0.06256172
0.26476882 0.23911861 0.06256172
0.27807332 0.23911861 0.06256172
0.29171981 0.23911861 0.06256172
0.30571852 0.23911861 0.06256172
0.32007548 0.23911861 0.06256172
0.33479305 0.23911861 0.06256172
0.34987044 0.23911861 0.06256172
0.36530406 0.23911861 0.06256172
0.38108786 0.23911861 0.06256172
0.39721360 0.23911861 0.06256172
0.41367109 0.23911861 0.06256172
0.43044842 0.23911861 0.06256172
0.44753214 0.23911861 0.06256172
0.46490748 0.23911861 0.06256172
0.48255847 0.23911861 0.06256172
0.50046815 0.23911861 0.06256172
0.51861870 0.23911861 0.06256172
0.06256172 0.25179103 0.06256172
0.06256172 0.25179103 0.06256172
0.06256172 0.25179103 0.06256172
0.06956138 0.25179103 0.06256172
0.10873003 0.25179103 0.06256172
0.12692646 0.25179103 0.06256172
0.14151970 0.25179103 0.06256172
0.15459116 0.25179103 0.06256172
0.16691878 0.25179103 0.06256172
0.17889082 0.25179103 0.06256172
0.19073337 0.25179103 0.06256172
0.20259144 0.25179103 0.06256172
0.21456423 0.25179103 0.06256172
0.22672261 0.25179103 0.06256172
0.23911861 0.25179103 0.06256172
0.25179103 0.25179103 0.06256172
0.26476882 0.25179103 0.06256172
0.27807332 0.25179103 0.06256172
0.29171981 0.25179103 0.06256172
0.30571852 0.25179103 0.06256172
0.32007548 0.25179103 0.06256172
0.33479305 0.25179103 0.06256172
0.34987044 0.25179103 0.06256172
0.36530406 0.25179103 0.06256172
0.38108786 0.25179103 0.06256172
0.39721360 0.25179103 0.06256172
0.41367109 0.25179103 0.06256172
0.43044842 0.25179103 0.06256172
0.44753214 0.25179103 0.06256172
0.46490748 0.25179103 0.06256172
0.48255847 0.25179103 0.06256172
0.50046815 0.25179103 0.06256172
0.51861870 0.25179103 0.06256172
0.06256172 0.26476882 0.06256172
0.06256172 0.26476882 0.06256172
0.06256172 0.26476882 0.06256172
0.06956138 0.26476882 0.06256172
0.10873003 0.26476882 0.06256172
0.12692646 0.26476882 0.06256172
0.14151970 0.26476882 0.06256172
0.15459116 0.26476882 0.06256172
0.16691878 0.26476882 0.06256172
0.17889082 0.26476882 0.06256172
0.19073337 0.26476882 0.06256172
0.20259144 0.26476882 0.06256172
0.21456423 0.26476882 0.06256172
0.22672261 0.26476882 0.06256172
0.23911861 0.26476882 0.06256172
0.25179103 0.26476882 0.06256172
0.26476882 0.26476882 0.06256172
0.27807332 0.26476882 0.06256172
0.29171981 0.26476882 0.06256172
0.30571852 0.26476882 0.06256172
0.32007548 0.26476882 0.06256172
0.33479305 0.26476882 0.06256172
0.34987044 0.26476882 0.06256172
0.36530406 0.26476882 0.06256172
0.38108786 0.26476882 0.06256172
0.39721360 0.26476882 0.06256172
0.41367109 0.26476882 0.06256172
0.43044842 0.26476882 0.06256172
0.44753214 0.26476882 0.06256172
0.46490748 0.26476882 0.06256172
0.48255847 0.26476882 0.06256172
0.50046815 0.26476882 0.06256172
0.51861870 0.26476882 0.06256172
0.06256172 0.27807332 0.06256172
0.06256172 0.27807332 0.06256172
0.06256172 0.27807332 0.06256172
0.06956138 0.27807332 0.06256172
0.10873003 0.27807332 0.06256172
0.12692646 0.27807332 0.06256172
0.14151970 0.27807332 0.06256172
0.15459116 0.27807332 0.06256172
0.16691878 0.27807332 0.06256172
0.17889082 0.27807332 0.06256172
0.19073337 0.27807332 0.06256172
0.20259144 0.27807332 0.06256172
0.21456423 0.27807332 0.06256172
0.22672261 0.27807332 0.06256172
0.23911861 0.27807332 0.06256172
0.25179103 0.27807332 0.06256172
0.26476882 0.27807332 0.06256172
0.27807332 0.27807332 0.06256172
0.29171981 0.27807332 0.06256172
0.30571852 0.27807332 0.06256172
0.32007548 0.27807332 0.06256172
0.33479305 0.27807332 0.06256172
0.34987044 0.27807332 0.06256172
0.36530406 0.27807332 0.06256172
0.38108786 0.27807332 0.06256172
0.39721360 0.27807332 0.06256172
0.41367109 0.27807332 0.06256172
0.43044842 0.27807332 0.06256172
0.44753214 0.27807332 0.06256172
0.46490748 0.27807332 0.06256172
0.48255847 0.27807332 0.06256172
0.50046815 0.27807332 0.06256172
0.51861870 0.27807332 0.06256172
0.06256172 0.29171981 0.06256172
0.06256172 0.29171981 0.06256172
0.06256172 0.29171981 0.06256172
0.06956138 0.29171981 0.06256172
0.10873003 0.29171981 0.06256172
0.12692646 0.29171981 0.06256172
0.14151970 0.29171981 0.06256172
0.15459116 0.29171981 0.06256172
0.16691878 0.29171981 0.06256172
0.17889082 0.29171981 0.06256172
0.19073337 0.29171981 0.06256172
0.20259144 0.29171981 0.06256172
0.21456423 0.29171981 0.06256172
0.22672261 0.29171981 0.06256172
0.23911861 0.29171981 0.06256172
0.25179103 0.29171981 0.06256172
0.26476882 0.29171981 0.06256172
0.27807332 0.29171981 0.06256172
0.29171981 0.29171981 0.06256172
0.30571852 0.29171981 0.06256172
0.32007548 0.29171981 0.06256172
0.33479305 0.29171981 0.06256172
0.34987044 0.29171981 0.06256172
0.36530406 0.29171981 0.06256172
0.38108786 0.29171981 0.06256172
0.39721360 0.29171981 0.06256172
0.41367109 0.29171981 0.06256172
0.43044842 0.29171981 0.06256172
0.44753214 0.29171981 0.06256172
0.46490748 0.29171981 0.06256172
0.48255847 0.29171981 0.06256172
0.50046815 0.29171981 0.06256172
0.51861870 0.29171981 0.06256172
0.06256172 0.30571852 0.06256172
0.06256172 0.30571852 0.06256172
0.06256172 0.30571852 0.06256172
0.06956138 0.30571852 0.06256172
0.10873003 0.30571852 0.06256172
0.12692646 0.30571852 0.06256172
0.14151970 0.30571852 0.06256172
0.15459116 0.30571852 0.06256172
0.16691878 0.30571852 0.06256172
0.17889082 0.30571852 0.06256172
0.19073337 0.30571852 0.06256172
0.20259144 0.30571852 0.06256172
0.21456423 0.30571852 0.06256172
0.22672261 0.30571852 0.06256172
0.23911861 0.30571852 0.06256172
0.25179103 0.30571852 0.06256172
0.26476882 0.30571852 0.06256172
0.27807332 0.30571852 0.06256172
0.29171981 0.30571852 0.06256172
0.30571852 0.30571852 0.06256172
0.32007548 0.30571852 0.06256172
0.33479305 0.30571852 0.06256172
0.34987044 0.30571852 0.06256172
0.36530406 0.30571852 0.06256172
0.38108786 0.30571852 0.06256172
0.39721360 0.30571852 0.06256172
0.41367109 0.30571852 0.06256172
0.43044842 0.30571852 0.06256172
0.44753214 0.30571852 0.06256172
0.46490748 0.30571852 0.06256172
0.48255847 0.30571852 0.06256172
0.50046815 0.30571852 0.06256172
0.51861870 0.30571852 0.06256172
0.06256172 0.32007548 0.06256172
0.06256172 0.32007548 0.06256172
0.06256172 0.32007548 0.06256172
0.06956138 0.32007548 0.06256172
0.10873003 0.32007548 0.06256172
0.12692646 0.32007548 0.06256172
0.14151970 0.32007548 0.06256172
0.15459116 0.32007548 0.06256172
0.16691878 0.32007548 0.06256172
0.17889082 0.32007548 0.06256172
0.19073337 0.32007548 0.06256172
0.20259144 0.32007548 0.06256172
0.21456423 0.32007548 0.06256172
0.22672261 0.32007548 0.06256172
0.23911861 0.32007548 0.06256172
0.25179103 0.32007548 0.06256172
0.26476882 0.32007548 0.06256172
0.27807332 0.32007548 0.06256172
0.29171981 0.32007548 0.06256172
0.30571852 0.32007548 0.06256172
0.32007548 0.32007548 0.06256172
0.33479305 0.32007548 0.06256172
0.34987044 0.32007548 0.06256172
0.36530406 0.32007548 0.06256172
0.38108786 0.32007548 0.06256172
0.39721360 0.32007548 0.06256172
0.41367109 0.32007548 0.06256172
0.43044842 0.32007548 0.06256172
0.44753214 0.32007548 0.06256172
0.46490748 0.32007548 0.06256172
0.48255847 0.32007548 0.06256172
0.50046815 0.32007548 0.06256172
0.51861870 0.32007548 0.06256172
0.06256172 0.33479305 0.06256172
0.06256172 0.33479305 0.06256172
0.06256172 0.33479305 0.06256172
0.06956138 0.33479305 0.06256172
0.10873003 0.33479305 0.06256172
0.12692646 0.33479305 0.06256172
0.14151970 0.33479305 0.06256172
0.15459116 0.33479305 0.06256172
0.16691878 0.33479305 0.06256172
0.17889082 0.33479305 0.06256172
0.19073337 0.33479305 0.06256172
0.20259144 0.33479305 0.06256172
0.21456423 0.33479305 0.06256172
0.22672261 0.33479305 0.06256172
0.23911861 0.33479305 0.06256172
0.25179103 0.33479305 0.06256172
0.26476882 0.33479305 0.06256172
0.27807332 0.33479305 0.06256172
0.29171981 0.33479305 0.06256172
0.30571852 0.33479305 0.06256172
0.32007548 0.33479305 0.06256172
0.33479305 0.33479305 0.06256172
0.34987044 0.33479305 0.06256172
0.36530406 0.33479305 0.06256172
0.38108786 0.33479305 0.06256172
0.39721360 0.33479305 0.06256172
0.41367109 0.33479305 0.06256172
