src/ffmpeg_scripts/luts/flog-experimental_-1p33.cube
TITLE "flog-experimental_-1p33"
LUT_3D_SIZE 5
# Fujifilm F-Log/Rec2020 -> PQ (EOTF Only)/Rec2020, CineEI Shift -1.33, Black Level 0.00% IRE, Input 109% -> Output 100% - Created with LUTCalc v4.01 by Ben Turley October 2020
0.00000073 0.00000073 0.00000073
0.23219113 0.00000073 0.00000073
0.42217904 0.00000073 0.00000073
0.63386917 0.00000073 0.00000073
0.87166008 0.00000073 0.00000073
0.00000073 0.23219113 0.00000073
0.23219113 0.23219113 0.00000073
0.42217904 0.23219113 0.00000073
0.63386917 0.23219113 0.00000073
0.87166008 0.23219113 0.00000073
0.00000073 0.42217904 0.00000073
0.23219113 0.42217904 0.00000073
0.42217904 0.42217904 0.00000073
0.63386917 0.42217904 0.00000073
0.87166008 0.42217904 0.00000073
0.00000073 0.63386917 0.00000073
0.23219113 0.63386917 0.00000073
0.42217904 0.63386917 0.00000073
0.63386917 0.63386917 0.00000073
0.87166008 0.63386917 0.00000073
0.00000073 0.87166008 0.00000073
0.23219113 0.87166008 0.00000073
0.42217904 0.87166008 0.00000073
0.63386917 0.87166008 0.00000073
0.87166008 0.87166008 0.00000073
0.00000073 0.00000073 0.23219113
0.23219113 0.00000073 0.23219113
0.42217904 0.00000073 0.23219113
0.63386917 0.00000073 0.23219113
0.87166008 0.00000073 0.23219113
0.00000073 0.23219113 0.23219113
0.23219113 0.23219113 0.23219113
0.42217904 0.23219113 0.23219113
0.63386917 0.23219113 0.23219113
0.87166008 0.23219113 0.23219113
0.00000073 0.42217904 0.23219113
0.23219113 0.42217904 0.23219113
0.42217904 0.42217904 0.23219113
0.63386917 0.42217904 0.23219113
0.87166008 0.42217904 0.23219113
0.00000073 0.63386917 0.23219113
0.23219113 0.63386917 0.23219113
0.42217904 0.63386917 0.23219113
0.63386917 0.63386917 0.23219113
0.87166008 0.63386917 0.23219113
0.00000073 0.87166008 0.23219113
0.23219113 0.87166008 0.23219113
0.42217904 0.87166008 0.23219113
0.63386917 0.87166008 0.23219113
0.87166008 0.87166008 0.23219113
0.00000073 0.00000073 0.42217904
0.23219113 0.00000073 0.42217904
0.42217904 0.00000073 0.42217904
0.63386917 0.00000073 0.42217904
0.87166008 0.00000073 0.42217904
0.00000073 0.23219113 0.42217904
0.23219113 0.23219113 0.42217904
0.42217904 0.23219113 0.42217904
0.63386917 0.23219113 0.42217904
0.87166008 0.23219113 0.42217904
0.00000073 0.42217904 0.42217904
0.23219113 0.42217904 0.42217904
0.42217904 0.42217904 0.42217904
0.63386917 0.42217904 0.42217904
0.87166008 0.42217904 0.42217904
0.00000073 0.63386917 0.42217904
0.23219113 0.63386917 0.42217904
0.42217904 0.63386917 0.42217904
0.63386917 0.63386917 0.42217904
0.87166008 0.63386917 0.42217904
0.00000073 0.87166008 0.42217904
0.23219113 0.87166008 0.42217904
0.42217904 0.87166008 0.42217904
0.63386917 0.87166008 0.42217904
0.87166008 0.87166008 0.42217904
0.00000073 0.00000073 0.63386917
0.23219113 0.00000073 0.63386917
0.42217904 0.00000073 0.63386917
0.63386917 0.00000073 0.63386917
0.87166008 0.00000073 0.63386917
0.00000073 0.23219113 0.63386917
0.23219113 0.23219113 0.63386917
0.42217904 0.23219113 0.63386917
0.63386917 0.23219113 0.63386917
0.87166008 0.23219113 0.63386917
0.00000073 0.42217904 0.63386917
0.23219113 0.42217904 0.63386917
0.42217904 0.42217904 0.63386917
0.63386917 0.42217904 0.63386917
0.87166008 0.42217904 0.63386917
0.00000073 0.63386917 0.63386917
0.23219113 0.63386917 0.63386917
0.42217904 0.63386917 0.63386917
0.63386917 0.63386917 0.63386917
0.87166008 0.63386917 0.63386917
0.00000073 0.87166008 0.63386917
0.23219113 0.87166008 0.63386917
0.42217904 0.87166008 0.63386917
0.63386917 0.87166008 0.63386917
0.87166008 0.87166008 0.63386917
0.00000073 0.00000073 0.87166008
0.23219113 0.00000073 0.87166008
0.42217904 0.00000073 0.87166008
0.63386917 0.00000073 0.87166008
0.87166008 0.00000073 0.87166008
0.00000073 0.23219113 0.87166008
0.23219113 0.23219113 0.87166008
0.42217904 0.23219113 0.87166008
0.63386917 0.23219113 0.87166008
0.87166008 0.23219113 0.87166008
0.00000073 0.42217904 0.87166008
0.23219113 0.42217904 0.87166008
0.42217904 0.42217904 0.87166008
0.63386917 0.42217904 0.87166008
0.87166008 0.42217904 0.87166008
0.00000073 0.63386917 0.87166008
0.23219113 0.63386917 0.87166008
0.42217904 0.63386917 0.87166008
0.63386917 0.63386917 0.87166008
0.87166008 0.63386917 0.87166008
0.00000073 0.87166008 0.87166008
0.23219113 0.87166008 0.87166008
0.42217904 0.87166008 0.87166008
0.63386917 0.87166008 0.87166008
0.87166008 0.87166008 0.87166008
