src/ffmpeg_scripts/luts/flog-smpte2084_3p33.cube
TITLE "flog-smpte2084_3p33"
LUT_3D_SIZE 33
# Fujifilm F-Log/Rec2020 -> PQ (EOTF Only)/Rec2020, CineEI Shift 3.33, Black Level 0.00% IRE, Input 109% -> Output 109% - Created with LUTCalc v4.01 by Ben Turley October 2020
0.06256172 0.06256172 0.06256172
0.06256172 0.06256172 0.06256172
0.06256172 0.06256172 0.06256172
0.11643951 0.06256172 0.06256172
0.26928936 0.06256172 0.06256172
0.31954592 0.06256172 0.06256172
0.35558046 0.06256172 0.06256172
0.38545966 0.06256172 0.06256172
0.41196124 0.06256172 0.06256172
0.43638763 0.06256172 0.06256172
0.45945509 0.06256172 0.06256172
0.48159781 0.06256172 0.06256172
0.50309630 0.06256172 0.06256172
0.52413965 0.06256172 0.06256172
0.54485886 0.06256172 0.06256172
0.56534609 0.06256172 0.06256172
0.58566647 0.06256172 0.06256172
0.60586573 0.06256172 0.06256172
0.62597529 0.06256172 0.06256172
0.64601587 0.06256172 0.06256172
0.66600001 0.06256172 0.06256172
0.68593399 0.06256172 0.06256172
0.70581926 0.06256172 0.06256172
0.72565355 0.06256172 0.06256172
0.74543170 0.06256172 0.06256172
0.76514639 0.06256172 0.06256172
0.78478866 0.06256172 0.06256172
0.80434835 0.06256172 0.06256172
0.82381447 0.06256172 0.06256172
0.84317551 0.06256172 0.06256172
0.86241965 0.06256172 0.06256172
0.88153496 0.06256172 0.06256172
0.90050961 0.06256172 0.06256172
0.06256172 0.06256172 0.06256172
0.06256172 0.06256172 0.06256172
0.06256172 0.06256172 0.06256172
0.11643951 0.06256172 0.06256172
0.26928936 0.06256172 0.06256172
0.31954592 0.06256172 0.06256172
0.35558046 0.06256172 0.06256172
0.38545966 0.06256172 0.06256172
0.41196124 0.06256172 0.06256172
0.43638763 0.06256172 0.06256172
0.45945509 0.06256172 0.06256172
0.48159781 0.06256172 0.06256172
0.50309630 0.06256172 0.06256172
0.52413965 0.06256172 0.06256172
0.54485886 0.06256172 0.06256172
0.56534609 0.06256172 0.06256172
0.58566647 0.06256172 0.06256172
0.60586573 0.06256172 0.06256172
0.62597529 0.06256172 0.06256172
0.64601587 0.06256172 0.06256172
0.66600001 0.06256172 0.06256172
0.68593399 0.06256172 0.06256172
0.70581926 0.06256172 0.06256172
0.72565355 0.06256172 0.06256172
0.74543170 0.06256172 0.06256172
0.76514639 0.06256172 0.06256172
0.78478866 0.06256172 0.06256172
0.80434835 0.06256172 0.06256172
0.82381447 0.06256172 0.06256172
0.84317551 0.06256172 0.06256172
0.86241965 0.06256172 0.06256172
0.88153496 0.06256172 0.06256172
0.90050961 0.06256172 0.06256172
0.06256172 0.06256172 0.06256172
0.06256172 0.06256172 0.06256172
0.06256172 0.06256172 0.06256172
0.11643951 0.06256172 0.06256172
0.26928936 0.06256172 0.06256172
0.31954592 0.06256172 0.06256172
0.35558046 0.06256172 0.06256172
0.38545966 0.06256172 0.06256172
0.41196124 0.06256172 0.06256172
0.43638763 0.06256172 0.06256172
0.45945509 0.06256172 0.06256172
0.48159781 0.06256172 0.06256172
0.50309630 0.06256172 0.06256172
0.52413965 0.06256172 0.06256172
0.54485886 0.06256172 0.06256172
0.56534609 0.06256172 0.06256172
0.58566647 0.06256172 0.06256172
0.60586573 0.06256172 0.06256172
0.62597529 0.06256172 0.06256172
0.64601587 0.06256172 0.06256172
0.66600001 0.06256172 0.06256172
0.68593399 0.06256172 0.06256172
0.70581926 0.06256172 0.06256172
0.72565355 0.06256172 0.06256172
0.74543170 0.06256172 0.06256172
0.76514639 0.06256172 0.06256172
0.78478866 0.06256172 0.06256172
0.80434835 0.06256172 0.06256172
0.82381447 0.06256172 0.06256172
0.84317551 0.06256172 0.06256172
0.86241965 0.06256172 0.06256172
0.88153496 0.06256172 0.06256172
0.90050961 0.06256172 0.06256172
0.06256172 0.11643951 0.06256172
0.06256172 0.11643951 0.06256172
0.06256172 0.11643951 0.06256172
0.11643951 0.11643951 0.06256172
0.26928936 0.11643951 0.06256172
0.31954592 0.11643951 0.06256172
0.35558046 0.11643951 0.06256172
0.38545966 0.11643951 0.06256172
0.41196124 0.11643951 0.06256172
0.43638763 0.11643951 0.06256172
0.45945509 0.11643951 0.06256172
0.48159781 0.11643951 0.06256172
0.50309630 0.11643951 0.06256172
0.52413965 0.11643951 0.06256172
0.54485886 0.11643951 0.06256172
0.56534609 0.11643951 0.06256172
0.58566647 0.11643951 0.06256172
0.60586573 0.11643951 0.06256172
0.62597529 0.11643951 0.06256172
0.64601587 0.11643951 0.06256172
0.66600001 0.11643951 0.06256172
0.68593399 0.11643951 0.06256172
0.70581926 0.11643951 0.06256172
0.72565355 0.11643951 0.06256172
0.74543170 0.11643951 0.06256172
0.76514639 0.11643951 0.06256172
0.78478866 0.11643951 0.06256172
0.80434835 0.11643951 0.06256172
0.82381447 0.11643951 0.06256172
0.84317551 0.11643951 0.06256172
0.86241965 0.11643951 0.06256172
0.88153496 0.11643951 0.06256172
0.90050961 0.11643951 0.06256172
0.06256172 0.26928936 0.06256172
0.06256172 0.26928936 0.06256172
0.06256172 0.26928936 0.06256172
0.11643951 0.26928936 0.06256172
0.26928936 0.26928936 0.06256172
0.31954592 0.26928936 0.06256172
0.35558046 0.26928936 0.06256172
0.38545966 0.26928936 0.06256172
0.41196124 0.26928936 0.06256172
0.43638763 0.26928936 0.06256172
0.45945509 0.26928936 0.06256172
0.48159781 0.26928936 0.06256172
0.50309630 0.26928936 0.06256172
0.52413965 0.26928936 0.06256172
0.54485886 0.26928936 0.06256172
0.56534609 0.26928936 0.06256172
0.58566647 0.26928936 0.06256172
0.60586573 0.26928936 0.06256172
0.62597529 0.26928936 0.06256172
0.64601587 0.26928936 0.06256172
0.66600001 0.26928936 0.06256172
0.68593399 0.26928936 0.06256172
0.70581926 0.26928936 0.06256172
0.72565355 0.26928936 0.06256172
0.74543170 0.26928936 0.06256172
0.76514639 0.26928936 0.06256172
0.78478866 0.26928936 0.06256172
0.80434835 0.26928936 0.06256172
0.82381447 0.26928936 0.06256172
0.84317551 0.26928936 0.06256172
0.86241965 0.26928936 0.06256172
0.88153496 0.26928936 0.06256172
0.90050961 0.26928936 0.06256172
0.06256172 0.31954592 0.06256172
0.06256172 0.31954592 0.06256172
0.06256172 0.31954592 0.06256172
0.11643951 0.31954592 0.06256172
0.26928936 0.31954592 0.06256172
0.31954592 0.31954592 0.06256172
0.35558046 0.31954592 0.06256172
0.38545966 0.31954592 0.06256172
0.41196124 0.31954592 0.06256172
0.43638763 0.31954592 0.06256172
0.45945509 0.31954592 0.06256172
0.48159781 0.31954592 0.06256172
0.50309630 0.31954592 0.06256172
0.52413965 0.31954592 0.06256172
0.54485886 0.31954592 0.06256172
0.56534609 0.31954592 0.06256172
0.58566647 0.31954592 0.06256172
0.60586573 0.31954592 0.06256172
0.62597529 0.31954592 0.06256172
0.64601587 0.31954592 0.06256172
0.66600001 0.31954592 0.06256172
0.68593399 0.31954592 0.06256172
0.70581926 0.31954592 0.06256172
0.72565355 0.31954592 0.06256172
0.74543170 0.31954592 0.06256172
0.76514639 0.31954592 0.06256172
0.78478866 0.31954592 0.06256172
0.80434835 0.31954592 0.06256172
0.82381447 0.31954592 0.06256172
0.84317551 0.31954592 0.06256172
0.86241965 0.31954592 0.06256172
0.88153496 0.31954592 0.06256172
0.90050961 0.31954592 0.06256172
0.06256172 0.35558046 0.06256172
0.06256172 0.35558046 0.06256172
0.06256172 0.35558046 0.06256172
0.11643951 0.35558046 0.06256172
0.26928936 0.35558046 0.06256172
0.31954592 0.35558046 0.06256172
0.35558046 0.35558046 0.06256172
0.38545966 0.35558046 0.06256172
0.41196124 0.35558046 0.06256172
0.43638763 0.35558046 0.06256172
0.45945509 0.35558046 0.06256172
0.48159781 0.35558046 0.06256172
0.50309630 0.35558046 0.06256172
0.52413965 0.35558046 0.06256172
0.54485886 0.35558046 0.06256172
0.56534609 0.35558046 0.06256172
0.58566647 0.35558046 0.06256172
0.60586573 0.35558046 0.06256172
0.62597529 0.35558046 0.06256172
0.64601587 0.35558046 0.06256172
0.66600001 0.35558046 0.06256172
0.68593399 0.35558046 0.06256172
0.70581926 0.35558046 0.06256172
0.72565355 0.35558046 0.06256172
0.74543170 0.35558046 0.06256172
0.76514639 0.35558046 0.06256172
0.78478866 0.35558046 0.06256172
0.80434835 0.35558046 0.06256172
0.82381447 0.35558046 0.06256172
0.84317551 0.35558046 0.06256172
0.86241965 0.35558046 0.06256172
0.88153496 0.35558046 0.06256172
0.90050961 0.35558046 0.06256172
0.06256172 0.38545966 0.06256172
0.06256172 0.38545966 0.06256172
0.06256172 0.38545966 0.06256172
0.11643951 0.38545966 0.06256172
0.26928936 0.38545966 0.06256172
0.31954592 0.38545966 0.06256172
0.35558046 0.38545966 0.06256172
0.38545966 0.38545966 0.06256172
0.41196124 0.38545966 0.06256172
0.43638763 0.38545966 0.06256172
0.45945509 0.38545966 0.06256172
0.48159781 0.38545966 0.06256172
0.50309630 0.38545966 0.06256172
0.52413965 0.38545966 0.06256172
0.54485886 0.38545966 0.06256172
0.56534609 0.38545966 0.06256172
0.58566647 0.38545966 0.06256172
0.60586573 0.38545966 0.06256172
0.62597529 0.38545966 0.06256172
0.64601587 0.38545966 0.06256172
0.66600001 0.38545966 0.06256172
0.68593399 0.38545966 0.06256172
0.70581926 0.38545966 0.06256172
0.72565355 0.38545966 0.06256172
0.74543170 0.38545966 0.06256172
0.76514639 0.38545966 0.06256172
0.78478866 0.38545966 0.06256172
0.80434835 0.38545966 0.06256172
0.82381447 0.38545966 0.06256172
0.84317551 0.38545966 0.06256172
0.86241965 0.38545966 0.06256172
0.88153496 0.38545966 0.06256172
0.90050961 0.38545966 0.06256172
0.06256172 0.41196124 0.06256172
0.06256172 0.41196124 0.06256172
0.06256172 0.41196124 0.06256172
0.11643951 0.41196124 0.06256172
0.26928936 0.41196124 0.06256172
0.31954592 0.41196124 0.06256172
0.35558046 0.41196124 0.06256172
0.38545966 0.41196124 0.06256172
0.41196124 0.41196124 0.06256172
0.43638763 0.41196124 0.06256172
0.45945509 0.41196124 0.06256172
0.48159781 0.41196124 0.06256172
0.50309630 0.41196124 0.06256172
0.52413965 0.41196124 0.06256172
0.54485886 0.41196124 0.06256172
0.56534609 0.41196124 0.06256172
0.58566647 0.41196124 0.06256172
0.60586573 0.41196124 0.06256172
0.62597529 0.41196124 0.06256172
0.64601587 0.41196124 0.06256172
0.66600001 0.41196124 0.06256172
0.68593399 0.41196124 0.06256172
0.70581926 0.41196124 0.06256172
0.72565355 0.41196124 0.06256172
0.74543170 0.41196124 0.06256172
0.76514639 0.41196124 0.06256172
0.78478866 0.41196124 0.06256172
0.80434835 0.41196124 0.06256172
0.82381447 0.41196124 0.06256172
0.84317551 0.41196124 0.06256172
0.86241965 0.41196124 0.06256172
0.88153496 0.41196124 0.06256172
0.90050961 0.41196124 0.06256172
0.06256172 0.43638763 0.06256172
0.06256172 0.43638763 0.06256172
0.06256172 0.43638763 0.06256172
0.11643951 0.43638763 0.06256172
0.26928936 0.43638763 0.06256172
0.31954592 0.43638763 0.06256172
0.35558046 0.43638763 0.06256172
0.38545966 0.43638763 0.06256172
0.41196124 0.43638763 0.06256172
0.43638763 0.43638763 0.06256172
0.45945509 0.43638763 0.06256172
0.48159781 0.43638763 0.06256172
0.50309630 0.43638763 0.06256172
0.52413965 0.43638763 0.06256172
0.54485886 0.43638763 0.06256172
0.56534609 0.43638763 0.06256172
0.58566647 0.43638763 0.06256172
0.60586573 0.43638763 0.06256172
0.62597529 0.43638763 0.06256172
0.64601587 0.43638763 0.06256172
0.66600001 0.43638763 0.06256172
0.68593399 0.43638763 0.06256172
0.70581926 0.43638763 0.06256172
0.72565355 0.43638763 0.06256172
0.74543170 0.43638763 0.06256172
0.76514639 0.43638763 0.06256172
0.78478866 0.43638763 0.06256172
0.80434835 0.43638763 0.06256172
0.82381447 0.43638763 0.06256172
0.84317551 0.43638763 0.06256172
0.86241965 0.43638763 0.06256172
0.88153496 0.43638763 0.06256172
0.90050961 0.43638763 0.06256172
0.06256172 0.45945509 0.06256172
0.06256172 0.45945509 0.06256172
0.06256172 0.45945509 0.06256172
0.11643951 0.45945509 0.06256172
0.26928936 0.45945509 0.06256172
0.31954592 0.45945509 0.06256172
0.35558046 0.45945509 0.06256172
0.38545966 0.45945509 0.06256172
0.41196124 0.45945509 0.06256172
0.43638763 0.45945509 0.06256172
0.45945509 0.45945509 0.06256172
0.48159781 0.45945509 0.06256172
0.50309630 0.45945509 0.06256172
0.52413965 0.45945509 0.06256172
0.54485886 0.45945509 0.06256172
0.56534609 0.45945509 0.06256172
0.58566647 0.45945509 0.06256172
0.60586573 0.45945509 0.06256172
0.62597529 0.45945509 0.06256172
0.64601587 0.45945509 0.06256172
0.66600001 0.45945509 0.06256172
0.68593399 0.45945509 0.06256172
0.70581926 0.45945509 0.06256172
0.72565355 0.45945509 0.06256172
0.74543170 0.45945509 0.06256172
0.76514639 0.45945509 0.06256172
0.78478866 0.45945509 0.06256172
0.80434835 0.45945509 0.06256172
0.82381447 0.45945509 0.06256172
0.84317551 0.45945509 0.06256172
0.86241965 0.45945509 0.06256172
0.88153496 0.45945509 0.06256172
0.90050961 0.45945509 0.06256172
0.06256172 0.48159781 0.06256172
0.06256172 0.48159781 0.06256172
0.06256172 0.48159781 0.06256172
0.11643951 0.48159781 0.06256172
0.26928936 0.48159781 0.06256172
0.31954592 0.48159781 0.06256172
0.35558046 0.48159781 0.06256172
0.38545966 0.48159781 0.06256172
0.41196124 0.48159781 0.06256172
0.43638763 0.48159781 0.06256172
0.45945509 0.48159781 0.06256172
0.48159781 0.48159781 0.06256172
0.50309630 0.48159781 0.06256172
0.52413965 0.48159781 0.06256172
0.54485886 0.48159781 0.06256172
0.56534609 0.48159781 0.06256172
0.58566647 0.48159781 0.06256172
0.60586573 0.48159781 0.06256172
0.62597529 0.48159781 0.06256172
0.64601587 0.48159781 0.06256172
0.66600001 0.48159781 0.06256172
0.68593399 0.48159781 0.06256172
0.70581926 0.48159781 0.06256172
0.72565355 0.48159781 0.06256172
0.74543170 0.48159781 0.06256172
0.76514639 0.48159781 0.06256172
0.78478866 0.48159781 0.06256172
0.80434835 0.48159781 0.06256172
0.82381447 0.48159781 0.06256172
0.84317551 0.48159781 0.06256172
0.86241965 0.48159781 0.06256172
0.88153496 0.48159781 0.06256172
0.90050961 0.48159781 0.06256172
0.06256172 0.50309630 0.06256172
0.06256172 0.50309630 0.06256172
0.06256172 0.50309630 0.06256172
0.11643951 0.50309630 0.06256172
0.26928936 0.50309630 0.06256172
0.31954592 0.50309630 0.06256172
0.35558046 0.50309630 0.06256172
0.38545966 0.50309630 0.06256172
0.41196124 0.50309630 0.06256172
0.43638763 0.50309630 0.06256172
0.45945509 0.50309630 0.06256172
0.48159781 0.50309630 0.06256172
0.50309630 0.50309630 0.06256172
0.52413965 0.50309630 0.06256172
0.54485886 0.50309630 0.06256172
0.56534609 0.50309630 0.06256172
0.58566647 0.50309630 0.06256172
0.60586573 0.50309630 0.06256172
0.62597529 0.50309630 0.06256172
0.64601587 0.50309630 0.06256172
0.66600001 0.50309630 0.06256172
0.68593399 0.50309630 0.06256172
0.70581926 0.50309630 0.06256172
0.72565355 0.50309630 0.06256172
0.74543170 0.50309630 0.06256172
0.76514639 0.50309630 0.06256172
0.78478866 0.50309630 0.06256172
0.80434835 0.50309630 0.06256172
0.82381447 0.50309630 0.06256172
0.84317551 0.50309630 0.06256172
0.86241965 0.50309630 0.06256172
0.88153496 0.50309630 0.06256172
0.90050961 0.50309630 0.06256172
0.06256172 0.52413965 0.06256172
0.06256172 0.52413965 0.06256172
0.06256172 0.52413965 0.06256172
0.11643951 0.52413965 0.06256172
0.26928936 0.52413965 0.06256172
0.31954592 0.52413965 0.06256172
0.35558046 0.52413965 0.06256172
0.38545966 0.52413965 0.06256172
0.41196124 0.52413965 0.06256172
0.43638763 0.52413965 0.06256172
0.45945509 0.52413965 0.06256172
0.48159781 0.52413965 0.06256172
0.50309630 0.52413965 0.06256172
0.52413965 0.52413965 0.06256172
0.54485886 0.52413965 0.06256172
0.56534609 0.52413965 0.06256172
0.58566647 0.52413965 0.06256172
0.60586573 0.52413965 0.06256172
0.62597529 0.52413965 0.06256172
0.64601587 0.52413965 0.06256172
0.66600001 0.52413965 0.06256172
0.68593399 0.52413965 0.06256172
0.70581926 0.52413965 0.06256172
0.72565355 0.52413965 0.06256172
0.74543170 0.52413965 0.06256172
0.76514639 0.52413965 0.06256172
0.78478866 0.52413965 0.06256172
0.80434835 0.52413965 0.06256172
0.82381447 0.52413965 0.06256172
0.84317551 0.52413965 0.06256172
0.86241965 0.52413965 0.06256172
0.88153496 0.52413965 0.06256172
0.90050961 0.52413965 0.06256172
0.06256172 0.54485886 0.06256172
0.06256172 0.54485886 0.06256172
0.06256172 0.54485886 0.06256172
0.11643951 0.54485886 0.06256172
0.26928936 0.54485886 0.06256172
0.31954592 0.54485886 0.06256172
0.35558046 0.54485886 0.06256172
0.38545966 0.54485886 0.06256172
0.41196124 0.54485886 0.06256172
0.43638763 0.54485886 0.06256172
0.45945509 0.54485886 0.06256172
0.48159781 0.54485886 0.06256172
0.50309630 0.54485886 0.06256172
0.52413965 0.54485886 0.06256172
0.54485886 0.54485886 0.06256172
0.56534609 0.54485886 0.06256172
0.58566647 0.54485886 0.06256172
0.60586573 0.54485886 0.06256172
0.62597529 0.54485886 0.06256172
0.64601587 0.54485886 0.06256172
0.66600001 0.54485886 0.06256172
0.68593399 0.54485886 0.06256172
0.70581926 0.54485886 0.06256172
0.72565355 0.54485886 0.06256172
0.74543170 0.54485886 0.06256172
0.76514639 0.54485886 0.06256172
0.78478866 0.54485886 0.06256172
0.80434835 0.54485886 0.06256172
0.82381447 0.54485886 0.06256172
0.84317551 0.54485886 0.06256172
0.86241965 0.54485886 0.06256172
0.88153496 0.54485886 0.06256172
0.90050961 0.54485886 0.06256172
0.06256172 0.56534609 0.06256172
0.06256172 0.56534609 0.06256172
0.06256172 0.56534609 0.06256172
0.11643951 0.56534609 0.06256172
0.26928936 0.56534609 0.06256172
0.31954592 0.56534609 0.06256172
0.35558046 0.56534609 0.06256172
0.38545966 0.56534609 0.06256172
0.41196124 0.56534609 0.06256172
0.43638763 0.56534609 0.06256172
0.45945509 0.56534609 0.06256172
0.48159781 0.56534609 0.06256172
0.50309630 0.56534609 0.06256172
0.52413965 0.56534609 0.06256172
0.54485886 0.56534609 0.06256172
0.56534609 0.56534609 0.06256172
0.58566647 0.56534609 0.06256172
0.60586573 0.56534609 0.06256172
0.62597529 0.56534609 0.06256172
0.64601587 0.56534609 0.06256172
0.66600001 0.56534609 0.06256172
0.68593399 0.56534609 0.06256172
0.70581926 0.56534609 0.06256172
0.72565355 0.56534609 0.06256172
0.74543170 0.56534609 0.06256172
0.76514639 0.56534609 0.06256172
0.78478866 0.56534609 0.06256172
0.80434835 0.56534609 0.06256172
0.82381447 0.56534609 0.06256172
0.84317551 0.56534609 0.06256172
0.86241965 0.56534609 0.06256172
0.88153496 0.56534609 0.06256172
0.90050961 0.56534609 0.06256172
0.06256172 0.58566647 0.06256172
0.06256172 0.58566647 0.06256172
0.06256172 0.58566647 0.06256172
0.11643951 0.58566647 0.06256172
0.26928936 0.58566647 0.06256172
0.31954592 0.58566647 0.06256172
0.35558046 0.58566647 0.06256172
0.38545966 0.58566647 0.06256172
0.41196124 0.58566647 0.06256172
0.43638763 0.58566647 0.06256172
0.45945509 0.58566647 0.06256172
0.48159781 0.58566647 0.06256172
0.50309630 0.58566647 0.06256172
0.52413965 0.58566647 0.06256172
0.54485886 0.58566647 0.06256172
0.56534609 0.58566647 0.06256172
0.58566647 0.58566647 0.06256172
0.60586573 0.58566647 0.06256172
0.62597529 0.58566647 0.06256172
0.64601587 0.58566647 0.06256172
0.66600001 0.58566647 0.06256172
0.68593399 0.58566647 0.06256172
0.70581926 0.58566647 0.06256172
0.72565355 0.58566647 0.06256172
0.74543170 0.58566647 0.06256172
0.76514639 0.58566647 0.06256172
0.78478866 0.58566647 0.06256172
0.80434835 0.58566647 0.06256172
0.82381447 0.58566647 0.06256172
0.84317551 0.58566647 0.06256172
0.86241965 0.58566647 0.06256172
0.88153496 0.58566647 0.06256172
0.90050961 0.58566647 0.06256172
0.06256172 0.60586573 0.06256172
0.06256172 0.60586573 0.06256172
0.06256172 0.60586573 0.06256172
0.11643951 0.60586573 0.06256172
0.26928936 0.60586573 0.06256172
0.31954592 0.60586573 0.06256172
0.35558046 0.60586573 0.06256172
0.38545966 0.60586573 0.06256172
0.41196124 0.60586573 0.06256172
0.43638763 0.60586573 0.06256172
0.45945509 0.60586573 0.06256172
0.48159781 0.60586573 0.06256172
0.50309630 0.60586573 0.06256172
0.52413965 0.60586573 0.06256172
0.54485886 0.60586573 0.06256172
0.56534609 0.60586573 0.06256172
0.58566647 0.60586573 0.06256172
0.60586573 0.60586573 0.06256172
0.62597529 0.60586573 0.06256172
0.64601587 0.60586573 0.06256172
0.66600001 0.60586573 0.06256172
0.68593399 0.60586573 0.06256172
0.70581926 0.60586573 0.06256172
0.72565355 0.60586573 0.06256172
0.74543170 0.60586573 0.06256172
0.76514639 0.60586573 0.06256172
0.78478866 0.60586573 0.06256172
0.80434835 0.60586573 0.06256172
0.82381447 0.60586573 0.06256172
0.84317551 0.60586573 0.06256172
0.86241965 0.60586573 0.06256172
0.88153496 0.60586573 0.06256172
0.90050961 0.60586573 0.06256172
0.06256172 0.62597529 0.06256172
0.06256172 0.62597529 0.06256172
0.06256172 0.62597529 0.06256172
0.11643951 0.62597529 0.06256172
0.26928936 0.62597529 0.06256172
0.31954592 0.62597529 0.06256172
0.35558046 0.62597529 0.06256172
0.38545966 0.62597529 0.06256172
0.41196124 0.62597529 0.06256172
0.43638763 0.62597529 0.06256172
0.45945509 0.62597529 0.06256172
0.48159781 0.62597529 0.06256172
0.50309630 0.62597529 0.06256172
0.52413965 0.62597529 0.06256172
0.54485886 0.62597529 0.06256172
0.56534609 0.62597529 0.06256172
0.58566647 0.62597529 0.06256172
0.60586573 0.62597529 0.06256172
0.62597529 0.62597529 0.06256172
0.64601587 0.62597529 0.06256172
0.66600001 0.62597529 0.06256172
0.68593399 0.62597529 0.06256172
0.70581926 0.62597529 0.06256172
0.72565355 0.62597529 0.06256172
0.74543170 0.62597529 0.06256172
0.76514639 0.62597529 0.06256172
0.78478866 0.62597529 0.06256172
0.80434835 0.62597529 0.06256172
0.82381447 0.62597529 0.06256172
0.84317551 0.62597529 0.06256172
0.86241965 0.62597529 0.06256172
0.88153496 0.62597529 0.06256172
0.90050961 0.62597529 0.06256172
0.06256172 0.64601587 0.06256172
0.06256172 0.64601587 0.06256172
0.06256172 0.64601587 0.06256172
0.11643951 0.64601587 0.06256172
0.26928936 0.64601587 0.06256172
0.31954592 0.64601587 0.06256172
0.35558046 0.64601587 0.06256172
0.38545966 0.64601587 0.06256172
0.41196124 0.64601587 0.06256172
0.43638763 0.64601587 0.06256172
0.45945509 0.64601587 0.06256172
0.48159781 0.64601587 0.06256172
0.50309630 0.64601587 0.06256172
0.52413965 0.64601587 0.06256172
0.54485886 0.64601587 0.06256172
0.56534609 0.64601587 0.06256172
0.58566647 0.64601587 0.06256172
0.60586573 0.64601587 0.06256172
0.62597529 0.64601587 0.06256172
0.64601587 0.64601587 0.06256172
0.66600001 0.64601587 0.06256172
0.68593399 0.64601587 0.06256172
0.70581926 0.64601587 0.06256172
0.72565355 0.64601587 0.06256172
0.74543170 0.64601587 0.06256172
0.76514639 0.64601587 0.06256172
0.78478866 0.64601587 0.06256172
0.80434835 0.64601587 0.06256172
0.82381447 0.64601587 0.06256172
0.84317551 0.64601587 0.06256172
0.86241965 0.64601587 0.06256172
0.88153496 0.64601587 0.06256172
0.90050961 0.64601587 0.06256172
0.06256172 0.66600001 0.06256172
0.06256172 0.66600001 0.06256172
0.06256172 0.66600001 0.06256172
0.11643951 0.66600001 0.06256172
0.26928936 0.66600001 0.06256172
0.31954592 0.66600001 0.06256172
0.35558046 0.66600001 0.06256172
0.38545966 0.66600001 0.06256172
0.41196124 0.66600001 0.06256172
0.43638763 0.66600001 0.06256172
0.45945509 0.66600001 0.06256172
0.48159781 0.66600001 0.06256172
0.50309630 0.66600001 0.06256172
0.52413965 0.66600001 0.06256172
0.54485886 0.66600001 0.06256172
0.56534609 0.66600001 0.06256172
0.58566647 0.66600001 0.06256172
0.60586573 0.66600001 0.06256172
0.62597529 0.66600001 0.06256172
0.64601587 0.66600001 0.06256172
0.66600001 0.66600001 0.06256172
0.68593399 0.66600001 0.06256172
0.70581926 0.66600001 0.06256172
0.72565355 0.66600001 0.06256172
0.74543170 0.66600001 0.06256172
0.76514639 0.66600001 0.06256172
0.78478866 0.66600001 0.06256172
0.80434835 0.66600001 0.06256172
0.82381447 0.66600001 0.06256172
0.84317551 0.66600001 0.06256172
0.86241965 0.66600001 0.06256172
0.88153496 0.66600001 0.06256172
0.90050961 0.66600001 0.06256172
0.06256172 0.68593399 0.06256172
0.06256172 0.68593399 0.06256172
0.06256172 0.68593399 0.06256172
0.11643951 0.68593399 0.06256172
0.26928936 0.68593399 0.06256172
0.31954592 0.68593399 0.06256172
0.35558046 0.68593399 0.06256172
0.38545966 0.68593399 0.06256172
0.41196124 0.68593399 0.06256172
0.43638763 0.68593399 0.06256172
0.45945509 0.68593399 0.06256172
0.48159781 0.68593399 0.06256172
0.50309630 0.68593399 0.06256172
0.52413965 0.68593399 0.06256172
0.54485886 0.68593399 0.06256172
0.56534609 0.68593399 0.06256172
0.58566647 0.68593399 0.06256172
0.60586573 0.68593399 0.06256172
0.62597529 0.68593399 0.06256172
0.64601587 0.68593399 0.06256172
0.66600001 0.68593399 0.06256172
0.68593399 0.68593399 0.06256172
0.70581926 0.68593399 0.06256172
0.72565355 0.68593399 0.06256172
0.74543170 0.68593399 0.06256172
0.76514639 0.68593399 0.06256172
0.78478866 0.68593399 0.06256172
