src/ffmpeg_scripts/luts/flog-experimental_-2p33.cube
TITLE "flog-experimental_-2p33"
LUT_3D_SIZE 5
# Fujifilm F-Log/Rec2020 -> PQ (EOTF Only)/Rec2020, CineEI Shift -2.33, Black Level 0.00% IRE, Input 109% -> Output 100% - Created with LUTCalc v4.01 by Ben Turley October 2020
0.00000073 0.00000073 0.00000073
0.18337710 0.00000073 0.00000073
0.34962308 0.00000073 0.00000073
0.54400181 0.00000073 0.00000073
0.77081105 0.00000073 0.00000073
0.00000073 0.18337710 0.00000073
0.18337710 0.18337710 0.00000073
0.34962308 0.18337710 0.00000073
0.54400181 0.18337710 0.00000073
0.77081105 0.18337710 0.00000073
0.00000073 0.34962308 0.00000073
0.18337710 0.34962308 0.00000073
0.34962308 0.34962308 0.00000073
0.54400181 0.34962308 0.00000073
0.77081105 0.34962308 0.00000073
0.00000073 0.54400181 0.00000073
0.18337710 0.54400181 0.00000073
0.34962308 0.54400181 0.00000073
0.54400181 0.54400181 0.00000073
0.77081105 0.54400181 0.00000073
0.00000073 0.77081105 0.00000073
0.18337710 0.77081105 0.00000073
0.34962308 0.77081105 0.00000073
0.54400181 0.77081105 0.00000073
0.77081105 0.77081105 0.00000073
0.00000073 0.00000073 0.18337710
0.18337710 0.00000073 0.18337710
0.34962308 0.00000073 0.18337710
0.54400181 0.00000073 0.18337710
0.77081105 0.00000073 0.18337710
0.00000073 0.18337710 0.18337710
0.18337710 0.18337710 0.18337710
0.34962308 0.18337710 0.18337710
0.54400181 0.18337710 0.18337710
0.77081105 0.18337710 0.18337710
0.00000073 0.34962308 0.18337710
0.18337710 0.34962308 0.18337710
0.34962308 0.34962308 0.18337710
0.54400181 0.34962308 0.18337710
0.77081105 0.34962308 0.18337710
0.00000073 0.54400181 0.18337710
0.18337710 0.54400181 0.18337710
0.34962308 0.54400181 0.18337710
0.54400181 0.54400181 0.18337710
0.77081105 0.54400181 0.18337710
0.00000073 0.77081105 0.18337710
0.18337710 0.77081105 0.18337710
0.34962308 0.77081105 0.18337710
0.54400181 0.77081105 0.18337710
0.77081105 0.77081105 0.18337710
0.00000073 0.00000073 0.34962308
0.18337710 0.00000073 0.34962308
0.34962308 0.00000073 0.34962308
0.54400181 0.00000073 0.34962308
0.77081105 0.00000073 0.34962308
0.00000073 0.18337710 0.34962308
0.18337710 0.18337710 0.34962308
0.34962308 0.18337710 0.34962308
0.54400181 0.18337710 0.34962308
0.77081105 0.18337710 0.34962308
0.00000073 0.34962308 0.34962308
0.18337710 0.34962308 0.34962308
0.34962308 0.34962308 0.34962308
0.54400181 0.34962308 0.34962308
0.77081105 0.34962308 0.34962308
0.00000073 0.54400181 0.34962308
0.18337710 0.54400181 0.34962308
0.34962308 0.54400181 0.34962308
0.54400181 0.54400181 0.34962308
0.77081105 0.54400181 0.34962308
0.00000073 0.77081105 0.34962308
0.18337710 0.77081105 0.34962308
0.34962308 0.77081105 0.34962308
0.54400181 0.77081105 0.34962308
0.77081105 0.77081105 0.34962308
0.00000073 0.00000073 0.54400181
0.18337710 0.00000073 0.54400181
0.34962308 0.00000073 0.54400181
0.54400181 0.00000073 0.54400181
0.77081105 0.00000073 0.54400181
0.00000073 0.18337710 0.54400181
0.18337710 0.18337710 0.54400181
0.34962308 0.18337710 0.54400181
0.54400181 0.18337710 0.54400181
0.77081105 0.18337710 0.54400181
0.00000073 0.34962308 0.54400181
0.18337710 0.34962308 0.54400181
0.34962308 0.34962308 0.54400181
0.54400181 0.34962308 0.54400181
0.77081105 0.34962308 0.54400181
0.00000073 0.54400181 0.54400181
0.18337710 0.54400181 0.54400181
0.34962308 0.54400181 0.54400181
0.54400181 0.54400181 0.54400181
0.77081105 0.54400181 0.54400181
0.00000073 0.77081105 0.54400181
0.18337710 0.77081105 0.54400181
0.34962308 0.77081105 0.54400181
0.54400181 0.77081105 0.54400181
0.77081105 0.77081105 0.54400181
0.00000073 0.00000073 0.77081105
0.18337710 0.00000073 0.77081105
0.34962308 0.00000073 0.77081105
0.54400181 0.00000073 0.77081105
0.77081105 0.00000073 0.77081105
0.00000073 0.18337710 0.77081105
0.18337710 0.18337710 0.77081105
0.34962308 0.18337710 0.77081105
0.54400181 0.18337710 0.77081105
0.77081105 0.18337710 0.77081105
0.00000073 0.34962308 0.77081105
0.18337710 0.34962308 0.77081105
0.34962308 0.34962308 0.77081105
0.54400181 0.34962308 0.77081105
0.77081105 0.34962308 0.77081105
0.00000073 0.54400181 0.77081105
0.18337710 0.54400181 0.77081105
0.34962308 0.54400181 0.77081105
0.54400181 0.54400181 0.77081105
0.77081105 0.54400181 0.77081105
0.00000073 0.77081105 0.77081105
0.18337710 0.77081105 0.77081105
0.34962308 0.77081105 0.77081105
0.54400181 0.77081105 0.77081105
0.77081105 0.77081105 0.77081105
