src/ffmpeg_scripts/luts/flog-smpte2084_1p00.cube
TITLE "flog-smpte2084_1p00"
LUT_3D_SIZE 33
# Fujifilm F-Log/Rec2020 -> PQ (EOTF Only)/Rec2020, CineEI Shift 1.00, Black Level 0.00% IRE, Input 109% -> Output 109% - Created with LUTCalc v4.01 by Ben Turley October 2020
0.06256172 0.06256172 0.06256172
0.06256172 0.06256172 0.06256172
0.06256172 0.06256172 0.06256172
0.08857084 0.06256172 0.06256172
0.18666483 0.06256172 0.06256172
0.22358582 0.06256172 0.06256172
0.25116629 0.06256172 0.06256172
0.27468196 0.06256172 0.06256172
0.29600268 0.06256172 0.06256172
0.31602258 0.06256172 0.06256172
0.33524125 0.06256172 0.06256172
0.35396561 0.06256172 0.06256172
0.37239628 0.06256172 0.06256172
0.39066976 0.06256172 0.06256172
0.40888122 0.06256172 0.06256172
0.42709777 0.06256172 0.06256172
0.44536660 0.06256172 0.06256172
0.46372029 0.06256172 0.06256172
0.48218045 0.06256172 0.06256172
0.50076017 0.06256172 0.06256172
0.51946594 0.06256172 0.06256172
0.53829900 0.06256172 0.06256172
0.55725637 0.06256172 0.06256172
0.57633175 0.06256172 0.06256172
0.59551613 0.06256172 0.06256172
0.61479837 0.06256172 0.06256172
0.63416564 0.06256172 0.06256172
0.65360382 0.06256172 0.06256172
0.67309776 0.06256172 0.06256172
0.69263164 0.06256172 0.06256172
0.71218911 0.06256172 0.06256172
0.73175356 0.06256172 0.06256172
0.75130824 0.06256172 0.06256172
0.06256172 0.06256172 0.06256172
0.06256172 0.06256172 0.06256172
0.06256172 0.06256172 0.06256172
0.08857084 0.06256172 0.06256172
0.18666483 0.06256172 0.06256172
0.22358582 0.06256172 0.06256172
0.25116629 0.06256172 0.06256172
0.27468196 0.06256172 0.06256172
0.29600268 0.06256172 0.06256172
0.31602258 0.06256172 0.06256172
0.33524125 0.06256172 0.06256172
0.35396561 0.06256172 0.06256172
0.37239628 0.06256172 0.06256172
0.39066976 0.06256172 0.06256172
0.40888122 0.06256172 0.06256172
0.42709777 0.06256172 0.06256172
0.44536660 0.06256172 0.06256172
0.46372029 0.06256172 0.06256172
0.48218045 0.06256172 0.06256172
0.50076017 0.06256172 0.06256172
0.51946594 0.06256172 0.06256172
0.53829900 0.06256172 0.06256172
0.55725637 0.06256172 0.06256172
0.57633175 0.06256172 0.06256172
0.59551613 0.06256172 0.06256172
0.61479837 0.06256172 0.06256172
0.63416564 0.06256172 0.06256172
0.65360382 0.06256172 0.06256172
0.67309776 0.06256172 0.06256172
0.69263164 0.06256172 0.06256172
0.71218911 0.06256172 0.06256172
0.73175356 0.06256172 0.06256172
0.75130824 0.06256172 0.06256172
0.06256172 0.06256172 0.06256172
0.06256172 0.06256172 0.06256172
0.06256172 0.06256172 0.06256172
0.08857084 0.06256172 0.06256172
0.18666483 0.06256172 0.06256172
0.22358582 0.06256172 0.06256172
0.25116629 0.06256172 0.06256172
0.27468196 0.06256172 0.06256172
0.29600268 0.06256172 0.06256172
0.31602258 0.06256172 0.06256172
0.33524125 0.06256172 0.06256172
0.35396561 0.06256172 0.06256172
0.37239628 0.06256172 0.06256172
0.39066976 0.06256172 0.06256172
0.40888122 0.06256172 0.06256172
0.42709777 0.06256172 0.06256172
0.44536660 0.06256172 0.06256172
0.46372029 0.06256172 0.06256172
0.48218045 0.06256172 0.06256172
0.50076017 0.06256172 0.06256172
0.51946594 0.06256172 0.06256172
0.53829900 0.06256172 0.06256172
0.55725637 0.06256172 0.06256172
0.57633175 0.06256172 0.06256172
0.59551613 0.06256172 0.06256172
0.61479837 0.06256172 0.06256172
0.63416564 0.06256172 0.06256172
0.65360382 0.06256172 0.06256172
0.67309776 0.06256172 0.06256172
0.69263164 0.06256172 0.06256172
0.71218911 0.06256172 0.06256172
0.73175356 0.06256172 0.06256172
0.75130824 0.06256172 0.06256172
0.06256172 0.08857084 0.06256172
0.06256172 0.08857084 0.06256172
0.06256172 0.08857084 0.06256172
0.08857084 0.08857084 0.06256172
0.18666483 0.08857084 0.06256172
0.22358582 0.08857084 0.06256172
0.25116629 0.08857084 0.06256172
0.27468196 0.08857084 0.06256172
0.29600268 0.08857084 0.06256172
0.31602258 0.08857084 0.06256172
0.33524125 0.08857084 0.06256172
0.35396561 0.08857084 0.06256172
0.37239628 0.08857084 0.06256172
0.39066976 0.08857084 0.06256172
0.40888122 0.08857084 0.06256172
0.42709777 0.08857084 0.06256172
0.44536660 0.08857084 0.06256172
0.46372029 0.08857084 0.06256172
0.48218045 0.08857084 0.06256172
0.50076017 0.08857084 0.06256172
0.51946594 0.08857084 0.06256172
0.53829900 0.08857084 0.06256172
0.55725637 0.08857084 0.06256172
0.57633175 0.08857084 0.06256172
0.59551613 0.08857084 0.06256172
0.61479837 0.08857084 0.06256172
0.63416564 0.08857084 0.06256172
0.65360382 0.08857084 0.06256172
0.67309776 0.08857084 0.06256172
0.69263164 0.08857084 0.06256172
0.71218911 0.08857084 0.06256172
0.73175356 0.08857084 0.06256172
0.75130824 0.08857084 0.06256172
0.06256172 0.18666483 0.06256172
0.06256172 0.18666483 0.06256172
0.06256172 0.18666483 0.06256172
0.08857084 0.18666483 0.06256172
0.18666483 0.18666483 0.06256172
0.22358582 0.18666483 0.06256172
0.25116629 0.18666483 0.06256172
0.27468196 0.18666483 0.06256172
0.29600268 0.18666483 0.06256172
0.31602258 0.18666483 0.06256172
0.33524125 0.18666483 0.06256172
0.35396561 0.18666483 0.06256172
0.37239628 0.18666483 0.06256172
0.39066976 0.18666483 0.06256172
0.40888122 0.18666483 0.06256172
0.42709777 0.18666483 0.06256172
0.44536660 0.18666483 0.06256172
0.46372029 0.18666483 0.06256172
0.48218045 0.18666483 0.06256172
0.50076017 0.18666483 0.06256172
0.51946594 0.18666483 0.06256172
0.53829900 0.18666483 0.06256172
0.55725637 0.18666483 0.06256172
0.57633175 0.18666483 0.06256172
0.59551613 0.18666483 0.06256172
0.61479837 0.18666483 0.06256172
0.63416564 0.18666483 0.06256172
0.65360382 0.18666483 0.06256172
0.67309776 0.18666483 0.06256172
0.69263164 0.18666483 0.06256172
0.71218911 0.18666483 0.06256172
0.73175356 0.18666483 0.06256172
0.75130824 0.18666483 0.06256172
0.06256172 0.22358582 0.06256172
0.06256172 0.22358582 0.06256172
0.06256172 0.22358582 0.06256172
0.08857084 0.22358582 0.06256172
0.18666483 0.22358582 0.06256172
0.22358582 0.22358582 0.06256172
0.25116629 0.22358582 0.06256172
0.27468196 0.22358582 0.06256172
0.29600268 0.22358582 0.06256172
0.31602258 0.22358582 0.06256172
0.33524125 0.22358582 0.06256172
0.35396561 0.22358582 0.06256172
0.37239628 0.22358582 0.06256172
0.39066976 0.22358582 0.06256172
0.40888122 0.22358582 0.06256172
0.42709777 0.22358582 0.06256172
0.44536660 0.22358582 0.06256172
0.46372029 0.22358582 0.06256172
0.48218045 0.22358582 0.06256172
0.50076017 0.22358582 0.06256172
0.51946594 0.22358582 0.06256172
0.53829900 0.22358582 0.06256172
0.55725637 0.22358582 0.06256172
0.57633175 0.22358582 0.06256172
0.59551613 0.22358582 0.06256172
0.61479837 0.22358582 0.06256172
0.63416564 0.22358582 0.06256172
0.65360382 0.22358582 0.06256172
0.67309776 0.22358582 0.06256172
0.69263164 0.22358582 0.06256172
0.71218911 0.22358582 0.06256172
0.73175356 0.22358582 0.06256172
0.75130824 0.22358582 0.06256172
0.06256172 0.25116629 0.06256172
0.06256172 0.25116629 0.06256172
0.06256172 0.25116629 0.06256172
0.08857084 0.25116629 0.06256172
0.18666483 0.25116629 0.06256172
0.22358582 0.25116629 0.06256172
0.25116629 0.25116629 0.06256172
0.27468196 0.25116629 0.06256172
0.29600268 0.25116629 0.06256172
0.31602258 0.25116629 0.06256172
0.33524125 0.25116629 0.06256172
0.35396561 0.25116629 0.06256172
0.37239628 0.25116629 0.06256172
0.39066976 0.25116629 0.06256172
0.40888122 0.25116629 0.06256172
0.42709777 0.25116629 0.06256172
0.44536660 0.25116629 0.06256172
0.46372029 0.25116629 0.06256172
0.48218045 0.25116629 0.06256172
0.50076017 0.25116629 0.06256172
0.51946594 0.25116629 0.06256172
0.53829900 0.25116629 0.06256172
0.55725637 0.25116629 0.06256172
0.57633175 0.25116629 0.06256172
0.59551613 0.25116629 0.06256172
0.61479837 0.25116629 0.06256172
0.63416564 0.25116629 0.06256172
0.65360382 0.25116629 0.06256172
0.67309776 0.25116629 0.06256172
0.69263164 0.25116629 0.06256172
0.71218911 0.25116629 0.06256172
0.73175356 0.25116629 0.06256172
0.75130824 0.25116629 0.06256172
0.06256172 0.27468196 0.06256172
0.06256172 0.27468196 0.06256172
0.06256172 0.27468196 0.06256172
0.08857084 0.27468196 0.06256172
0.18666483 0.27468196 0.06256172
0.22358582 0.27468196 0.06256172
0.25116629 0.27468196 0.06256172
0.27468196 0.27468196 0.06256172
0.29600268 0.27468196 0.06256172
0.31602258 0.27468196 0.06256172
0.33524125 0.27468196 0.06256172
0.35396561 0.27468196 0.06256172
0.37239628 0.27468196 0.06256172
0.39066976 0.27468196 0.06256172
0.40888122 0.27468196 0.06256172
0.42709777 0.27468196 0.06256172
0.44536660 0.27468196 0.06256172
0.46372029 0.27468196 0.06256172
0.48218045 0.27468196 0.06256172
0.50076017 0.27468196 0.06256172
0.51946594 0.27468196 0.06256172
0.53829900 0.27468196 0.06256172
0.55725637 0.27468196 0.06256172
0.57633175 0.27468196 0.06256172
0.59551613 0.27468196 0.06256172
0.61479837 0.27468196 0.06256172
0.63416564 0.27468196 0.06256172
0.65360382 0.27468196 0.06256172
0.67309776 0.27468196 0.06256172
0.69263164 0.27468196 0.06256172
0.71218911 0.27468196 0.06256172
0.73175356 0.27468196 0.06256172
0.75130824 0.27468196 0.06256172
0.06256172 0.29600268 0.06256172
0.06256172 0.29600268 0.06256172
0.06256172 0.29600268 0.06256172
0.08857084 0.29600268 0.06256172
0.18666483 0.29600268 0.06256172
0.22358582 0.29600268 0.06256172
0.25116629 0.29600268 0.06256172
0.27468196 0.29600268 0.06256172
0.29600268 0.29600268 0.06256172
0.31602258 0.29600268 0.06256172
0.33524125 0.29600268 0.06256172
0.35396561 0.29600268 0.06256172
0.37239628 0.29600268 0.06256172
0.39066976 0.29600268 0.06256172
0.40888122 0.29600268 0.06256172
0.42709777 0.29600268 0.06256172
0.44536660 0.29600268 0.06256172
0.46372029 0.29600268 0.06256172
0.48218045 0.29600268 0.06256172
0.50076017 0.29600268 0.06256172
0.51946594 0.29600268 0.06256172
0.53829900 0.29600268 0.06256172
0.55725637 0.29600268 0.06256172
0.57633175 0.29600268 0.06256172
0.59551613 0.29600268 0.06256172
0.61479837 0.29600268 0.06256172
0.63416564 0.29600268 0.06256172
0.65360382 0.29600268 0.06256172
0.67309776 0.29600268 0.06256172
0.69263164 0.29600268 0.06256172
0.71218911 0.29600268 0.06256172
0.73175356 0.29600268 0.06256172
0.75130824 0.29600268 0.06256172
0.06256172 0.31602258 0.06256172
0.06256172 0.31602258 0.06256172
0.06256172 0.31602258 0.06256172
0.08857084 0.31602258 0.06256172
0.18666483 0.31602258 0.06256172
0.22358582 0.31602258 0.06256172
0.25116629 0.31602258 0.06256172
0.27468196 0.31602258 0.06256172
0.29600268 0.31602258 0.06256172
0.31602258 0.31602258 0.06256172
0.33524125 0.31602258 0.06256172
0.35396561 0.31602258 0.06256172
0.37239628 0.31602258 0.06256172
0.39066976 0.31602258 0.06256172
0.40888122 0.31602258 0.06256172
0.42709777 0.31602258 0.06256172
0.44536660 0.31602258 0.06256172
0.46372029 0.31602258 0.06256172
0.48218045 0.31602258 0.06256172
0.50076017 0.31602258 0.06256172
0.51946594 0.31602258 0.06256172
0.53829900 0.31602258 0.06256172
0.55725637 0.31602258 0.06256172
0.57633175 0.31602258 0.06256172
0.59551613 0.31602258 0.06256172
0.61479837 0.31602258 0.06256172
0.63416564 0.31602258 0.06256172
0.65360382 0.31602258 0.06256172
0.67309776 0.31602258 0.06256172
0.69263164 0.31602258 0.06256172
0.71218911 0.31602258 0.06256172
0.73175356 0.31602258 0.06256172
0.75130824 0.31602258 0.06256172
0.06256172 0.33524125 0.06256172
0.06256172 0.33524125 0.06256172
0.06256172 0.33524125 0.06256172
0.08857084 0.33524125 0.06256172
0.18666483 0.33524125 0.06256172
0.22358582 0.33524125 0.06256172
0.25116629 0.33524125 0.06256172
0.27468196 0.33524125 0.06256172
0.29600268 0.33524125 0.06256172
0.31602258 0.33524125 0.06256172
0.33524125 0.33524125 0.06256172
0.35396561 0.33524125 0.06256172
0.37239628 0.33524125 0.06256172
0.39066976 0.33524125 0.06256172
0.40888122 0.33524125 0.06256172
0.42709777 0.33524125 0.06256172
0.44536660 0.33524125 0.06256172
0.46372029 0.33524125 0.06256172
0.48218045 0.33524125 0.06256172
0.50076017 0.33524125 0.06256172
0.51946594 0.33524125 0.06256172
0.53829900 0.33524125 0.06256172
0.55725637 0.33524125 0.06256172
0.57633175 0.33524125 0.06256172
0.59551613 0.33524125 0.06256172
0.61479837 0.33524125 0.06256172
0.63416564 0.33524125 0.06256172
0.65360382 0.33524125 0.06256172
0.67309776 0.33524125 0.06256172
0.69263164 0.33524125 0.06256172
0.71218911 0.33524125 0.06256172
0.73175356 0.33524125 0.06256172
0.75130824 0.33524125 0.06256172
0.06256172 0.35396561 0.06256172
0.06256172 0.35396561 0.06256172
0.06256172 0.35396561 0.06256172
0.08857084 0.35396561 0.06256172
0.18666483 0.35396561 0.06256172
0.22358582 0.35396561 0.06256172
0.25116629 0.35396561 0.06256172
0.27468196 0.35396561 0.06256172
0.29600268 0.35396561 0.06256172
0.31602258 0.35396561 0.06256172
0.33524125 0.35396561 0.06256172
0.35396561 0.35396561 0.06256172
0.37239628 0.35396561 0.06256172
0.39066976 0.35396561 0.06256172
0.40888122 0.35396561 0.06256172
0.42709777 0.35396561 0.06256172
0.44536660 0.35396561 0.06256172
0.46372029 0.35396561 0.06256172
0.48218045 0.35396561 0.06256172
0.50076017 0.35396561 0.06256172
0.51946594 0.35396561 0.06256172
0.53829900 0.35396561 0.06256172
0.55725637 0.35396561 0.06256172
0.57633175 0.35396561 0.06256172
0.59551613 0.35396561 0.06256172
0.61479837 0.35396561 0.06256172
0.63416564 0.35396561 0.06256172
0.65360382 0.35396561 0.06256172
0.67309776 0.35396561 0.06256172
0.69263164 0.35396561 0.06256172
0.71218911 0.35396561 0.06256172
0.73175356 0.35396561 0.06256172
0.75130824 0.35396561 0.06256172
0.06256172 0.37239628 0.06256172
0.06256172 0.37239628 0.06256172
0.06256172 0.37239628 0.06256172
0.08857084 0.37239628 0.06256172
0.18666483 0.37239628 0.06256172
0.22358582 0.37239628 0.06256172
0.25116629 0.37239628 0.06256172
0.27468196 0.37239628 0.06256172
0.29600268 0.37239628 0.06256172
0.31602258 0.37239628 0.06256172
0.33524125 0.37239628 0.06256172
0.35396561 0.37239628 0.06256172
0.37239628 0.37239628 0.06256172
0.39066976 0.37239628 0.06256172
0.40888122 0.37239628 0.06256172
0.42709777 0.37239628 0.06256172
0.44536660 0.37239628 0.06256172
0.46372029 0.37239628 0.06256172
0.48218045 0.37239628 0.06256172
0.50076017 0.37239628 0.06256172
0.51946594 0.37239628 0.06256172
0.53829900 0.37239628 0.06256172
0.55725637 0.37239628 0.06256172
0.57633175 0.37239628 0.06256172
0.59551613 0.37239628 0.06256172
0.61479837 0.37239628 0.06256172
0.63416564 0.37239628 0.06256172
0.65360382 0.37239628 0.06256172
0.67309776 0.37239628 0.06256172
0.69263164 0.37239628 0.06256172
0.71218911 0.37239628 0.06256172
0.73175356 0.37239628 0.06256172
0.75130824 0.37239628 0.06256172
0.06256172 0.39066976 0.06256172
0.06256172 0.39066976 0.06256172
0.06256172 0.39066976 0.06256172
0.08857084 0.39066976 0.06256172
0.18666483 0.39066976 0.06256172
0.22358582 0.39066976 0.06256172
0.25116629 0.39066976 0.06256172
0.27468196 0.39066976 0.06256172
0.29600268 0.39066976 0.06256172
0.31602258 0.39066976 0.06256172
0.33524125 0.39066976 0.06256172
0.35396561 0.39066976 0.06256172
0.37239628 0.39066976 0.06256172
0.39066976 0.39066976 0.06256172
0.40888122 0.39066976 0.06256172
0.42709777 0.39066976 0.06256172
0.44536660 0.39066976 0.06256172
0.46372029 0.39066976 0.06256172
0.48218045 0.39066976 0.06256172
0.50076017 0.39066976 0.06256172
0.51946594 0.39066976 0.06256172
0.53829900 0.39066976 0.06256172
0.55725637 0.39066976 0.06256172
0.57633175 0.39066976 0.06256172
0.59551613 0.39066976 0.06256172
0.61479837 0.39066976 0.06256172
0.63416564 0.39066976 0.06256172
0.65360382 0.39066976 0.06256172
0.67309776 0.39066976 0.06256172
0.69263164 0.39066976 0.06256172
0.71218911 0.39066976 0.06256172
0.73175356 0.39066976 0.06256172
0.75130824 0.39066976 0.06256172
0.06256172 0.40888122 0.06256172
0.06256172 0.40888122 0.06256172
0.06256172 0.40888122 0.06256172
0.08857084 0.40888122 0.06256172
0.18666483 0.40888122 0.06256172
0.22358582 0.40888122 0.06256172
0.25116629 0.40888122 0.06256172
0.27468196 0.40888122 0.06256172
0.29600268 0.40888122 0.06256172
0.31602258 0.40888122 0.06256172
0.33524125 0.40888122 0.06256172
0.35396561 0.40888122 0.06256172
0.37239628 0.40888122 0.06256172
0.39066976 0.40888122 0.06256172
0.40888122 0.40888122 0.06256172
0.42709777 0.40888122 0.06256172
0.44536660 0.40888122 0.06256172
0.46372029 0.40888122 0.06256172
0.48218045 0.40888122 0.06256172
0.50076017 0.40888122 0.06256172
0.51946594 0.40888122 0.06256172
0.53829900 0.40888122 0.06256172
0.55725637 0.40888122 0.06256172
0.57633175 0.40888122 0.06256172
0.59551613 0.40888122 0.06256172
0.61479837 0.40888122 0.06256172
0.63416564 0.40888122 0.06256172
0.65360382 0.40888122 0.06256172
0.67309776 0.40888122 0.06256172
0.69263164 0.40888122 0.06256172
0.71218911 0.40888122 0.06256172
0.73175356 0.40888122 0.06256172
0.75130824 0.40888122 0.06256172
0.06256172 0.42709777 0.06256172
0.06256172 0.42709777 0.06256172
0.06256172 0.42709777 0.06256172
0.08857084 0.42709777 0.06256172
0.18666483 0.42709777 0.06256172
0.22358582 0.42709777 0.06256172
0.25116629 0.42709777 0.06256172
0.27468196 0.42709777 0.06256172
0.29600268 0.42709777 0.06256172
0.31602258 0.42709777 0.06256172
0.33524125 0.42709777 0.06256172
0.35396561 0.42709777 0.06256172
0.37239628 0.42709777 0.06256172
0.39066976 0.42709777 0.06256172
0.40888122 0.42709777 0.06256172
0.42709777 0.42709777 0.06256172
0.44536660 0.42709777 0.06256172
0.46372029 0.42709777 0.06256172
0.48218045 0.42709777 0.06256172
0.50076017 0.42709777 0.06256172
0.51946594 0.42709777 0.06256172
0.53829900 0.42709777 0.06256172
0.55725637 0.42709777 0.06256172
0.57633175 0.42709777 0.06256172
0.59551613 0.42709777 0.06256172
0.61479837 0.42709777 0.06256172
0.63416564 0.42709777 0.06256172
0.65360382 0.42709777 0.06256172
0.67309776 0.42709777 0.06256172
0.69263164 0.42709777 0.06256172
0.71218911 0.42709777 0.06256172
0.73175356 0.42709777 0.06256172
0.75130824 0.42709777 0.06256172
0.06256172 0.44536660 0.06256172
0.06256172 0.44536660 0.06256172
0.06256172 0.44536660 0.06256172
0.08857084 0.44536660 0.06256172
0.18666483 0.44536660 0.06256172
0.22358582 0.44536660 0.06256172
0.25116629 0.44536660 0.06256172
0.27468196 0.44536660 0.06256172
0.29600268 0.44536660 0.06256172
0.31602258 0.44536660 0.06256172
0.33524125 0.44536660 0.06256172
0.35396561 0.44536660 0.06256172
0.37239628 0.44536660 0.06256172
0.39066976 0.44536660 0.06256172
0.40888122 0.44536660 0.06256172
0.42709777 0.44536660 0.06256172
0.44536660 0.44536660 0.06256172
0.46372029 0.44536660 0.06256172
0.48218045 0.44536660 0.06256172
0.50076017 0.44536660 0.06256172
0.51946594 0.44536660 0.06256172
0.53829900 0.44536660 0.06256172
0.55725637 0.44536660 0.06256172
0.57633175 0.44536660 0.06256172
0.59551613 0.44536660 0.06256172
0.61479837 0.44536660 0.06256172
0.63416564 0.44536660 0.06256172
0.65360382 0.44536660 0.06256172
0.67309776 0.44536660 0.06256172
0.69263164 0.44536660 0.06256172
0.71218911 0.44536660 0.06256172
0.73175356 0.44536660 0.06256172
0.75130824 0.44536660 0.06256172
0.06256172 0.46372029 0.06256172
0.06256172 0.46372029 0.06256172
0.06256172 0.46372029 0.06256172
0.08857084 0.46372029 0.06256172
0.18666483 0.46372029 0.06256172
0.22358582 0.46372029 0.06256172
0.25116629 0.46372029 0.06256172
0.27468196 0.46372029 0.06256172
0.29600268 0.46372029 0.06256172
0.31602258 0.46372029 0.06256172
0.33524125 0.46372029 0.06256172
0.35396561 0.46372029 0.06256172
0.37239628 0.46372029 0.06256172
0.39066976 0.46372029 0.06256172
0.40888122 0.46372029 0.06256172
0.42709777 0.46372029 0.06256172
0.44536660 0.46372029 0.06256172
0.46372029 0.46372029 0.06256172
0.48218045 0.46372029 0.06256172
0.50076017 0.46372029 0.06256172
0.51946594 0.46372029 0.06256172
0.53829900 0.46372029 0.06256172
0.55725637 0.46372029 0.06256172
0.57633175 0.46372029 0.06256172
0.59551613 0.46372029 0.06256172
0.61479837 0.46372029 0.06256172
0.63416564 0.46372029 0.06256172
0.65360382 0.46372029 0.06256172
0.67309776 0.46372029 0.06256172
0.69263164 0.46372029 0.06256172
0.71218911 0.46372029 0.06256172
0.73175356 0.46372029 0.06256172
0.75130824 0.46372029 0.06256172
0.06256172 0.48218045 0.06256172
0.06256172 0.48218045 0.06256172
0.06256172 0.48218045 0.06256172
0.08857084 0.48218045 0.06256172
0.18666483 0.48218045 0.06256172
0.22358582 0.48218045 0.06256172
0.25116629 0.48218045 0.06256172
0.27468196 0.48218045 0.06256172
0.29600268 0.48218045 0.06256172
0.31602258 0.48218045 0.06256172
0.33524125 0.48218045 0.06256172
0.35396561 0.48218045 0.06256172
0.37239628 0.48218045 0.06256172
0.39066976 0.48218045 0.06256172
0.40888122 0.48218045 0.06256172
0.42709777 0.48218045 0.06256172
0.44536660 0.48218045 0.06256172
0.46372029 0.48218045 0.06256172
0.48218045 0.48218045 0.06256172
0.50076017 0.48218045 0.06256172
0.51946594 0.48218045 0.06256172
0.53829900 0.48218045 0.06256172
0.55725637 0.48218045 0.06256172
0.57633175 0.48218045 0.06256172
0.59551613 0.48218045 0.06256172
0.61479837 0.48218045 0.06256172
0.63416564 0.48218045 0.06256172
0.65360382 0.48218045 0.06256172
0.67309776 0.48218045 0.06256172
0.69263164 0.48218045 0.06256172
0.71218911 0.48218045 0.06256172
0.73175356 0.48218045 0.06256172
0.75130824 0.48218045 0.06256172
0.06256172 0.50076017 0.06256172
0.06256172 0.50076017 0.06256172
0.06256172 0.50076017 0.06256172
0.08857084 0.50076017 0.06256172
0.18666483 0.50076017 0.06256172
0.22358582 0.50076017 0.06256172
0.25116629 0.50076017 0.06256172
0.27468196 0.50076017 0.06256172
0.29600268 0.50076017 0.06256172
0.31602258 0.50076017 0.06256172
0.33524125 0.50076017 0.06256172
0.35396561 0.50076017 0.06256172
0.37239628 0.50076017 0.06256172
0.39066976 0.50076017 0.06256172
0.40888122 0.50076017 0.06256172
0.42709777 0.50076017 0.06256172
0.44536660 0.50076017 0.06256172
0.46372029 0.50076017 0.06256172
0.48218045 0.50076017 0.06256172
0.50076017 0.50076017 0.06256172
0.51946594 0.50076017 0.06256172
0.53829900 0.50076017 0.06256172
0.55725637 0.50076017 0.06256172
0.57633175 0.50076017 0.06256172
0.59551613 0.50076017 0.06256172
0.61479837 0.50076017 0.06256172
0.63416564 0.50076017 0.06256172
0.65360382 0.50076017 0.06256172
0.67309776 0.50076017 0.06256172
0.69263164 0.50076017 0.06256172
0.71218911 0.50076017 0.06256172
0.73175356 0.50076017 0.06256172
0.75130824 0.50076017 0.06256172
0.06256172 0.51946594 0.06256172
0.06256172 0.51946594 0.06256172
0.06256172 0.51946594 0.06256172
0.08857084 0.51946594 0.06256172
0.18666483 0.51946594 0.06256172
0.22358582 0.51946594 0.06256172
0.25116629 0.51946594 0.06256172
0.27468196 0.51946594 0.06256172
0.29600268 0.51946594 0.06256172
0.31602258 0.51946594 0.06256172
0.33524125 0.51946594 0.06256172
0.35396561 0.51946594 0.06256172
0.37239628 0.51946594 0.06256172
0.39066976 0.51946594 0.06256172
0.40888122 0.51946594 0.06256172
0.42709777 0.51946594 0.06256172
0.44536660 0.51946594 0.06256172
0.46372029 0.51946594 0.06256172
0.48218045 0.51946594 0.06256172
0.50076017 0.51946594 0.06256172
0.51946594 0.51946594 0.06256172
0.53829900 0.51946594 0.06256172
0.55725637 0.51946594 0.06256172
0.57633175 0.51946594 0.06256172
0.59551613 0.51946594 0.06256172
0.61479837 0.51946594 0.06256172
0.63416564 0.51946594 0.06256172
0.65360382 0.51946594 0.06256172
0.67309776 0.51946594 0.06256172
0.69263164 0.51946594 0.06256172
0.71218911 0.51946594 0.06256172
0.73175356 0.51946594 0.06256172
0.75130824 0.51946594 0.06256172
0.06256172 0.53829900 0.06256172
0.06256172 0.53829900 0.06256172
0.06256172 0.53829900 0.06256172
0.08857084 0.53829900 0.06256172
0.18666483 0.53829900 0.06256172
0.22358582 0.53829900 0.06256172
0.25116629 0.53829900 0.06256172
0.27468196 0.53829900 0.06256172
0.29600268 0.53829900 0.06256172
0.31602258 0.53829900 0.06256172
0.33524125 0.53829900 0.06256172
0.35396561 0.53829900 0.06256172
0.37239628 0.53829900 0.06256172
0.39066976 0.53829900 0.06256172
0.40888122 0.53829900 0.06256172
0.42709777 0.53829900 0.06256172
0.44536660 0.53829900 0.06256172
0.46372029 0.53829900 0.06256172
0.48218045 0.53829900 0.06256172
0.50076017 0.53829900 0.06256172
0.51946594 0.53829900 0.06256172
0.53829900 0.53829900 0.06256172
0.55725637 0.53829900 0.06256172
0.57633175 0.53829900 0.06256172
0.59551613 0.53829900 0.06256172
0.61479837 0.53829900 0.06256172
0.63416564 0.53829900 0.06256172
