src/ffmpeg_scripts/luts/flog-experimental_-1p67.cube
TITLE "flog-experimental_-1p67"
LUT_3D_SIZE 33
# Fujifilm F-Log/Rec2020 -> PQ (EOTF Only)/Rec2020, CineEI Shift -1.67, Black Level 0.00% IRE, Input 109% -> Output 100% - Created with LUTCalc v4.01 by Ben Turley October 2020
0.00000073 0.00000073 0.00000073
0.00000073 0.00000073 0.00000073
0.00000073 0.00000073 0.00000073
0.01649378 0.00000073 0.00000073
0.10011367 0.00000073 0.00000073
0.13684652 0.00000073 0.00000073
0.16572659 0.00000073 0.00000073
0.19123712 0.00000073 0.00000073
0.21502778 0.00000073 0.00000073
0.23791073 0.00000073 0.00000073
0.26035218 0.00000073 0.00000073
0.28264644 0.00000073 0.00000073
0.30499135 0.00000073 0.00000073
0.32752547 0.00000073 0.00000073
0.35034838 0.00000073 0.00000073
0.37353244 0.00000073 0.00000073
0.39713013 0.00000073 0.00000073
0.42117882 0.00000073 0.00000073
0.44570401 0.00000073 0.00000073
0.47072162 0.00000073 0.00000073
0.49623968 0.00000073 0.00000073
0.52225961 0.00000073 0.00000073
0.54877723 0.00000073 0.00000073
0.57578355 0.00000073 0.00000073
0.60326549 0.00000073 0.00000073
0.63120641 0.00000073 0.00000073
0.65958664 0.00000073 0.00000073
0.68838388 0.00000073 0.00000073
0.71757362 0.00000073 0.00000073
0.74712947 0.00000073 0.00000073
0.77702348 0.00000073 0.00000073
0.80722645 0.00000073 0.00000073
0.83770816 0.00000073 0.00000073
0.00000073 0.00000073 0.00000073
0.00000073 0.00000073 0.00000073
0.00000073 0.00000073 0.00000073
0.01649378 0.00000073 0.00000073
0.10011367 0.00000073 0.00000073
0.13684652 0.00000073 0.00000073
0.16572659 0.00000073 0.00000073
0.19123712 0.00000073 0.00000073
0.21502778 0.00000073 0.00000073
0.23791073 0.00000073 0.00000073
0.26035218 0.00000073 0.00000073
0.28264644 0.00000073 0.00000073
0.30499135 0.00000073 0.00000073
0.32752547 0.00000073 0.00000073
0.35034838 0.00000073 0.00000073
0.37353244 0.00000073 0.00000073
0.39713013 0.00000073 0.00000073
0.42117882 0.00000073 0.00000073
0.44570401 0.00000073 0.00000073
0.47072162 0.00000073 0.00000073
0.49623968 0.00000073 0.00000073
0.52225961 0.00000073 0.00000073
0.54877723 0.00000073 0.00000073
0.57578355 0.00000073 0.00000073
0.60326549 0.00000073 0.00000073
0.63120641 0.00000073 0.00000073
0.65958664 0.00000073 0.00000073
0.68838388 0.00000073 0.00000073
0.71757362 0.00000073 0.00000073
0.74712947 0.00000073 0.00000073
0.77702348 0.00000073 0.00000073
0.80722645 0.00000073 0.00000073
0.83770816 0.00000073 0.00000073
0.00000073 0.00000073 0.00000073
0.00000073 0.00000073 0.00000073
0.00000073 0.00000073 0.00000073
0.01649378 0.00000073 0.00000073
0.10011367 0.00000073 0.00000073
0.13684652 0.00000073 0.00000073
0.16572659 0.00000073 0.00000073
0.19123712 0.00000073 0.00000073
0.21502778 0.00000073 0.00000073
0.23791073 0.00000073 0.00000073
0.26035218 0.00000073 0.00000073
0.28264644 0.00000073 0.00000073
0.30499135 0.00000073 0.00000073
0.32752547 0.00000073 0.00000073
0.35034838 0.00000073 0.00000073
0.37353244 0.00000073 0.00000073
0.39713013 0.00000073 0.00000073
0.42117882 0.00000073 0.00000073
0.44570401 0.00000073 0.00000073
0.47072162 0.00000073 0.00000073
0.49623968 0.00000073 0.00000073
0.52225961 0.00000073 0.00000073
0.54877723 0.00000073 0.00000073
0.57578355 0.00000073 0.00000073
0.60326549 0.00000073 0.00000073
0.63120641 0.00000073 0.00000073
0.65958664 0.00000073 0.00000073
0.68838388 0.00000073 0.00000073
0.71757362 0.00000073 0.00000073
0.74712947 0.00000073 0.00000073
0.77702348 0.00000073 0.00000073
0.80722645 0.00000073 0.00000073
0.83770816 0.00000073 0.00000073
0.00000073 0.01649378 0.00000073
0.00000073 0.01649378 0.00000073
0.00000073 0.01649378 0.00000073
0.01649378 0.01649378 0.00000073
0.10011367 0.01649378 0.00000073
0.13684652 0.01649378 0.00000073
0.16572659 0.01649378 0.00000073
0.19123712 0.01649378 0.00000073
0.21502778 0.01649378 0.00000073
0.23791073 0.01649378 0.00000073
0.26035218 0.01649378 0.00000073
0.28264644 0.01649378 0.00000073
0.30499135 0.01649378 0.00000073
0.32752547 0.01649378 0.00000073
0.35034838 0.01649378 0.00000073
0.37353244 0.01649378 0.00000073
0.39713013 0.01649378 0.00000073
0.42117882 0.01649378 0.00000073
0.44570401 0.01649378 0.00000073
0.47072162 0.01649378 0.00000073
0.49623968 0.01649378 0.00000073
0.52225961 0.01649378 0.00000073
0.54877723 0.01649378 0.00000073
0.57578355 0.01649378 0.00000073
0.60326549 0.01649378 0.00000073
0.63120641 0.01649378 0.00000073
0.65958664 0.01649378 0.00000073
0.68838388 0.01649378 0.00000073
0.71757362 0.01649378 0.00000073
0.74712947 0.01649378 0.00000073
0.77702348 0.01649378 0.00000073
0.80722645 0.01649378 0.00000073
0.83770816 0.01649378 0.00000073
0.00000073 0.10011367 0.00000073
0.00000073 0.10011367 0.00000073
0.00000073 0.10011367 0.00000073
0.01649378 0.10011367 0.00000073
0.10011367 0.10011367 0.00000073
0.13684652 0.10011367 0.00000073
0.16572659 0.10011367 0.00000073
0.19123712 0.10011367 0.00000073
0.21502778 0.10011367 0.00000073
0.23791073 0.10011367 0.00000073
0.26035218 0.10011367 0.00000073
0.28264644 0.10011367 0.00000073
0.30499135 0.10011367 0.00000073
0.32752547 0.10011367 0.00000073
0.35034838 0.10011367 0.00000073
0.37353244 0.10011367 0.00000073
0.39713013 0.10011367 0.00000073
0.42117882 0.10011367 0.00000073
0.44570401 0.10011367 0.00000073
0.47072162 0.10011367 0.00000073
0.49623968 0.10011367 0.00000073
0.52225961 0.10011367 0.00000073
0.54877723 0.10011367 0.00000073
0.57578355 0.10011367 0.00000073
0.60326549 0.10011367 0.00000073
0.63120641 0.10011367 0.00000073
0.65958664 0.10011367 0.00000073
0.68838388 0.10011367 0.00000073
0.71757362 0.10011367 0.00000073
0.74712947 0.10011367 0.00000073
0.77702348 0.10011367 0.00000073
0.80722645 0.10011367 0.00000073
0.83770816 0.10011367 0.00000073
0.00000073 0.13684652 0.00000073
0.00000073 0.13684652 0.00000073
0.00000073 0.13684652 0.00000073
0.01649378 0.13684652 0.00000073
0.10011367 0.13684652 0.00000073
0.13684652 0.13684652 0.00000073
0.16572659 0.13684652 0.00000073
0.19123712 0.13684652 0.00000073
0.21502778 0.13684652 0.00000073
0.23791073 0.13684652 0.00000073
0.26035218 0.13684652 0.00000073
0.28264644 0.13684652 0.00000073
0.30499135 0.13684652 0.00000073
0.32752547 0.13684652 0.00000073
0.35034838 0.13684652 0.00000073
0.37353244 0.13684652 0.00000073
0.39713013 0.13684652 0.00000073
0.42117882 0.13684652 0.00000073
0.44570401 0.13684652 0.00000073
0.47072162 0.13684652 0.00000073
0.49623968 0.13684652 0.00000073
0.52225961 0.13684652 0.00000073
0.54877723 0.13684652 0.00000073
0.57578355 0.13684652 0.00000073
0.60326549 0.13684652 0.00000073
0.63120641 0.13684652 0.00000073
0.65958664 0.13684652 0.00000073
0.68838388 0.13684652 0.00000073
0.71757362 0.13684652 0.00000073
0.74712947 0.13684652 0.00000073
0.77702348 0.13684652 0.00000073
0.80722645 0.13684652 0.00000073
0.83770816 0.13684652 0.00000073
0.00000073 0.16572659 0.00000073
0.00000073 0.16572659 0.00000073
0.00000073 0.16572659 0.00000073
0.01649378 0.16572659 0.00000073
0.10011367 0.16572659 0.00000073
0.13684652 0.16572659 0.00000073
0.16572659 0.16572659 0.00000073
0.19123712 0.16572659 0.00000073
0.21502778 0.16572659 0.00000073
0.23791073 0.16572659 0.00000073
0.26035218 0.16572659 0.00000073
0.28264644 0.16572659 0.00000073
0.30499135 0.16572659 0.00000073
0.32752547 0.16572659 0.00000073
0.35034838 0.16572659 0.00000073
0.37353244 0.16572659 0.00000073
0.39713013 0.16572659 0.00000073
0.42117882 0.16572659 0.00000073
0.44570401 0.16572659 0.00000073
0.47072162 0.16572659 0.00000073
0.49623968 0.16572659 0.00000073
0.52225961 0.16572659 0.00000073
0.54877723 0.16572659 0.00000073
0.57578355 0.16572659 0.00000073
0.60326549 0.16572659 0.00000073
0.63120641 0.16572659 0.00000073
0.65958664 0.16572659 0.00000073
0.68838388 0.16572659 0.00000073
0.71757362 0.16572659 0.00000073
0.74712947 0.16572659 0.00000073
0.77702348 0.16572659 0.00000073
0.80722645 0.16572659 0.00000073
0.83770816 0.16572659 0.00000073
0.00000073 0.19123712 0.00000073
0.00000073 0.19123712 0.00000073
0.00000073 0.19123712 0.00000073
0.01649378 0.19123712 0.00000073
0.10011367 0.19123712 0.00000073
0.13684652 0.19123712 0.00000073
0.16572659 0.19123712 0.00000073
0.19123712 0.19123712 0.00000073
0.21502778 0.19123712 0.00000073
0.23791073 0.19123712 0.00000073
0.26035218 0.19123712 0.00000073
0.28264644 0.19123712 0.00000073
0.30499135 0.19123712 0.00000073
0.32752547 0.19123712 0.00000073
0.35034838 0.19123712 0.00000073
0.37353244 0.19123712 0.00000073
0.39713013 0.19123712 0.00000073
0.42117882 0.19123712 0.00000073
0.44570401 0.19123712 0.00000073
0.47072162 0.19123712 0.00000073
0.49623968 0.19123712 0.00000073
0.52225961 0.19123712 0.00000073
0.54877723 0.19123712 0.00000073
0.57578355 0.19123712 0.00000073
0.60326549 0.19123712 0.00000073
0.63120641 0.19123712 0.00000073
0.65958664 0.19123712 0.00000073
0.68838388 0.19123712 0.00000073
0.71757362 0.19123712 0.00000073
0.74712947 0.19123712 0.00000073
0.77702348 0.19123712 0.00000073
0.80722645 0.19123712 0.00000073
0.83770816 0.19123712 0.00000073
0.00000073 0.21502778 0.00000073
0.00000073 0.21502778 0.00000073
0.00000073 0.21502778 0.00000073
0.01649378 0.21502778 0.00000073
0.10011367 0.21502778 0.00000073
0.13684652 0.21502778 0.00000073
0.16572659 0.21502778 0.00000073
0.19123712 0.21502778 0.00000073
0.21502778 0.21502778 0.00000073
0.23791073 0.21502778 0.00000073
0.26035218 0.21502778 0.00000073
0.28264644 0.21502778 0.00000073
0.30499135 0.21502778 0.00000073
0.32752547 0.21502778 0.00000073
0.35034838 0.21502778 0.00000073
0.37353244 0.21502778 0.00000073
0.39713013 0.21502778 0.00000073
0.42117882 0.21502778 0.00000073
0.44570401 0.21502778 0.00000073
0.47072162 0.21502778 0.00000073
0.49623968 0.21502778 0.00000073
0.52225961 0.21502778 0.00000073
0.54877723 0.21502778 0.00000073
0.57578355 0.21502778 0.00000073
0.60326549 0.21502778 0.00000073
0.63120641 0.21502778 0.00000073
0.65958664 0.21502778 0.00000073
0.68838388 0.21502778 0.00000073
0.71757362 0.21502778 0.00000073
0.74712947 0.21502778 0.00000073
0.77702348 0.21502778 0.00000073
0.80722645 0.21502778 0.00000073
0.83770816 0.21502778 0.00000073
0.00000073 0.23791073 0.00000073
0.00000073 0.23791073 0.00000073
0.00000073 0.23791073 0.00000073
0.01649378 0.23791073 0.00000073
0.10011367 0.23791073 0.00000073
0.13684652 0.23791073 0.00000073
0.16572659 0.23791073 0.00000073
0.19123712 0.23791073 0.00000073
0.21502778 0.23791073 0.00000073
0.23791073 0.23791073 0.00000073
0.26035218 0.23791073 0.00000073
0.28264644 0.23791073 0.00000073
0.30499135 0.23791073 0.00000073
0.32752547 0.23791073 0.00000073
0.35034838 0.23791073 0.00000073
0.37353244 0.23791073 0.00000073
0.39713013 0.23791073 0.00000073
0.42117882 0.23791073 0.00000073
0.44570401 0.23791073 0.00000073
0.47072162 0.23791073 0.00000073
0.49623968 0.23791073 0.00000073
0.52225961 0.23791073 0.00000073
0.54877723 0.23791073 0.00000073
0.57578355 0.23791073 0.00000073
0.60326549 0.23791073 0.00000073
0.63120641 0.23791073 0.00000073
0.65958664 0.23791073 0.00000073
0.68838388 0.23791073 0.00000073
0.71757362 0.23791073 0.00000073
0.74712947 0.23791073 0.00000073
0.77702348 0.23791073 0.00000073
0.80722645 0.23791073 0.00000073
0.83770816 0.23791073 0.00000073
0.00000073 0.26035218 0.00000073
0.00000073 0.26035218 0.00000073
0.00000073 0.26035218 0.00000073
0.01649378 0.26035218 0.00000073
0.10011367 0.26035218 0.00000073
0.13684652 0.26035218 0.00000073
0.16572659 0.26035218 0.00000073
0.19123712 0.26035218 0.00000073
0.21502778 0.26035218 0.00000073
0.23791073 0.26035218 0.00000073
0.26035218 0.26035218 0.00000073
0.28264644 0.26035218 0.00000073
0.30499135 0.26035218 0.00000073
0.32752547 0.26035218 0.00000073
0.35034838 0.26035218 0.00000073
0.37353244 0.26035218 0.00000073
0.39713013 0.26035218 0.00000073
0.42117882 0.26035218 0.00000073
0.44570401 0.26035218 0.00000073
0.47072162 0.26035218 0.00000073
0.49623968 0.26035218 0.00000073
0.52225961 0.26035218 0.00000073
0.54877723 0.26035218 0.00000073
0.57578355 0.26035218 0.00000073
0.60326549 0.26035218 0.00000073
0.63120641 0.26035218 0.00000073
0.65958664 0.26035218 0.00000073
0.68838388 0.26035218 0.00000073
0.71757362 0.26035218 0.00000073
0.74712947 0.26035218 0.00000073
0.77702348 0.26035218 0.00000073
0.80722645 0.26035218 0.00000073
0.83770816 0.26035218 0.00000073
0.00000073 0.28264644 0.00000073
0.00000073 0.28264644 0.00000073
0.00000073 0.28264644 0.00000073
0.01649378 0.28264644 0.00000073
0.10011367 0.28264644 0.00000073
0.13684652 0.28264644 0.00000073
0.16572659 0.28264644 0.00000073
0.19123712 0.28264644 0.00000073
0.21502778 0.28264644 0.00000073
0.23791073 0.28264644 0.00000073
0.26035218 0.28264644 0.00000073
0.28264644 0.28264644 0.00000073
0.30499135 0.28264644 0.00000073
0.32752547 0.28264644 0.00000073
0.35034838 0.28264644 0.00000073
0.37353244 0.28264644 0.00000073
0.39713013 0.28264644 0.00000073
0.42117882 0.28264644 0.00000073
0.44570401 0.28264644 0.00000073
0.47072162 0.28264644 0.00000073
0.49623968 0.28264644 0.00000073
0.52225961 0.28264644 0.00000073
0.54877723 0.28264644 0.00000073
0.57578355 0.28264644 0.00000073
0.60326549 0.28264644 0.00000073
0.63120641 0.28264644 0.00000073
0.65958664 0.28264644 0.00000073
0.68838388 0.28264644 0.00000073
0.71757362 0.28264644 0.00000073
0.74712947 0.28264644 0.00000073
0.77702348 0.28264644 0.00000073
0.80722645 0.28264644 0.00000073
0.83770816 0.28264644 0.00000073
0.00000073 0.30499135 0.00000073
0.00000073 0.30499135 0.00000073
0.00000073 0.30499135 0.00000073
0.01649378 0.30499135 0.00000073
0.10011367 0.30499135 0.00000073
0.13684652 0.30499135 0.00000073
0.16572659 0.30499135 0.00000073
0.19123712 0.30499135 0.00000073
0.21502778 0.30499135 0.00000073
0.23791073 0.30499135 0.00000073
0.26035218 0.30499135 0.00000073
0.28264644 0.30499135 0.00000073
0.30499135 0.30499135 0.00000073
0.32752547 0.30499135 0.00000073
0.35034838 0.30499135 0.00000073
0.37353244 0.30499135 0.00000073
0.39713013 0.30499135 0.00000073
0.42117882 0.30499135 0.00000073
0.44570401 0.30499135 0.00000073
0.47072162 0.30499135 0.00000073
0.49623968 0.30499135 0.00000073
0.52225961 0.30499135 0.00000073
0.54877723 0.30499135 0.00000073
0.57578355 0.30499135 0.00000073
0.60326549 0.30499135 0.00000073
0.63120641 0.30499135 0.00000073
0.65958664 0.30499135 0.00000073
0.68838388 0.30499135 0.00000073
0.71757362 0.30499135 0.00000073
0.74712947 0.30499135 0.00000073
0.77702348 0.30499135 0.00000073
0.80722645 0.30499135 0.00000073
0.83770816 0.30499135 0.00000073
0.00000073 0.32752547 0.00000073
0.00000073 0.32752547 0.00000073
0.00000073 0.32752547 0.00000073
0.01649378 0.32752547 0.00000073
0.10011367 0.32752547 0.00000073
0.13684652 0.32752547 0.00000073
0.16572659 0.32752547 0.00000073
0.19123712 0.32752547 0.00000073
0.21502778 0.32752547 0.00000073
0.23791073 0.32752547 0.00000073
0.26035218 0.32752547 0.00000073
0.28264644 0.32752547 0.00000073
0.30499135 0.32752547 0.00000073
0.32752547 0.32752547 0.00000073
0.35034838 0.32752547 0.00000073
0.37353244 0.32752547 0.00000073
0.39713013 0.32752547 0.00000073
0.42117882 0.32752547 0.00000073
0.44570401 0.32752547 0.00000073
0.47072162 0.32752547 0.00000073
0.49623968 0.32752547 0.00000073
0.52225961 0.32752547 0.00000073
0.54877723 0.32752547 0.00000073
0.57578355 0.32752547 0.00000073
0.60326549 0.32752547 0.00000073
0.63120641 0.32752547 0.00000073
0.65958664 0.32752547 0.00000073
0.68838388 0.32752547 0.00000073
0.71757362 0.32752547 0.00000073
0.74712947 0.32752547 0.00000073
0.77702348 0.32752547 0.00000073
0.80722645 0.32752547 0.00000073
0.83770816 0.32752547 0.00000073
0.00000073 0.35034838 0.00000073
0.00000073 0.35034838 0.00000073
0.00000073 0.35034838 0.00000073
0.01649378 0.35034838 0.00000073
0.10011367 0.35034838 0.00000073
0.13684652 0.35034838 0.00000073
0.16572659 0.35034838 0.00000073
0.19123712 0.35034838 0.00000073
0.21502778 0.35034838 0.00000073
0.23791073 0.35034838 0.00000073
0.26035218 0.35034838 0.00000073
0.28264644 0.35034838 0.00000073
0.30499135 0.35034838 0.00000073
0.32752547 0.35034838 0.00000073
0.35034838 0.35034838 0.00000073
0.37353244 0.35034838 0.00000073
0.39713013 0.35034838 0.00000073
0.42117882 0.35034838 0.00000073
0.44570401 0.35034838 0.00000073
0.47072162 0.35034838 0.00000073
0.49623968 0.35034838 0.00000073
0.52225961 0.35034838 0.00000073
0.54877723 0.35034838 0.00000073
0.57578355 0.35034838 0.00000073
0.60326549 0.35034838 0.00000073
0.63120641 0.35034838 0.00000073
0.65958664 0.35034838 0.00000073
0.68838388 0.35034838 0.00000073
0.71757362 0.35034838 0.00000073
0.74712947 0.35034838 0.00000073
0.77702348 0.35034838 0.00000073
0.80722645 0.35034838 0.00000073
0.83770816 0.35034838 0.00000073
0.00000073 0.37353244 0.00000073
0.00000073 0.37353244 0.00000073
0.00000073 0.37353244 0.00000073
0.01649378 0.37353244 0.00000073
0.10011367 0.37353244 0.00000073
0.13684652 0.37353244 0.00000073
0.16572659 0.37353244 0.00000073
0.19123712 0.37353244 0.00000073
0.21502778 0.37353244 0.00000073
0.23791073 0.37353244 0.00000073
0.26035218 0.37353244 0.00000073
0.28264644 0.37353244 0.00000073
0.30499135 0.37353244 0.00000073
0.32752547 0.37353244 0.00000073
0.35034838 0.37353244 0.00000073
0.37353244 0.37353244 0.00000073
0.39713013 0.37353244 0.00000073
0.42117882 0.37353244 0.00000073
0.44570401 0.37353244 0.00000073
0.47072162 0.37353244 0.00000073
0.49623968 0.37353244 0.00000073
0.52225961 0.37353244 0.00000073
0.54877723 0.37353244 0.00000073
0.57578355 0.37353244 0.00000073
0.60326549 0.37353244 0.00000073
0.63120641 0.37353244 0.00000073
0.65958664 0.37353244 0.00000073
0.68838388 0.37353244 0.00000073
0.71757362 0.37353244 0.00000073
0.74712947 0.37353244 0.00000073
0.77702348 0.37353244 0.00000073
0.80722645 0.37353244 0.00000073
0.83770816 0.37353244 0.00000073
0.00000073 0.39713013 0.00000073
0.00000073 0.39713013 0.00000073
0.00000073 0.39713013 0.00000073
0.01649378 0.39713013 0.00000073
0.10011367 0.39713013 0.00000073
0.13684652 0.39713013 0.00000073
0.16572659 0.39713013 0.00000073
0.19123712 0.39713013 0.00000073
0.21502778 0.39713013 0.00000073
0.23791073 0.39713013 0.00000073
0.26035218 0.39713013 0.00000073
0.28264644 0.39713013 0.00000073
0.30499135 0.39713013 0.00000073
0.32752547 0.39713013 0.00000073
0.35034838 0.39713013 0.00000073
0.37353244 0.39713013 0.00000073
0.39713013 0.39713013 0.00000073
0.42117882 0.39713013 0.00000073
0.44570401 0.39713013 0.00000073
0.47072162 0.39713013 0.00000073
0.49623968 0.39713013 0.00000073
0.52225961 0.39713013 0.00000073
0.54877723 0.39713013 0.00000073
0.57578355 0.39713013 0.00000073
0.60326549 0.39713013 0.00000073
0.63120641 0.39713013 0.00000073
0.65958664 0.39713013 0.00000073
0.68838388 0.39713013 0.00000073
0.71757362 0.39713013 0.00000073
0.74712947 0.39713013 0.00000073
0.77702348 0.39713013 0.00000073
0.80722645 0.39713013 0.00000073
0.83770816 0.39713013 0.00000073
0.00000073 0.42117882 0.00000073
0.00000073 0.42117882 0.00000073
0.00000073 0.42117882 0.00000073
0.01649378 0.42117882 0.00000073
0.10011367 0.42117882 0.00000073
0.13684652 0.42117882 0.00000073
0.16572659 0.42117882 0.00000073
0.19123712 0.42117882 0.00000073
0.21502778 0.42117882 0.00000073
0.23791073 0.42117882 0.00000073
0.26035218 0.42117882 0.00000073
0.28264644 0.42117882 0.00000073
0.30499135 0.42117882 0.00000073
0.32752547 0.42117882 0.00000073
0.35034838 0.42117882 0.00000073
0.37353244 0.42117882 0.00000073
0.39713013 0.42117882 0.00000073
0.42117882 0.42117882 0.00000073
0.44570401 0.42117882 0.00000073
0.47072162 0.42117882 0.00000073
0.49623968 0.42117882 0.00000073
0.52225961 0.42117882 0.00000073
0.54877723 0.42117882 0.00000073
0.57578355 0.42117882 0.00000073
0.60326549 0.42117882 0.00000073
0.63120641 0.42117882 0.00000073
0.65958664 0.42117882 0.00000073
0.68838388 0.42117882 0.00000073
0.71757362 0.42117882 0.00000073
0.74712947 0.42117882 0.00000073
0.77702348 0.42117882 0.00000073
0.80722645 0.42117882 0.00000073
0.83770816 0.42117882 0.00000073
0.00000073 0.44570401 0.00000073
0.00000073 0.44570401 0.00000073
0.00000073 0.44570401 0.00000073
0.01649378 0.44570401 0.00000073
0.10011367 0.44570401 0.00000073
0.13684652 0.44570401 0.00000073
0.16572659 0.44570401 0.00000073
0.19123712 0.44570401 0.00000073
0.21502778 0.44570401 0.00000073
0.23791073 0.44570401 0.00000073
0.26035218 0.44570401 0.00000073
0.28264644 0.44570401 0.00000073
0.30499135 0.44570401 0.00000073
0.32752547 0.44570401 0.00000073
0.35034838 0.44570401 0.00000073
0.37353244 0.44570401 0.00000073
0.39713013 0.44570401 0.00000073
0.42117882 0.44570401 0.00000073
0.44570401 0.44570401 0.00000073
0.47072162 0.44570401 0.00000073
0.49623968 0.44570401 0.00000073
0.52225961 0.44570401 0.00000073
0.54877723 0.44570401 0.00000073
0.57578355 0.44570401 0.00000073
0.60326549 0.44570401 0.00000073
0.63120641 0.44570401 0.00000073
0.65958664 0.44570401 0.00000073
0.68838388 0.44570401 0.00000073
0.71757362 0.44570401 0.00000073
0.74712947 0.44570401 0.00000073
0.77702348 0.44570401 0.00000073
0.80722645 0.44570401 0.00000073
0.83770816 0.44570401 0.00000073
0.00000073 0.47072162 0.00000073
0.00000073 0.47072162 0.00000073
0.00000073 0.47072162 0.00000073
0.01649378 0.47072162 0.00000073
0.10011367 0.47072162 0.00000073
0.13684652 0.47072162 0.00000073
0.16572659 0.47072162 0.00000073
0.19123712 0.47072162 0.00000073
0.21502778 0.47072162 0.00000073
0.23791073 0.47072162 0.00000073
0.26035218 0.47072162 0.00000073
0.28264644 0.47072162 0.00000073
0.30499135 0.47072162 0.00000073
0.32752547 0.47072162 0.00000073
0.35034838 0.47072162 0.00000073
0.37353244 0.47072162 0.00000073
0.39713013 0.47072162 0.00000073
0.42117882 0.47072162 0.00000073
0.44570401 0.47072162 0.00000073
0.47072162 0.47072162 0.00000073
0.49623968 0.47072162 0.00000073
0.52225961 0.47072162 0.00000073
0.54877723 0.47072162 0.00000073
0.57578355 0.47072162 0.00000073
0.60326549 0.47072162 0.00000073
0.63120641 0.47072162 0.00000073
0.65958664 0.47072162 0.00000073
0.68838388 0.47072162 0.00000073
0.71757362 0.47072162 0.00000073
0.74712947 0.47072162 0.00000073
0.77702348 0.47072162 0.00000073
0.80722645 0.47072162 0.00000073
0.83770816 0.47072162 0.00000073
0.00000073 0.49623968 0.00000073
0.00000073 0.49623968 0.00000073
0.00000073 0.49623968 0.00000073
0.01649378 0.49623968 0.00000073
0.10011367 0.49623968 0.00000073
0.13684652 0.49623968 0.00000073
0.16572659 0.49623968 0.00000073
0.19123712 0.49623968 0.00000073
0.21502778 0.49623968 0.00000073
0.23791073 0.49623968 0.00000073
0.26035218 0.49623968 0.00000073
0.28264644 0.49623968 0.00000073
0.30499135 0.49623968 0.00000073
0.32752547 0.49623968 0.00000073
0.35034838 0.49623968 0.00000073
0.37353244 0.49623968 0.00000073
0.39713013 0.49623968 0.00000073
0.42117882 0.49623968 0.00000073
0.44570401 0.49623968 0.00000073
0.47072162 0.49623968 0.00000073
0.49623968 0.49623968 0.00000073
0.52225961 0.49623968 0.00000073
0.54877723 0.49623968 0.00000073
0.57578355 0.49623968 0.00000073
0.60326549 0.49623968 0.00000073
0.63120641 0.49623968 0.00000073
0.65958664 0.49623968 0.00000073
0.68838388 0.49623968 0.00000073
0.71757362 0.49623968 0.00000073
0.74712947 0.49623968 0.00000073
0.77702348 0.49623968 0.00000073
0.80722645 0.49623968 0.00000073
0.83770816 0.49623968 0.00000073
0.00000073 0.52225961 0.00000073
0.00000073 0.52225961 0.00000073
0.00000073 0.52225961 0.00000073
0.01649378 0.52225961 0.00000073
0.10011367 0.52225961 0.00000073
0.13684652 0.52225961 0.00000073
0.16572659 0.52225961 0.00000073
0.19123712 0.52225961 0.00000073
0.21502778 0.52225961 0.00000073
0.23791073 0.52225961 0.00000073
0.26035218 0.52225961 0.00000073
0.28264644 0.52225961 0.00000073
0.30499135 0.52225961 0.00000073
0.32752547 0.52225961 0.00000073
0.35034838 0.52225961 0.00000073
0.37353244 0.52225961 0.00000073
0.39713013 0.52225961 0.00000073
0.42117882 0.52225961 0.00000073
0.44570401 0.52225961 0.00000073
0.47072162 0.52225961 0.00000073
0.49623968 0.52225961 0.00000073
0.52225961 0.52225961 0.00000073
0.54877723 0.52225961 0.00000073
0.57578355 0.52225961 0.00000073
0.60326549 0.52225961 0.00000073
0.63120641 0.52225961 0.00000073
0.65958664 0.52225961 0.00000073
