src/ffmpeg_scripts/luts/flog-smpte2084_-2p00.cube
TITLE "flog-smpte2084_-2p00"
LUT_3D_SIZE 5
# Fujifilm F-Log/Rec2020 -> PQ (EOTF Only)/Rec2020, CineEI Shift -2.00, Black Level 0.00% IRE, Input 109% -> Output 109% - Created with LUTCalc v4.01 by Ben Turley October 2020
0.06256172 0.06256172 0.06256172
0.18539518 0.06256172 0.06256172
0.29303756 0.06256172 0.06256172
0.41685891 0.06256172 0.06256172
0.55948061 0.06256172 0.06256172
0.06256172 0.18539518 0.06256172
0.18539518 0.18539518 0.06256172
0.29303756 0.18539518 0.06256172
0.41685891 0.18539518 0.06256172
0.55948061 0.18539518 0.06256172
0.06256172 0.29303756 0.06256172
0.18539518 0.29303756 0.06256172
0.29303756 0.29303756 0.06256172
0.41685891 0.29303756 0.06256172
0.55948061 0.29303756 0.06256172
0.06256172 0.41685891 0.06256172
0.18539518 0.41685891 0.06256172
0.29303756 0.41685891 0.06256172
0.41685891 0.41685891 0.06256172
0.55948061 0.41685891 0.06256172
0.06256172 0.55948061 0.06256172
0.18539518 0.55948061 0.06256172
0.29303756 0.55948061 0.06256172
0.41685891 0.55948061 0.06256172
0.55948061 0.55948061 0.06256172
0.06256172 0.06256172 0.18539518
0.18539518 0.06256172 0.18539518
0.29303756 0.06256172 0.18539518
0.41685891 0.06256172 0.18539518
0.55948061 0.06256172 0.18539518
0.06256172 0.18539518 0.18539518
0.18539518 0.18539518 0.18539518
0.29303756 0.18539518 0.18539518
0.41685891 0.18539518 0.18539518
0.55948061 0.18539518 0.18539518
0.06256172 0.29303756 0.18539518
0.18539518 0.29303756 0.18539518
0.29303756 0.29303756 0.18539518
0.41685891 0.29303756 0.18539518
0.55948061 0.29303756 0.18539518
0.06256172 0.41685891 0.18539518
0.18539518 0.41685891 0.18539518
0.29303756 0.41685891 0.18539518
0.41685891 0.41685891 0.18539518
0.55948061 0.41685891 0.18539518
0.06256172 0.55948061 0.18539518
0.18539518 0.55948061 0.18539518
0.29303756 0.55948061 0.18539518
0.41685891 0.55948061 0.18539518
0.55948061 0.55948061 0.18539518
0.06256172 0.06256172 0.29303756
0.18539518 0.06256172 0.29303756
0.29303756 0.06256172 0.29303756
0.41685891 0.06256172 0.29303756
0.55948061 0.06256172 0.29303756
0.06256172 0.18539518 0.29303756
0.18539518 0.18539518 0.29303756
0.29303756 0.18539518 0.29303756
0.41685891 0.18539518 0.29303756
0.55948061 0.18539518 0.29303756
0.06256172 0.29303756 0.29303756
0.18539518 0.29303756 0.29303756
0.29303756 0.29303756 0.29303756
0.41685891 0.29303756 0.29303756
0.55948061 0.29303756 0.29303756
0.06256172 0.41685891 0.29303756
0.18539518 0.41685891 0.29303756
0.29303756 0.41685891 0.29303756
0.41685891 0.41685891 0.29303756
0.55948061 0.41685891 0.29303756
0.06256172 0.55948061 0.29303756
0.18539518 0.55948061 0.29303756
0.29303756 0.55948061 0.29303756
0.41685891 0.55948061 0.29303756
0.55948061 0.55948061 0.29303756
0.06256172 0.06256172 0.41685891
0.18539518 0.06256172 0.41685891
0.29303756 0.06256172 0.41685891
0.41685891 0.06256172 0.41685891
0.55948061 0.06256172 0.41685891
0.06256172 0.18539518 0.41685891
0.18539518 0.18539518 0.41685891
0.29303756 0.18539518 0.41685891
0.41685891 0.18539518 0.41685891
0.55948061 0.18539518 0.41685891
0.06256172 0.29303756 0.41685891
0.18539518 0.29303756 0.41685891
0.29303756 0.29303756 0.41685891
0.41685891 0.29303756 0.41685891
0.55948061 0.29303756 0.41685891
0.06256172 0.41685891 0.41685891
0.18539518 0.41685891 0.41685891
0.29303756 0.41685891 0.41685891
0.41685891 0.41685891 0.41685891
0.55948061 0.41685891 0.41685891
0.06256172 0.55948061 0.41685891
0.18539518 0.55948061 0.41685891
0.29303756 0.55948061 0.41685891
0.41685891 0.55948061 0.41685891
0.55948061 0.55948061 0.41685891
0.06256172 0.06256172 0.55948061
0.18539518 0.06256172 0.55948061
0.29303756 0.06256172 0.55948061
0.41685891 0.06256172 0.55948061
0.55948061 0.06256172 0.55948061
0.06256172 0.18539518 0.55948061
0.18539518 0.18539518 0.55948061
0.29303756 0.18539518 0.55948061
0.41685891 0.18539518 0.55948061
0.55948061 0.18539518 0.55948061
0.06256172 0.29303756 0.55948061
0.18539518 0.29303756 0.55948061
0.29303756 0.29303756 0.55948061
0.41685891 0.29303756 0.55948061
0.55948061 0.29303756 0.55948061
0.06256172 0.41685891 0.55948061
0.18539518 0.41685891 0.55948061
0.29303756 0.41685891 0.55948061
0.41685891 0.41685891 0.55948061
0.55948061 0.41685891 0.55948061
0.06256172 0.55948061 0.55948061
0.18539518 0.55948061 0.55948061
0.29303756 0.55948061 0.55948061
0.41685891 0.55948061 0.55948061
0.55948061 0.55948061 0.55948061
