src/ffmpeg_scripts/luts/flog-experimental_-1p33.cube
TITLE "flog-experimental_-1p33"
LUT_3D_SIZE 33
# Fujifilm F-Log/Rec2020 -> PQ (EOTF Only)/Rec2020, CineEI Shift -1.33, Black Level 0.00% IRE, Input 109% -> Output 100% - Created with LUTCalc v4.01 by Ben Turley October 2020
0.00000073 0.00000073 0.00000073
0.00000073 0.00000073 0.00000073
0.00000073 0.00000073 0.00000073
0.01864411 0.00000073 0.00000073
0.10995254 0.00000073 0.00000073
0.14930815 0.00000073 0.00000073
0.18004778 0.00000073 0.00000073
0.20707677 0.00000073 0.00000073
0.23219113 0.00000073 0.00000073
0.25627140 0.00000073 0.00000073
0.27982090 0.00000073 0.00000073
0.30315600 0.00000073 0.00000073
0.32648831 0.00000073 0.00000073
0.34996528 0.00000073 0.00000073
0.37369224 0.00000073 0.00000073
0.39774524 0.00000073 0.00000073
0.42217904 0.00000073 0.00000073
0.44703228 0.00000073 0.00000073
0.47233106 0.00000073 0.00000073
0.49809136 0.00000073 0.00000073
0.52432095 0.00000073 0.00000073
0.55102073 0.00000073 0.00000073
0.57818587 0.00000073 0.00000073
0.60580663 0.00000073 0.00000073
0.63386917 0.00000073 0.00000073
0.66235608 0.00000073 0.00000073
0.69124694 0.00000073 0.00000073
0.72051883 0.00000073 0.00000073
0.75014664 0.00000073 0.00000073
0.78010352 0.00000073 0.00000073
0.81036117 0.00000073 0.00000073
0.84089013 0.00000073 0.00000073
0.87166008 0.00000073 0.00000073
0.00000073 0.00000073 0.00000073
0.00000073 0.00000073 0.00000073
0.00000073 0.00000073 0.00000073
0.01864411 0.00000073 0.00000073
0.10995254 0.00000073 0.00000073
0.14930815 0.00000073 0.00000073
0.18004778 0.00000073 0.00000073
0.20707677 0.00000073 0.00000073
0.23219113 0.00000073 0.00000073
0.25627140 0.00000073 0.00000073
0.27982090 0.00000073 0.00000073
0.30315600 0.00000073 0.00000073
0.32648831 0.00000073 0.00000073
0.34996528 0.00000073 0.00000073
0.37369224 0.00000073 0.00000073
0.39774524 0.00000073 0.00000073
0.42217904 0.00000073 0.00000073
0.44703228 0.00000073 0.00000073
0.47233106 0.00000073 0.00000073
0.49809136 0.00000073 0.00000073
0.52432095 0.00000073 0.00000073
0.55102073 0.00000073 0.00000073
0.57818587 0.00000073 0.00000073
0.60580663 0.00000073 0.00000073
0.63386917 0.00000073 0.00000073
0.66235608 0.00000073 0.00000073
0.69124694 0.00000073 0.00000073
0.72051883 0.00000073 0.00000073
0.75014664 0.00000073 0.00000073
0.78010352 0.00000073 0.00000073
0.81036117 0.00000073 0.00000073
0.84089013 0.00000073 0.00000073
0.87166008 0.00000073 0.00000073
0.00000073 0.00000073 0.00000073
0.00000073 0.00000073 0.00000073
0.00000073 0.00000073 0.00000073
0.01864411 0.00000073 0.00000073
0.10995254 0.00000073 0.00000073
0.14930815 0.00000073 0.00000073
0.18004778 0.00000073 0.00000073
0.20707677 0.00000073 0.00000073
0.23219113 0.00000073 0.00000073
0.25627140 0.00000073 0.00000073
0.27982090 0.00000073 0.00000073
0.30315600 0.00000073 0.00000073
0.32648831 0.00000073 0.00000073
0.34996528 0.00000073 0.00000073
0.37369224 0.00000073 0.00000073
0.39774524 0.00000073 0.00000073
0.42217904 0.00000073 0.00000073
0.44703228 0.00000073 0.00000073
0.47233106 0.00000073 0.00000073
0.49809136 0.00000073 0.00000073
0.52432095 0.00000073 0.00000073
0.55102073 0.00000073 0.00000073
0.57818587 0.00000073 0.00000073
0.60580663 0.00000073 0.00000073
0.63386917 0.00000073 0.00000073
0.66235608 0.00000073 0.00000073
0.69124694 0.00000073 0.00000073
0.72051883 0.00000073 0.00000073
0.75014664 0.00000073 0.00000073
0.78010352 0.00000073 0.00000073
0.81036117 0.00000073 0.00000073
0.84089013 0.00000073 0.00000073
0.87166008 0.00000073 0.00000073
0.00000073 0.01864411 0.00000073
0.00000073 0.01864411 0.00000073
0.00000073 0.01864411 0.00000073
0.01864411 0.01864411 0.00000073
0.10995254 0.01864411 0.00000073
0.14930815 0.01864411 0.00000073
0.18004778 0.01864411 0.00000073
0.20707677 0.01864411 0.00000073
0.23219113 0.01864411 0.00000073
0.25627140 0.01864411 0.00000073
0.27982090 0.01864411 0.00000073
0.30315600 0.01864411 0.00000073
0.32648831 0.01864411 0.00000073
0.34996528 0.01864411 0.00000073
0.37369224 0.01864411 0.00000073
0.39774524 0.01864411 0.00000073
0.42217904 0.01864411 0.00000073
0.44703228 0.01864411 0.00000073
0.47233106 0.01864411 0.00000073
0.49809136 0.01864411 0.00000073
0.52432095 0.01864411 0.00000073
0.55102073 0.01864411 0.00000073
0.57818587 0.01864411 0.00000073
0.60580663 0.01864411 0.00000073
0.63386917 0.01864411 0.00000073
0.66235608 0.01864411 0.00000073
0.69124694 0.01864411 0.00000073
0.72051883 0.01864411 0.00000073
0.75014664 0.01864411 0.00000073
0.78010352 0.01864411 0.00000073
0.81036117 0.01864411 0.00000073
0.84089013 0.01864411 0.00000073
0.87166008 0.01864411 0.00000073
0.00000073 0.10995254 0.00000073
0.00000073 0.10995254 0.00000073
0.00000073 0.10995254 0.00000073
0.01864411 0.10995254 0.00000073
0.10995254 0.10995254 0.00000073
0.14930815 0.10995254 0.00000073
0.18004778 0.10995254 0.00000073
0.20707677 0.10995254 0.00000073
0.23219113 0.10995254 0.00000073
0.25627140 0.10995254 0.00000073
0.27982090 0.10995254 0.00000073
0.30315600 0.10995254 0.00000073
0.32648831 0.10995254 0.00000073
0.34996528 0.10995254 0.00000073
0.37369224 0.10995254 0.00000073
0.39774524 0.10995254 0.00000073
0.42217904 0.10995254 0.00000073
0.44703228 0.10995254 0.00000073
0.47233106 0.10995254 0.00000073
0.49809136 0.10995254 0.00000073
0.52432095 0.10995254 0.00000073
0.55102073 0.10995254 0.00000073
0.57818587 0.10995254 0.00000073
0.60580663 0.10995254 0.00000073
0.63386917 0.10995254 0.00000073
0.66235608 0.10995254 0.00000073
0.69124694 0.10995254 0.00000073
0.72051883 0.10995254 0.00000073
0.75014664 0.10995254 0.00000073
0.78010352 0.10995254 0.00000073
0.81036117 0.10995254 0.00000073
0.84089013 0.10995254 0.00000073
0.87166008 0.10995254 0.00000073
0.00000073 0.14930815 0.00000073
0.00000073 0.14930815 0.00000073
0.00000073 0.14930815 0.00000073
0.01864411 0.14930815 0.00000073
0.10995254 0.14930815 0.00000073
0.14930815 0.14930815 0.00000073
0.18004778 0.14930815 0.00000073
0.20707677 0.14930815 0.00000073
0.23219113 0.14930815 0.00000073
0.25627140 0.14930815 0.00000073
0.27982090 0.14930815 0.00000073
0.30315600 0.14930815 0.00000073
0.32648831 0.14930815 0.00000073
0.34996528 0.14930815 0.00000073
0.37369224 0.14930815 0.00000073
0.39774524 0.14930815 0.00000073
0.42217904 0.14930815 0.00000073
0.44703228 0.14930815 0.00000073
0.47233106 0.14930815 0.00000073
0.49809136 0.14930815 0.00000073
0.52432095 0.14930815 0.00000073
0.55102073 0.14930815 0.00000073
0.57818587 0.14930815 0.00000073
0.60580663 0.14930815 0.00000073
0.63386917 0.14930815 0.00000073
0.66235608 0.14930815 0.00000073
0.69124694 0.14930815 0.00000073
0.72051883 0.14930815 0.00000073
0.75014664 0.14930815 0.00000073
0.78010352 0.14930815 0.00000073
0.81036117 0.14930815 0.00000073
0.84089013 0.14930815 0.00000073
0.87166008 0.14930815 0.00000073
0.00000073 0.18004778 0.00000073
0.00000073 0.18004778 0.00000073
0.00000073 0.18004778 0.00000073
0.01864411 0.18004778 0.00000073
0.10995254 0.18004778 0.00000073
0.14930815 0.18004778 0.00000073
0.18004778 0.18004778 0.00000073
0.20707677 0.18004778 0.00000073
0.23219113 0.18004778 0.00000073
0.25627140 0.18004778 0.00000073
0.27982090 0.18004778 0.00000073
0.30315600 0.18004778 0.00000073
0.32648831 0.18004778 0.00000073
0.34996528 0.18004778 0.00000073
0.37369224 0.18004778 0.00000073
0.39774524 0.18004778 0.00000073
0.42217904 0.18004778 0.00000073
0.44703228 0.18004778 0.00000073
0.47233106 0.18004778 0.00000073
0.49809136 0.18004778 0.00000073
0.52432095 0.18004778 0.00000073
0.55102073 0.18004778 0.00000073
0.57818587 0.18004778 0.00000073
0.60580663 0.18004778 0.00000073
0.63386917 0.18004778 0.00000073
0.66235608 0.18004778 0.00000073
0.69124694 0.18004778 0.00000073
0.72051883 0.18004778 0.00000073
0.75014664 0.18004778 0.00000073
0.78010352 0.18004778 0.00000073
0.81036117 0.18004778 0.00000073
0.84089013 0.18004778 0.00000073
0.87166008 0.18004778 0.00000073
0.00000073 0.20707677 0.00000073
0.00000073 0.20707677 0.00000073
0.00000073 0.20707677 0.00000073
0.01864411 0.20707677 0.00000073
0.10995254 0.20707677 0.00000073
0.14930815 0.20707677 0.00000073
0.18004778 0.20707677 0.00000073
0.20707677 0.20707677 0.00000073
0.23219113 0.20707677 0.00000073
0.25627140 0.20707677 0.00000073
0.27982090 0.20707677 0.00000073
0.30315600 0.20707677 0.00000073
0.32648831 0.20707677 0.00000073
0.34996528 0.20707677 0.00000073
0.37369224 0.20707677 0.00000073
0.39774524 0.20707677 0.00000073
0.42217904 0.20707677 0.00000073
0.44703228 0.20707677 0.00000073
0.47233106 0.20707677 0.00000073
0.49809136 0.20707677 0.00000073
0.52432095 0.20707677 0.00000073
0.55102073 0.20707677 0.00000073
0.57818587 0.20707677 0.00000073
0.60580663 0.20707677 0.00000073
0.63386917 0.20707677 0.00000073
0.66235608 0.20707677 0.00000073
0.69124694 0.20707677 0.00000073
0.72051883 0.20707677 0.00000073
0.75014664 0.20707677 0.00000073
0.78010352 0.20707677 0.00000073
0.81036117 0.20707677 0.00000073
0.84089013 0.20707677 0.00000073
0.87166008 0.20707677 0.00000073
0.00000073 0.23219113 0.00000073
0.00000073 0.23219113 0.00000073
0.00000073 0.23219113 0.00000073
0.01864411 0.23219113 0.00000073
0.10995254 0.23219113 0.00000073
0.14930815 0.23219113 0.00000073
0.18004778 0.23219113 0.00000073
0.20707677 0.23219113 0.00000073
0.23219113 0.23219113 0.00000073
0.25627140 0.23219113 0.00000073
0.27982090 0.23219113 0.00000073
0.30315600 0.23219113 0.00000073
0.32648831 0.23219113 0.00000073
0.34996528 0.23219113 0.00000073
0.37369224 0.23219113 0.00000073
0.39774524 0.23219113 0.00000073
0.42217904 0.23219113 0.00000073
0.44703228 0.23219113 0.00000073
0.47233106 0.23219113 0.00000073
0.49809136 0.23219113 0.00000073
0.52432095 0.23219113 0.00000073
0.55102073 0.23219113 0.00000073
0.57818587 0.23219113 0.00000073
0.60580663 0.23219113 0.00000073
0.63386917 0.23219113 0.00000073
0.66235608 0.23219113 0.00000073
0.69124694 0.23219113 0.00000073
0.72051883 0.23219113 0.00000073
0.75014664 0.23219113 0.00000073
0.78010352 0.23219113 0.00000073
0.81036117 0.23219113 0.00000073
0.84089013 0.23219113 0.00000073
0.87166008 0.23219113 0.00000073
0.00000073 0.25627140 0.00000073
0.00000073 0.25627140 0.00000073
0.00000073 0.25627140 0.00000073
0.01864411 0.25627140 0.00000073
0.10995254 0.25627140 0.00000073
0.14930815 0.25627140 0.00000073
0.18004778 0.25627140 0.00000073
0.20707677 0.25627140 0.00000073
0.23219113 0.25627140 0.00000073
0.25627140 0.25627140 0.00000073
0.27982090 0.25627140 0.00000073
0.30315600 0.25627140 0.00000073
0.32648831 0.25627140 0.00000073
0.34996528 0.25627140 0.00000073
0.37369224 0.25627140 0.00000073
0.39774524 0.25627140 0.00000073
0.42217904 0.25627140 0.00000073
0.44703228 0.25627140 0.00000073
0.47233106 0.25627140 0.00000073
0.49809136 0.25627140 0.00000073
0.52432095 0.25627140 0.00000073
0.55102073 0.25627140 0.00000073
0.57818587 0.25627140 0.00000073
0.60580663 0.25627140 0.00000073
0.63386917 0.25627140 0.00000073
0.66235608 0.25627140 0.00000073
0.69124694 0.25627140 0.00000073
0.72051883 0.25627140 0.00000073
0.75014664 0.25627140 0.00000073
0.78010352 0.25627140 0.00000073
0.81036117 0.25627140 0.00000073
0.84089013 0.25627140 0.00000073
0.87166008 0.25627140 0.00000073
0.00000073 0.27982090 0.00000073
0.00000073 0.27982090 0.00000073
0.00000073 0.27982090 0.00000073
0.01864411 0.27982090 0.00000073
0.10995254 0.27982090 0.00000073
0.14930815 0.27982090 0.00000073
0.18004778 0.27982090 0.00000073
0.20707677 0.27982090 0.00000073
0.23219113 0.27982090 0.00000073
0.25627140 0.27982090 0.00000073
0.27982090 0.27982090 0.00000073
0.30315600 0.27982090 0.00000073
0.32648831 0.27982090 0.00000073
0.34996528 0.27982090 0.00000073
0.37369224 0.27982090 0.00000073
0.39774524 0.27982090 0.00000073
0.42217904 0.27982090 0.00000073
0.44703228 0.27982090 0.00000073
0.47233106 0.27982090 0.00000073
0.49809136 0.27982090 0.00000073
0.52432095 0.27982090 0.00000073
0.55102073 0.27982090 0.00000073
0.57818587 0.27982090 0.00000073
0.60580663 0.27982090 0.00000073
0.63386917 0.27982090 0.00000073
0.66235608 0.27982090 0.00000073
0.69124694 0.27982090 0.00000073
0.72051883 0.27982090 0.00000073
0.75014664 0.27982090 0.00000073
0.78010352 0.27982090 0.00000073
0.81036117 0.27982090 0.00000073
0.84089013 0.27982090 0.00000073
0.87166008 0.27982090 0.00000073
0.00000073 0.30315600 0.00000073
0.00000073 0.30315600 0.00000073
0.00000073 0.30315600 0.00000073
0.01864411 0.30315600 0.00000073
0.10995254 0.30315600 0.00000073
0.14930815 0.30315600 0.00000073
0.18004778 0.30315600 0.00000073
0.20707677 0.30315600 0.00000073
0.23219113 0.30315600 0.00000073
0.25627140 0.30315600 0.00000073
0.27982090 0.30315600 0.00000073
0.30315600 0.30315600 0.00000073
0.32648831 0.30315600 0.00000073
0.34996528 0.30315600 0.00000073
0.37369224 0.30315600 0.00000073
0.39774524 0.30315600 0.00000073
0.42217904 0.30315600 0.00000073
0.44703228 0.30315600 0.00000073
0.47233106 0.30315600 0.00000073
0.49809136 0.30315600 0.00000073
0.52432095 0.30315600 0.00000073
0.55102073 0.30315600 0.00000073
0.57818587 0.30315600 0.00000073
0.60580663 0.30315600 0.00000073
0.63386917 0.30315600 0.00000073
0.66235608 0.30315600 0.00000073
0.69124694 0.30315600 0.00000073
0.72051883 0.30315600 0.00000073
0.75014664 0.30315600 0.00000073
0.78010352 0.30315600 0.00000073
0.81036117 0.30315600 0.00000073
0.84089013 0.30315600 0.00000073
0.87166008 0.30315600 0.00000073
0.00000073 0.32648831 0.00000073
0.00000073 0.32648831 0.00000073
0.00000073 0.32648831 0.00000073
0.01864411 0.32648831 0.00000073
0.10995254 0.32648831 0.00000073
0.14930815 0.32648831 0.00000073
0.18004778 0.32648831 0.00000073
0.20707677 0.32648831 0.00000073
0.23219113 0.32648831 0.00000073
0.25627140 0.32648831 0.00000073
0.27982090 0.32648831 0.00000073
0.30315600 0.32648831 0.00000073
0.32648831 0.32648831 0.00000073
0.34996528 0.32648831 0.00000073
0.37369224 0.32648831 0.00000073
0.39774524 0.32648831 0.00000073
0.42217904 0.32648831 0.00000073
0.44703228 0.32648831 0.00000073
0.47233106 0.32648831 0.00000073
0.49809136 0.32648831 0.00000073
0.52432095 0.32648831 0.00000073
0.55102073 0.32648831 0.00000073
0.57818587 0.32648831 0.00000073
0.60580663 0.32648831 0.00000073
0.63386917 0.32648831 0.00000073
0.66235608 0.32648831 0.00000073
0.69124694 0.32648831 0.00000073
0.72051883 0.32648831 0.00000073
0.75014664 0.32648831 0.00000073
0.78010352 0.32648831 0.00000073
0.81036117 0.32648831 0.00000073
0.84089013 0.32648831 0.00000073
0.87166008 0.32648831 0.00000073
0.00000073 0.34996528 0.00000073
0.00000073 0.34996528 0.00000073
0.00000073 0.34996528 0.00000073
0.01864411 0.34996528 0.00000073
0.10995254 0.34996528 0.00000073
0.14930815 0.34996528 0.00000073
0.18004778 0.34996528 0.00000073
0.20707677 0.34996528 0.00000073
0.23219113 0.34996528 0.00000073
0.25627140 0.34996528 0.00000073
0.27982090 0.34996528 0.00000073
0.30315600 0.34996528 0.00000073
0.32648831 0.34996528 0.00000073
0.34996528 0.34996528 0.00000073
0.37369224 0.34996528 0.00000073
0.39774524 0.34996528 0.00000073
0.42217904 0.34996528 0.00000073
0.44703228 0.34996528 0.00000073
0.47233106 0.34996528 0.00000073
0.49809136 0.34996528 0.00000073
0.52432095 0.34996528 0.00000073
0.55102073 0.34996528 0.00000073
0.57818587 0.34996528 0.00000073
0.60580663 0.34996528 0.00000073
0.63386917 0.34996528 0.00000073
0.66235608 0.34996528 0.00000073
0.69124694 0.34996528 0.00000073
0.72051883 0.34996528 0.00000073
0.75014664 0.34996528 0.00000073
0.78010352 0.34996528 0.00000073
0.81036117 0.34996528 0.00000073
0.84089013 0.34996528 0.00000073
0.87166008 0.34996528 0.00000073
0.00000073 0.37369224 0.00000073
0.00000073 0.37369224 0.00000073
0.00000073 0.37369224 0.00000073
0.01864411 0.37369224 0.00000073
0.10995254 0.37369224 0.00000073
0.14930815 0.37369224 0.00000073
0.18004778 0.37369224 0.00000073
0.20707677 0.37369224 0.00000073
0.23219113 0.37369224 0.00000073
0.25627140 0.37369224 0.00000073
0.27982090 0.37369224 0.00000073
0.30315600 0.37369224 0.00000073
0.32648831 0.37369224 0.00000073
0.34996528 0.37369224 0.00000073
0.37369224 0.37369224 0.00000073
0.39774524 0.37369224 0.00000073
0.42217904 0.37369224 0.00000073
0.44703228 0.37369224 0.00000073
0.47233106 0.37369224 0.00000073
0.49809136 0.37369224 0.00000073
0.52432095 0.37369224 0.00000073
0.55102073 0.37369224 0.00000073
0.57818587 0.37369224 0.00000073
0.60580663 0.37369224 0.00000073
0.63386917 0.37369224 0.00000073
0.66235608 0.37369224 0.00000073
0.69124694 0.37369224 0.00000073
0.72051883 0.37369224 0.00000073
0.75014664 0.37369224 0.00000073
0.78010352 0.37369224 0.00000073
0.81036117 0.37369224 0.00000073
0.84089013 0.37369224 0.00000073
0.87166008 0.37369224 0.00000073
0.00000073 0.39774524 0.00000073
0.00000073 0.39774524 0.00000073
0.00000073 0.39774524 0.00000073
0.01864411 0.39774524 0.00000073
0.10995254 0.39774524 0.00000073
0.14930815 0.39774524 0.00000073
0.18004778 0.39774524 0.00000073
0.20707677 0.39774524 0.00000073
0.23219113 0.39774524 0.00000073
0.25627140 0.39774524 0.00000073
0.27982090 0.39774524 0.00000073
0.30315600 0.39774524 0.00000073
0.32648831 0.39774524 0.00000073
0.34996528 0.39774524 0.00000073
0.37369224 0.39774524 0.00000073
0.39774524 0.39774524 0.00000073
0.42217904 0.39774524 0.00000073
0.44703228 0.39774524 0.00000073
0.47233106 0.39774524 0.00000073
0.49809136 0.39774524 0.00000073
0.52432095 0.39774524 0.00000073
0.55102073 0.39774524 0.00000073
0.57818587 0.39774524 0.00000073
0.60580663 0.39774524 0.00000073
0.63386917 0.39774524 0.00000073
0.66235608 0.39774524 0.00000073
0.69124694 0.39774524 0.00000073
0.72051883 0.39774524 0.00000073
0.75014664 0.39774524 0.00000073
0.78010352 0.39774524 0.00000073
0.81036117 0.39774524 0.00000073
0.84089013 0.39774524 0.00000073
0.87166008 0.39774524 0.00000073
0.00000073 0.42217904 0.00000073
0.00000073 0.42217904 0.00000073
0.00000073 0.42217904 0.00000073
0.01864411 0.42217904 0.00000073
0.10995254 0.42217904 0.00000073
0.14930815 0.42217904 0.00000073
0.18004778 0.42217904 0.00000073
0.20707677 0.42217904 0.00000073
0.23219113 0.42217904 0.00000073
0.25627140 0.42217904 0.00000073
0.27982090 0.42217904 0.00000073
0.30315600 0.42217904 0.00000073
0.32648831 0.42217904 0.00000073
0.34996528 0.42217904 0.00000073
0.37369224 0.42217904 0.00000073
0.39774524 0.42217904 0.00000073
0.42217904 0.42217904 0.00000073
0.44703228 0.42217904 0.00000073
0.47233106 0.42217904 0.00000073
0.49809136 0.42217904 0.00000073
0.52432095 0.42217904 0.00000073
0.55102073 0.42217904 0.00000073
0.57818587 0.42217904 0.00000073
0.60580663 0.42217904 0.00000073
0.63386917 0.42217904 0.00000073
0.66235608 0.42217904 0.00000073
0.69124694 0.42217904 0.00000073
0.72051883 0.42217904 0.00000073
0.75014664 0.42217904 0.00000073
0.78010352 0.42217904 0.00000073
0.81036117 0.42217904 0.00000073
0.84089013 0.42217904 0.00000073
0.87166008 0.42217904 0.00000073
0.00000073 0.44703228 0.00000073
0.00000073 0.44703228 0.00000073
0.00000073 0.44703228 0.00000073
0.01864411 0.44703228 0.00000073
0.10995254 0.44703228 0.00000073
0.14930815 0.44703228 0.00000073
0.18004778 0.44703228 0.00000073
0.20707677 0.44703228 0.00000073
0.23219113 0.44703228 0.00000073
0.25627140 0.44703228 0.00000073
0.27982090 0.44703228 0.00000073
0.30315600 0.44703228 0.00000073
0.32648831 0.44703228 0.00000073
0.34996528 0.44703228 0.00000073
0.37369224 0.44703228 0.00000073
0.39774524 0.44703228 0.00000073
0.42217904 0.44703228 0.00000073
0.44703228 0.44703228 0.00000073
0.47233106 0.44703228 0.00000073
0.49809136 0.44703228 0.00000073
0.52432095 0.44703228 0.00000073
0.55102073 0.44703228 0.00000073
0.57818587 0.44703228 0.00000073
0.60580663 0.44703228 0.00000073
0.63386917 0.44703228 0.00000073
0.66235608 0.44703228 0.00000073
0.69124694 0.44703228 0.00000073
0.72051883 0.44703228 0.00000073
0.75014664 0.44703228 0.00000073
0.78010352 0.44703228 0.00000073
0.81036117 0.44703228 0.00000073
0.84089013 0.44703228 0.00000073
0.87166008 0.44703228 0.00000073
0.00000073 0.47233106 0.00000073
0.00000073 0.47233106 0.00000073
0.00000073 0.47233106 0.00000073
0.01864411 0.47233106 0.00000073
0.10995254 0.47233106 0.00000073
0.14930815 0.47233106 0.00000073
0.18004778 0.47233106 0.00000073
0.20707677 0.47233106 0.00000073
0.23219113 0.47233106 0.00000073
0.25627140 0.47233106 0.00000073
0.27982090 0.47233106 0.00000073
0.30315600 0.47233106 0.00000073
0.32648831 0.47233106 0.00000073
0.34996528 0.47233106 0.00000073
0.37369224 0.47233106 0.00000073
0.39774524 0.47233106 0.00000073
0.42217904 0.47233106 0.00000073
0.44703228 0.47233106 0.00000073
0.47233106 0.47233106 0.00000073
0.49809136 0.47233106 0.00000073
0.52432095 0.47233106 0.00000073
0.55102073 0.47233106 0.00000073
0.57818587 0.47233106 0.00000073
0.60580663 0.47233106 0.00000073
0.63386917 0.47233106 0.00000073
0.66235608 0.47233106 0.00000073
0.69124694 0.47233106 0.00000073
0.72051883 0.47233106 0.00000073
0.75014664 0.47233106 0.00000073
0.78010352 0.47233106 0.00000073
0.81036117 0.47233106 0.00000073
0.84089013 0.47233106 0.00000073
0.87166008 0.47233106 0.00000073
0.00000073 0.49809136 0.00000073
0.00000073 0.49809136 0.00000073
0.00000073 0.49809136 0.00000073
0.01864411 0.49809136 0.00000073
0.10995254 0.49809136 0.00000073
0.14930815 0.49809136 0.00000073
0.18004778 0.49809136 0.00000073
0.20707677 0.49809136 0.00000073
0.23219113 0.49809136 0.00000073
0.25627140 0.49809136 0.00000073
0.27982090 0.49809136 0.00000073
0.30315600 0.49809136 0.00000073
0.32648831 0.49809136 0.00000073
0.34996528 0.49809136 0.00000073
0.37369224 0.49809136 0.00000073
0.39774524 0.49809136 0.00000073
0.42217904 0.49809136 0.00000073
0.44703228 0.49809136 0.00000073
0.47233106 0.49809136 0.00000073
0.49809136 0.49809136 0.00000073
0.52432095 0.49809136 0.00000073
0.55102073 0.49809136 0.00000073
0.57818587 0.49809136 0.00000073
0.60580663 0.49809136 0.00000073
0.63386917 0.49809136 0.00000073
0.66235608 0.49809136 0.00000073
0.69124694 0.49809136 0.00000073
0.72051883 0.49809136 0.00000073
0.75014664 0.49809136 0.00000073
0.78010352 0.49809136 0.00000073
0.81036117 0.49809136 0.00000073
0.84089013 0.49809136 0.00000073
0.87166008 0.49809136 0.00000073
0.00000073 0.52432095 0.00000073
0.00000073 0.52432095 0.00000073
0.00000073 0.52432095 0.00000073
0.01864411 0.52432095 0.00000073
0.10995254 0.52432095 0.00000073
0.14930815 0.52432095 0.00000073
0.18004778 0.52432095 0.00000073
0.20707677 0.52432095 0.00000073
0.23219113 0.52432095 0.00000073
0.25627140 0.52432095 0.00000073
0.27982090 0.52432095 0.00000073
0.30315600 0.52432095 0.00000073
0.32648831 0.52432095 0.00000073
0.34996528 0.52432095 0.00000073
0.37369224 0.52432095 0.00000073
0.39774524 0.52432095 0.00000073
0.42217904 0.52432095 0.00000073
0.44703228 0.52432095 0.00000073
0.47233106 0.52432095 0.00000073
0.49809136 0.52432095 0.00000073
0.52432095 0.52432095 0.00000073
0.55102073 0.52432095 0.00000073
0.57818587 0.52432095 0.00000073
0.60580663 0.52432095 0.00000073
0.63386917 0.52432095 0.00000073
0.66235608 0.52432095 0.00000073
0.69124694 0.52432095 0.00000073
0.72051883 0.52432095 0.00000073
0.75014664 0.52432095 0.00000073
0.78010352 0.52432095 0.00000073
0.81036117 0.52432095 0.00000073
0.84089013 0.52432095 0.00000073
0.87166008 0.52432095 0.00000073
0.00000073 0.55102073 0.00000073
0.00000073 0.55102073 0.00000073
0.00000073 0.55102073 0.00000073
0.01864411 0.55102073 0.00000073
0.10995254 0.55102073 0.00000073
0.14930815 0.55102073 0.00000073
0.18004778 0.55102073 0.00000073
0.20707677 0.55102073 0.00000073
0.23219113 0.55102073 0.00000073
0.25627140 0.55102073 0.00000073
0.27982090 0.55102073 0.00000073
0.30315600 0.55102073 0.00000073
0.32648831 0.55102073 0.00000073
0.34996528 0.55102073 0.00000073
0.37369224 0.55102073 0.00000073
0.39774524 0.55102073 0.00000073
0.42217904 0.55102073 0.00000073
0.44703228 0.55102073 0.00000073
0.47233106 0.55102073 0.00000073
0.49809136 0.55102073 0.00000073
0.52432095 0.55102073 0.00000073
0.55102073 0.55102073 0.00000073
0.57818587 0.55102073 0.00000073
0.60580663 0.55102073 0.00000073
0.63386917 0.55102073 0.00000073
0.66235608 0.55102073 0.00000073
0.69124694 0.55102073 0.00000073
