src/ffmpeg_scripts/luts/flog-experimental_-2p00.cube
TITLE "flog-experimental_-2p00"
LUT_3D_SIZE 5
# Fujifilm F-Log/Rec2020 -> PQ (EOTF Only)/Rec2020, CineEI Shift -2.00, Black Level 0.00% IRE, Input 109% -> Output 100% - Created with LUTCalc v4.01 by Ben Turley October 2020
0.00000073 0.00000073 0.00000073
0.19876036 0.00000073 0.00000073
0.37293897 0.00000073 0.00000073
0.57329713 0.00000073 0.00000073
0.80407657 0.00000073 0.00000073
0.00000073 0.19876036 0.00000073
0.19876036 0.19876036 0.00000073
0.37293897 0.19876036 0.00000073
0.57329713 0.19876036 0.00000073
0.80407657 0.19876036 0.00000073
0.00000073 0.37293897 0.00000073
0.19876036 0.37293897 0.00000073
0.37293897 0.37293897 0.00000073
0.57329713 0.37293897 0.00000073
0.80407657 0.37293897 0.00000073
0.00000073 0.57329713 0.00000073
0.19876036 0.57329713 0.00000073
0.37293897 0.57329713 0.00000073
0.57329713 0.57329713 0.00000073
0.80407657 0.57329713 0.00000073
0.00000073 0.80407657 0.00000073
0.19876036 0.80407657 0.00000073
0.37293897 0.80407657 0.00000073
0.57329713 0.80407657 0.00000073
0.80407657 0.80407657 0.00000073
0.00000073 0.00000073 0.19876036
0.19876036 0.00000073 0.19876036
0.37293897 0.00000073 0.19876036
0.57329713 0.00000073 0.19876036
0.80407657 0.00000073 0.19876036
0.00000073 0.19876036 0.19876036
0.19876036 0.19876036 0.19876036
0.37293897 0.19876036 0.19876036
0.57329713 0.19876036 0.19876036
0.80407657 0.19876036 0.19876036
0.00000073 0.37293897 0.19876036
0.19876036 0.37293897 0.19876036
0.37293897 0.37293897 0.19876036
0.57329713 0.37293897 0.19876036
0.80407657 0.37293897 0.19876036
0.00000073 0.57329713 0.19876036
0.19876036 0.57329713 0.19876036
0.37293897 0.57329713 0.19876036
0.57329713 0.57329713 0.19876036
0.80407657 0.57329713 0.19876036
0.00000073 0.80407657 0.19876036
0.19876036 0.80407657 0.19876036
0.37293897 0.80407657 0.19876036
0.57329713 0.80407657 0.19876036
0.80407657 0.80407657 0.19876036
0.00000073 0.00000073 0.37293897
0.19876036 0.00000073 0.37293897
0.37293897 0.00000073 0.37293897
0.57329713 0.00000073 0.37293897
0.80407657 0.00000073 0.37293897
0.00000073 0.19876036 0.37293897
0.19876036 0.19876036 0.37293897
0.37293897 0.19876036 0.37293897
0.57329713 0.19876036 0.37293897
0.80407657 0.19876036 0.37293897
0.00000073 0.37293897 0.37293897
0.19876036 0.37293897 0.37293897
0.37293897 0.37293897 0.37293897
0.57329713 0.37293897 0.37293897
0.80407657 0.37293897 0.37293897
0.00000073 0.57329713 0.37293897
0.19876036 0.57329713 0.37293897
0.37293897 0.57329713 0.37293897
0.57329713 0.57329713 0.37293897
0.80407657 0.57329713 0.37293897
0.00000073 0.80407657 0.37293897
0.19876036 0.80407657 0.37293897
0.37293897 0.80407657 0.37293897
0.57329713 0.80407657 0.37293897
0.80407657 0.80407657 0.37293897
0.00000073 0.00000073 0.57329713
0.19876036 0.00000073 0.57329713
0.37293897 0.00000073 0.57329713
0.57329713 0.00000073 0.57329713
0.80407657 0.00000073 0.57329713
0.00000073 0.19876036 0.57329713
0.19876036 0.19876036 0.57329713
0.37293897 0.19876036 0.57329713
0.57329713 0.19876036 0.57329713
0.80407657 0.19876036 0.57329713
0.00000073 0.37293897 0.57329713
0.19876036 0.37293897 0.57329713
0.37293897 0.37293897 0.57329713
0.57329713 0.37293897 0.57329713
0.80407657 0.37293897 0.57329713
0.00000073 0.57329713 0.57329713
0.19876036 0.57329713 0.57329713
0.37293897 0.57329713 0.57329713
0.57329713 0.57329713 0.57329713
0.80407657 0.57329713 0.57329713
0.00000073 0.80407657 0.57329713
0.19876036 0.80407657 0.57329713
0.37293897 0.80407657 0.57329713
0.57329713 0.80407657 0.57329713
0.80407657 0.80407657 0.57329713
0.00000073 0.00000073 0.80407657
0.19876036 0.00000073 0.80407657
0.37293897 0.00000073 0.80407657
0.57329713 0.00000073 0.80407657
0.80407657 0.00000073 0.80407657
0.00000073 0.19876036 0.80407657
0.19876036 0.19876036 0.80407657
0.37293897 0.19876036 0.80407657
0.57329713 0.19876036 0.80407657
0.80407657 0.19876036 0.80407657
0.00000073 0.37293897 0.80407657
0.19876036 0.37293897 0.80407657
0.37293897 0.37293897 0.80407657
0.57329713 0.37293897 0.80407657
0.80407657 0.37293897 0.80407657
0.00000073 0.57329713 0.80407657
0.19876036 0.57329713 0.80407657
0.37293897 0.57329713 0.80407657
0.57329713 0.57329713 0.80407657
0.80407657 0.57329713 0.80407657
0.00000073 0.80407657 0.80407657
0.19876036 0.80407657 0.80407657
0.37293897 0.80407657 0.80407657
0.57329713 0.80407657 0.80407657
0.80407657 0.80407657 0.80407657
