src/ffmpeg_scripts/luts/flog-experimental_2p00.cube
TITLE "flog-experimental_2p00"
LUT_3D_SIZE 9
# Fujifilm F-Log/Rec2020 -> PQ (EOTF Only)/Rec2020, CineEI Shift 2.00, Black Level 0.00% IRE, Input 109% -> Output 100% - Created with LUTCalc v4.01 by Ben Turley October 2020
0.00000073 0.00000073 0.00000073
0.25266301 0.00000073 0.00000073
0.45337282 0.00000073 0.00000073
0.58814891 0.00000073 0.00000073
0.71388076 0.00000073 0.00000073
0.83912795 0.00000073 0.00000073
0.96553298 0.00000073 0.00000073
1.00000000 0.00000073 0.00000073
1.00000000 0.00000073 0.00000073
0.00000073 0.25266301 0.00000073
0.25266301 0.25266301 0.00000073
0.45337282 0.25266301 0.00000073
0.58814891 0.25266301 0.00000073
0.71388076 0.25266301 0.00000073
0.83912795 0.25266301 0.00000073
0.96553298 0.25266301 0.00000073
1.00000000 0.25266301 0.00000073
1.00000000 0.25266301 0.00000073
0.00000073 0.45337282 0.00000073
0.25266301 0.45337282 0.00000073
0.45337282 0.45337282 0.00000073
0.58814891 0.45337282 0.00000073
0.71388076 0.45337282 0.00000073
0.83912795 0.45337282 0.00000073
0.96553298 0.45337282 0.00000073
1.00000000 0.45337282 0.00000073
1.00000000 0.45337282 0.00000073
0.00000073 0.58814891 0.00000073
0.25266301 0.58814891 0.00000073
0.45337282 0.58814891 0.00000073
0.58814891 0.58814891 0.00000073
0.71388076 0.58814891 0.00000073
0.83912795 0.58814891 0.00000073
0.96553298 0.58814891 0.00000073
1.00000000 0.58814891 0.00000073
1.00000000 0.58814891 0.00000073
0.00000073 0.71388076 0.00000073
0.25266301 0.71388076 0.00000073
0.45337282 0.71388076 0.00000073
0.58814891 0.71388076 0.00000073
0.71388076 0.71388076 0.00000073
0.83912795 0.71388076 0.00000073
0.96553298 0.71388076 0.00000073
1.00000000 0.71388076 0.00000073
1.00000000 0.71388076 0.00000073
0.00000073 0.83912795 0.00000073
0.25266301 0.83912795 0.00000073
0.45337282 0.83912795 0.00000073
0.58814891 0.83912795 0.00000073
0.71388076 0.83912795 0.00000073
0.83912795 0.83912795 0.00000073
0.96553298 0.83912795 0.00000073
1.00000000 0.83912795 0.00000073
1.00000000 0.83912795 0.00000073
0.00000073 0.96553298 0.00000073
0.25266301 0.96553298 0.00000073
0.45337282 0.96553298 0.00000073
0.58814891 0.96553298 0.00000073
0.71388076 0.96553298 0.00000073
0.83912795 0.96553298 0.00000073
0.96553298 0.96553298 0.00000073
1.00000000 0.96553298 0.00000073
1.00000000 0.96553298 0.00000073
0.00000073 1.00000000 0.00000073
0.25266301 1.00000000 0.00000073
0.45337282 1.00000000 0.00000073
0.58814891 1.00000000 0.00000073
0.71388076 1.00000000 0.00000073
0.83912795 1.00000000 0.00000073
0.96553298 1.00000000 0.00000073
1.00000000 1.00000000 0.00000073
1.00000000 1.00000000 0.00000073
0.00000073 1.00000000 0.00000073
0.25266301 1.00000000 0.00000073
0.45337282 1.00000000 0.00000073
0.58814891 1.00000000 0.00000073
0.71388076 1.00000000 0.00000073
0.83912795 1.00000000 0.00000073
0.96553298 1.00000000 0.00000073
1.00000000 1.00000000 0.00000073
1.00000000 1.00000000 0.00000073
0.00000073 0.00000073 0.25266301
0.25266301 0.00000073 0.25266301
0.45337282 0.00000073 0.25266301
0.58814891 0.00000073 0.25266301
0.71388076 0.00000073 0.25266301
0.83912795 0.00000073 0.25266301
0.96553298 0.00000073 0.25266301
1.00000000 0.00000073 0.25266301
1.00000000 0.00000073 0.25266301
0.00000073 0.25266301 0.25266301
0.25266301 0.25266301 0.25266301
0.45337282 0.25266301 0.25266301
0.58814891 0.25266301 0.25266301
0.71388076 0.25266301 0.25266301
0.83912795 0.25266301 0.25266301
0.96553298 0.25266301 0.25266301
1.00000000 0.25266301 0.25266301
1.00000000 0.25266301 0.25266301
0.00000073 0.45337282 0.25266301
0.25266301 0.45337282 0.25266301
0.45337282 0.45337282 0.25266301
0.58814891 0.45337282 0.25266301
0.71388076 0.45337282 0.25266301
0.83912795 0.45337282 0.25266301
0.96553298 0.45337282 0.25266301
1.00000000 0.45337282 0.25266301
1.00000000 0.45337282 0.25266301
0.00000073 0.58814891 0.25266301
0.25266301 0.58814891 0.25266301
0.45337282 0.58814891 0.25266301
0.58814891 0.58814891 0.25266301
0.71388076 0.58814891 0.25266301
0.83912795 0.58814891 0.25266301
0.96553298 0.58814891 0.25266301
1.00000000 0.58814891 0.25266301
1.00000000 0.58814891 0.25266301
0.00000073 0.71388076 0.25266301
0.25266301 0.71388076 0.25266301
0.45337282 0.71388076 0.25266301
0.58814891 0.71388076 0.25266301
0.71388076 0.71388076 0.25266301
0.83912795 0.71388076 0.25266301
0.96553298 0.71388076 0.25266301
1.00000000 0.71388076 0.25266301
1.00000000 0.71388076 0.25266301
0.00000073 0.83912795 0.25266301
0.25266301 0.83912795 0.25266301
0.45337282 0.83912795 0.25266301
0.58814891 0.83912795 0.25266301
0.71388076 0.83912795 0.25266301
0.83912795 0.83912795 0.25266301
0.96553298 0.83912795 0.25266301
1.00000000 0.83912795 0.25266301
1.00000000 0.83912795 0.25266301
0.00000073 0.96553298 0.25266301
0.25266301 0.96553298 0.25266301
0.45337282 0.96553298 0.25266301
0.58814891 0.96553298 0.25266301
0.71388076 0.96553298 0.25266301
0.83912795 0.96553298 0.25266301
0.96553298 0.96553298 0.25266301
1.00000000 0.96553298 0.25266301
1.00000000 0.96553298 0.25266301
0.00000073 1.00000000 0.25266301
0.25266301 1.00000000 0.25266301
0.45337282 1.00000000 0.25266301
0.58814891 1.00000000 0.25266301
0.71388076 1.00000000 0.25266301
0.83912795 1.00000000 0.25266301
0.96553298 1.00000000 0.25266301
1.00000000 1.00000000 0.25266301
1.00000000 1.00000000 0.25266301
0.00000073 1.00000000 0.25266301
0.25266301 1.00000000 0.25266301
0.45337282 1.00000000 0.25266301
0.58814891 1.00000000 0.25266301
0.71388076 1.00000000 0.25266301
0.83912795 1.00000000 0.25266301
0.96553298 1.00000000 0.25266301
1.00000000 1.00000000 0.25266301
1.00000000 1.00000000 0.25266301
0.00000073 0.00000073 0.45337282
0.25266301 0.00000073 0.45337282
0.45337282 0.00000073 0.45337282
0.58814891 0.00000073 0.45337282
0.71388076 0.00000073 0.45337282
0.83912795 0.00000073 0.45337282
0.96553298 0.00000073 0.45337282
1.00000000 0.00000073 0.45337282
1.00000000 0.00000073 0.45337282
0.00000073 0.25266301 0.45337282
0.25266301 0.25266301 0.45337282
0.45337282 0.25266301 0.45337282
0.58814891 0.25266301 0.45337282
0.71388076 0.25266301 0.45337282
0.83912795 0.25266301 0.45337282
0.96553298 0.25266301 0.45337282
1.00000000 0.25266301 0.45337282
1.00000000 0.25266301 0.45337282
0.00000073 0.45337282 0.45337282
0.25266301 0.45337282 0.45337282
0.45337282 0.45337282 0.45337282
0.58814891 0.45337282 0.45337282
0.71388076 0.45337282 0.45337282
0.83912795 0.45337282 0.45337282
0.96553298 0.45337282 0.45337282
1.00000000 0.45337282 0.45337282
1.00000000 0.45337282 0.45337282
0.00000073 0.58814891 0.45337282
0.25266301 0.58814891 0.45337282
0.45337282 0.58814891 0.45337282
0.58814891 0.58814891 0.45337282
0.71388076 0.58814891 0.45337282
0.83912795 0.58814891 0.45337282
0.96553298 0.58814891 0.45337282
1.00000000 0.58814891 0.45337282
1.00000000 0.58814891 0.45337282
0.00000073 0.71388076 0.45337282
0.25266301 0.71388076 0.45337282
0.45337282 0.71388076 0.45337282
0.58814891 0.71388076 0.45337282
0.71388076 0.71388076 0.45337282
0.83912795 0.71388076 0.45337282
0.96553298 0.71388076 0.45337282
1.00000000 0.71388076 0.45337282
1.00000000 0.71388076 0.45337282
0.00000073 0.83912795 0.45337282
0.25266301 0.83912795 0.45337282
0.45337282 0.83912795 0.45337282
0.58814891 0.83912795 0.45337282
0.71388076 0.83912795 0.45337282
0.83912795 0.83912795 0.45337282
0.96553298 0.83912795 0.45337282
1.00000000 0.83912795 0.45337282
1.00000000 0.83912795 0.45337282
0.00000073 0.96553298 0.45337282
0.25266301 0.96553298 0.45337282
0.45337282 0.96553298 0.45337282
0.58814891 0.96553298 0.45337282
0.71388076 0.96553298 0.45337282
0.83912795 0.96553298 0.45337282
0.96553298 0.96553298 0.45337282
1.00000000 0.96553298 0.45337282
1.00000000 0.96553298 0.45337282
0.00000073 1.00000000 0.45337282
0.25266301 1.00000000 0.45337282
0.45337282 1.00000000 0.45337282
0.58814891 1.00000000 0.45337282
0.71388076 1.00000000 0.45337282
0.83912795 1.00000000 0.45337282
0.96553298 1.00000000 0.45337282
1.00000000 1.00000000 0.45337282
1.00000000 1.00000000 0.45337282
0.00000073 1.00000000 0.45337282
0.25266301 1.00000000 0.45337282
0.45337282 1.00000000 0.45337282
0.58814891 1.00000000 0.45337282
0.71388076 1.00000000 0.45337282
0.83912795 1.00000000 0.45337282
0.96553298 1.00000000 0.45337282
1.00000000 1.00000000 0.45337282
1.00000000 1.00000000 0.45337282
0.00000073 0.00000073 0.58814891
0.25266301 0.00000073 0.58814891
0.45337282 0.00000073 0.58814891
0.58814891 0.00000073 0.58814891
0.71388076 0.00000073 0.58814891
0.83912795 0.00000073 0.58814891
0.96553298 0.00000073 0.58814891
1.00000000 0.00000073 0.58814891
1.00000000 0.00000073 0.58814891
0.00000073 0.25266301 0.58814891
0.25266301 0.25266301 0.58814891
0.45337282 0.25266301 0.58814891
0.58814891 0.25266301 0.58814891
0.71388076 0.25266301 0.58814891
0.83912795 0.25266301 0.58814891
0.96553298 0.25266301 0.58814891
1.00000000 0.25266301 0.58814891
1.00000000 0.25266301 0.58814891
0.00000073 0.45337282 0.58814891
0.25266301 0.45337282 0.58814891
0.45337282 0.45337282 0.58814891
0.58814891 0.45337282 0.58814891
0.71388076 0.45337282 0.58814891
0.83912795 0.45337282 0.58814891
0.96553298 0.45337282 0.58814891
1.00000000 0.45337282 0.58814891
1.00000000 0.45337282 0.58814891
0.00000073 0.58814891 0.58814891
0.25266301 0.58814891 0.58814891
0.45337282 0.58814891 0.58814891
0.58814891 0.58814891 0.58814891
0.71388076 0.58814891 0.58814891
0.83912795 0.58814891 0.58814891
0.96553298 0.58814891 0.58814891
1.00000000 0.58814891 0.58814891
1.00000000 0.58814891 0.58814891
0.00000073 0.71388076 0.58814891
0.25266301 0.71388076 0.58814891
0.45337282 0.71388076 0.58814891
0.58814891 0.71388076 0.58814891
0.71388076 0.71388076 0.58814891
0.83912795 0.71388076 0.58814891
0.96553298 0.71388076 0.58814891
1.00000000 0.71388076 0.58814891
1.00000000 0.71388076 0.58814891
0.00000073 0.83912795 0.58814891
0.25266301 0.83912795 0.58814891
0.45337282 0.83912795 0.58814891
0.58814891 0.83912795 0.58814891
0.71388076 0.83912795 0.58814891
0.83912795 0.83912795 0.58814891
0.96553298 0.83912795 0.58814891
1.00000000 0.83912795 0.58814891
1.00000000 0.83912795 0.58814891
0.00000073 0.96553298 0.58814891
0.25266301 0.96553298 0.58814891
0.45337282 0.96553298 0.58814891
0.58814891 0.96553298 0.58814891
0.71388076 0.96553298 0.58814891
0.83912795 0.96553298 0.58814891
0.96553298 0.96553298 0.58814891
1.00000000 0.96553298 0.58814891
1.00000000 0.96553298 0.58814891
0.00000073 1.00000000 0.58814891
0.25266301 1.00000000 0.58814891
0.45337282 1.00000000 0.58814891
0.58814891 1.00000000 0.58814891
0.71388076 1.00000000 0.58814891
0.83912795 1.00000000 0.58814891
0.96553298 1.00000000 0.58814891
1.00000000 1.00000000 0.58814891
1.00000000 1.00000000 0.58814891
0.00000073 1.00000000 0.58814891
0.25266301 1.00000000 0.58814891
0.45337282 1.00000000 0.58814891
0.58814891 1.00000000 0.58814891
0.71388076 1.00000000 0.58814891
0.83912795 1.00000000 0.58814891
0.96553298 1.00000000 0.58814891
1.00000000 1.00000000 0.58814891
1.00000000 1.00000000 0.58814891
0.00000073 0.00000073 0.71388076
0.25266301 0.00000073 0.71388076
0.45337282 0.00000073 0.71388076
0.58814891 0.00000073 0.71388076
0.71388076 0.00000073 0.71388076
0.83912795 0.00000073 0.71388076
0.96553298 0.00000073 0.71388076
1.00000000 0.00000073 0.71388076
1.00000000 0.00000073 0.71388076
0.00000073 0.25266301 0.71388076
0.25266301 0.25266301 0.71388076
0.45337282 0.25266301 0.71388076
0.58814891 0.25266301 0.71388076
0.71388076 0.25266301 0.71388076
0.83912795 0.25266301 0.71388076
0.96553298 0.25266301 0.71388076
1.00000000 0.25266301 0.71388076
1.00000000 0.25266301 0.71388076
0.00000073 0.45337282 0.71388076
0.25266301 0.45337282 0.71388076
0.45337282 0.45337282 0.71388076
0.58814891 0.45337282 0.71388076
0.71388076 0.45337282 0.71388076
0.83912795 0.45337282 0.71388076
0.96553298 0.45337282 0.71388076
1.00000000 0.45337282 0.71388076
1.00000000 0.45337282 0.71388076
0.00000073 0.58814891 0.71388076
0.25266301 0.58814891 0.71388076
0.45337282 0.58814891 0.71388076
0.58814891 0.58814891 0.71388076
0.71388076 0.58814891 0.71388076
0.83912795 0.58814891 0.71388076
0.96553298 0.58814891 0.71388076
1.00000000 0.58814891 0.71388076
1.00000000 0.58814891 0.71388076
0.00000073 0.71388076 0.71388076
0.25266301 0.71388076 0.71388076
0.45337282 0.71388076 0.71388076
0.58814891 0.71388076 0.71388076
0.71388076 0.71388076 0.71388076
0.83912795 0.71388076 0.71388076
0.96553298 0.71388076 0.71388076
1.00000000 0.71388076 0.71388076
1.00000000 0.71388076 0.71388076
0.00000073 0.83912795 0.71388076
0.25266301 0.83912795 0.71388076
0.45337282 0.83912795 0.71388076
0.58814891 0.83912795 0.71388076
0.71388076 0.83912795 0.71388076
0.83912795 0.83912795 0.71388076
0.96553298 0.83912795 0.71388076
1.00000000 0.83912795 0.71388076
1.00000000 0.83912795 0.71388076
0.00000073 0.96553298 0.71388076
0.25266301 0.96553298 0.71388076
0.45337282 0.96553298 0.71388076
0.58814891 0.96553298 0.71388076
0.71388076 0.96553298 0.71388076
0.83912795 0.96553298 0.71388076
0.96553298 0.96553298 0.71388076
1.00000000 0.96553298 0.71388076
1.00000000 0.96553298 0.71388076
0.00000073 1.00000000 0.71388076
0.25266301 1.00000000 0.71388076
0.45337282 1.00000000 0.71388076
0.58814891 1.00000000 0.71388076
0.71388076 1.00000000 0.71388076
0.83912795 1.00000000 0.71388076
0.96553298 1.00000000 0.71388076
1.00000000 1.00000000 0.71388076
1.00000000 1.00000000 0.71388076
0.00000073 1.00000000 0.71388076
0.25266301 1.00000000 0.71388076
0.45337282 1.00000000 0.71388076
0.58814891 1.00000000 0.71388076
0.71388076 1.00000000 0.71388076
0.83912795 1.00000000 0.71388076
0.96553298 1.00000000 0.71388076
1.00000000 1.00000000 0.71388076
1.00000000 1.00000000 0.71388076
0.00000073 0.00000073 0.83912795
0.25266301 0.00000073 0.83912795
0.45337282 0.00000073 0.83912795
0.58814891 0.00000073 0.83912795
0.71388076 0.00000073 0.83912795
0.83912795 0.00000073 0.83912795
0.96553298 0.00000073 0.83912795
1.00000000 0.00000073 0.83912795
1.00000000 0.00000073 0.83912795
0.00000073 0.25266301 0.83912795
0.25266301 0.25266301 0.83912795
0.45337282 0.25266301 0.83912795
0.58814891 0.25266301 0.83912795
0.71388076 0.25266301 0.83912795
0.83912795 0.25266301 0.83912795
0.96553298 0.25266301 0.83912795
1.00000000 0.25266301 0.83912795
1.00000000 0.25266301 0.83912795
0.00000073 0.45337282 0.83912795
0.25266301 0.45337282 0.83912795
0.45337282 0.45337282 0.83912795
0.58814891 0.45337282 0.83912795
0.71388076 0.45337282 0.83912795
0.83912795 0.45337282 0.83912795
0.96553298 0.45337282 0.83912795
1.00000000 0.45337282 0.83912795
1.00000000 0.45337282 0.83912795
0.00000073 0.58814891 0.83912795
0.25266301 0.58814891 0.83912795
0.45337282 0.58814891 0.83912795
0.58814891 0.58814891 0.83912795
0.71388076 0.58814891 0.83912795
0.83912795 0.58814891 0.83912795
0.96553298 0.58814891 0.83912795
1.00000000 0.58814891 0.83912795
1.00000000 0.58814891 0.83912795
0.00000073 0.71388076 0.83912795
0.25266301 0.71388076 0.83912795
0.45337282 0.71388076 0.83912795
0.58814891 0.71388076 0.83912795
0.71388076 0.71388076 0.83912795
0.83912795 0.71388076 0.83912795
0.96553298 0.71388076 0.83912795
1.00000000 0.71388076 0.83912795
1.00000000 0.71388076 0.83912795
0.00000073 0.83912795 0.83912795
0.25266301 0.83912795 0.83912795
0.45337282 0.83912795 0.83912795
0.58814891 0.83912795 0.83912795
0.71388076 0.83912795 0.83912795
0.83912795 0.83912795 0.83912795
0.96553298 0.83912795 0.83912795
1.00000000 0.83912795 0.83912795
1.00000000 0.83912795 0.83912795
0.00000073 0.96553298 0.83912795
0.25266301 0.96553298 0.83912795
0.45337282 0.96553298 0.83912795
0.58814891 0.96553298 0.83912795
0.71388076 0.96553298 0.83912795
0.83912795 0.96553298 0.83912795
0.96553298 0.96553298 0.83912795
1.00000000 0.96553298 0.83912795
1.00000000 0.96553298 0.83912795
0.00000073 1.00000000 0.83912795
0.25266301 1.00000000 0.83912795
0.45337282 1.00000000 0.83912795
0.58814891 1.00000000 0.83912795
0.71388076 1.00000000 0.83912795
0.83912795 1.00000000 0.83912795
0.96553298 1.00000000 0.83912795
1.00000000 1.00000000 0.83912795
1.00000000 1.00000000 0.83912795
0.00000073 1.00000000 0.83912795
0.25266301 1.00000000 0.83912795
0.45337282 1.00000000 0.83912795
0.58814891 1.00000000 0.83912795
0.71388076 1.00000000 0.83912795
0.83912795 1.00000000 0.83912795
0.96553298 1.00000000 0.83912795
1.00000000 1.00000000 0.83912795
1.00000000 1.00000000 0.83912795
0.00000073 0.00000073 0.96553298
0.25266301 0.00000073 0.96553298
0.45337282 0.00000073 0.96553298
0.58814891 0.00000073 0.96553298
0.71388076 0.00000073 0.96553298
0.83912795 0.00000073 0.96553298
0.96553298 0.00000073 0.96553298
1.00000000 0.00000073 0.96553298
1.00000000 0.00000073 0.96553298
0.00000073 0.25266301 0.96553298
0.25266301 0.25266301 0.96553298
0.45337282 0.25266301 0.96553298
0.58814891 0.25266301 0.96553298
0.71388076 0.25266301 0.96553298
0.83912795 0.25266301 0.96553298
0.96553298 0.25266301 0.96553298
1.00000000 0.25266301 0.96553298
1.00000000 0.25266301 0.96553298
0.00000073 0.45337282 0.96553298
0.25266301 0.45337282 0.96553298
0.45337282 0.45337282 0.96553298
0.58814891 0.45337282 0.96553298
0.71388076 0.45337282 0.96553298
0.83912795 0.45337282 0.96553298
0.96553298 0.45337282 0.96553298
1.00000000 0.45337282 0.96553298
1.00000000 0.45337282 0.96553298
0.00000073 0.58814891 0.96553298
0.25266301 0.58814891 0.96553298
0.45337282 0.58814891 0.96553298
0.58814891 0.58814891 0.96553298
0.71388076 0.58814891 0.96553298
0.83912795 0.58814891 0.96553298
0.96553298 0.58814891 0.96553298
1.00000000 0.58814891 0.96553298
1.00000000 0.58814891 0.96553298
0.00000073 0.71388076 0.96553298
0.25266301 0.71388076 0.96553298
0.45337282 0.71388076 0.96553298
0.58814891 0.71388076 0.96553298
0.71388076 0.71388076 0.96553298
0.83912795 0.71388076 0.96553298
0.96553298 0.71388076 0.96553298
1.00000000 0.71388076 0.96553298
1.00000000 0.71388076 0.96553298
0.00000073 0.83912795 0.96553298
0.25266301 0.83912795 0.96553298
0.45337282 0.83912795 0.96553298
0.58814891 0.83912795 0.96553298
0.71388076 0.83912795 0.96553298
0.83912795 0.83912795 0.96553298
0.96553298 0.83912795 0.96553298
1.00000000 0.83912795 0.96553298
1.00000000 0.83912795 0.96553298
0.00000073 0.96553298 0.96553298
0.25266301 0.96553298 0.96553298
0.45337282 0.96553298 0.96553298
0.58814891 0.96553298 0.96553298
0.71388076 0.96553298 0.96553298
0.83912795 0.96553298 0.96553298
0.96553298 0.96553298 0.96553298
1.00000000 0.96553298 0.96553298
1.00000000 0.96553298 0.96553298
0.00000073 1.00000000 0.96553298
0.25266301 1.00000000 0.96553298
0.45337282 1.00000000 0.96553298
0.58814891 1.00000000 0.96553298
0.71388076 1.00000000 0.96553298
0.83912795 1.00000000 0.96553298
0.96553298 1.00000000 0.96553298
1.00000000 1.00000000 0.96553298
1.00000000 1.00000000 0.96553298
0.00000073 1.00000000 0.96553298
0.25266301 1.00000000 0.96553298
0.45337282 1.00000000 0.96553298
0.58814891 1.00000000 0.96553298
0.71388076 1.00000000 0.96553298
0.83912795 1.00000000 0.96553298
0.96553298 1.00000000 0.96553298
1.00000000 1.00000000 0.96553298
1.00000000 1.00000000 0.96553298
0.00000073 0.00000073 1.00000000
0.25266301 0.00000073 1.00000000
0.45337282 0.00000073 1.00000000
0.58814891 0.00000073 1.00000000
0.71388076 0.00000073 1.00000000
0.83912795 0.00000073 1.00000000
0.96553298 0.00000073 1.00000000
1.00000000 0.00000073 1.00000000
1.00000000 0.00000073 1.00000000
0.00000073 0.25266301 1.00000000
0.25266301 0.25266301 1.00000000
0.45337282 0.25266301 1.00000000
0.58814891 0.25266301 1.00000000
0.71388076 0.25266301 1.00000000
0.83912795 0.25266301 1.00000000
0.96553298 0.25266301 1.00000000
1.00000000 0.25266301 1.00000000
1.00000000 0.25266301 1.00000000
0.00000073 0.45337282 1.00000000
0.25266301 0.45337282 1.00000000
0.45337282 0.45337282 1.00000000
0.58814891 0.45337282 1.00000000
0.71388076 0.45337282 1.00000000
0.83912795 0.45337282 1.00000000
0.96553298 0.45337282 1.00000000
1.00000000 0.45337282 1.00000000
1.00000000 0.45337282 1.00000000
0.00000073 0.58814891 1.00000000
0.25266301 0.58814891 1.00000000
0.45337282 0.58814891 1.00000000
0.58814891 0.58814891 1.00000000
0.71388076 0.58814891 1.00000000
0.83912795 0.58814891 1.00000000
0.96553298 0.58814891 1.00000000
1.00000000 0.58814891 1.00000000
1.00000000 0.58814891 1.00000000
0.00000073 0.71388076 1.00000000
0.25266301 0.71388076 1.00000000
0.45337282 0.71388076 1.00000000
0.58814891 0.71388076 1.00000000
0.71388076 0.71388076 1.00000000
0.83912795 0.71388076 1.00000000
0.96553298 0.71388076 1.00000000
1.00000000 0.71388076 1.00000000
1.00000000 0.71388076 1.00000000
0.00000073 0.83912795 1.00000000
0.25266301 0.83912795 1.00000000
0.45337282 0.83912795 1.00000000
0.58814891 0.83912795 1.00000000
0.71388076 0.83912795 1.00000000
0.83912795 0.83912795 1.00000000
0.96553298 0.83912795 1.00000000
1.00000000 0.83912795 1.00000000
1.00000000 0.83912795 1.00000000
0.00000073 0.96553298 1.00000000
0.25266301 0.96553298 1.00000000
0.45337282 0.96553298 1.00000000
0.58814891 0.96553298 1.00000000
0.71388076 0.96553298 1.00000000
0.83912795 0.96553298 1.00000000
0.96553298 0.96553298 1.00000000
1.00000000 0.96553298 1.00000000
1.00000000 0.96553298 1.00000000
0.00000073 1.00000000 1.00000000
0.25266301 1.00000000 1.00000000
0.45337282 1.00000000 1.00000000
0.58814891 1.00000000 1.00000000
0.71388076 1.00000000 1.00000000
0.83912795 1.00000000 1.00000000
0.96553298 1.00000000 1.00000000
1.00000000 1.00000000 1.00000000
1.00000000 1.00000000 1.00000000
0.00000073 1.00000000 1.00000000
0.25266301 1.00000000 1.00000000
0.45337282 1.00000000 1.00000000
0.58814891 1.00000000 1.00000000
0.71388076 1.00000000 1.00000000
0.83912795 1.00000000 1.00000000
0.96553298 1.00000000 1.00000000
1.00000000 1.00000000 1.00000000
1.00000000 1.00000000 1.00000000
0.00000073 0.00000073 1.00000000
0.25266301 0.00000073 1.00000000
0.45337282 0.00000073 1.00000000
0.58814891 0.00000073 1.00000000
0.71388076 0.00000073 1.00000000
0.83912795 0.00000073 1.00000000
0.96553298 0.00000073 1.00000000
1.00000000 0.00000073 1.00000000
1.00000000 0.00000073 1.00000000
0.00000073 0.25266301 1.00000000
0.25266301 0.25266301 1.00000000
0.45337282 0.25266301 1.00000000
0.58814891 0.25266301 1.00000000
0.71388076 0.25266301 1.00000000
0.83912795 0.25266301 1.00000000
0.96553298 0.25266301 1.00000000
1.00000000 0.25266301 1.00000000
1.00000000 0.25266301 1.00000000
0.00000073 0.45337282 1.00000000
0.25266301 0.45337282 1.00000000
0.45337282 0.45337282 1.00000000
0.58814891 0.45337282 1.00000000
0.71388076 0.45337282 1.00000000
0.83912795 0.45337282 1.00000000
0.96553298 0.45337282 1.00000000
1.00000000 0.45337282 1.00000000
1.00000000 0.45337282 1.00000000
0.00000073 0.58814891 1.00000000
0.25266301 0.58814891 1.00000000
0.45337282 0.58814891 1.00000000
0.58814891 0.58814891 1.00000000
0.71388076 0.58814891 1.00000000
0.83912795 0.58814891 1.00000000
0.96553298 0.58814891 1.00000000
1.00000000 0.58814891 1.00000000
1.00000000 0.58814891 1.00000000
0.00000073 0.71388076 1.00000000
0.25266301 0.71388076 1.00000000
0.45337282 0.71388076 1.00000000
0.58814891 0.71388076 1.00000000
0.71388076 0.71388076 1.00000000
0.83912795 0.71388076 1.00000000
0.96553298 0.71388076 1.00000000
1.00000000 0.71388076 1.00000000
1.00000000 0.71388076 1.00000000
0.00000073 0.83912795 1.00000000
0.25266301 0.83912795 1.00000000
0.45337282 0.83912795 1.00000000
0.58814891 0.83912795 1.00000000
0.71388076 0.83912795 1.00000000
0.83912795 0.83912795 1.00000000
0.96553298 0.83912795 1.00000000
1.00000000 0.83912795 1.00000000
1.00000000 0.83912795 1.00000000
0.00000073 0.96553298 1.00000000
0.25266301 0.96553298 1.00000000
0.45337282 0.96553298 1.00000000
0.58814891 0.96553298 1.00000000
0.71388076 0.96553298 1.00000000
0.83912795 0.96553298 1.00000000
0.96553298 0.96553298 1.00000000
1.00000000 0.96553298 1.00000000
1.00000000 0.96553298 1.00000000
0.00000073 1.00000000 1.00000000
0.25266301 1.00000000 1.00000000
0.45337282 1.00000000 1.00000000
0.58814891 1.00000000 1.00000000
0.71388076 1.00000000 1.00000000
0.83912795 1.00000000 1.00000000
0.96553298 1.00000000 1.00000000
1.00000000 1.00000000 1.00000000
1.00000000 1.00000000 1.00000000
0.00000073 1.00000000 1.00000000
0.25266301 1.00000000 1.00000000
0.45337282 1.00000000 1.00000000
0.58814891 1.00000000 1.00000000
0.71388076 1.00000000 1.00000000
0.83912795 1.00000000 1.00000000
0.96553298 1.00000000 1.00000000
1.00000000 1.00000000 1.00000000
1.00000000 1.00000000 1.00000000
