src/ffmpeg_scripts/luts/flog-experimental_2p00.cube
TITLE "flog-experimental_2p00"
LUT_3D_SIZE 33
# Fujifilm F-Log/Rec2020 -> PQ (EOTF Only)/Rec2020, CineEI Shift 2.00, Black Level 0.00% IRE, Input 109% -> Output 100% - Created with LUTCalc v4.01 by Ben Turley October 2020
0.00000073 0.00000073 0.00000073
0.00000073 0.00000073 0.00000073
0.00000073 0.00000073 0.00000073
0.05814631 0.00000073 0.00000073
0.25266301 0.00000073 0.00000073
0.32172632 0.00000073 0.00000073
0.37239282 0.00000073 0.00000073
0.41506201 0.00000073 0.00000073
0.45337282 0.00000073 0.00000073
0.48904995 0.00000073 0.00000073
0.52304987 0.00000073 0.00000073
0.55595641 0.00000073 0.00000073
0.58814891 0.00000073 0.00000073
0.61988416 0.00000073 0.00000073
0.65134048 0.00000073 0.00000073
0.68264327 0.00000073 0.00000073
0.71388076 0.00000073 0.00000073
0.74511417 0.00000073 0.00000073
0.77638460 0.00000073 0.00000073
0.80771786 0.00000073 0.00000073
0.83912795 0.00000073 0.00000073
0.87061965 0.00000073 0.00000073
0.90219055 0.00000073 0.00000073
0.93383251 0.00000073 0.00000073
0.96553298 0.00000073 0.00000073
0.99727593 0.00000073 0.00000073
1.00000000 0.00000073 0.00000073
1.00000000 0.00000073 0.00000073
1.00000000 0.00000073 0.00000073
1.00000000 0.00000073 0.00000073
1.00000000 0.00000073 0.00000073
1.00000000 0.00000073 0.00000073
1.00000000 0.00000073 0.00000073
0.00000073 0.00000073 0.00000073
0.00000073 0.00000073 0.00000073
0.00000073 0.00000073 0.00000073
0.05814631 0.00000073 0.00000073
0.25266301 0.00000073 0.00000073
0.32172632 0.00000073 0.00000073
0.37239282 0.00000073 0.00000073
0.41506201 0.00000073 0.00000073
0.45337282 0.00000073 0.00000073
0.48904995 0.00000073 0.00000073
0.52304987 0.00000073 0.00000073
0.55595641 0.00000073 0.00000073
0.58814891 0.00000073 0.00000073
0.61988416 0.00000073 0.00000073
0.65134048 0.00000073 0.00000073
0.68264327 0.00000073 0.00000073
0.71388076 0.00000073 0.00000073
0.74511417 0.00000073 0.00000073
0.77638460 0.00000073 0.00000073
0.80771786 0.00000073 0.00000073
0.83912795 0.00000073 0.00000073
0.87061965 0.00000073 0.00000073
0.90219055 0.00000073 0.00000073
0.93383251 0.00000073 0.00000073
0.96553298 0.00000073 0.00000073
0.99727593 0.00000073 0.00000073
1.00000000 0.00000073 0.00000073
1.00000000 0.00000073 0.00000073
1.00000000 0.00000073 0.00000073
1.00000000 0.00000073 0.00000073
1.00000000 0.00000073 0.00000073
1.00000000 0.00000073 0.00000073
1.00000000 0.00000073 0.00000073
0.00000073 0.00000073 0.00000073
0.00000073 0.00000073 0.00000073
0.00000073 0.00000073 0.00000073
0.05814631 0.00000073 0.00000073
0.25266301 0.00000073 0.00000073
0.32172632 0.00000073 0.00000073
0.37239282 0.00000073 0.00000073
0.41506201 0.00000073 0.00000073
0.45337282 0.00000073 0.00000073
0.48904995 0.00000073 0.00000073
0.52304987 0.00000073 0.00000073
0.55595641 0.00000073 0.00000073
0.58814891 0.00000073 0.00000073
0.61988416 0.00000073 0.00000073
0.65134048 0.00000073 0.00000073
0.68264327 0.00000073 0.00000073
0.71388076 0.00000073 0.00000073
0.74511417 0.00000073 0.00000073
0.77638460 0.00000073 0.00000073
0.80771786 0.00000073 0.00000073
0.83912795 0.00000073 0.00000073
0.87061965 0.00000073 0.00000073
0.90219055 0.00000073 0.00000073
0.93383251 0.00000073 0.00000073
0.96553298 0.00000073 0.00000073
0.99727593 0.00000073 0.00000073
1.00000000 0.00000073 0.00000073
1.00000000 0.00000073 0.00000073
1.00000000 0.00000073 0.00000073
1.00000000 0.00000073 0.00000073
1.00000000 0.00000073 0.00000073
1.00000000 0.00000073 0.00000073
1.00000000 0.00000073 0.00000073
0.00000073 0.05814631 0.00000073
0.00000073 0.05814631 0.00000073
0.00000073 0.05814631 0.00000073
0.05814631 0.05814631 0.00000073
0.25266301 0.05814631 0.00000073
0.32172632 0.05814631 0.00000073
0.37239282 0.05814631 0.00000073
0.41506201 0.05814631 0.00000073
0.45337282 0.05814631 0.00000073
0.48904995 0.05814631 0.00000073
0.52304987 0.05814631 0.00000073
0.55595641 0.05814631 0.00000073
0.58814891 0.05814631 0.00000073
0.61988416 0.05814631 0.00000073
0.65134048 0.05814631 0.00000073
0.68264327 0.05814631 0.00000073
0.71388076 0.05814631 0.00000073
0.74511417 0.05814631 0.00000073
0.77638460 0.05814631 0.00000073
0.80771786 0.05814631 0.00000073
0.83912795 0.05814631 0.00000073
0.87061965 0.05814631 0.00000073
0.90219055 0.05814631 0.00000073
0.93383251 0.05814631 0.00000073
0.96553298 0.05814631 0.00000073
0.99727593 0.05814631 0.00000073
1.00000000 0.05814631 0.00000073
1.00000000 0.05814631 0.00000073
1.00000000 0.05814631 0.00000073
1.00000000 0.05814631 0.00000073
1.00000000 0.05814631 0.00000073
1.00000000 0.05814631 0.00000073
1.00000000 0.05814631 0.00000073
0.00000073 0.25266301 0.00000073
0.00000073 0.25266301 0.00000073
0.00000073 0.25266301 0.00000073
0.05814631 0.25266301 0.00000073
0.25266301 0.25266301 0.00000073
0.32172632 0.25266301 0.00000073
0.37239282 0.25266301 0.00000073
0.41506201 0.25266301 0.00000073
0.45337282 0.25266301 0.00000073
0.48904995 0.25266301 0.00000073
0.52304987 0.25266301 0.00000073
0.55595641 0.25266301 0.00000073
0.58814891 0.25266301 0.00000073
0.61988416 0.25266301 0.00000073
0.65134048 0.25266301 0.00000073
0.68264327 0.25266301 0.00000073
0.71388076 0.25266301 0.00000073
0.74511417 0.25266301 0.00000073
0.77638460 0.25266301 0.00000073
0.80771786 0.25266301 0.00000073
0.83912795 0.25266301 0.00000073
0.87061965 0.25266301 0.00000073
0.90219055 0.25266301 0.00000073
0.93383251 0.25266301 0.00000073
0.96553298 0.25266301 0.00000073
0.99727593 0.25266301 0.00000073
1.00000000 0.25266301 0.00000073
1.00000000 0.25266301 0.00000073
1.00000000 0.25266301 0.00000073
1.00000000 0.25266301 0.00000073
1.00000000 0.25266301 0.00000073
1.00000000 0.25266301 0.00000073
1.00000000 0.25266301 0.00000073
0.00000073 0.32172632 0.00000073
0.00000073 0.32172632 0.00000073
0.00000073 0.32172632 0.00000073
0.05814631 0.32172632 0.00000073
0.25266301 0.32172632 0.00000073
0.32172632 0.32172632 0.00000073
0.37239282 0.32172632 0.00000073
0.41506201 0.32172632 0.00000073
0.45337282 0.32172632 0.00000073
0.48904995 0.32172632 0.00000073
0.52304987 0.32172632 0.00000073
0.55595641 0.32172632 0.00000073
0.58814891 0.32172632 0.00000073
0.61988416 0.32172632 0.00000073
0.65134048 0.32172632 0.00000073
0.68264327 0.32172632 0.00000073
0.71388076 0.32172632 0.00000073
0.74511417 0.32172632 0.00000073
0.77638460 0.32172632 0.00000073
0.80771786 0.32172632 0.00000073
0.83912795 0.32172632 0.00000073
0.87061965 0.32172632 0.00000073
0.90219055 0.32172632 0.00000073
0.93383251 0.32172632 0.00000073
0.96553298 0.32172632 0.00000073
0.99727593 0.32172632 0.00000073
1.00000000 0.32172632 0.00000073
1.00000000 0.32172632 0.00000073
1.00000000 0.32172632 0.00000073
1.00000000 0.32172632 0.00000073
1.00000000 0.32172632 0.00000073
1.00000000 0.32172632 0.00000073
1.00000000 0.32172632 0.00000073
0.00000073 0.37239282 0.00000073
0.00000073 0.37239282 0.00000073
0.00000073 0.37239282 0.00000073
0.05814631 0.37239282 0.00000073
0.25266301 0.37239282 0.00000073
0.32172632 0.37239282 0.00000073
0.37239282 0.37239282 0.00000073
0.41506201 0.37239282 0.00000073
0.45337282 0.37239282 0.00000073
0.48904995 0.37239282 0.00000073
0.52304987 0.37239282 0.00000073
0.55595641 0.37239282 0.00000073
0.58814891 0.37239282 0.00000073
0.61988416 0.37239282 0.00000073
0.65134048 0.37239282 0.00000073
0.68264327 0.37239282 0.00000073
0.71388076 0.37239282 0.00000073
0.74511417 0.37239282 0.00000073
0.77638460 0.37239282 0.00000073
0.80771786 0.37239282 0.00000073
0.83912795 0.37239282 0.00000073
0.87061965 0.37239282 0.00000073
0.90219055 0.37239282 0.00000073
0.93383251 0.37239282 0.00000073
0.96553298 0.37239282 0.00000073
0.99727593 0.37239282 0.00000073
1.00000000 0.37239282 0.00000073
1.00000000 0.37239282 0.00000073
1.00000000 0.37239282 0.00000073
1.00000000 0.37239282 0.00000073
1.00000000 0.37239282 0.00000073
1.00000000 0.37239282 0.00000073
1.00000000 0.37239282 0.00000073
0.00000073 0.41506201 0.00000073
0.00000073 0.41506201 0.00000073
0.00000073 0.41506201 0.00000073
0.05814631 0.41506201 0.00000073
0.25266301 0.41506201 0.00000073
0.32172632 0.41506201 0.00000073
0.37239282 0.41506201 0.00000073
0.41506201 0.41506201 0.00000073
0.45337282 0.41506201 0.00000073
0.48904995 0.41506201 0.00000073
0.52304987 0.41506201 0.00000073
0.55595641 0.41506201 0.00000073
0.58814891 0.41506201 0.00000073
0.61988416 0.41506201 0.00000073
0.65134048 0.41506201 0.00000073
0.68264327 0.41506201 0.00000073
0.71388076 0.41506201 0.00000073
0.74511417 0.41506201 0.00000073
0.77638460 0.41506201 0.00000073
0.80771786 0.41506201 0.00000073
0.83912795 0.41506201 0.00000073
0.87061965 0.41506201 0.00000073
0.90219055 0.41506201 0.00000073
0.93383251 0.41506201 0.00000073
0.96553298 0.41506201 0.00000073
0.99727593 0.41506201 0.00000073
1.00000000 0.41506201 0.00000073
1.00000000 0.41506201 0.00000073
1.00000000 0.41506201 0.00000073
1.00000000 0.41506201 0.00000073
1.00000000 0.41506201 0.00000073
1.00000000 0.41506201 0.00000073
1.00000000 0.41506201 0.00000073
0.00000073 0.45337282 0.00000073
0.00000073 0.45337282 0.00000073
0.00000073 0.45337282 0.00000073
0.05814631 0.45337282 0.00000073
0.25266301 0.45337282 0.00000073
0.32172632 0.45337282 0.00000073
0.37239282 0.45337282 0.00000073
0.41506201 0.45337282 0.00000073
0.45337282 0.45337282 0.00000073
0.48904995 0.45337282 0.00000073
0.52304987 0.45337282 0.00000073
0.55595641 0.45337282 0.00000073
0.58814891 0.45337282 0.00000073
0.61988416 0.45337282 0.00000073
0.65134048 0.45337282 0.00000073
0.68264327 0.45337282 0.00000073
0.71388076 0.45337282 0.00000073
0.74511417 0.45337282 0.00000073
0.77638460 0.45337282 0.00000073
0.80771786 0.45337282 0.00000073
0.83912795 0.45337282 0.00000073
0.87061965 0.45337282 0.00000073
0.90219055 0.45337282 0.00000073
0.93383251 0.45337282 0.00000073
0.96553298 0.45337282 0.00000073
0.99727593 0.45337282 0.00000073
1.00000000 0.45337282 0.00000073
1.00000000 0.45337282 0.00000073
1.00000000 0.45337282 0.00000073
1.00000000 0.45337282 0.00000073
1.00000000 0.45337282 0.00000073
1.00000000 0.45337282 0.00000073
1.00000000 0.45337282 0.00000073
0.00000073 0.48904995 0.00000073
0.00000073 0.48904995 0.00000073
0.00000073 0.48904995 0.00000073
0.05814631 0.48904995 0.00000073
0.25266301 0.48904995 0.00000073
0.32172632 0.48904995 0.00000073
0.37239282 0.48904995 0.00000073
0.41506201 0.48904995 0.00000073
0.45337282 0.48904995 0.00000073
0.48904995 0.48904995 0.00000073
0.52304987 0.48904995 0.00000073
0.55595641 0.48904995 0.00000073
0.58814891 0.48904995 0.00000073
0.61988416 0.48904995 0.00000073
0.65134048 0.48904995 0.00000073
0.68264327 0.48904995 0.00000073
0.71388076 0.48904995 0.00000073
0.74511417 0.48904995 0.00000073
0.77638460 0.48904995 0.00000073
0.80771786 0.48904995 0.00000073
0.83912795 0.48904995 0.00000073
0.87061965 0.48904995 0.00000073
0.90219055 0.48904995 0.00000073
0.93383251 0.48904995 0.00000073
0.96553298 0.48904995 0.00000073
0.99727593 0.48904995 0.00000073
1.00000000 0.48904995 0.00000073
1.00000000 0.48904995 0.00000073
1.00000000 0.48904995 0.00000073
1.00000000 0.48904995 0.00000073
1.00000000 0.48904995 0.00000073
1.00000000 0.48904995 0.00000073
1.00000000 0.48904995 0.00000073
0.00000073 0.52304987 0.00000073
0.00000073 0.52304987 0.00000073
0.00000073 0.52304987 0.00000073
0.05814631 0.52304987 0.00000073
0.25266301 0.52304987 0.00000073
0.32172632 0.52304987 0.00000073
0.37239282 0.52304987 0.00000073
0.41506201 0.52304987 0.00000073
0.45337282 0.52304987 0.00000073
0.48904995 0.52304987 0.00000073
0.52304987 0.52304987 0.00000073
0.55595641 0.52304987 0.00000073
0.58814891 0.52304987 0.00000073
0.61988416 0.52304987 0.00000073
0.65134048 0.52304987 0.00000073
0.68264327 0.52304987 0.00000073
0.71388076 0.52304987 0.00000073
0.74511417 0.52304987 0.00000073
0.77638460 0.52304987 0.00000073
0.80771786 0.52304987 0.00000073
0.83912795 0.52304987 0.00000073
0.87061965 0.52304987 0.00000073
0.90219055 0.52304987 0.00000073
0.93383251 0.52304987 0.00000073
0.96553298 0.52304987 0.00000073
0.99727593 0.52304987 0.00000073
1.00000000 0.52304987 0.00000073
1.00000000 0.52304987 0.00000073
1.00000000 0.52304987 0.00000073
1.00000000 0.52304987 0.00000073
1.00000000 0.52304987 0.00000073
1.00000000 0.52304987 0.00000073
1.00000000 0.52304987 0.00000073
0.00000073 0.55595641 0.00000073
0.00000073 0.55595641 0.00000073
0.00000073 0.55595641 0.00000073
0.05814631 0.55595641 0.00000073
0.25266301 0.55595641 0.00000073
0.32172632 0.55595641 0.00000073
0.37239282 0.55595641 0.00000073
0.41506201 0.55595641 0.00000073
0.45337282 0.55595641 0.00000073
0.48904995 0.55595641 0.00000073
0.52304987 0.55595641 0.00000073
0.55595641 0.55595641 0.00000073
0.58814891 0.55595641 0.00000073
0.61988416 0.55595641 0.00000073
0.65134048 0.55595641 0.00000073
0.68264327 0.55595641 0.00000073
0.71388076 0.55595641 0.00000073
0.74511417 0.55595641 0.00000073
0.77638460 0.55595641 0.00000073
0.80771786 0.55595641 0.00000073
0.83912795 0.55595641 0.00000073
0.87061965 0.55595641 0.00000073
0.90219055 0.55595641 0.00000073
0.93383251 0.55595641 0.00000073
0.96553298 0.55595641 0.00000073
0.99727593 0.55595641 0.00000073
1.00000000 0.55595641 0.00000073
1.00000000 0.55595641 0.00000073
1.00000000 0.55595641 0.00000073
1.00000000 0.55595641 0.00000073
1.00000000 0.55595641 0.00000073
1.00000000 0.55595641 0.00000073
1.00000000 0.55595641 0.00000073
0.00000073 0.58814891 0.00000073
0.00000073 0.58814891 0.00000073
0.00000073 0.58814891 0.00000073
0.05814631 0.58814891 0.00000073
0.25266301 0.58814891 0.00000073
0.32172632 0.58814891 0.00000073
0.37239282 0.58814891 0.00000073
0.41506201 0.58814891 0.00000073
0.45337282 0.58814891 0.00000073
0.48904995 0.58814891 0.00000073
0.52304987 0.58814891 0.00000073
0.55595641 0.58814891 0.00000073
0.58814891 0.58814891 0.00000073
0.61988416 0.58814891 0.00000073
0.65134048 0.58814891 0.00000073
0.68264327 0.58814891 0.00000073
0.71388076 0.58814891 0.00000073
0.74511417 0.58814891 0.00000073
0.77638460 0.58814891 0.00000073
0.80771786 0.58814891 0.00000073
0.83912795 0.58814891 0.00000073
0.87061965 0.58814891 0.00000073
0.90219055 0.58814891 0.00000073
0.93383251 0.58814891 0.00000073
0.96553298 0.58814891 0.00000073
0.99727593 0.58814891 0.00000073
1.00000000 0.58814891 0.00000073
1.00000000 0.58814891 0.00000073
1.00000000 0.58814891 0.00000073
1.00000000 0.58814891 0.00000073
1.00000000 0.58814891 0.00000073
1.00000000 0.58814891 0.00000073
1.00000000 0.58814891 0.00000073
0.00000073 0.61988416 0.00000073
0.00000073 0.61988416 0.00000073
0.00000073 0.61988416 0.00000073
0.05814631 0.61988416 0.00000073
0.25266301 0.61988416 0.00000073
0.32172632 0.61988416 0.00000073
0.37239282 0.61988416 0.00000073
0.41506201 0.61988416 0.00000073
0.45337282 0.61988416 0.00000073
0.48904995 0.61988416 0.00000073
0.52304987 0.61988416 0.00000073
0.55595641 0.61988416 0.00000073
0.58814891 0.61988416 0.00000073
0.61988416 0.61988416 0.00000073
0.65134048 0.61988416 0.00000073
0.68264327 0.61988416 0.00000073
0.71388076 0.61988416 0.00000073
0.74511417 0.61988416 0.00000073
0.77638460 0.61988416 0.00000073
0.80771786 0.61988416 0.00000073
0.83912795 0.61988416 0.00000073
0.87061965 0.61988416 0.00000073
0.90219055 0.61988416 0.00000073
0.93383251 0.61988416 0.00000073
0.96553298 0.61988416 0.00000073
0.99727593 0.61988416 0.00000073
1.00000000 0.61988416 0.00000073
1.00000000 0.61988416 0.00000073
1.00000000 0.61988416 0.00000073
1.00000000 0.61988416 0.00000073
1.00000000 0.61988416 0.00000073
1.00000000 0.61988416 0.00000073
1.00000000 0.61988416 0.00000073
0.00000073 0.65134048 0.00000073
0.00000073 0.65134048 0.00000073
0.00000073 0.65134048 0.00000073
0.05814631 0.65134048 0.00000073
0.25266301 0.65134048 0.00000073
0.32172632 0.65134048 0.00000073
0.37239282 0.65134048 0.00000073
0.41506201 0.65134048 0.00000073
0.45337282 0.65134048 0.00000073
0.48904995 0.65134048 0.00000073
0.52304987 0.65134048 0.00000073
0.55595641 0.65134048 0.00000073
0.58814891 0.65134048 0.00000073
0.61988416 0.65134048 0.00000073
0.65134048 0.65134048 0.00000073
0.68264327 0.65134048 0.00000073
0.71388076 0.65134048 0.00000073
0.74511417 0.65134048 0.00000073
0.77638460 0.65134048 0.00000073
0.80771786 0.65134048 0.00000073
0.83912795 0.65134048 0.00000073
0.87061965 0.65134048 0.00000073
0.90219055 0.65134048 0.00000073
0.93383251 0.65134048 0.00000073
0.96553298 0.65134048 0.00000073
0.99727593 0.65134048 0.00000073
1.00000000 0.65134048 0.00000073
1.00000000 0.65134048 0.00000073
1.00000000 0.65134048 0.00000073
1.00000000 0.65134048 0.00000073
1.00000000 0.65134048 0.00000073
1.00000000 0.65134048 0.00000073
1.00000000 0.65134048 0.00000073
0.00000073 0.68264327 0.00000073
0.00000073 0.68264327 0.00000073
0.00000073 0.68264327 0.00000073
0.05814631 0.68264327 0.00000073
0.25266301 0.68264327 0.00000073
0.32172632 0.68264327 0.00000073
0.37239282 0.68264327 0.00000073
0.41506201 0.68264327 0.00000073
0.45337282 0.68264327 0.00000073
0.48904995 0.68264327 0.00000073
0.52304987 0.68264327 0.00000073
0.55595641 0.68264327 0.00000073
0.58814891 0.68264327 0.00000073
0.61988416 0.68264327 0.00000073
0.65134048 0.68264327 0.00000073
0.68264327 0.68264327 0.00000073
0.71388076 0.68264327 0.00000073
0.74511417 0.68264327 0.00000073
0.77638460 0.68264327 0.00000073
0.80771786 0.68264327 0.00000073
0.83912795 0.68264327 0.00000073
0.87061965 0.68264327 0.00000073
0.90219055 0.68264327 0.00000073
0.93383251 0.68264327 0.00000073
0.96553298 0.68264327 0.00000073
0.99727593 0.68264327 0.00000073
1.00000000 0.68264327 0.00000073
1.00000000 0.68264327 0.00000073
1.00000000 0.68264327 0.00000073
1.00000000 0.68264327 0.00000073
1.00000000 0.68264327 0.00000073
1.00000000 0.68264327 0.00000073
1.00000000 0.68264327 0.00000073
0.00000073 0.71388076 0.00000073
0.00000073 0.71388076 0.00000073
0.00000073 0.71388076 0.00000073
0.05814631 0.71388076 0.00000073
0.25266301 0.71388076 0.00000073
0.32172632 0.71388076 0.00000073
0.37239282 0.71388076 0.00000073
0.41506201 0.71388076 0.00000073
0.45337282 0.71388076 0.00000073
0.48904995 0.71388076 0.00000073
0.52304987 0.71388076 0.00000073
0.55595641 0.71388076 0.00000073
0.58814891 0.71388076 0.00000073
0.61988416 0.71388076 0.00000073
0.65134048 0.71388076 0.00000073
0.68264327 0.71388076 0.00000073
0.71388076 0.71388076 0.00000073
0.74511417 0.71388076 0.00000073
0.77638460 0.71388076 0.00000073
0.80771786 0.71388076 0.00000073
0.83912795 0.71388076 0.00000073
0.87061965 0.71388076 0.00000073
0.90219055 0.71388076 0.00000073
0.93383251 0.71388076 0.00000073
0.96553298 0.71388076 0.00000073
0.99727593 0.71388076 0.00000073
1.00000000 0.71388076 0.00000073
1.00000000 0.71388076 0.00000073
1.00000000 0.71388076 0.00000073
1.00000000 0.71388076 0.00000073
1.00000000 0.71388076 0.00000073
1.00000000 0.71388076 0.00000073
1.00000000 0.71388076 0.00000073
0.00000073 0.74511417 0.00000073
0.00000073 0.74511417 0.00000073
0.00000073 0.74511417 0.00000073
0.05814631 0.74511417 0.00000073
0.25266301 0.74511417 0.00000073
0.32172632 0.74511417 0.00000073
0.37239282 0.74511417 0.00000073
0.41506201 0.74511417 0.00000073
0.45337282 0.74511417 0.00000073
0.48904995 0.74511417 0.00000073
0.52304987 0.74511417 0.00000073
0.55595641 0.74511417 0.00000073
0.58814891 0.74511417 0.00000073
0.61988416 0.74511417 0.00000073
0.65134048 0.74511417 0.00000073
0.68264327 0.74511417 0.00000073
0.71388076 0.74511417 0.00000073
0.74511417 0.74511417 0.00000073
0.77638460 0.74511417 0.00000073
0.80771786 0.74511417 0.00000073
0.83912795 0.74511417 0.00000073
0.87061965 0.74511417 0.00000073
0.90219055 0.74511417 0.00000073
0.93383251 0.74511417 0.00000073
0.96553298 0.74511417 0.00000073
0.99727593 0.74511417 0.00000073
1.00000000 0.74511417 0.00000073
1.00000000 0.74511417 0.00000073
1.00000000 0.74511417 0.00000073
1.00000000 0.74511417 0.00000073
1.00000000 0.74511417 0.00000073
1.00000000 0.74511417 0.00000073
1.00000000 0.74511417 0.00000073
0.00000073 0.77638460 0.00000073
0.00000073 0.77638460 0.00000073
0.00000073 0.77638460 0.00000073
0.05814631 0.77638460 0.00000073
0.25266301 0.77638460 0.00000073
0.32172632 0.77638460 0.00000073
0.37239282 0.77638460 0.00000073
0.41506201 0.77638460 0.00000073
0.45337282 0.77638460 0.00000073
0.48904995 0.77638460 0.00000073
0.52304987 0.77638460 0.00000073
0.55595641 0.77638460 0.00000073
0.58814891 0.77638460 0.00000073
0.61988416 0.77638460 0.00000073
0.65134048 0.77638460 0.00000073
0.68264327 0.77638460 0.00000073
0.71388076 0.77638460 0.00000073
0.74511417 0.77638460 0.00000073
0.77638460 0.77638460 0.00000073
0.80771786 0.77638460 0.00000073
0.83912795 0.77638460 0.00000073
0.87061965 0.77638460 0.00000073
0.90219055 0.77638460 0.00000073
0.93383251 0.77638460 0.00000073
0.96553298 0.77638460 0.00000073
0.99727593 0.77638460 0.00000073
1.00000000 0.77638460 0.00000073
1.00000000 0.77638460 0.00000073
1.00000000 0.77638460 0.00000073
1.00000000 0.77638460 0.00000073
1.00000000 0.77638460 0.00000073
1.00000000 0.77638460 0.00000073
1.00000000 0.77638460 0.00000073
0.00000073 0.80771786 0.00000073
0.00000073 0.80771786 0.00000073
0.00000073 0.80771786 0.00000073
0.05814631 0.80771786 0.00000073
0.25266301 0.80771786 0.00000073
0.32172632 0.80771786 0.00000073
0.37239282 0.80771786 0.00000073
0.41506201 0.80771786 0.00000073
0.45337282 0.80771786 0.00000073
0.48904995 0.80771786 0.00000073
0.52304987 0.80771786 0.00000073
0.55595641 0.80771786 0.00000073
0.58814891 0.80771786 0.00000073
0.61988416 0.80771786 0.00000073
0.65134048 0.80771786 0.00000073
0.68264327 0.80771786 0.00000073
0.71388076 0.80771786 0.00000073
0.74511417 0.80771786 0.00000073
0.77638460 0.80771786 0.00000073
0.80771786 0.80771786 0.00000073
0.83912795 0.80771786 0.00000073
0.87061965 0.80771786 0.00000073
0.90219055 0.80771786 0.00000073
0.93383251 0.80771786 0.00000073
0.96553298 0.80771786 0.00000073
0.99727593 0.80771786 0.00000073
1.00000000 0.80771786 0.00000073
1.00000000 0.80771786 0.00000073
1.00000000 0.80771786 0.00000073
1.00000000 0.80771786 0.00000073
1.00000000 0.80771786 0.00000073
1.00000000 0.80771786 0.00000073
1.00000000 0.80771786 0.00000073
0.00000073 0.83912795 0.00000073
0.00000073 0.83912795 0.00000073
0.00000073 0.83912795 0.00000073
0.05814631 0.83912795 0.00000073
0.25266301 0.83912795 0.00000073
0.32172632 0.83912795 0.00000073
0.37239282 0.83912795 0.00000073
0.41506201 0.83912795 0.00000073
0.45337282 0.83912795 0.00000073
0.48904995 0.83912795 0.00000073
0.52304987 0.83912795 0.00000073
0.55595641 0.83912795 0.00000073
0.58814891 0.83912795 0.00000073
0.61988416 0.83912795 0.00000073
0.65134048 0.83912795 0.00000073
0.68264327 0.83912795 0.00000073
0.71388076 0.83912795 0.00000073
0.74511417 0.83912795 0.00000073
0.77638460 0.83912795 0.00000073
0.80771786 0.83912795 0.00000073
0.83912795 0.83912795 0.00000073
0.87061965 0.83912795 0.00000073
0.90219055 0.83912795 0.00000073
0.93383251 0.83912795 0.00000073
0.96553298 0.83912795 0.00000073
0.99727593 0.83912795 0.00000073
1.00000000 0.83912795 0.00000073
1.00000000 0.83912795 0.00000073
1.00000000 0.83912795 0.00000073
1.00000000 0.83912795 0.00000073
1.00000000 0.83912795 0.00000073
1.00000000 0.83912795 0.00000073
1.00000000 0.83912795 0.00000073
0.00000073 0.87061965 0.00000073
0.00000073 0.87061965 0.00000073
0.00000073 0.87061965 0.00000073
0.05814631 0.87061965 0.00000073
0.25266301 0.87061965 0.00000073
0.32172632 0.87061965 0.00000073
0.37239282 0.87061965 0.00000073
0.41506201 0.87061965 0.00000073
0.45337282 0.87061965 0.00000073
0.48904995 0.87061965 0.00000073
0.52304987 0.87061965 0.00000073
0.55595641 0.87061965 0.00000073
0.58814891 0.87061965 0.00000073
0.61988416 0.87061965 0.00000073
0.65134048 0.87061965 0.00000073
0.68264327 0.87061965 0.00000073
0.71388076 0.87061965 0.00000073
0.74511417 0.87061965 0.00000073
0.77638460 0.87061965 0.00000073
0.80771786 0.87061965 0.00000073
0.83912795 0.87061965 0.00000073
0.87061965 0.87061965 0.00000073
0.90219055 0.87061965 0.00000073
0.93383251 0.87061965 0.00000073
0.96553298 0.87061965 0.00000073
0.99727593 0.87061965 0.00000073
1.00000000 0.87061965 0.00000073
