src/ffmpeg_scripts/luts/flog-experimental_-1p00.cube
TITLE "flog-experimental_-1p00"
LUT_3D_SIZE 5
# Fujifilm F-Log/Rec2020 -> PQ (EOTF Only)/Rec2020, CineEI Shift -1.00, Black Level 0.00% IRE, Input 109% -> Output 100% - Created with LUTCalc v4.01 by Ben Turley October 2020
0.00000073 0.00000073 0.00000073
0.25025914 0.00000073 0.00000073
0.44806496 0.00000073 0.00000073
0.66506860 0.00000073 0.00000073
0.90588648 0.00000073 0.00000073
0.00000073 0.25025914 0.00000073
0.25025914 0.25025914 0.00000073
0.44806496 0.25025914 0.00000073
0.66506860 0.25025914 0.00000073
0.90588648 0.25025914 0.00000073
0.00000073 0.44806496 0.00000073
0.25025914 0.44806496 0.00000073
0.44806496 0.44806496 0.00000073
0.66506860 0.44806496 0.00000073
0.90588648 0.44806496 0.00000073
0.00000073 0.66506860 0.00000073
0.25025914 0.66506860 0.00000073
0.44806496 0.66506860 0.00000073
0.66506860 0.66506860 0.00000073
0.90588648 0.66506860 0.00000073
0.00000073 0.90588648 0.00000073
0.25025914 0.90588648 0.00000073
0.44806496 0.90588648 0.00000073
0.66506860 0.90588648 0.00000073
0.90588648 0.90588648 0.00000073
0.00000073 0.00000073 0.25025914
0.25025914 0.00000073 0.25025914
0.44806496 0.00000073 0.25025914
0.66506860 0.00000073 0.25025914
0.90588648 0.00000073 0.25025914
0.00000073 0.25025914 0.25025914
0.25025914 0.25025914 0.25025914
0.44806496 0.25025914 0.25025914
0.66506860 0.25025914 0.25025914
0.90588648 0.25025914 0.25025914
0.00000073 0.44806496 0.25025914
0.25025914 0.44806496 0.25025914
0.44806496 0.44806496 0.25025914
0.66506860 0.44806496 0.25025914
0.90588648 0.44806496 0.25025914
0.00000073 0.66506860 0.25025914
0.25025914 0.66506860 0.25025914
0.44806496 0.66506860 0.25025914
0.66506860 0.66506860 0.25025914
0.90588648 0.66506860 0.25025914
0.00000073 0.90588648 0.25025914
0.25025914 0.90588648 0.25025914
0.44806496 0.90588648 0.25025914
0.66506860 0.90588648 0.25025914
0.90588648 0.90588648 0.25025914
0.00000073 0.00000073 0.44806496
0.25025914 0.00000073 0.44806496
0.44806496 0.00000073 0.44806496
0.66506860 0.00000073 0.44806496
0.90588648 0.00000073 0.44806496
0.00000073 0.25025914 0.44806496
0.25025914 0.25025914 0.44806496
0.44806496 0.25025914 0.44806496
0.66506860 0.25025914 0.44806496
0.90588648 0.25025914 0.44806496
0.00000073 0.44806496 0.44806496
0.25025914 0.44806496 0.44806496
0.44806496 0.44806496 0.44806496
0.66506860 0.44806496 0.44806496
0.90588648 0.44806496 0.44806496
0.00000073 0.66506860 0.44806496
0.25025914 0.66506860 0.44806496
0.44806496 0.66506860 0.44806496
0.66506860 0.66506860 0.44806496
0.90588648 0.66506860 0.44806496
0.00000073 0.90588648 0.44806496
0.25025914 0.90588648 0.44806496
0.44806496 0.90588648 0.44806496
0.66506860 0.90588648 0.44806496
0.90588648 0.90588648 0.44806496
0.00000073 0.00000073 0.66506860
0.25025914 0.00000073 0.66506860
0.44806496 0.00000073 0.66506860
0.66506860 0.00000073 0.66506860
0.90588648 0.00000073 0.66506860
0.00000073 0.25025914 0.66506860
0.25025914 0.25025914 0.66506860
0.44806496 0.25025914 0.66506860
0.66506860 0.25025914 0.66506860
0.90588648 0.25025914 0.66506860
0.00000073 0.44806496 0.66506860
0.25025914 0.44806496 0.66506860
0.44806496 0.44806496 0.66506860
0.66506860 0.44806496 0.66506860
0.90588648 0.44806496 0.66506860
0.00000073 0.66506860 0.66506860
0.25025914 0.66506860 0.66506860
0.44806496 0.66506860 0.66506860
0.66506860 0.66506860 0.66506860
0.90588648 0.66506860 0.66506860
0.00000073 0.90588648 0.66506860
0.25025914 0.90588648 0.66506860
0.44806496 0.90588648 0.66506860
0.66506860 0.90588648 0.66506860
0.90588648 0.90588648 0.66506860
0.00000073 0.00000073 0.90588648
0.25025914 0.00000073 0.90588648
0.44806496 0.00000073 0.90588648
0.66506860 0.00000073 0.90588648
0.90588648 0.00000073 0.90588648
0.00000073 0.25025914 0.90588648
0.25025914 0.25025914 0.90588648
0.44806496 0.25025914 0.90588648
0.66506860 0.25025914 0.90588648
0.90588648 0.25025914 0.90588648
0.00000073 0.44806496 0.90588648
0.25025914 0.44806496 0.90588648
0.44806496 0.44806496 0.90588648
0.66506860 0.44806496 0.90588648
0.90588648 0.44806496 0.90588648
0.00000073 0.66506860 0.90588648
0.25025914 0.66506860 0.90588648
0.44806496 0.66506860 0.90588648
0.66506860 0.66506860 0.90588648
0.90588648 0.66506860 0.90588648
0.00000073 0.90588648 0.90588648
0.25025914 0.90588648 0.90588648
0.44806496 0.90588648 0.90588648
0.66506860 0.90588648 0.90588648
0.90588648 0.90588648 0.90588648
