src/ffmpeg_scripts/luts/flog-experimental_-1p67.cube
TITLE "flog-experimental_-1p67"
LUT_3D_SIZE 9
# Fujifilm F-Log/Rec2020 -> PQ (EOTF Only)/Rec2020, CineEI Shift -1.67, Black Level 0.00% IRE, Input 109% -> Output 100% - Created with LUTCalc v4.01 by Ben Turley October 2020
0.00000073 0.00000073 0.00000073
0.10011367 0.00000073 0.00000073
0.21502778 0.00000073 0.00000073
0.30499135 0.00000073 0.00000073
0.39713013 0.00000073 0.00000073
0.49623968 0.00000073 0.00000073
0.60326549 0.00000073 0.00000073
0.71757362 0.00000073 0.00000073
0.83770816 0.00000073 0.00000073
0.00000073 0.10011367 0.00000073
0.10011367 0.10011367 0.00000073
0.21502778 0.10011367 0.00000073
0.30499135 0.10011367 0.00000073
0.39713013 0.10011367 0.00000073
0.49623968 0.10011367 0.00000073
0.60326549 0.10011367 0.00000073
0.71757362 0.10011367 0.00000073
0.83770816 0.10011367 0.00000073
0.00000073 0.21502778 0.00000073
0.10011367 0.21502778 0.00000073
0.21502778 0.21502778 0.00000073
0.30499135 0.21502778 0.00000073
0.39713013 0.21502778 0.00000073
0.49623968 0.21502778 0.00000073
0.60326549 0.21502778 0.00000073
0.71757362 0.21502778 0.00000073
0.83770816 0.21502778 0.00000073
0.00000073 0.30499135 0.00000073
0.10011367 0.30499135 0.00000073
0.21502778 0.30499135 0.00000073
0.30499135 0.30499135 0.00000073
0.39713013 0.30499135 0.00000073
0.49623968 0.30499135 0.00000073
0.60326549 0.30499135 0.00000073
0.71757362 0.30499135 0.00000073
0.83770816 0.30499135 0.00000073
0.00000073 0.39713013 0.00000073
0.10011367 0.39713013 0.00000073
0.21502778 0.39713013 0.00000073
0.30499135 0.39713013 0.00000073
0.39713013 0.39713013 0.00000073
0.49623968 0.39713013 0.00000073
0.60326549 0.39713013 0.00000073
0.71757362 0.39713013 0.00000073
0.83770816 0.39713013 0.00000073
0.00000073 0.49623968 0.00000073
0.10011367 0.49623968 0.00000073
0.21502778 0.49623968 0.00000073
0.30499135 0.49623968 0.00000073
0.39713013 0.49623968 0.00000073
0.49623968 0.49623968 0.00000073
0.60326549 0.49623968 0.00000073
0.71757362 0.49623968 0.00000073
0.83770816 0.49623968 0.00000073
0.00000073 0.60326549 0.00000073
0.10011367 0.60326549 0.00000073
0.21502778 0.60326549 0.00000073
0.30499135 0.60326549 0.00000073
0.39713013 0.60326549 0.00000073
0.49623968 0.60326549 0.00000073
0.60326549 0.60326549 0.00000073
0.71757362 0.60326549 0.00000073
0.83770816 0.60326549 0.00000073
0.00000073 0.71757362 0.00000073
0.10011367 0.71757362 0.00000073
0.21502778 0.71757362 0.00000073
0.30499135 0.71757362 0.00000073
0.39713013 0.71757362 0.00000073
0.49623968 0.71757362 0.00000073
0.60326549 0.71757362 0.00000073
0.71757362 0.71757362 0.00000073
0.83770816 0.71757362 0.00000073
0.00000073 0.83770816 0.00000073
0.10011367 0.83770816 0.00000073
0.21502778 0.83770816 0.00000073
0.30499135 0.83770816 0.00000073
0.39713013 0.83770816 0.00000073
0.49623968 0.83770816 0.00000073
0.60326549 0.83770816 0.00000073
0.71757362 0.83770816 0.00000073
0.83770816 0.83770816 0.00000073
0.00000073 0.00000073 0.10011367
0.10011367 0.00000073 0.10011367
0.21502778 0.00000073 0.10011367
0.30499135 0.00000073 0.10011367
0.39713013 0.00000073 0.10011367
0.49623968 0.00000073 0.10011367
0.60326549 0.00000073 0.10011367
0.71757362 0.00000073 0.10011367
0.83770816 0.00000073 0.10011367
0.00000073 0.10011367 0.10011367
0.10011367 0.10011367 0.10011367
0.21502778 0.10011367 0.10011367
0.30499135 0.10011367 0.10011367
0.39713013 0.10011367 0.10011367
0.49623968 0.10011367 0.10011367
0.60326549 0.10011367 0.10011367
0.71757362 0.10011367 0.10011367
0.83770816 0.10011367 0.10011367
0.00000073 0.21502778 0.10011367
0.10011367 0.21502778 0.10011367
0.21502778 0.21502778 0.10011367
0.30499135 0.21502778 0.10011367
0.39713013 0.21502778 0.10011367
0.49623968 0.21502778 0.10011367
0.60326549 0.21502778 0.10011367
0.71757362 0.21502778 0.10011367
0.83770816 0.21502778 0.10011367
0.00000073 0.30499135 0.10011367
0.10011367 0.30499135 0.10011367
0.21502778 0.30499135 0.10011367
0.30499135 0.30499135 0.10011367
0.39713013 0.30499135 0.10011367
0.49623968 0.30499135 0.10011367
0.60326549 0.30499135 0.10011367
0.71757362 0.30499135 0.10011367
0.83770816 0.30499135 0.10011367
0.00000073 0.39713013 0.10011367
0.10011367 0.39713013 0.10011367
0.21502778 0.39713013 0.10011367
0.30499135 0.39713013 0.10011367
0.39713013 0.39713013 0.10011367
0.49623968 0.39713013 0.10011367
0.60326549 0.39713013 0.10011367
0.71757362 0.39713013 0.10011367
0.83770816 0.39713013 0.10011367
0.00000073 0.49623968 0.10011367
0.10011367 0.49623968 0.10011367
0.21502778 0.49623968 0.10011367
0.30499135 0.49623968 0.10011367
0.39713013 0.49623968 0.10011367
0.49623968 0.49623968 0.10011367
0.60326549 0.49623968 0.10011367
0.71757362 0.49623968 0.10011367
0.83770816 0.49623968 0.10011367
0.00000073 0.60326549 0.10011367
0.10011367 0.60326549 0.10011367
0.21502778 0.60326549 0.10011367
0.30499135 0.60326549 0.10011367
0.39713013 0.60326549 0.10011367
0.49623968 0.60326549 0.10011367
0.60326549 0.60326549 0.10011367
0.71757362 0.60326549 0.10011367
0.83770816 0.60326549 0.10011367
0.00000073 0.71757362 0.10011367
0.10011367 0.71757362 0.10011367
0.21502778 0.71757362 0.10011367
0.30499135 0.71757362 0.10011367
0.39713013 0.71757362 0.10011367
0.49623968 0.71757362 0.10011367
0.60326549 0.71757362 0.10011367
0.71757362 0.71757362 0.10011367
0.83770816 0.71757362 0.10011367
0.00000073 0.83770816 0.10011367
0.10011367 0.83770816 0.10011367
0.21502778 0.83770816 0.10011367
0.30499135 0.83770816 0.10011367
0.39713013 0.83770816 0.10011367
0.49623968 0.83770816 0.10011367
0.60326549 0.83770816 0.10011367
0.71757362 0.83770816 0.10011367
0.83770816 0.83770816 0.10011367
0.00000073 0.00000073 0.21502778
0.10011367 0.00000073 0.21502778
0.21502778 0.00000073 0.21502778
0.30499135 0.00000073 0.21502778
0.39713013 0.00000073 0.21502778
0.49623968 0.00000073 0.21502778
0.60326549 0.00000073 0.21502778
0.71757362 0.00000073 0.21502778
0.83770816 0.00000073 0.21502778
0.00000073 0.10011367 0.21502778
0.10011367 0.10011367 0.21502778
0.21502778 0.10011367 0.21502778
0.30499135 0.10011367 0.21502778
0.39713013 0.10011367 0.21502778
0.49623968 0.10011367 0.21502778
0.60326549 0.10011367 0.21502778
0.71757362 0.10011367 0.21502778
0.83770816 0.10011367 0.21502778
0.00000073 0.21502778 0.21502778
0.10011367 0.21502778 0.21502778
0.21502778 0.21502778 0.21502778
0.30499135 0.21502778 0.21502778
0.39713013 0.21502778 0.21502778
0.49623968 0.21502778 0.21502778
0.60326549 0.21502778 0.21502778
0.71757362 0.21502778 0.21502778
0.83770816 0.21502778 0.21502778
0.00000073 0.30499135 0.21502778
0.10011367 0.30499135 0.21502778
0.21502778 0.30499135 0.21502778
0.30499135 0.30499135 0.21502778
0.39713013 0.30499135 0.21502778
0.49623968 0.30499135 0.21502778
0.60326549 0.30499135 0.21502778
0.71757362 0.30499135 0.21502778
0.83770816 0.30499135 0.21502778
0.00000073 0.39713013 0.21502778
0.10011367 0.39713013 0.21502778
0.21502778 0.39713013 0.21502778
0.30499135 0.39713013 0.21502778
0.39713013 0.39713013 0.21502778
0.49623968 0.39713013 0.21502778
0.60326549 0.39713013 0.21502778
0.71757362 0.39713013 0.21502778
0.83770816 0.39713013 0.21502778
0.00000073 0.49623968 0.21502778
0.10011367 0.49623968 0.21502778
0.21502778 0.49623968 0.21502778
0.30499135 0.49623968 0.21502778
0.39713013 0.49623968 0.21502778
0.49623968 0.49623968 0.21502778
0.60326549 0.49623968 0.21502778
0.71757362 0.49623968 0.21502778
0.83770816 0.49623968 0.21502778
0.00000073 0.60326549 0.21502778
0.10011367 0.60326549 0.21502778
0.21502778 0.60326549 0.21502778
0.30499135 0.60326549 0.21502778
0.39713013 0.60326549 0.21502778
0.49623968 0.60326549 0.21502778
0.60326549 0.60326549 0.21502778
0.71757362 0.60326549 0.21502778
0.83770816 0.60326549 0.21502778
0.00000073 0.71757362 0.21502778
0.10011367 0.71757362 0.21502778
0.21502778 0.71757362 0.21502778
0.30499135 0.71757362 0.21502778
0.39713013 0.71757362 0.21502778
0.49623968 0.71757362 0.21502778
0.60326549 0.71757362 0.21502778
0.71757362 0.71757362 0.21502778
0.83770816 0.71757362 0.21502778
0.00000073 0.83770816 0.21502778
0.10011367 0.83770816 0.21502778
0.21502778 0.83770816 0.21502778
0.30499135 0.83770816 0.21502778
0.39713013 0.83770816 0.21502778
0.49623968 0.83770816 0.21502778
0.60326549 0.83770816 0.21502778
0.71757362 0.83770816 0.21502778
0.83770816 0.83770816 0.21502778
0.00000073 0.00000073 0.30499135
0.10011367 0.00000073 0.30499135
0.21502778 0.00000073 0.30499135
0.30499135 0.00000073 0.30499135
0.39713013 0.00000073 0.30499135
0.49623968 0.00000073 0.30499135
0.60326549 0.00000073 0.30499135
0.71757362 0.00000073 0.30499135
0.83770816 0.00000073 0.30499135
0.00000073 0.10011367 0.30499135
0.10011367 0.10011367 0.30499135
0.21502778 0.10011367 0.30499135
0.30499135 0.10011367 0.30499135
0.39713013 0.10011367 0.30499135
0.49623968 0.10011367 0.30499135
0.60326549 0.10011367 0.30499135
0.71757362 0.10011367 0.30499135
0.83770816 0.10011367 0.30499135
0.00000073 0.21502778 0.30499135
0.10011367 0.21502778 0.30499135
0.21502778 0.21502778 0.30499135
0.30499135 0.21502778 0.30499135
0.39713013 0.21502778 0.30499135
0.49623968 0.21502778 0.30499135
0.60326549 0.21502778 0.30499135
0.71757362 0.21502778 0.30499135
0.83770816 0.21502778 0.30499135
0.00000073 0.30499135 0.30499135
0.10011367 0.30499135 0.30499135
0.21502778 0.30499135 0.30499135
0.30499135 0.30499135 0.30499135
0.39713013 0.30499135 0.30499135
0.49623968 0.30499135 0.30499135
0.60326549 0.30499135 0.30499135
0.71757362 0.30499135 0.30499135
0.83770816 0.30499135 0.30499135
0.00000073 0.39713013 0.30499135
0.10011367 0.39713013 0.30499135
0.21502778 0.39713013 0.30499135
0.30499135 0.39713013 0.30499135
0.39713013 0.39713013 0.30499135
0.49623968 0.39713013 0.30499135
0.60326549 0.39713013 0.30499135
0.71757362 0.39713013 0.30499135
0.83770816 0.39713013 0.30499135
0.00000073 0.49623968 0.30499135
0.10011367 0.49623968 0.30499135
0.21502778 0.49623968 0.30499135
0.30499135 0.49623968 0.30499135
0.39713013 0.49623968 0.30499135
0.49623968 0.49623968 0.30499135
0.60326549 0.49623968 0.30499135
0.71757362 0.49623968 0.30499135
0.83770816 0.49623968 0.30499135
0.00000073 0.60326549 0.30499135
0.10011367 0.60326549 0.30499135
0.21502778 0.60326549 0.30499135
0.30499135 0.60326549 0.30499135
0.39713013 0.60326549 0.30499135
0.49623968 0.60326549 0.30499135
0.60326549 0.60326549 0.30499135
0.71757362 0.60326549 0.30499135
0.83770816 0.60326549 0.30499135
0.00000073 0.71757362 0.30499135
0.10011367 0.71757362 0.30499135
0.21502778 0.71757362 0.30499135
0.30499135 0.71757362 0.30499135
0.39713013 0.71757362 0.30499135
0.49623968 0.71757362 0.30499135
0.60326549 0.71757362 0.30499135
0.71757362 0.71757362 0.30499135
0.83770816 0.71757362 0.30499135
0.00000073 0.83770816 0.30499135
0.10011367 0.83770816 0.30499135
0.21502778 0.83770816 0.30499135
0.30499135 0.83770816 0.30499135
0.39713013 0.83770816 0.30499135
0.49623968 0.83770816 0.30499135
0.60326549 0.83770816 0.30499135
0.71757362 0.83770816 0.30499135
0.83770816 0.83770816 0.30499135
0.00000073 0.00000073 0.39713013
0.10011367 0.00000073 0.39713013
0.21502778 0.00000073 0.39713013
0.30499135 0.00000073 0.39713013
0.39713013 0.00000073 0.39713013
0.49623968 0.00000073 0.39713013
0.60326549 0.00000073 0.39713013
0.71757362 0.00000073 0.39713013
0.83770816 0.00000073 0.39713013
0.00000073 0.10011367 0.39713013
0.10011367 0.10011367 0.39713013
0.21502778 0.10011367 0.39713013
0.30499135 0.10011367 0.39713013
0.39713013 0.10011367 0.39713013
0.49623968 0.10011367 0.39713013
0.60326549 0.10011367 0.39713013
0.71757362 0.10011367 0.39713013
0.83770816 0.10011367 0.39713013
0.00000073 0.21502778 0.39713013
0.10011367 0.21502778 0.39713013
0.21502778 0.21502778 0.39713013
0.30499135 0.21502778 0.39713013
0.39713013 0.21502778 0.39713013
0.49623968 0.21502778 0.39713013
0.60326549 0.21502778 0.39713013
0.71757362 0.21502778 0.39713013
0.83770816 0.21502778 0.39713013
0.00000073 0.30499135 0.39713013
0.10011367 0.30499135 0.39713013
0.21502778 0.30499135 0.39713013
0.30499135 0.30499135 0.39713013
0.39713013 0.30499135 0.39713013
0.49623968 0.30499135 0.39713013
0.60326549 0.30499135 0.39713013
0.71757362 0.30499135 0.39713013
0.83770816 0.30499135 0.39713013
0.00000073 0.39713013 0.39713013
0.10011367 0.39713013 0.39713013
0.21502778 0.39713013 0.39713013
0.30499135 0.39713013 0.39713013
0.39713013 0.39713013 0.39713013
0.49623968 0.39713013 0.39713013
0.60326549 0.39713013 0.39713013
0.71757362 0.39713013 0.39713013
0.83770816 0.39713013 0.39713013
0.00000073 0.49623968 0.39713013
0.10011367 0.49623968 0.39713013
0.21502778 0.49623968 0.39713013
0.30499135 0.49623968 0.39713013
0.39713013 0.49623968 0.39713013
0.49623968 0.49623968 0.39713013
0.60326549 0.49623968 0.39713013
0.71757362 0.49623968 0.39713013
0.83770816 0.49623968 0.39713013
0.00000073 0.60326549 0.39713013
0.10011367 0.60326549 0.39713013
0.21502778 0.60326549 0.39713013
0.30499135 0.60326549 0.39713013
0.39713013 0.60326549 0.39713013
0.49623968 0.60326549 0.39713013
0.60326549 0.60326549 0.39713013
0.71757362 0.60326549 0.39713013
0.83770816 0.60326549 0.39713013
0.00000073 0.71757362 0.39713013
0.10011367 0.71757362 0.39713013
0.21502778 0.71757362 0.39713013
0.30499135 0.71757362 0.39713013
0.39713013 0.71757362 0.39713013
0.49623968 0.71757362 0.39713013
0.60326549 0.71757362 0.39713013
0.71757362 0.71757362 0.39713013
0.83770816 0.71757362 0.39713013
0.00000073 0.83770816 0.39713013
0.10011367 0.83770816 0.39713013
0.21502778 0.83770816 0.39713013
0.30499135 0.83770816 0.39713013
0.39713013 0.83770816 0.39713013
0.49623968 0.83770816 0.39713013
0.60326549 0.83770816 0.39713013
0.71757362 0.83770816 0.39713013
0.83770816 0.83770816 0.39713013
0.00000073 0.00000073 0.49623968
0.10011367 0.00000073 0.49623968
0.21502778 0.00000073 0.49623968
0.30499135 0.00000073 0.49623968
0.39713013 0.00000073 0.49623968
0.49623968 0.00000073 0.49623968
0.60326549 0.00000073 0.49623968
0.71757362 0.00000073 0.49623968
0.83770816 0.00000073 0.49623968
0.00000073 0.10011367 0.49623968
0.10011367 0.10011367 0.49623968
0.21502778 0.10011367 0.49623968
0.30499135 0.10011367 0.49623968
0.39713013 0.10011367 0.49623968
0.49623968 0.10011367 0.49623968
0.60326549 0.10011367 0.49623968
0.71757362 0.10011367 0.49623968
0.83770816 0.10011367 0.49623968
0.00000073 0.21502778 0.49623968
0.10011367 0.21502778 0.49623968
0.21502778 0.21502778 0.49623968
0.30499135 0.21502778 0.49623968
0.39713013 0.21502778 0.49623968
0.49623968 0.21502778 0.49623968
0.60326549 0.21502778 0.49623968
0.71757362 0.21502778 0.49623968
0.83770816 0.21502778 0.49623968
0.00000073 0.30499135 0.49623968
0.10011367 0.30499135 0.49623968
0.21502778 0.30499135 0.49623968
0.30499135 0.30499135 0.49623968
0.39713013 0.30499135 0.49623968
0.49623968 0.30499135 0.49623968
0.60326549 0.30499135 0.49623968
0.71757362 0.30499135 0.49623968
0.83770816 0.30499135 0.49623968
0.00000073 0.39713013 0.49623968
0.10011367 0.39713013 0.49623968
0.21502778 0.39713013 0.49623968
0.30499135 0.39713013 0.49623968
0.39713013 0.39713013 0.49623968
0.49623968 0.39713013 0.49623968
0.60326549 0.39713013 0.49623968
0.71757362 0.39713013 0.49623968
0.83770816 0.39713013 0.49623968
0.00000073 0.49623968 0.49623968
0.10011367 0.49623968 0.49623968
0.21502778 0.49623968 0.49623968
0.30499135 0.49623968 0.49623968
0.39713013 0.49623968 0.49623968
0.49623968 0.49623968 0.49623968
0.60326549 0.49623968 0.49623968
0.71757362 0.49623968 0.49623968
0.83770816 0.49623968 0.49623968
0.00000073 0.60326549 0.49623968
0.10011367 0.60326549 0.49623968
0.21502778 0.60326549 0.49623968
0.30499135 0.60326549 0.49623968
0.39713013 0.60326549 0.49623968
0.49623968 0.60326549 0.49623968
0.60326549 0.60326549 0.49623968
0.71757362 0.60326549 0.49623968
0.83770816 0.60326549 0.49623968
0.00000073 0.71757362 0.49623968
0.10011367 0.71757362 0.49623968
0.21502778 0.71757362 0.49623968
0.30499135 0.71757362 0.49623968
0.39713013 0.71757362 0.49623968
0.49623968 0.71757362 0.49623968
0.60326549 0.71757362 0.49623968
0.71757362 0.71757362 0.49623968
0.83770816 0.71757362 0.49623968
0.00000073 0.83770816 0.49623968
0.10011367 0.83770816 0.49623968
0.21502778 0.83770816 0.49623968
0.30499135 0.83770816 0.49623968
0.39713013 0.83770816 0.49623968
0.49623968 0.83770816 0.49623968
0.60326549 0.83770816 0.49623968
0.71757362 0.83770816 0.49623968
0.83770816 0.83770816 0.49623968
0.00000073 0.00000073 0.60326549
0.10011367 0.00000073 0.60326549
0.21502778 0.00000073 0.60326549
0.30499135 0.00000073 0.60326549
0.39713013 0.00000073 0.60326549
0.49623968 0.00000073 0.60326549
0.60326549 0.00000073 0.60326549
0.71757362 0.00000073 0.60326549
0.83770816 0.00000073 0.60326549
0.00000073 0.10011367 0.60326549
0.10011367 0.10011367 0.60326549
0.21502778 0.10011367 0.60326549
0.30499135 0.10011367 0.60326549
0.39713013 0.10011367 0.60326549
0.49623968 0.10011367 0.60326549
0.60326549 0.10011367 0.60326549
0.71757362 0.10011367 0.60326549
0.83770816 0.10011367 0.60326549
0.00000073 0.21502778 0.60326549
0.10011367 0.21502778 0.60326549
0.21502778 0.21502778 0.60326549
0.30499135 0.21502778 0.60326549
0.39713013 0.21502778 0.60326549
0.49623968 0.21502778 0.60326549
0.60326549 0.21502778 0.60326549
0.71757362 0.21502778 0.60326549
0.83770816 0.21502778 0.60326549
0.00000073 0.30499135 0.60326549
0.10011367 0.30499135 0.60326549
0.21502778 0.30499135 0.60326549
0.30499135 0.30499135 0.60326549
0.39713013 0.30499135 0.60326549
0.49623968 0.30499135 0.60326549
0.60326549 0.30499135 0.60326549
0.71757362 0.30499135 0.60326549
0.83770816 0.30499135 0.60326549
0.00000073 0.39713013 0.60326549
0.10011367 0.39713013 0.60326549
0.21502778 0.39713013 0.60326549
0.30499135 0.39713013 0.60326549
0.39713013 0.39713013 0.60326549
0.49623968 0.39713013 0.60326549
0.60326549 0.39713013 0.60326549
0.71757362 0.39713013 0.60326549
0.83770816 0.39713013 0.60326549
0.00000073 0.49623968 0.60326549
0.10011367 0.49623968 0.60326549
0.21502778 0.49623968 0.60326549
0.30499135 0.49623968 0.60326549
0.39713013 0.49623968 0.60326549
0.49623968 0.49623968 0.60326549
0.60326549 0.49623968 0.60326549
0.71757362 0.49623968 0.60326549
0.83770816 0.49623968 0.60326549
0.00000073 0.60326549 0.60326549
0.10011367 0.60326549 0.60326549
0.21502778 0.60326549 0.60326549
0.30499135 0.60326549 0.60326549
0.39713013 0.60326549 0.60326549
0.49623968 0.60326549 0.60326549
0.60326549 0.60326549 0.60326549
0.71757362 0.60326549 0.60326549
0.83770816 0.60326549 0.60326549
0.00000073 0.71757362 0.60326549
0.10011367 0.71757362 0.60326549
0.21502778 0.71757362 0.60326549
0.30499135 0.71757362 0.60326549
0.39713013 0.71757362 0.60326549
0.49623968 0.71757362 0.60326549
0.60326549 0.71757362 0.60326549
0.71757362 0.71757362 0.60326549
0.83770816 0.71757362 0.60326549
0.00000073 0.83770816 0.60326549
0.10011367 0.83770816 0.60326549
0.21502778 0.83770816 0.60326549
0.30499135 0.83770816 0.60326549
0.39713013 0.83770816 0.60326549
0.49623968 0.83770816 0.60326549
0.60326549 0.83770816 0.60326549
0.71757362 0.83770816 0.60326549
0.83770816 0.83770816 0.60326549
0.00000073 0.00000073 0.71757362
0.10011367 0.00000073 0.71757362
0.21502778 0.00000073 0.71757362
0.30499135 0.00000073 0.71757362
0.39713013 0.00000073 0.71757362
0.49623968 0.00000073 0.71757362
0.60326549 0.00000073 0.71757362
0.71757362 0.00000073 0.71757362
0.83770816 0.00000073 0.71757362
0.00000073 0.10011367 0.71757362
0.10011367 0.10011367 0.71757362
0.21502778 0.10011367 0.71757362
0.30499135 0.10011367 0.71757362
0.39713013 0.10011367 0.71757362
0.49623968 0.10011367 0.71757362
0.60326549 0.10011367 0.71757362
0.71757362 0.10011367 0.71757362
0.83770816 0.10011367 0.71757362
0.00000073 0.21502778 0.71757362
0.10011367 0.21502778 0.71757362
0.21502778 0.21502778 0.71757362
0.30499135 0.21502778 0.71757362
0.39713013 0.21502778 0.71757362
0.49623968 0.21502778 0.71757362
0.60326549 0.21502778 0.71757362
0.71757362 0.21502778 0.71757362
0.83770816 0.21502778 0.71757362
0.00000073 0.30499135 0.71757362
0.10011367 0.30499135 0.71757362
0.21502778 0.30499135 0.71757362
0.30499135 0.30499135 0.71757362
0.39713013 0.30499135 0.71757362
0.49623968 0.30499135 0.71757362
0.60326549 0.30499135 0.71757362
0.71757362 0.30499135 0.71757362
0.83770816 0.30499135 0.71757362
0.00000073 0.39713013 0.71757362
0.10011367 0.39713013 0.71757362
0.21502778 0.39713013 0.71757362
0.30499135 0.39713013 0.71757362
0.39713013 0.39713013 0.71757362
0.49623968 0.39713013 0.71757362
0.60326549 0.39713013 0.71757362
0.71757362 0.39713013 0.71757362
0.83770816 0.39713013 0.71757362
0.00000073 0.49623968 0.71757362
0.10011367 0.49623968 0.71757362
0.21502778 0.49623968 0.71757362
0.30499135 0.49623968 0.71757362
0.39713013 0.49623968 0.71757362
0.49623968 0.49623968 0.71757362
0.60326549 0.49623968 0.71757362
0.71757362 0.49623968 0.71757362
0.83770816 0.49623968 0.71757362
0.00000073 0.60326549 0.71757362
0.10011367 0.60326549 0.71757362
0.21502778 0.60326549 0.71757362
0.30499135 0.60326549 0.71757362
0.39713013 0.60326549 0.71757362
0.49623968 0.60326549 0.71757362
0.60326549 0.60326549 0.71757362
0.71757362 0.60326549 0.71757362
0.83770816 0.60326549 0.71757362
0.00000073 0.71757362 0.71757362
0.10011367 0.71757362 0.71757362
0.21502778 0.71757362 0.71757362
0.30499135 0.71757362 0.71757362
0.39713013 0.71757362 0.71757362
0.49623968 0.71757362 0.71757362
0.60326549 0.71757362 0.71757362
0.71757362 0.71757362 0.71757362
0.83770816 0.71757362 0.71757362
0.00000073 0.83770816 0.71757362
0.10011367 0.83770816 0.71757362
0.21502778 0.83770816 0.71757362
0.30499135 0.83770816 0.71757362
0.39713013 0.83770816 0.71757362
0.49623968 0.83770816 0.71757362
0.60326549 0.83770816 0.71757362
0.71757362 0.83770816 0.71757362
0.83770816 0.83770816 0.71757362
0.00000073 0.00000073 0.83770816
0.10011367 0.00000073 0.83770816
0.21502778 0.00000073 0.83770816
0.30499135 0.00000073 0.83770816
0.39713013 0.00000073 0.83770816
0.49623968 0.00000073 0.83770816
0.60326549 0.00000073 0.83770816
0.71757362 0.00000073 0.83770816
0.83770816 0.00000073 0.83770816
0.00000073 0.10011367 0.83770816
0.10011367 0.10011367 0.83770816
0.21502778 0.10011367 0.83770816
0.30499135 0.10011367 0.83770816
0.39713013 0.10011367 0.83770816
0.49623968 0.10011367 0.83770816
0.60326549 0.10011367 0.83770816
0.71757362 0.10011367 0.83770816
0.83770816 0.10011367 0.83770816
0.00000073 0.21502778 0.83770816
0.10011367 0.21502778 0.83770816
0.21502778 0.21502778 0.83770816
0.30499135 0.21502778 0.83770816
0.39713013 0.21502778 0.83770816
0.49623968 0.21502778 0.83770816
0.60326549 0.21502778 0.83770816
0.71757362 0.21502778 0.83770816
0.83770816 0.21502778 0.83770816
0.00000073 0.30499135 0.83770816
0.10011367 0.30499135 0.83770816
0.21502778 0.30499135 0.83770816
0.30499135 0.30499135 0.83770816
0.39713013 0.30499135 0.83770816
0.49623968 0.30499135 0.83770816
0.60326549 0.30499135 0.83770816
0.71757362 0.30499135 0.83770816
0.83770816 0.30499135 0.83770816
0.00000073 0.39713013 0.83770816
0.10011367 0.39713013 0.83770816
0.21502778 0.39713013 0.83770816
0.30499135 0.39713013 0.83770816
0.39713013 0.39713013 0.83770816
0.49623968 0.39713013 0.83770816
0.60326549 0.39713013 0.83770816
0.71757362 0.39713013 0.83770816
0.83770816 0.39713013 0.83770816
0.00000073 0.49623968 0.83770816
0.10011367 0.49623968 0.83770816
0.21502778 0.49623968 0.83770816
0.30499135 0.49623968 0.83770816
0.39713013 0.49623968 0.83770816
0.49623968 0.49623968 0.83770816
0.60326549 0.49623968 0.83770816
0.71757362 0.49623968 0.83770816
0.83770816 0.49623968 0.83770816
0.00000073 0.60326549 0.83770816
0.10011367 0.60326549 0.83770816
0.21502778 0.60326549 0.83770816
0.30499135 0.60326549 0.83770816
0.39713013 0.60326549 0.83770816
0.49623968 0.60326549 0.83770816
0.60326549 0.60326549 0.83770816
0.71757362 0.60326549 0.83770816
0.83770816 0.60326549 0.83770816
0.00000073 0.71757362 0.83770816
0.10011367 0.71757362 0.83770816
0.21502778 0.71757362 0.83770816
0.30499135 0.71757362 0.83770816
0.39713013 0.71757362 0.83770816
0.49623968 0.71757362 0.83770816
0.60326549 0.71757362 0.83770816
0.71757362 0.71757362 0.83770816
0.83770816 0.71757362 0.83770816
0.00000073 0.83770816 0.83770816
0.10011367 0.83770816 0.83770816
0.21502778 0.83770816 0.83770816
0.30499135 0.83770816 0.83770816
0.39713013 0.83770816 0.83770816
0.49623968 0.83770816 0.83770816
0.60326549 0.83770816 0.83770816
0.71757362 0.83770816 0.83770816
0.83770816 0.83770816 0.83770816
