src/ffmpeg_scripts/luts/flog-experimental_3p00.cube
TITLE "flog-experimental_3p00"
LUT_3D_SIZE 33
# Fujifilm F-Log/Rec2020 -> PQ (EOTF Only)/Rec2020, CineEI Shift 3.00, Black Level 0.00% IRE, Input 109% -> Output 100% - Created with LUTCalc v4.01 by Ben Turley October 2020
0.00000073 0.00000073 0.00000073
0.00000073 0.00000073 0.00000073
0.00000073 0.00000073 0.00000073
0.07900984 0.00000073 0.00000073
0.31268672 0.00000073 0.00000073
0.39099662 0.00000073 0.00000073
0.44746037 0.00000073 0.00000073
0.49445628 0.00000073 0.00000073
0.53626345 0.00000073 0.00000073
0.57489345 0.00000073 0.00000073
0.61145472 0.00000073 0.00000073
0.64662024 0.00000073 0.00000073
0.68082532 0.00000073 0.00000073
0.71436364 0.00000073 0.00000073
0.74743875 0.00000073 0.00000073
0.78019380 0.00000073 0.00000073
0.81272979 0.00000073 0.00000073
0.84511744 0.00000073 0.00000073
0.87740502 0.00000073 0.00000073
0.90962400 0.00000073 0.00000073
0.94179297 0.00000073 0.00000073
0.97392061 0.00000073 0.00000073
1.00000000 0.00000073 0.00000073
1.00000000 0.00000073 0.00000073
1.00000000 0.00000073 0.00000073
1.00000000 0.00000073 0.00000073
1.00000000 0.00000073 0.00000073
1.00000000 0.00000073 0.00000073
1.00000000 0.00000073 0.00000073
1.00000000 0.00000073 0.00000073
1.00000000 0.00000073 0.00000073
1.00000000 0.00000073 0.00000073
1.00000000 0.00000073 0.00000073
0.00000073 0.00000073 0.00000073
0.00000073 0.00000073 0.00000073
0.00000073 0.00000073 0.00000073
0.07900984 0.00000073 0.00000073
0.31268672 0.00000073 0.00000073
0.39099662 0.00000073 0.00000073
0.44746037 0.00000073 0.00000073
0.49445628 0.00000073 0.00000073
0.53626345 0.00000073 0.00000073
0.57489345 0.00000073 0.00000073
0.61145472 0.00000073 0.00000073
0.64662024 0.00000073 0.00000073
0.68082532 0.00000073 0.00000073
0.71436364 0.00000073 0.00000073
0.74743875 0.00000073 0.00000073
0.78019380 0.00000073 0.00000073
0.81272979 0.00000073 0.00000073
0.84511744 0.00000073 0.00000073
0.87740502 0.00000073 0.00000073
0.90962400 0.00000073 0.00000073
0.94179297 0.00000073 0.00000073
0.97392061 0.00000073 0.00000073
1.00000000 0.00000073 0.00000073
1.00000000 0.00000073 0.00000073
1.00000000 0.00000073 0.00000073
1.00000000 0.00000073 0.00000073
1.00000000 0.00000073 0.00000073
1.00000000 0.00000073 0.00000073
1.00000000 0.00000073 0.00000073
1.00000000 0.00000073 0.00000073
1.00000000 0.00000073 0.00000073
1.00000000 0.00000073 0.00000073
1.00000000 0.00000073 0.00000073
0.00000073 0.00000073 0.00000073
0.00000073 0.00000073 0.00000073
0.00000073 0.00000073 0.00000073
0.07900984 0.00000073 0.00000073
0.31268672 0.00000073 0.00000073
0.39099662 0.00000073 0.00000073
0.44746037 0.00000073 0.00000073
0.49445628 0.00000073 0.00000073
0.53626345 0.00000073 0.00000073
0.57489345 0.00000073 0.00000073
0.61145472 0.00000073 0.00000073
0.64662024 0.00000073 0.00000073
0.68082532 0.00000073 0.00000073
0.71436364 0.00000073 0.00000073
0.74743875 0.00000073 0.00000073
0.78019380 0.00000073 0.00000073
0.81272979 0.00000073 0.00000073
0.84511744 0.00000073 0.00000073
0.87740502 0.00000073 0.00000073
0.90962400 0.00000073 0.00000073
0.94179297 0.00000073 0.00000073
0.97392061 0.00000073 0.00000073
1.00000000 0.00000073 0.00000073
1.00000000 0.00000073 0.00000073
1.00000000 0.00000073 0.00000073
1.00000000 0.00000073 0.00000073
1.00000000 0.00000073 0.00000073
1.00000000 0.00000073 0.00000073
1.00000000 0.00000073 0.00000073
1.00000000 0.00000073 0.00000073
1.00000000 0.00000073 0.00000073
1.00000000 0.00000073 0.00000073
1.00000000 0.00000073 0.00000073
0.00000073 0.07900984 0.00000073
0.00000073 0.07900984 0.00000073
0.00000073 0.07900984 0.00000073
0.07900984 0.07900984 0.00000073
0.31268672 0.07900984 0.00000073
0.39099662 0.07900984 0.00000073
0.44746037 0.07900984 0.00000073
0.49445628 0.07900984 0.00000073
0.53626345 0.07900984 0.00000073
0.57489345 0.07900984 0.00000073
0.61145472 0.07900984 0.00000073
0.64662024 0.07900984 0.00000073
0.68082532 0.07900984 0.00000073
0.71436364 0.07900984 0.00000073
0.74743875 0.07900984 0.00000073
0.78019380 0.07900984 0.00000073
0.81272979 0.07900984 0.00000073
0.84511744 0.07900984 0.00000073
0.87740502 0.07900984 0.00000073
0.90962400 0.07900984 0.00000073
0.94179297 0.07900984 0.00000073
0.97392061 0.07900984 0.00000073
1.00000000 0.07900984 0.00000073
1.00000000 0.07900984 0.00000073
1.00000000 0.07900984 0.00000073
1.00000000 0.07900984 0.00000073
1.00000000 0.07900984 0.00000073
1.00000000 0.07900984 0.00000073
1.00000000 0.07900984 0.00000073
1.00000000 0.07900984 0.00000073
1.00000000 0.07900984 0.00000073
1.00000000 0.07900984 0.00000073
1.00000000 0.07900984 0.00000073
0.00000073 0.31268672 0.00000073
0.00000073 0.31268672 0.00000073
0.00000073 0.31268672 0.00000073
0.07900984 0.31268672 0.00000073
0.31268672 0.31268672 0.00000073
0.39099662 0.31268672 0.00000073
0.44746037 0.31268672 0.00000073
0.49445628 0.31268672 0.00000073
0.53626345 0.31268672 0.00000073
0.57489345 0.31268672 0.00000073
0.61145472 0.31268672 0.00000073
0.64662024 0.31268672 0.00000073
0.68082532 0.31268672 0.00000073
0.71436364 0.31268672 0.00000073
0.74743875 0.31268672 0.00000073
0.78019380 0.31268672 0.00000073
0.81272979 0.31268672 0.00000073
0.84511744 0.31268672 0.00000073
0.87740502 0.31268672 0.00000073
0.90962400 0.31268672 0.00000073
0.94179297 0.31268672 0.00000073
0.97392061 0.31268672 0.00000073
1.00000000 0.31268672 0.00000073
1.00000000 0.31268672 0.00000073
1.00000000 0.31268672 0.00000073
1.00000000 0.31268672 0.00000073
1.00000000 0.31268672 0.00000073
1.00000000 0.31268672 0.00000073
1.00000000 0.31268672 0.00000073
1.00000000 0.31268672 0.00000073
1.00000000 0.31268672 0.00000073
1.00000000 0.31268672 0.00000073
1.00000000 0.31268672 0.00000073
0.00000073 0.39099662 0.00000073
0.00000073 0.39099662 0.00000073
0.00000073 0.39099662 0.00000073
0.07900984 0.39099662 0.00000073
0.31268672 0.39099662 0.00000073
0.39099662 0.39099662 0.00000073
0.44746037 0.39099662 0.00000073
0.49445628 0.39099662 0.00000073
0.53626345 0.39099662 0.00000073
0.57489345 0.39099662 0.00000073
0.61145472 0.39099662 0.00000073
0.64662024 0.39099662 0.00000073
0.68082532 0.39099662 0.00000073
0.71436364 0.39099662 0.00000073
0.74743875 0.39099662 0.00000073
0.78019380 0.39099662 0.00000073
0.81272979 0.39099662 0.00000073
0.84511744 0.39099662 0.00000073
0.87740502 0.39099662 0.00000073
0.90962400 0.39099662 0.00000073
0.94179297 0.39099662 0.00000073
0.97392061 0.39099662 0.00000073
1.00000000 0.39099662 0.00000073
1.00000000 0.39099662 0.00000073
1.00000000 0.39099662 0.00000073
1.00000000 0.39099662 0.00000073
1.00000000 0.39099662 0.00000073
1.00000000 0.39099662 0.00000073
1.00000000 0.39099662 0.00000073
1.00000000 0.39099662 0.00000073
1.00000000 0.39099662 0.00000073
1.00000000 0.39099662 0.00000073
1.00000000 0.39099662 0.00000073
0.00000073 0.44746037 0.00000073
0.00000073 0.44746037 0.00000073
0.00000073 0.44746037 0.00000073
0.07900984 0.44746037 0.00000073
0.31268672 0.44746037 0.00000073
0.39099662 0.44746037 0.00000073
0.44746037 0.44746037 0.00000073
0.49445628 0.44746037 0.00000073
0.53626345 0.44746037 0.00000073
0.57489345 0.44746037 0.00000073
0.61145472 0.44746037 0.00000073
0.64662024 0.44746037 0.00000073
0.68082532 0.44746037 0.00000073
0.71436364 0.44746037 0.00000073
0.74743875 0.44746037 0.00000073
0.78019380 0.44746037 0.00000073
0.81272979 0.44746037 0.00000073
0.84511744 0.44746037 0.00000073
0.87740502 0.44746037 0.00000073
0.90962400 0.44746037 0.00000073
0.94179297 0.44746037 0.00000073
0.97392061 0.44746037 0.00000073
1.00000000 0.44746037 0.00000073
1.00000000 0.44746037 0.00000073
1.00000000 0.44746037 0.00000073
1.00000000 0.44746037 0.00000073
1.00000000 0.44746037 0.00000073
1.00000000 0.44746037 0.00000073
1.00000000 0.44746037 0.00000073
1.00000000 0.44746037 0.00000073
1.00000000 0.44746037 0.00000073
1.00000000 0.44746037 0.00000073
1.00000000 0.44746037 0.00000073
0.00000073 0.49445628 0.00000073
0.00000073 0.49445628 0.00000073
0.00000073 0.49445628 0.00000073
0.07900984 0.49445628 0.00000073
0.31268672 0.49445628 0.00000073
0.39099662 0.49445628 0.00000073
0.44746037 0.49445628 0.00000073
0.49445628 0.49445628 0.00000073
0.53626345 0.49445628 0.00000073
0.57489345 0.49445628 0.00000073
0.61145472 0.49445628 0.00000073
0.64662024 0.49445628 0.00000073
0.68082532 0.49445628 0.00000073
0.71436364 0.49445628 0.00000073
0.74743875 0.49445628 0.00000073
0.78019380 0.49445628 0.00000073
0.81272979 0.49445628 0.00000073
0.84511744 0.49445628 0.00000073
0.87740502 0.49445628 0.00000073
0.90962400 0.49445628 0.00000073
0.94179297 0.49445628 0.00000073
0.97392061 0.49445628 0.00000073
1.00000000 0.49445628 0.00000073
1.00000000 0.49445628 0.00000073
1.00000000 0.49445628 0.00000073
1.00000000 0.49445628 0.00000073
1.00000000 0.49445628 0.00000073
1.00000000 0.49445628 0.00000073
1.00000000 0.49445628 0.00000073
1.00000000 0.49445628 0.00000073
1.00000000 0.49445628 0.00000073
1.00000000 0.49445628 0.00000073
1.00000000 0.49445628 0.00000073
0.00000073 0.53626345 0.00000073
0.00000073 0.53626345 0.00000073
0.00000073 0.53626345 0.00000073
0.07900984 0.53626345 0.00000073
0.31268672 0.53626345 0.00000073
0.39099662 0.53626345 0.00000073
0.44746037 0.53626345 0.00000073
0.49445628 0.53626345 0.00000073
0.53626345 0.53626345 0.00000073
0.57489345 0.53626345 0.00000073
0.61145472 0.53626345 0.00000073
0.64662024 0.53626345 0.00000073
0.68082532 0.53626345 0.00000073
0.71436364 0.53626345 0.00000073
0.74743875 0.53626345 0.00000073
0.78019380 0.53626345 0.00000073
0.81272979 0.53626345 0.00000073
0.84511744 0.53626345 0.00000073
0.87740502 0.53626345 0.00000073
0.90962400 0.53626345 0.00000073
0.94179297 0.53626345 0.00000073
0.97392061 0.53626345 0.00000073
1.00000000 0.53626345 0.00000073
1.00000000 0.53626345 0.00000073
1.00000000 0.53626345 0.00000073
1.00000000 0.53626345 0.00000073
1.00000000 0.53626345 0.00000073
1.00000000 0.53626345 0.00000073
1.00000000 0.53626345 0.00000073
1.00000000 0.53626345 0.00000073
1.00000000 0.53626345 0.00000073
1.00000000 0.53626345 0.00000073
1.00000000 0.53626345 0.00000073
0.00000073 0.57489345 0.00000073
0.00000073 0.57489345 0.00000073
0.00000073 0.57489345 0.00000073
0.07900984 0.57489345 0.00000073
0.31268672 0.57489345 0.00000073
0.39099662 0.57489345 0.00000073
0.44746037 0.57489345 0.00000073
0.49445628 0.57489345 0.00000073
0.53626345 0.57489345 0.00000073
0.57489345 0.57489345 0.00000073
0.61145472 0.57489345 0.00000073
0.64662024 0.57489345 0.00000073
0.68082532 0.57489345 0.00000073
0.71436364 0.57489345 0.00000073
0.74743875 0.57489345 0.00000073
0.78019380 0.57489345 0.00000073
0.81272979 0.57489345 0.00000073
0.84511744 0.57489345 0.00000073
0.87740502 0.57489345 0.00000073
0.90962400 0.57489345 0.00000073
0.94179297 0.57489345 0.00000073
0.97392061 0.57489345 0.00000073
1.00000000 0.57489345 0.00000073
1.00000000 0.57489345 0.00000073
1.00000000 0.57489345 0.00000073
1.00000000 0.57489345 0.00000073
1.00000000 0.57489345 0.00000073
1.00000000 0.57489345 0.00000073
1.00000000 0.57489345 0.00000073
1.00000000 0.57489345 0.00000073
1.00000000 0.57489345 0.00000073
1.00000000 0.57489345 0.00000073
1.00000000 0.57489345 0.00000073
0.00000073 0.61145472 0.00000073
0.00000073 0.61145472 0.00000073
0.00000073 0.61145472 0.00000073
0.07900984 0.61145472 0.00000073
0.31268672 0.61145472 0.00000073
0.39099662 0.61145472 0.00000073
0.44746037 0.61145472 0.00000073
0.49445628 0.61145472 0.00000073
0.53626345 0.61145472 0.00000073
0.57489345 0.61145472 0.00000073
0.61145472 0.61145472 0.00000073
0.64662024 0.61145472 0.00000073
0.68082532 0.61145472 0.00000073
0.71436364 0.61145472 0.00000073
0.74743875 0.61145472 0.00000073
0.78019380 0.61145472 0.00000073
0.81272979 0.61145472 0.00000073
0.84511744 0.61145472 0.00000073
0.87740502 0.61145472 0.00000073
0.90962400 0.61145472 0.00000073
0.94179297 0.61145472 0.00000073
0.97392061 0.61145472 0.00000073
1.00000000 0.61145472 0.00000073
1.00000000 0.61145472 0.00000073
1.00000000 0.61145472 0.00000073
1.00000000 0.61145472 0.00000073
1.00000000 0.61145472 0.00000073
1.00000000 0.61145472 0.00000073
1.00000000 0.61145472 0.00000073
1.00000000 0.61145472 0.00000073
1.00000000 0.61145472 0.00000073
1.00000000 0.61145472 0.00000073
1.00000000 0.61145472 0.00000073
0.00000073 0.64662024 0.00000073
0.00000073 0.64662024 0.00000073
0.00000073 0.64662024 0.00000073
0.07900984 0.64662024 0.00000073
0.31268672 0.64662024 0.00000073
0.39099662 0.64662024 0.00000073
0.44746037 0.64662024 0.00000073
0.49445628 0.64662024 0.00000073
0.53626345 0.64662024 0.00000073
0.57489345 0.64662024 0.00000073
0.61145472 0.64662024 0.00000073
0.64662024 0.64662024 0.00000073
0.68082532 0.64662024 0.00000073
0.71436364 0.64662024 0.00000073
0.74743875 0.64662024 0.00000073
0.78019380 0.64662024 0.00000073
0.81272979 0.64662024 0.00000073
0.84511744 0.64662024 0.00000073
0.87740502 0.64662024 0.00000073
0.90962400 0.64662024 0.00000073
0.94179297 0.64662024 0.00000073
0.97392061 0.64662024 0.00000073
1.00000000 0.64662024 0.00000073
1.00000000 0.64662024 0.00000073
1.00000000 0.64662024 0.00000073
1.00000000 0.64662024 0.00000073
1.00000000 0.64662024 0.00000073
1.00000000 0.64662024 0.00000073
1.00000000 0.64662024 0.00000073
1.00000000 0.64662024 0.00000073
1.00000000 0.64662024 0.00000073
1.00000000 0.64662024 0.00000073
1.00000000 0.64662024 0.00000073
0.00000073 0.68082532 0.00000073
0.00000073 0.68082532 0.00000073
0.00000073 0.68082532 0.00000073
0.07900984 0.68082532 0.00000073
0.31268672 0.68082532 0.00000073
0.39099662 0.68082532 0.00000073
0.44746037 0.68082532 0.00000073
0.49445628 0.68082532 0.00000073
0.53626345 0.68082532 0.00000073
0.57489345 0.68082532 0.00000073
0.61145472 0.68082532 0.00000073
0.64662024 0.68082532 0.00000073
0.68082532 0.68082532 0.00000073
0.71436364 0.68082532 0.00000073
0.74743875 0.68082532 0.00000073
0.78019380 0.68082532 0.00000073
0.81272979 0.68082532 0.00000073
0.84511744 0.68082532 0.00000073
0.87740502 0.68082532 0.00000073
0.90962400 0.68082532 0.00000073
0.94179297 0.68082532 0.00000073
0.97392061 0.68082532 0.00000073
1.00000000 0.68082532 0.00000073
1.00000000 0.68082532 0.00000073
1.00000000 0.68082532 0.00000073
1.00000000 0.68082532 0.00000073
1.00000000 0.68082532 0.00000073
1.00000000 0.68082532 0.00000073
1.00000000 0.68082532 0.00000073
1.00000000 0.68082532 0.00000073
1.00000000 0.68082532 0.00000073
1.00000000 0.68082532 0.00000073
1.00000000 0.68082532 0.00000073
0.00000073 0.71436364 0.00000073
0.00000073 0.71436364 0.00000073
0.00000073 0.71436364 0.00000073
0.07900984 0.71436364 0.00000073
0.31268672 0.71436364 0.00000073
0.39099662 0.71436364 0.00000073
0.44746037 0.71436364 0.00000073
0.49445628 0.71436364 0.00000073
0.53626345 0.71436364 0.00000073
0.57489345 0.71436364 0.00000073
0.61145472 0.71436364 0.00000073
0.64662024 0.71436364 0.00000073
0.68082532 0.71436364 0.00000073
0.71436364 0.71436364 0.00000073
0.74743875 0.71436364 0.00000073
0.78019380 0.71436364 0.00000073
0.81272979 0.71436364 0.00000073
0.84511744 0.71436364 0.00000073
0.87740502 0.71436364 0.00000073
0.90962400 0.71436364 0.00000073
0.94179297 0.71436364 0.00000073
0.97392061 0.71436364 0.00000073
1.00000000 0.71436364 0.00000073
1.00000000 0.71436364 0.00000073
1.00000000 0.71436364 0.00000073
1.00000000 0.71436364 0.00000073
1.00000000 0.71436364 0.00000073
1.00000000 0.71436364 0.00000073
1.00000000 0.71436364 0.00000073
1.00000000 0.71436364 0.00000073
1.00000000 0.71436364 0.00000073
1.00000000 0.71436364 0.00000073
1.00000000 0.71436364 0.00000073
0.00000073 0.74743875 0.00000073
0.00000073 0.74743875 0.00000073
0.00000073 0.74743875 0.00000073
0.07900984 0.74743875 0.00000073
0.31268672 0.74743875 0.00000073
0.39099662 0.74743875 0.00000073
0.44746037 0.74743875 0.00000073
0.49445628 0.74743875 0.00000073
0.53626345 0.74743875 0.00000073
0.57489345 0.74743875 0.00000073
0.61145472 0.74743875 0.00000073
0.64662024 0.74743875 0.00000073
0.68082532 0.74743875 0.00000073
0.71436364 0.74743875 0.00000073
0.74743875 0.74743875 0.00000073
0.78019380 0.74743875 0.00000073
0.81272979 0.74743875 0.00000073
0.84511744 0.74743875 0.00000073
0.87740502 0.74743875 0.00000073
0.90962400 0.74743875 0.00000073
0.94179297 0.74743875 0.00000073
0.97392061 0.74743875 0.00000073
1.00000000 0.74743875 0.00000073
1.00000000 0.74743875 0.00000073
1.00000000 0.74743875 0.00000073
1.00000000 0.74743875 0.00000073
1.00000000 0.74743875 0.00000073
1.00000000 0.74743875 0.00000073
1.00000000 0.74743875 0.00000073
1.00000000 0.74743875 0.00000073
1.00000000 0.74743875 0.00000073
1.00000000 0.74743875 0.00000073
1.00000000 0.74743875 0.00000073
0.00000073 0.78019380 0.00000073
0.00000073 0.78019380 0.00000073
0.00000073 0.78019380 0.00000073
0.07900984 0.78019380 0.00000073
0.31268672 0.78019380 0.00000073
0.39099662 0.78019380 0.00000073
0.44746037 0.78019380 0.00000073
0.49445628 0.78019380 0.00000073
0.53626345 0.78019380 0.00000073
0.57489345 0.78019380 0.00000073
0.61145472 0.78019380 0.00000073
0.64662024 0.78019380 0.00000073
0.68082532 0.78019380 0.00000073
0.71436364 0.78019380 0.00000073
0.74743875 0.78019380 0.00000073
0.78019380 0.78019380 0.00000073
0.81272979 0.78019380 0.00000073
0.84511744 0.78019380 0.00000073
0.87740502 0.78019380 0.00000073
0.90962400 0.78019380 0.00000073
0.94179297 0.78019380 0.00000073
0.97392061 0.78019380 0.00000073
1.00000000 0.78019380 0.00000073
1.00000000 0.78019380 0.00000073
1.00000000 0.78019380 0.00000073
1.00000000 0.78019380 0.00000073
1.00000000 0.78019380 0.00000073
1.00000000 0.78019380 0.00000073
1.00000000 0.78019380 0.00000073
1.00000000 0.78019380 0.00000073
1.00000000 0.78019380 0.00000073
1.00000000 0.78019380 0.00000073
1.00000000 0.78019380 0.00000073
0.00000073 0.81272979 0.00000073
0.00000073 0.81272979 0.00000073
0.00000073 0.81272979 0.00000073
0.07900984 0.81272979 0.00000073
0.31268672 0.81272979 0.00000073
0.39099662 0.81272979 0.00000073
0.44746037 0.81272979 0.00000073
0.49445628 0.81272979 0.00000073
0.53626345 0.81272979 0.00000073
0.57489345 0.81272979 0.00000073
0.61145472 0.81272979 0.00000073
0.64662024 0.81272979 0.00000073
0.68082532 0.81272979 0.00000073
0.71436364 0.81272979 0.00000073
0.74743875 0.81272979 0.00000073
0.78019380 0.81272979 0.00000073
0.81272979 0.81272979 0.00000073
0.84511744 0.81272979 0.00000073
0.87740502 0.81272979 0.00000073
0.90962400 0.81272979 0.00000073
0.94179297 0.81272979 0.00000073
0.97392061 0.81272979 0.00000073
1.00000000 0.81272979 0.00000073
1.00000000 0.81272979 0.00000073
1.00000000 0.81272979 0.00000073
1.00000000 0.81272979 0.00000073
1.00000000 0.81272979 0.00000073
1.00000000 0.81272979 0.00000073
1.00000000 0.81272979 0.00000073
1.00000000 0.81272979 0.00000073
1.00000000 0.81272979 0.00000073
1.00000000 0.81272979 0.00000073
1.00000000 0.81272979 0.00000073
0.00000073 0.84511744 0.00000073
0.00000073 0.84511744 0.00000073
0.00000073 0.84511744 0.00000073
0.07900984 0.84511744 0.00000073
0.31268672 0.84511744 0.00000073
0.39099662 0.84511744 0.00000073
0.44746037 0.84511744 0.00000073
0.49445628 0.84511744 0.00000073
0.53626345 0.84511744 0.00000073
0.57489345 0.84511744 0.00000073
0.61145472 0.84511744 0.00000073
0.64662024 0.84511744 0.00000073
0.68082532 0.84511744 0.00000073
0.71436364 0.84511744 0.00000073
0.74743875 0.84511744 0.00000073
0.78019380 0.84511744 0.00000073
0.81272979 0.84511744 0.00000073
0.84511744 0.84511744 0.00000073
0.87740502 0.84511744 0.00000073
0.90962400 0.84511744 0.00000073
0.94179297 0.84511744 0.00000073
0.97392061 0.84511744 0.00000073
1.00000000 0.84511744 0.00000073
1.00000000 0.84511744 0.00000073
1.00000000 0.84511744 0.00000073
1.00000000 0.84511744 0.00000073
1.00000000 0.84511744 0.00000073
1.00000000 0.84511744 0.00000073
1.00000000 0.84511744 0.00000073
1.00000000 0.84511744 0.00000073
1.00000000 0.84511744 0.00000073
1.00000000 0.84511744 0.00000073
1.00000000 0.84511744 0.00000073
0.00000073 0.87740502 0.00000073
0.00000073 0.87740502 0.00000073
0.00000073 0.87740502 0.00000073
0.07900984 0.87740502 0.00000073
0.31268672 0.87740502 0.00000073
0.39099662 0.87740502 0.00000073
0.44746037 0.87740502 0.00000073
0.49445628 0.87740502 0.00000073
0.53626345 0.87740502 0.00000073
0.57489345 0.87740502 0.00000073
0.61145472 0.87740502 0.00000073
0.64662024 0.87740502 0.00000073
0.68082532 0.87740502 0.00000073
0.71436364 0.87740502 0.00000073
0.74743875 0.87740502 0.00000073
0.78019380 0.87740502 0.00000073
0.81272979 0.87740502 0.00000073
0.84511744 0.87740502 0.00000073
0.87740502 0.87740502 0.00000073
0.90962400 0.87740502 0.00000073
0.94179297 0.87740502 0.00000073
0.97392061 0.87740502 0.00000073
1.00000000 0.87740502 0.00000073
1.00000000 0.87740502 0.00000073
1.00000000 0.87740502 0.00000073
1.00000000 0.87740502 0.00000073
1.00000000 0.87740502 0.00000073
1.00000000 0.87740502 0.00000073
1.00000000 0.87740502 0.00000073
1.00000000 0.87740502 0.00000073
1.00000000 0.87740502 0.00000073
1.00000000 0.87740502 0.00000073
1.00000000 0.87740502 0.00000073
0.00000073 0.90962400 0.00000073
0.00000073 0.90962400 0.00000073
0.00000073 0.90962400 0.00000073
0.07900984 0.90962400 0.00000073
0.31268672 0.90962400 0.00000073
0.39099662 0.90962400 0.00000073
0.44746037 0.90962400 0.00000073
0.49445628 0.90962400 0.00000073
0.53626345 0.90962400 0.00000073
0.57489345 0.90962400 0.00000073
0.61145472 0.90962400 0.00000073
0.64662024 0.90962400 0.00000073
0.68082532 0.90962400 0.00000073
0.71436364 0.90962400 0.00000073
0.74743875 0.90962400 0.00000073
0.78019380 0.90962400 0.00000073
0.81272979 0.90962400 0.00000073
0.84511744 0.90962400 0.00000073
0.87740502 0.90962400 0.00000073
0.90962400 0.90962400 0.00000073
0.94179297 0.90962400 0.00000073
0.97392061 0.90962400 0.00000073
1.00000000 0.90962400 0.00000073
1.00000000 0.90962400 0.00000073
1.00000000 0.90962400 0.00000073
1.00000000 0.90962400 0.00000073
1.00000000 0.90962400 0.00000073
1.00000000 0.90962400 0.00000073
1.00000000 0.90962400 0.00000073
1.00000000 0.90962400 0.00000073
1.00000000 0.90962400 0.00000073
1.00000000 0.90962400 0.00000073
1.00000000 0.90962400 0.00000073
0.00000073 0.94179297 0.00000073
0.00000073 0.94179297 0.00000073
0.00000073 0.94179297 0.00000073
0.07900984 0.94179297 0.00000073
0.31268672 0.94179297 0.00000073
0.39099662 0.94179297 0.00000073
0.44746037 0.94179297 0.00000073
0.49445628 0.94179297 0.00000073
0.53626345 0.94179297 0.00000073
0.57489345 0.94179297 0.00000073
0.61145472 0.94179297 0.00000073
0.64662024 0.94179297 0.00000073
0.68082532 0.94179297 0.00000073
0.71436364 0.94179297 0.00000073
0.74743875 0.94179297 0.00000073
0.78019380 0.94179297 0.00000073
0.81272979 0.94179297 0.00000073
0.84511744 0.94179297 0.00000073
0.87740502 0.94179297 0.00000073
0.90962400 0.94179297 0.00000073
0.94179297 0.94179297 0.00000073
0.97392061 0.94179297 0.00000073
1.00000000 0.94179297 0.00000073
1.00000000 0.94179297 0.00000073
1.00000000 0.94179297 0.00000073
1.00000000 0.94179297 0.00000073
1.00000000 0.94179297 0.00000073
1.00000000 0.94179297 0.00000073
1.00000000 0.94179297 0.00000073
1.00000000 0.94179297 0.00000073
1.00000000 0.94179297 0.00000073
1.00000000 0.94179297 0.00000073
1.00000000 0.94179297 0.00000073
0.00000073 0.97392061 0.00000073
0.00000073 0.97392061 0.00000073
0.00000073 0.97392061 0.00000073
0.07900984 0.97392061 0.00000073
0.31268672 0.97392061 0.00000073
0.39099662 0.97392061 0.00000073
0.44746037 0.97392061 0.00000073
0.49445628 0.97392061 0.00000073
0.53626345 0.97392061 0.00000073
0.57489345 0.97392061 0.00000073
0.61145472 0.97392061 0.00000073
0.64662024 0.97392061 0.00000073
0.68082532 0.97392061 0.00000073
0.71436364 0.97392061 0.00000073
0.74743875 0.97392061 0.00000073
0.78019380 0.97392061 0.00000073
0.81272979 0.97392061 0.00000073
0.84511744 0.97392061 0.00000073
0.87740502 0.97392061 0.00000073
0.90962400 0.97392061 0.00000073
0.94179297 0.97392061 0.00000073
0.97392061 0.97392061 0.00000073
1.00000000 0.97392061 0.00000073
1.00000000 0.97392061 0.00000073
1.00000000 0.97392061 0.00000073
1.00000000 0.97392061 0.00000073
1.00000000 0.97392061 0.00000073
