src/ffmpeg_scripts/luts/flog-experimental_4p00.cube
TITLE "flog-experimental_4p00"
LUT_3D_SIZE 9
# Fujifilm F-Log/Rec2020 -> PQ (EOTF Only)/Rec2020, CineEI Shift 4.00, Black Level 0.00% IRE, Input 109% -> Output 100% - Created with LUTCalc v4.01 by Ben Turley October 2020
0.00000073 0.00000073 0.00000073
0.38084027 0.00000073 0.00000073
0.62560065 0.00000073 0.00000073
0.77829570 0.00000073 0.00000073
0.91476556 0.00000073 0.00000073
1.00000000 0.00000073 0.00000073
1.00000000 0.00000073 0.00000073
1.00000000 0.00000073 0.00000073
1.00000000 0.00000073 0.00000073
0.00000073 0.38084027 0.00000073
0.38084027 0.38084027 0.00000073
0.62560065 0.38084027 0.00000073
0.77829570 0.38084027 0.00000073
0.91476556 0.38084027 0.00000073
1.00000000 0.38084027 0.00000073
1.00000000 0.38084027 0.00000073
1.00000000 0.38084027 0.00000073
1.00000000 0.38084027 0.00000073
0.00000073 0.62560065 0.00000073
0.38084027 0.62560065 0.00000073
0.62560065 0.62560065 0.00000073
0.77829570 0.62560065 0.00000073
0.91476556 0.62560065 0.00000073
1.00000000 0.62560065 0.00000073
1.00000000 0.62560065 0.00000073
1.00000000 0.62560065 0.00000073
1.00000000 0.62560065 0.00000073
0.00000073 0.77829570 0.00000073
0.38084027 0.77829570 0.00000073
0.62560065 0.77829570 0.00000073
0.77829570 0.77829570 0.00000073
0.91476556 0.77829570 0.00000073
1.00000000 0.77829570 0.00000073
1.00000000 0.77829570 0.00000073
1.00000000 0.77829570 0.00000073
1.00000000 0.77829570 0.00000073
0.00000073 0.91476556 0.00000073
0.38084027 0.91476556 0.00000073
0.62560065 0.91476556 0.00000073
0.77829570 0.91476556 0.00000073
0.91476556 0.91476556 0.00000073
1.00000000 0.91476556 0.00000073
1.00000000 0.91476556 0.00000073
1.00000000 0.91476556 0.00000073
1.00000000 0.91476556 0.00000073
0.00000073 1.00000000 0.00000073
0.38084027 1.00000000 0.00000073
0.62560065 1.00000000 0.00000073
0.77829570 1.00000000 0.00000073
0.91476556 1.00000000 0.00000073
1.00000000 1.00000000 0.00000073
1.00000000 1.00000000 0.00000073
1.00000000 1.00000000 0.00000073
1.00000000 1.00000000 0.00000073
0.00000073 1.00000000 0.00000073
0.38084027 1.00000000 0.00000073
0.62560065 1.00000000 0.00000073
0.77829570 1.00000000 0.00000073
0.91476556 1.00000000 0.00000073
1.00000000 1.00000000 0.00000073
1.00000000 1.00000000 0.00000073
1.00000000 1.00000000 0.00000073
1.00000000 1.00000000 0.00000073
0.00000073 1.00000000 0.00000073
0.38084027 1.00000000 0.00000073
0.62560065 1.00000000 0.00000073
0.77829570 1.00000000 0.00000073
0.91476556 1.00000000 0.00000073
1.00000000 1.00000000 0.00000073
1.00000000 1.00000000 0.00000073
1.00000000 1.00000000 0.00000073
1.00000000 1.00000000 0.00000073
0.00000073 1.00000000 0.00000073
0.38084027 1.00000000 0.00000073
0.62560065 1.00000000 0.00000073
0.77829570 1.00000000 0.00000073
0.91476556 1.00000000 0.00000073
1.00000000 1.00000000 0.00000073
1.00000000 1.00000000 0.00000073
1.00000000 1.00000000 0.00000073
1.00000000 1.00000000 0.00000073
0.00000073 0.00000073 0.38084027
0.38084027 0.00000073 0.38084027
0.62560065 0.00000073 0.38084027
0.77829570 0.00000073 0.38084027
0.91476556 0.00000073 0.38084027
1.00000000 0.00000073 0.38084027
1.00000000 0.00000073 0.38084027
1.00000000 0.00000073 0.38084027
1.00000000 0.00000073 0.38084027
0.00000073 0.38084027 0.38084027
0.38084027 0.38084027 0.38084027
0.62560065 0.38084027 0.38084027
0.77829570 0.38084027 0.38084027
0.91476556 0.38084027 0.38084027
1.00000000 0.38084027 0.38084027
1.00000000 0.38084027 0.38084027
1.00000000 0.38084027 0.38084027
1.00000000 0.38084027 0.38084027
0.00000073 0.62560065 0.38084027
0.38084027 0.62560065 0.38084027
0.62560065 0.62560065 0.38084027
0.77829570 0.62560065 0.38084027
0.91476556 0.62560065 0.38084027
1.00000000 0.62560065 0.38084027
1.00000000 0.62560065 0.38084027
1.00000000 0.62560065 0.38084027
1.00000000 0.62560065 0.38084027
0.00000073 0.77829570 0.38084027
0.38084027 0.77829570 0.38084027
0.62560065 0.77829570 0.38084027
0.77829570 0.77829570 0.38084027
0.91476556 0.77829570 0.38084027
1.00000000 0.77829570 0.38084027
1.00000000 0.77829570 0.38084027
1.00000000 0.77829570 0.38084027
1.00000000 0.77829570 0.38084027
0.00000073 0.91476556 0.38084027
0.38084027 0.91476556 0.38084027
0.62560065 0.91476556 0.38084027
0.77829570 0.91476556 0.38084027
0.91476556 0.91476556 0.38084027
1.00000000 0.91476556 0.38084027
1.00000000 0.91476556 0.38084027
1.00000000 0.91476556 0.38084027
1.00000000 0.91476556 0.38084027
0.00000073 1.00000000 0.38084027
0.38084027 1.00000000 0.38084027
0.62560065 1.00000000 0.38084027
0.77829570 1.00000000 0.38084027
0.91476556 1.00000000 0.38084027
1.00000000 1.00000000 0.38084027
1.00000000 1.00000000 0.38084027
1.00000000 1.00000000 0.38084027
1.00000000 1.00000000 0.38084027
0.00000073 1.00000000 0.38084027
0.38084027 1.00000000 0.38084027
0.62560065 1.00000000 0.38084027
0.77829570 1.00000000 0.38084027
0.91476556 1.00000000 0.38084027
1.00000000 1.00000000 0.38084027
1.00000000 1.00000000 0.38084027
1.00000000 1.00000000 0.38084027
1.00000000 1.00000000 0.38084027
0.00000073 1.00000000 0.38084027
0.38084027 1.00000000 0.38084027
0.62560065 1.00000000 0.38084027
0.77829570 1.00000000 0.38084027
0.91476556 1.00000000 0.38084027
1.00000000 1.00000000 0.38084027
1.00000000 1.00000000 0.38084027
1.00000000 1.00000000 0.38084027
1.00000000 1.00000000 0.38084027
0.00000073 1.00000000 0.38084027
0.38084027 1.00000000 0.38084027
0.62560065 1.00000000 0.38084027
0.77829570 1.00000000 0.38084027
0.91476556 1.00000000 0.38084027
1.00000000 1.00000000 0.38084027
1.00000000 1.00000000 0.38084027
1.00000000 1.00000000 0.38084027
1.00000000 1.00000000 0.38084027
0.00000073 0.00000073 0.62560065
0.38084027 0.00000073 0.62560065
0.62560065 0.00000073 0.62560065
0.77829570 0.00000073 0.62560065
0.91476556 0.00000073 0.62560065
1.00000000 0.00000073 0.62560065
1.00000000 0.00000073 0.62560065
1.00000000 0.00000073 0.62560065
1.00000000 0.00000073 0.62560065
0.00000073 0.38084027 0.62560065
0.38084027 0.38084027 0.62560065
0.62560065 0.38084027 0.62560065
0.77829570 0.38084027 0.62560065
0.91476556 0.38084027 0.62560065
1.00000000 0.38084027 0.62560065
1.00000000 0.38084027 0.62560065
1.00000000 0.38084027 0.62560065
1.00000000 0.38084027 0.62560065
0.00000073 0.62560065 0.62560065
0.38084027 0.62560065 0.62560065
0.62560065 0.62560065 0.62560065
0.77829570 0.62560065 0.62560065
0.91476556 0.62560065 0.62560065
1.00000000 0.62560065 0.62560065
1.00000000 0.62560065 0.62560065
1.00000000 0.62560065 0.62560065
1.00000000 0.62560065 0.62560065
0.00000073 0.77829570 0.62560065
0.38084027 0.77829570 0.62560065
0.62560065 0.77829570 0.62560065
0.77829570 0.77829570 0.62560065
0.91476556 0.77829570 0.62560065
1.00000000 0.77829570 0.62560065
1.00000000 0.77829570 0.62560065
1.00000000 0.77829570 0.62560065
1.00000000 0.77829570 0.62560065
0.00000073 0.91476556 0.62560065
0.38084027 0.91476556 0.62560065
0.62560065 0.91476556 0.62560065
0.77829570 0.91476556 0.62560065
0.91476556 0.91476556 0.62560065
1.00000000 0.91476556 0.62560065
1.00000000 0.91476556 0.62560065
1.00000000 0.91476556 0.62560065
1.00000000 0.91476556 0.62560065
0.00000073 1.00000000 0.62560065
0.38084027 1.00000000 0.62560065
0.62560065 1.00000000 0.62560065
0.77829570 1.00000000 0.62560065
0.91476556 1.00000000 0.62560065
1.00000000 1.00000000 0.62560065
1.00000000 1.00000000 0.62560065
1.00000000 1.00000000 0.62560065
1.00000000 1.00000000 0.62560065
0.00000073 1.00000000 0.62560065
0.38084027 1.00000000 0.62560065
0.62560065 1.00000000 0.62560065
0.77829570 1.00000000 0.62560065
0.91476556 1.00000000 0.62560065
1.00000000 1.00000000 0.62560065
1.00000000 1.00000000 0.62560065
1.00000000 1.00000000 0.62560065
1.00000000 1.00000000 0.62560065
0.00000073 1.00000000 0.62560065
0.38084027 1.00000000 0.62560065
0.62560065 1.00000000 0.62560065
0.77829570 1.00000000 0.62560065
0.91476556 1.00000000 0.62560065
1.00000000 1.00000000 0.62560065
1.00000000 1.00000000 0.62560065
1.00000000 1.00000000 0.62560065
1.00000000 1.00000000 0.62560065
0.00000073 1.00000000 0.62560065
0.38084027 1.00000000 0.62560065
0.62560065 1.00000000 0.62560065
0.77829570 1.00000000 0.62560065
0.91476556 1.00000000 0.62560065
1.00000000 1.00000000 0.62560065
1.00000000 1.00000000 0.62560065
1.00000000 1.00000000 0.62560065
1.00000000 1.00000000 0.62560065
0.00000073 0.00000073 0.77829570
0.38084027 0.00000073 0.77829570
0.62560065 0.00000073 0.77829570
0.77829570 0.00000073 0.77829570
0.91476556 0.00000073 0.77829570
1.00000000 0.00000073 0.77829570
1.00000000 0.00000073 0.77829570
1.00000000 0.00000073 0.77829570
1.00000000 0.00000073 0.77829570
0.00000073 0.38084027 0.77829570
0.38084027 0.38084027 0.77829570
0.62560065 0.38084027 0.77829570
0.77829570 0.38084027 0.77829570
0.91476556 0.38084027 0.77829570
1.00000000 0.38084027 0.77829570
1.00000000 0.38084027 0.77829570
1.00000000 0.38084027 0.77829570
1.00000000 0.38084027 0.77829570
0.00000073 0.62560065 0.77829570
0.38084027 0.62560065 0.77829570
0.62560065 0.62560065 0.77829570
0.77829570 0.62560065 0.77829570
0.91476556 0.62560065 0.77829570
1.00000000 0.62560065 0.77829570
1.00000000 0.62560065 0.77829570
1.00000000 0.62560065 0.77829570
1.00000000 0.62560065 0.77829570
0.00000073 0.77829570 0.77829570
0.38084027 0.77829570 0.77829570
0.62560065 0.77829570 0.77829570
0.77829570 0.77829570 0.77829570
0.91476556 0.77829570 0.77829570
1.00000000 0.77829570 0.77829570
1.00000000 0.77829570 0.77829570
1.00000000 0.77829570 0.77829570
1.00000000 0.77829570 0.77829570
0.00000073 0.91476556 0.77829570
0.38084027 0.91476556 0.77829570
0.62560065 0.91476556 0.77829570
0.77829570 0.91476556 0.77829570
0.91476556 0.91476556 0.77829570
1.00000000 0.91476556 0.77829570
1.00000000 0.91476556 0.77829570
1.00000000 0.91476556 0.77829570
1.00000000 0.91476556 0.77829570
0.00000073 1.00000000 0.77829570
0.38084027 1.00000000 0.77829570
0.62560065 1.00000000 0.77829570
0.77829570 1.00000000 0.77829570
0.91476556 1.00000000 0.77829570
1.00000000 1.00000000 0.77829570
1.00000000 1.00000000 0.77829570
1.00000000 1.00000000 0.77829570
1.00000000 1.00000000 0.77829570
0.00000073 1.00000000 0.77829570
0.38084027 1.00000000 0.77829570
0.62560065 1.00000000 0.77829570
0.77829570 1.00000000 0.77829570
0.91476556 1.00000000 0.77829570
1.00000000 1.00000000 0.77829570
1.00000000 1.00000000 0.77829570
1.00000000 1.00000000 0.77829570
1.00000000 1.00000000 0.77829570
0.00000073 1.00000000 0.77829570
0.38084027 1.00000000 0.77829570
0.62560065 1.00000000 0.77829570
0.77829570 1.00000000 0.77829570
0.91476556 1.00000000 0.77829570
1.00000000 1.00000000 0.77829570
1.00000000 1.00000000 0.77829570
1.00000000 1.00000000 0.77829570
1.00000000 1.00000000 0.77829570
0.00000073 1.00000000 0.77829570
0.38084027 1.00000000 0.77829570
0.62560065 1.00000000 0.77829570
0.77829570 1.00000000 0.77829570
0.91476556 1.00000000 0.77829570
1.00000000 1.00000000 0.77829570
1.00000000 1.00000000 0.77829570
1.00000000 1.00000000 0.77829570
1.00000000 1.00000000 0.77829570
0.00000073 0.00000073 0.91476556
0.38084027 0.00000073 0.91476556
0.62560065 0.00000073 0.91476556
0.77829570 0.00000073 0.91476556
0.91476556 0.00000073 0.91476556
1.00000000 0.00000073 0.91476556
1.00000000 0.00000073 0.91476556
1.00000000 0.00000073 0.91476556
1.00000000 0.00000073 0.91476556
0.00000073 0.38084027 0.91476556
0.38084027 0.38084027 0.91476556
0.62560065 0.38084027 0.91476556
0.77829570 0.38084027 0.91476556
0.91476556 0.38084027 0.91476556
1.00000000 0.38084027 0.91476556
1.00000000 0.38084027 0.91476556
1.00000000 0.38084027 0.91476556
1.00000000 0.38084027 0.91476556
0.00000073 0.62560065 0.91476556
0.38084027 0.62560065 0.91476556
0.62560065 0.62560065 0.91476556
0.77829570 0.62560065 0.91476556
0.91476556 0.62560065 0.91476556
1.00000000 0.62560065 0.91476556
1.00000000 0.62560065 0.91476556
1.00000000 0.62560065 0.91476556
1.00000000 0.62560065 0.91476556
0.00000073 0.77829570 0.91476556
0.38084027 0.77829570 0.91476556
0.62560065 0.77829570 0.91476556
0.77829570 0.77829570 0.91476556
0.91476556 0.77829570 0.91476556
1.00000000 0.77829570 0.91476556
1.00000000 0.77829570 0.91476556
1.00000000 0.77829570 0.91476556
1.00000000 0.77829570 0.91476556
0.00000073 0.91476556 0.91476556
0.38084027 0.91476556 0.91476556
0.62560065 0.91476556 0.91476556
0.77829570 0.91476556 0.91476556
0.91476556 0.91476556 0.91476556
1.00000000 0.91476556 0.91476556
1.00000000 0.91476556 0.91476556
1.00000000 0.91476556 0.91476556
1.00000000 0.91476556 0.91476556
0.00000073 1.00000000 0.91476556
0.38084027 1.00000000 0.91476556
0.62560065 1.00000000 0.91476556
0.77829570 1.00000000 0.91476556
0.91476556 1.00000000 0.91476556
1.00000000 1.00000000 0.91476556
1.00000000 1.00000000 0.91476556
1.00000000 1.00000000 0.91476556
1.00000000 1.00000000 0.91476556
0.00000073 1.00000000 0.91476556
0.38084027 1.00000000 0.91476556
0.62560065 1.00000000 0.91476556
0.77829570 1.00000000 0.91476556
0.91476556 1.00000000 0.91476556
1.00000000 1.00000000 0.91476556
1.00000000 1.00000000 0.91476556
1.00000000 1.00000000 0.91476556
1.00000000 1.00000000 0.91476556
0.00000073 1.00000000 0.91476556
0.38084027 1.00000000 0.91476556
0.62560065 1.00000000 0.91476556
0.77829570 1.00000000 0.91476556
0.91476556 1.00000000 0.91476556
1.00000000 1.00000000 0.91476556
1.00000000 1.00000000 0.91476556
1.00000000 1.00000000 0.91476556
1.00000000 1.00000000 0.91476556
0.00000073 1.00000000 0.91476556
0.38084027 1.00000000 0.91476556
0.62560065 1.00000000 0.91476556
0.77829570 1.00000000 0.91476556
0.91476556 1.00000000 0.91476556
1.00000000 1.00000000 0.91476556
1.00000000 1.00000000 0.91476556
1.00000000 1.00000000 0.91476556
1.00000000 1.00000000 0.91476556
0.00000073 0.00000073 1.00000000
0.38084027 0.00000073 1.00000000
0.62560065 0.00000073 1.00000000
0.77829570 0.00000073 1.00000000
0.91476556 0.00000073 1.00000000
1.00000000 0.00000073 1.00000000
1.00000000 0.00000073 1.00000000
1.00000000 0.00000073 1.00000000
1.00000000 0.00000073 1.00000000
0.00000073 0.38084027 1.00000000
0.38084027 0.38084027 1.00000000
0.62560065 0.38084027 1.00000000
0.77829570 0.38084027 1.00000000
0.91476556 0.38084027 1.00000000
1.00000000 0.38084027 1.00000000
1.00000000 0.38084027 1.00000000
1.00000000 0.38084027 1.00000000
1.00000000 0.38084027 1.00000000
0.00000073 0.62560065 1.00000000
0.38084027 0.62560065 1.00000000
0.62560065 0.62560065 1.00000000
0.77829570 0.62560065 1.00000000
0.91476556 0.62560065 1.00000000
1.00000000 0.62560065 1.00000000
1.00000000 0.62560065 1.00000000
1.00000000 0.62560065 1.00000000
1.00000000 0.62560065 1.00000000
0.00000073 0.77829570 1.00000000
0.38084027 0.77829570 1.00000000
0.62560065 0.77829570 1.00000000
0.77829570 0.77829570 1.00000000
0.91476556 0.77829570 1.00000000
1.00000000 0.77829570 1.00000000
1.00000000 0.77829570 1.00000000
1.00000000 0.77829570 1.00000000
1.00000000 0.77829570 1.00000000
0.00000073 0.91476556 1.00000000
0.38084027 0.91476556 1.00000000
0.62560065 0.91476556 1.00000000
0.77829570 0.91476556 1.00000000
0.91476556 0.91476556 1.00000000
1.00000000 0.91476556 1.00000000
1.00000000 0.91476556 1.00000000
1.00000000 0.91476556 1.00000000
1.00000000 0.91476556 1.00000000
0.00000073 1.00000000 1.00000000
0.38084027 1.00000000 1.00000000
0.62560065 1.00000000 1.00000000
0.77829570 1.00000000 1.00000000
0.91476556 1.00000000 1.00000000
1.00000000 1.00000000 1.00000000
1.00000000 1.00000000 1.00000000
1.00000000 1.00000000 1.00000000
1.00000000 1.00000000 1.00000000
0.00000073 1.00000000 1.00000000
0.38084027 1.00000000 1.00000000
0.62560065 1.00000000 1.00000000
0.77829570 1.00000000 1.00000000
0.91476556 1.00000000 1.00000000
1.00000000 1.00000000 1.00000000
1.00000000 1.00000000 1.00000000
1.00000000 1.00000000 1.00000000
1.00000000 1.00000000 1.00000000
0.00000073 1.00000000 1.00000000
0.38084027 1.00000000 1.00000000
0.62560065 1.00000000 1.00000000
0.77829570 1.00000000 1.00000000
0.91476556 1.00000000 1.00000000
1.00000000 1.00000000 1.00000000
1.00000000 1.00000000 1.00000000
1.00000000 1.00000000 1.00000000
1.00000000 1.00000000 1.00000000
0.00000073 1.00000000 1.00000000
0.38084027 1.00000000 1.00000000
0.62560065 1.00000000 1.00000000
0.77829570 1.00000000 1.00000000
0.91476556 1.00000000 1.00000000
1.00000000 1.00000000 1.00000000
1.00000000 1.00000000 1.00000000
1.00000000 1.00000000 1.00000000
1.00000000 1.00000000 1.00000000
0.00000073 0.00000073 1.00000000
0.38084027 0.00000073 1.00000000
0.62560065 0.00000073 1.00000000
0.77829570 0.00000073 1.00000000
0.91476556 0.00000073 1.00000000
1.00000000 0.00000073 1.00000000
1.00000000 0.00000073 1.00000000
1.00000000 0.00000073 1.00000000
1.00000000 0.00000073 1.00000000
0.00000073 0.38084027 1.00000000
0.38084027 0.38084027 1.00000000
0.62560065 0.38084027 1.00000000
0.77829570 0.38084027 1.00000000
0.91476556 0.38084027 1.00000000
1.00000000 0.38084027 1.00000000
1.00000000 0.38084027 1.00000000
1.00000000 0.38084027 1.00000000
1.00000000 0.38084027 1.00000000
0.00000073 0.62560065 1.00000000
0.38084027 0.62560065 1.00000000
0.62560065 0.62560065 1.00000000
0.77829570 0.62560065 1.00000000
0.91476556 0.62560065 1.00000000
1.00000000 0.62560065 1.00000000
1.00000000 0.62560065 1.00000000
1.00000000 0.62560065 1.00000000
1.00000000 0.62560065 1.00000000
0.00000073 0.77829570 1.00000000
0.38084027 0.77829570 1.00000000
0.62560065 0.77829570 1.00000000
0.77829570 0.77829570 1.00000000
0.91476556 0.77829570 1.00000000
1.00000000 0.77829570 1.00000000
1.00000000 0.77829570 1.00000000
1.00000000 0.77829570 1.00000000
1.00000000 0.77829570 1.00000000
0.00000073 0.91476556 1.00000000
0.38084027 0.91476556 1.00000000
0.62560065 0.91476556 1.00000000
0.77829570 0.91476556 1.00000000
0.91476556 0.91476556 1.00000000
1.00000000 0.91476556 1.00000000
1.00000000 0.91476556 1.00000000
1.00000000 0.91476556 1.00000000
1.00000000 0.91476556 1.00000000
0.00000073 1.00000000 1.00000000
0.38084027 1.00000000 1.00000000
0.62560065 1.00000000 1.00000000
0.77829570 1.00000000 1.00000000
0.91476556 1.00000000 1.00000000
1.00000000 1.00000000 1.00000000
1.00000000 1.00000000 1.00000000
1.00000000 1.00000000 1.00000000
1.00000000 1.00000000 1.00000000
0.00000073 1.00000000 1.00000000
0.38084027 1.00000000 1.00000000
0.62560065 1.00000000 1.00000000
0.77829570 1.00000000 1.00000000
0.91476556 1.00000000 1.00000000
1.00000000 1.00000000 1.00000000
1.00000000 1.00000000 1.00000000
1.00000000 1.00000000 1.00000000
1.00000000 1.00000000 1.00000000
0.00000073 1.00000000 1.00000000
0.38084027 1.00000000 1.00000000
0.62560065 1.00000000 1.00000000
0.77829570 1.00000000 1.00000000
0.91476556 1.00000000 1.00000000
1.00000000 1.00000000 1.00000000
1.00000000 1.00000000 1.00000000
1.00000000 1.00000000 1.00000000
1.00000000 1.00000000 1.00000000
0.00000073 1.00000000 1.00000000
0.38084027 1.00000000 1.00000000
0.62560065 1.00000000 1.00000000
0.77829570 1.00000000 1.00000000
0.91476556 1.00000000 1.00000000
1.00000000 1.00000000 1.00000000
1.00000000 1.00000000 1.00000000
1.00000000 1.00000000 1.00000000
1.00000000 1.00000000 1.00000000
0.00000073 0.00000073 1.00000000
0.38084027 0.00000073 1.00000000
0.62560065 0.00000073 1.00000000
0.77829570 0.00000073 1.00000000
0.91476556 0.00000073 1.00000000
1.00000000 0.00000073 1.00000000
1.00000000 0.00000073 1.00000000
1.00000000 0.00000073 1.00000000
1.00000000 0.00000073 1.00000000
0.00000073 0.38084027 1.00000000
0.38084027 0.38084027 1.00000000
0.62560065 0.38084027 1.00000000
0.77829570 0.38084027 1.00000000
0.91476556 0.38084027 1.00000000
1.00000000 0.38084027 1.00000000
1.00000000 0.38084027 1.00000000
1.00000000 0.38084027 1.00000000
1.00000000 0.38084027 1.00000000
0.00000073 0.62560065 1.00000000
0.38084027 0.62560065 1.00000000
0.62560065 0.62560065 1.00000000
0.77829570 0.62560065 1.00000000
0.91476556 0.62560065 1.00000000
1.00000000 0.62560065 1.00000000
1.00000000 0.62560065 1.00000000
1.00000000 0.62560065 1.00000000
1.00000000 0.62560065 1.00000000
0.00000073 0.77829570 1.00000000
0.38084027 0.77829570 1.00000000
0.62560065 0.77829570 1.00000000
0.77829570 0.77829570 1.00000000
0.91476556 0.77829570 1.00000000
1.00000000 0.77829570 1.00000000
1.00000000 0.77829570 1.00000000
1.00000000 0.77829570 1.00000000
1.00000000 0.77829570 1.00000000
0.00000073 0.91476556 1.00000000
0.38084027 0.91476556 1.00000000
0.62560065 0.91476556 1.00000000
0.77829570 0.91476556 1.00000000
0.91476556 0.91476556 1.00000000
1.00000000 0.91476556 1.00000000
1.00000000 0.91476556 1.00000000
1.00000000 0.91476556 1.00000000
1.00000000 0.91476556 1.00000000
0.00000073 1.00000000 1.00000000
0.38084027 1.00000000 1.00000000
0.62560065 1.00000000 1.00000000
0.77829570 1.00000000 1.00000000
0.91476556 1.00000000 1.00000000
1.00000000 1.00000000 1.00000000
1.00000000 1.00000000 1.00000000
1.00000000 1.00000000 1.00000000
1.00000000 1.00000000 1.00000000
0.00000073 1.00000000 1.00000000
0.38084027 1.00000000 1.00000000
0.62560065 1.00000000 1.00000000
0.77829570 1.00000000 1.00000000
0.91476556 1.00000000 1.00000000
1.00000000 1.00000000 1.00000000
1.00000000 1.00000000 1.00000000
1.00000000 1.00000000 1.00000000
1.00000000 1.00000000 1.00000000
0.00000073 1.00000000 1.00000000
0.38084027 1.00000000 1.00000000
0.62560065 1.00000000 1.00000000
0.77829570 1.00000000 1.00000000
0.91476556 1.00000000 1.00000000
1.00000000 1.00000000 1.00000000
1.00000000 1.00000000 1.00000000
1.00000000 1.00000000 1.00000000
1.00000000 1.00000000 1.00000000
0.00000073 1.00000000 1.00000000
0.38084027 1.00000000 1.00000000
0.62560065 1.00000000 1.00000000
0.77829570 1.00000000 1.00000000
0.91476556 1.00000000 1.00000000
1.00000000 1.00000000 1.00000000
1.00000000 1.00000000 1.00000000
1.00000000 1.00000000 1.00000000
1.00000000 1.00000000 1.00000000
0.00000073 0.00000073 1.00000000
0.38084027 0.00000073 1.00000000
0.62560065 0.00000073 1.00000000
0.77829570 0.00000073 1.00000000
0.91476556 0.00000073 1.00000000
1.00000000 0.00000073 1.00000000
1.00000000 0.00000073 1.00000000
1.00000000 0.00000073 1.00000000
1.00000000 0.00000073 1.00000000
0.00000073 0.38084027 1.00000000
0.38084027 0.38084027 1.00000000
0.62560065 0.38084027 1.00000000
0.77829570 0.38084027 1.00000000
0.91476556 0.38084027 1.00000000
1.00000000 0.38084027 1.00000000
1.00000000 0.38084027 1.00000000
1.00000000 0.38084027 1.00000000
1.00000000 0.38084027 1.00000000
0.00000073 0.62560065 1.00000000
0.38084027 0.62560065 1.00000000
0.62560065 0.62560065 1.00000000
0.77829570 0.62560065 1.00000000
0.91476556 0.62560065 1.00000000
1.00000000 0.62560065 1.00000000
1.00000000 0.62560065 1.00000000
1.00000000 0.62560065 1.00000000
1.00000000 0.62560065 1.00000000
0.00000073 0.77829570 1.00000000
0.38084027 0.77829570 1.00000000
0.62560065 0.77829570 1.00000000
0.77829570 0.77829570 1.00000000
0.91476556 0.77829570 1.00000000
1.00000000 0.77829570 1.00000000
1.00000000 0.77829570 1.00000000
1.00000000 0.77829570 1.00000000
1.00000000 0.77829570 1.00000000
0.00000073 0.91476556 1.00000000
0.38084027 0.91476556 1.00000000
0.62560065 0.91476556 1.00000000
0.77829570 0.91476556 1.00000000
0.91476556 0.91476556 1.00000000
1.00000000 0.91476556 1.00000000
1.00000000 0.91476556 1.00000000
1.00000000 0.91476556 1.00000000
1.00000000 0.91476556 1.00000000
0.00000073 1.00000000 1.00000000
0.38084027 1.00000000 1.00000000
0.62560065 1.00000000 1.00000000
0.77829570 1.00000000 1.00000000
0.91476556 1.00000000 1.00000000
1.00000000 1.00000000 1.00000000
1.00000000 1.00000000 1.00000000
1.00000000 1.00000000 1.00000000
1.00000000 1.00000000 1.00000000
0.00000073 1.00000000 1.00000000
0.38084027 1.00000000 1.00000000
0.62560065 1.00000000 1.00000000
0.77829570 1.00000000 1.00000000
0.91476556 1.00000000 1.00000000
1.00000000 1.00000000 1.00000000
1.00000000 1.00000000 1.00000000
1.00000000 1.00000000 1.00000000
1.00000000 1.00000000 1.00000000
0.00000073 1.00000000 1.00000000
0.38084027 1.00000000 1.00000000
0.62560065 1.00000000 1.00000000
0.77829570 1.00000000 1.00000000
0.91476556 1.00000000 1.00000000
1.00000000 1.00000000 1.00000000
1.00000000 1.00000000 1.00000000
1.00000000 1.00000000 1.00000000
1.00000000 1.00000000 1.00000000
0.00000073 1.00000000 1.00000000
0.38084027 1.00000000 1.00000000
0.62560065 1.00000000 1.00000000
0.77829570 1.00000000 1.00000000
0.91476556 1.00000000 1.00000000
1.00000000 1.00000000 1.00000000
1.00000000 1.00000000 1.00000000
1.00000000 1.00000000 1.00000000
1.00000000 1.00000000 1.00000000
