src/ffmpeg_scripts/luts/flog-experimental_-2p67.cube
TITLE "flog-experimental_-2p67"
LUT_3D_SIZE 5
# Fujifilm F-Log/Rec2020 -> PQ (EOTF Only)/Rec2020, CineEI Shift -2.67, Black Level 0.00% IRE, Input 109% -> Output 100% - Created with LUTCalc v4.01 by Ben Turley October 2020
0.00000073 0.00000073 0.00000073
0.16886327 0.00000073 0.00000073
0.32719667 0.00000073 0.00000073
0.51541517 0.00000073 0.00000073
0.73795697 0.00000073 0.00000073
0.00000073 0.16886327 0.00000073
0.16886327 0.16886327 0.00000073
0.32719667 0.16886327 0.00000073
0.51541517 0.16886327 0.00000073
0.73795697 0.16886327 0.00000073
0.00000073 0.32719667 0.00000073
0.16886327 0.32719667 0.00000073
0.32719667 0.32719667 0.00000073
0.51541517 0.32719667 0.00000073
0.73795697 0.32719667 0.00000073
0.00000073 0.51541517 0.00000073
0.16886327 0.51541517 0.00000073
0.32719667 0.51541517 0.00000073
0.51541517 0.51541517 0.00000073
0.73795697 0.51541517 0.00000073
0.00000073 0.73795697 0.00000073
0.16886327 0.73795697 0.00000073
0.32719667 0.73795697 0.00000073
0.51541517 0.73795697 0.00000073
0.73795697 0.73795697 0.00000073
0.00000073 0.00000073 0.16886327
0.16886327 0.00000073 0.16886327
0.32719667 0.00000073 0.16886327
0.51541517 0.00000073 0.16886327
0.73795697 0.00000073 0.16886327
0.00000073 0.16886327 0.16886327
0.16886327 0.16886327 0.16886327
0.32719667 0.16886327 0.16886327
0.51541517 0.16886327 0.16886327
0.73795697 0.16886327 0.16886327
0.00000073 0.32719667 0.16886327
0.16886327 0.32719667 0.16886327
0.32719667 0.32719667 0.16886327
0.51541517 0.32719667 0.16886327
0.73795697 0.32719667 0.16886327
0.00000073 0.51541517 0.16886327
0.16886327 0.51541517 0.16886327
0.32719667 0.51541517 0.16886327
0.51541517 0.51541517 0.16886327
0.73795697 0.51541517 0.16886327
0.00000073 0.73795697 0.16886327
0.16886327 0.73795697 0.16886327
0.32719667 0.73795697 0.16886327
0.51541517 0.73795697 0.16886327
0.73795697 0.73795697 0.16886327
0.00000073 0.00000073 0.32719667
0.16886327 0.00000073 0.32719667
0.32719667 0.00000073 0.32719667
0.51541517 0.00000073 0.32719667
0.73795697 0.00000073 0.32719667
0.00000073 0.16886327 0.32719667
0.16886327 0.16886327 0.32719667
0.32719667 0.16886327 0.32719667
0.51541517 0.16886327 0.32719667
0.73795697 0.16886327 0.32719667
0.00000073 0.32719667 0.32719667
0.16886327 0.32719667 0.32719667
0.32719667 0.32719667 0.32719667
0.51541517 0.32719667 0.32719667
0.73795697 0.32719667 0.32719667
0.00000073 0.51541517 0.32719667
0.16886327 0.51541517 0.32719667
0.32719667 0.51541517 0.32719667
0.51541517 0.51541517 0.32719667
0.73795697 0.51541517 0.32719667
0.00000073 0.73795697 0.32719667
0.16886327 0.73795697 0.32719667
0.32719667 0.73795697 0.32719667
0.51541517 0.73795697 0.32719667
0.73795697 0.73795697 0.32719667
0.00000073 0.00000073 0.51541517
0.16886327 0.00000073 0.51541517
0.32719667 0.00000073 0.51541517
0.51541517 0.00000073 0.51541517
0.73795697 0.00000073 0.51541517
0.00000073 0.16886327 0.51541517
0.16886327 0.16886327 0.51541517
0.32719667 0.16886327 0.51541517
0.51541517 0.16886327 0.51541517
0.73795697 0.16886327 0.51541517
0.00000073 0.32719667 0.51541517
0.16886327 0.32719667 0.51541517
0.32719667 0.32719667 0.51541517
0.51541517 0.32719667 0.51541517
0.73795697 0.32719667 0.51541517
0.00000073 0.51541517 0.51541517
0.16886327 0.51541517 0.51541517
0.32719667 0.51541517 0.51541517
0.51541517 0.51541517 0.51541517
0.73795697 0.51541517 0.51541517
0.00000073 0.73795697 0.51541517
0.16886327 0.73795697 0.51541517
0.32719667 0.73795697 0.51541517
0.51541517 0.73795697 0.51541517
0.73795697 0.73795697 0.51541517
0.00000073 0.00000073 0.73795697
0.16886327 0.00000073 0.73795697
0.32719667 0.00000073 0.73795697
0.51541517 0.00000073 0.73795697
0.73795697 0.00000073 0.73795697
0.00000073 0.16886327 0.73795697
0.16886327 0.16886327 0.73795697
0.32719667 0.16886327 0.73795697
0.51541517 0.16886327 0.73795697
0.73795697 0.16886327 0.73795697
0.00000073 0.32719667 0.73795697
0.16886327 0.32719667 0.73795697
0.32719667 0.32719667 0.73795697
0.51541517 0.32719667 0.73795697
0.73795697 0.32719667 0.73795697
0.00000073 0.51541517 0.73795697
0.16886327 0.51541517 0.73795697
0.32719667 0.51541517 0.73795697
0.51541517 0.51541517 0.73795697
0.73795697 0.51541517 0.73795697
0.00000073 0.73795697 0.73795697
0.16886327 0.73795697 0.73795697
0.32719667 0.73795697 0.73795697
0.51541517 0.73795697 0.73795697
0.73795697 0.73795697 0.73795697
