src/ffmpeg_scripts/luts/flog-experimental_-3p33.cube
TITLE "flog-experimental_-3p33"
LUT_3D_SIZE 5
# Fujifilm F-Log/Rec2020 -> PQ (EOTF Only)/Rec2020, CineEI Shift -3.33, Black Level 0.00% IRE, Input 109% -> Output 100% - Created with LUTCalc v4.01 by Ben Turley October 2020
0.00000073 0.00000073 0.00000073
0.14237144 0.00000073 0.00000073
0.28505206 0.00000073 0.00000073
0.46049877 0.00000073 0.00000073
0.67366146 0.00000073 0.00000073
0.00000073 0.14237144 0.00000073
0.14237144 0.14237144 0.00000073
0.28505206 0.14237144 0.00000073
0.46049877 0.14237144 0.00000073
0.67366146 0.14237144 0.00000073
0.00000073 0.28505206 0.00000073
0.14237144 0.28505206 0.00000073
0.28505206 0.28505206 0.00000073
0.46049877 0.28505206 0.00000073
0.67366146 0.28505206 0.00000073
0.00000073 0.46049877 0.00000073
0.14237144 0.46049877 0.00000073
0.28505206 0.46049877 0.00000073
0.46049877 0.46049877 0.00000073
0.67366146 0.46049877 0.00000073
0.00000073 0.67366146 0.00000073
0.14237144 0.67366146 0.00000073
0.28505206 0.67366146 0.00000073
0.46049877 0.67366146 0.00000073
0.67366146 0.67366146 0.00000073
0.00000073 0.00000073 0.14237144
0.14237144 0.00000073 0.14237144
0.28505206 0.00000073 0.14237144
0.46049877 0.00000073 0.14237144
0.67366146 0.00000073 0.14237144
0.00000073 0.14237144 0.14237144
0.14237144 0.14237144 0.14237144
0.28505206 0.14237144 0.14237144
0.46049877 0.14237144 0.14237144
0.67366146 0.14237144 0.14237144
0.00000073 0.28505206 0.14237144
0.14237144 0.28505206 0.14237144
0.28505206 0.28505206 0.14237144
0.46049877 0.28505206 0.14237144
0.67366146 0.28505206 0.14237144
0.00000073 0.46049877 0.14237144
0.14237144 0.46049877 0.14237144
0.28505206 0.46049877 0.14237144
0.46049877 0.46049877 0.14237144
0.67366146 0.46049877 0.14237144
0.00000073 0.67366146 0.14237144
0.14237144 0.67366146 0.14237144
0.28505206 0.67366146 0.14237144
0.46049877 0.67366146 0.14237144
0.67366146 0.67366146 0.14237144
0.00000073 0.00000073 0.28505206
0.14237144 0.00000073 0.28505206
0.28505206 0.00000073 0.28505206
0.46049877 0.00000073 0.28505206
0.67366146 0.00000073 0.28505206
0.00000073 0.14237144 0.28505206
0.14237144 0.14237144 0.28505206
0.28505206 0.14237144 0.28505206
0.46049877 0.14237144 0.28505206
0.67366146 0.14237144 0.28505206
0.00000073 0.28505206 0.28505206
0.14237144 0.28505206 0.28505206
0.28505206 0.28505206 0.28505206
0.46049877 0.28505206 0.28505206
0.67366146 0.28505206 0.28505206
0.00000073 0.46049877 0.28505206
0.14237144 0.46049877 0.28505206
0.28505206 0.46049877 0.28505206
0.46049877 0.46049877 0.28505206
0.67366146 0.46049877 0.28505206
0.00000073 0.67366146 0.28505206
0.14237144 0.67366146 0.28505206
0.28505206 0.67366146 0.28505206
0.46049877 0.67366146 0.28505206
0.67366146 0.67366146 0.28505206
0.00000073 0.00000073 0.46049877
0.14237144 0.00000073 0.46049877
0.28505206 0.00000073 0.46049877
0.46049877 0.00000073 0.46049877
0.67366146 0.00000073 0.46049877
0.00000073 0.14237144 0.46049877
0.14237144 0.14237144 0.46049877
0.28505206 0.14237144 0.46049877
0.46049877 0.14237144 0.46049877
0.67366146 0.14237144 0.46049877
0.00000073 0.28505206 0.46049877
0.14237144 0.28505206 0.46049877
0.28505206 0.28505206 0.46049877
0.46049877 0.28505206 0.46049877
0.67366146 0.28505206 0.46049877
0.00000073 0.46049877 0.46049877
0.14237144 0.46049877 0.46049877
0.28505206 0.46049877 0.46049877
0.46049877 0.46049877 0.46049877
0.67366146 0.46049877 0.46049877
0.00000073 0.67366146 0.46049877
0.14237144 0.67366146 0.46049877
0.28505206 0.67366146 0.46049877
0.46049877 0.67366146 0.46049877
0.67366146 0.67366146 0.46049877
0.00000073 0.00000073 0.67366146
0.14237144 0.00000073 0.67366146
0.28505206 0.00000073 0.67366146
0.46049877 0.00000073 0.67366146
0.67366146 0.00000073 0.67366146
0.00000073 0.14237144 0.67366146
0.14237144 0.14237144 0.67366146
0.28505206 0.14237144 0.67366146
0.46049877 0.14237144 0.67366146
0.67366146 0.14237144 0.67366146
0.00000073 0.28505206 0.67366146
0.14237144 0.28505206 0.67366146
0.28505206 0.28505206 0.67366146
0.46049877 0.28505206 0.67366146
0.67366146 0.28505206 0.67366146
0.00000073 0.46049877 0.67366146
0.14237144 0.46049877 0.67366146
0.28505206 0.46049877 0.67366146
0.46049877 0.46049877 0.67366146
0.67366146 0.46049877 0.67366146
0.00000073 0.67366146 0.67366146
0.14237144 0.67366146 0.67366146
0.28505206 0.67366146 0.67366146
0.46049877 0.67366146 0.67366146
0.67366146 0.67366146 0.67366146
