src/ffmpeg_scripts/luts/flog-smpte2084_4p00.cube
TITLE "flog-smpte2084_4p00"
LUT_3D_SIZE 9
# Fujifilm F-Log/Rec2020 -> PQ (EOTF Only)/Rec2020, CineEI Shift 4.00, Black Level 0.00% IRE, Input 109% -> Output 109% - Created with LUTCalc v4.01 by Ben Turley October 2020
0.06256172 0.06256172 0.06256172
0.29792057 0.06256172 0.06256172
0.44918249 0.06256172 0.06256172
0.54354804 0.06256172 0.06256172
0.62788641 0.06256172 0.06256172
0.70904681 0.06256172 0.06256172
0.78854028 0.06256172 0.06256172
0.86632907 0.06256172 0.06256172
0.91886608 0.06256172 0.06256172
0.06256172 0.29792057 0.06256172
0.29792057 0.29792057 0.06256172
0.44918249 0.29792057 0.06256172
0.54354804 0.29792057 0.06256172
0.62788641 0.29792057 0.06256172
0.70904681 0.29792057 0.06256172
0.78854028 0.29792057 0.06256172
0.86632907 0.29792057 0.06256172
0.91886608 0.29792057 0.06256172
0.06256172 0.44918249 0.06256172
0.29792057 0.44918249 0.06256172
0.44918249 0.44918249 0.06256172
0.54354804 0.44918249 0.06256172
0.62788641 0.44918249 0.06256172
0.70904681 0.44918249 0.06256172
0.78854028 0.44918249 0.06256172
0.86632907 0.44918249 0.06256172
0.91886608 0.44918249 0.06256172
0.06256172 0.54354804 0.06256172
0.29792057 0.54354804 0.06256172
0.44918249 0.54354804 0.06256172
0.54354804 0.54354804 0.06256172
0.62788641 0.54354804 0.06256172
0.70904681 0.54354804 0.06256172
0.78854028 0.54354804 0.06256172
0.86632907 0.54354804 0.06256172
0.91886608 0.54354804 0.06256172
0.06256172 0.62788641 0.06256172
0.29792057 0.62788641 0.06256172
0.44918249 0.62788641 0.06256172
0.54354804 0.62788641 0.06256172
0.62788641 0.62788641 0.06256172
0.70904681 0.62788641 0.06256172
0.78854028 0.62788641 0.06256172
0.86632907 0.62788641 0.06256172
0.91886608 0.62788641 0.06256172
0.06256172 0.70904681 0.06256172
0.29792057 0.70904681 0.06256172
0.44918249 0.70904681 0.06256172
0.54354804 0.70904681 0.06256172
0.62788641 0.70904681 0.06256172
0.70904681 0.70904681 0.06256172
0.78854028 0.70904681 0.06256172
0.86632907 0.70904681 0.06256172
0.91886608 0.70904681 0.06256172
0.06256172 0.78854028 0.06256172
0.29792057 0.78854028 0.06256172
0.44918249 0.78854028 0.06256172
0.54354804 0.78854028 0.06256172
0.62788641 0.78854028 0.06256172
0.70904681 0.78854028 0.06256172
0.78854028 0.78854028 0.06256172
0.86632907 0.78854028 0.06256172
0.91886608 0.78854028 0.06256172
0.06256172 0.86632907 0.06256172
0.29792057 0.86632907 0.06256172
0.44918249 0.86632907 0.06256172
0.54354804 0.86632907 0.06256172
0.62788641 0.86632907 0.06256172
0.70904681 0.86632907 0.06256172
0.78854028 0.86632907 0.06256172
0.86632907 0.86632907 0.06256172
0.91886608 0.86632907 0.06256172
0.06256172 0.91886608 0.06256172
0.29792057 0.91886608 0.06256172
0.44918249 0.91886608 0.06256172
0.54354804 0.91886608 0.06256172
0.62788641 0.91886608 0.06256172
0.70904681 0.91886608 0.06256172
0.78854028 0.91886608 0.06256172
0.86632907 0.91886608 0.06256172
0.91886608 0.91886608 0.06256172
0.06256172 0.06256172 0.29792057
0.29792057 0.06256172 0.29792057
0.44918249 0.06256172 0.29792057
0.54354804 0.06256172 0.29792057
0.62788641 0.06256172 0.29792057
0.70904681 0.06256172 0.29792057
0.78854028 0.06256172 0.29792057
0.86632907 0.06256172 0.29792057
0.91886608 0.06256172 0.29792057
0.06256172 0.29792057 0.29792057
0.29792057 0.29792057 0.29792057
0.44918249 0.29792057 0.29792057
0.54354804 0.29792057 0.29792057
0.62788641 0.29792057 0.29792057
0.70904681 0.29792057 0.29792057
0.78854028 0.29792057 0.29792057
0.86632907 0.29792057 0.29792057
0.91886608 0.29792057 0.29792057
0.06256172 0.44918249 0.29792057
0.29792057 0.44918249 0.29792057
0.44918249 0.44918249 0.29792057
0.54354804 0.44918249 0.29792057
0.62788641 0.44918249 0.29792057
0.70904681 0.44918249 0.29792057
0.78854028 0.44918249 0.29792057
0.86632907 0.44918249 0.29792057
0.91886608 0.44918249 0.29792057
0.06256172 0.54354804 0.29792057
0.29792057 0.54354804 0.29792057
0.44918249 0.54354804 0.29792057
0.54354804 0.54354804 0.29792057
0.62788641 0.54354804 0.29792057
0.70904681 0.54354804 0.29792057
0.78854028 0.54354804 0.29792057
0.86632907 0.54354804 0.29792057
0.91886608 0.54354804 0.29792057
0.06256172 0.62788641 0.29792057
0.29792057 0.62788641 0.29792057
0.44918249 0.62788641 0.29792057
0.54354804 0.62788641 0.29792057
0.62788641 0.62788641 0.29792057
0.70904681 0.62788641 0.29792057
0.78854028 0.62788641 0.29792057
0.86632907 0.62788641 0.29792057
0.91886608 0.62788641 0.29792057
0.06256172 0.70904681 0.29792057
0.29792057 0.70904681 0.29792057
0.44918249 0.70904681 0.29792057
0.54354804 0.70904681 0.29792057
0.62788641 0.70904681 0.29792057
0.70904681 0.70904681 0.29792057
0.78854028 0.70904681 0.29792057
0.86632907 0.70904681 0.29792057
0.91886608 0.70904681 0.29792057
0.06256172 0.78854028 0.29792057
0.29792057 0.78854028 0.29792057
0.44918249 0.78854028 0.29792057
0.54354804 0.78854028 0.29792057
0.62788641 0.78854028 0.29792057
0.70904681 0.78854028 0.29792057
0.78854028 0.78854028 0.29792057
0.86632907 0.78854028 0.29792057
0.91886608 0.78854028 0.29792057
0.06256172 0.86632907 0.29792057
0.29792057 0.86632907 0.29792057
0.44918249 0.86632907 0.29792057
0.54354804 0.86632907 0.29792057
0.62788641 0.86632907 0.29792057
0.70904681 0.86632907 0.29792057
0.78854028 0.86632907 0.29792057
0.86632907 0.86632907 0.29792057
0.91886608 0.86632907 0.29792057
0.06256172 0.91886608 0.29792057
0.29792057 0.91886608 0.29792057
0.44918249 0.91886608 0.29792057
0.54354804 0.91886608 0.29792057
0.62788641 0.91886608 0.29792057
0.70904681 0.91886608 0.29792057
0.78854028 0.91886608 0.29792057
0.86632907 0.91886608 0.29792057
0.91886608 0.91886608 0.29792057
0.06256172 0.06256172 0.44918249
0.29792057 0.06256172 0.44918249
0.44918249 0.06256172 0.44918249
0.54354804 0.06256172 0.44918249
0.62788641 0.06256172 0.44918249
0.70904681 0.06256172 0.44918249
0.78854028 0.06256172 0.44918249
0.86632907 0.06256172 0.44918249
0.91886608 0.06256172 0.44918249
0.06256172 0.29792057 0.44918249
0.29792057 0.29792057 0.44918249
0.44918249 0.29792057 0.44918249
0.54354804 0.29792057 0.44918249
0.62788641 0.29792057 0.44918249
0.70904681 0.29792057 0.44918249
0.78854028 0.29792057 0.44918249
0.86632907 0.29792057 0.44918249
0.91886608 0.29792057 0.44918249
0.06256172 0.44918249 0.44918249
0.29792057 0.44918249 0.44918249
0.44918249 0.44918249 0.44918249
0.54354804 0.44918249 0.44918249
0.62788641 0.44918249 0.44918249
0.70904681 0.44918249 0.44918249
0.78854028 0.44918249 0.44918249
0.86632907 0.44918249 0.44918249
0.91886608 0.44918249 0.44918249
0.06256172 0.54354804 0.44918249
0.29792057 0.54354804 0.44918249
0.44918249 0.54354804 0.44918249
0.54354804 0.54354804 0.44918249
0.62788641 0.54354804 0.44918249
0.70904681 0.54354804 0.44918249
0.78854028 0.54354804 0.44918249
0.86632907 0.54354804 0.44918249
0.91886608 0.54354804 0.44918249
0.06256172 0.62788641 0.44918249
0.29792057 0.62788641 0.44918249
0.44918249 0.62788641 0.44918249
0.54354804 0.62788641 0.44918249
0.62788641 0.62788641 0.44918249
0.70904681 0.62788641 0.44918249
0.78854028 0.62788641 0.44918249
0.86632907 0.62788641 0.44918249
0.91886608 0.62788641 0.44918249
0.06256172 0.70904681 0.44918249
0.29792057 0.70904681 0.44918249
0.44918249 0.70904681 0.44918249
0.54354804 0.70904681 0.44918249
0.62788641 0.70904681 0.44918249
0.70904681 0.70904681 0.44918249
0.78854028 0.70904681 0.44918249
0.86632907 0.70904681 0.44918249
0.91886608 0.70904681 0.44918249
0.06256172 0.78854028 0.44918249
0.29792057 0.78854028 0.44918249
0.44918249 0.78854028 0.44918249
0.54354804 0.78854028 0.44918249
0.62788641 0.78854028 0.44918249
0.70904681 0.78854028 0.44918249
0.78854028 0.78854028 0.44918249
0.86632907 0.78854028 0.44918249
0.91886608 0.78854028 0.44918249
0.06256172 0.86632907 0.44918249
0.29792057 0.86632907 0.44918249
0.44918249 0.86632907 0.44918249
0.54354804 0.86632907 0.44918249
0.62788641 0.86632907 0.44918249
0.70904681 0.86632907 0.44918249
0.78854028 0.86632907 0.44918249
0.86632907 0.86632907 0.44918249
0.91886608 0.86632907 0.44918249
0.06256172 0.91886608 0.44918249
0.29792057 0.91886608 0.44918249
0.44918249 0.91886608 0.44918249
0.54354804 0.91886608 0.44918249
0.62788641 0.91886608 0.44918249
0.70904681 0.91886608 0.44918249
0.78854028 0.91886608 0.44918249
0.86632907 0.91886608 0.44918249
0.91886608 0.91886608 0.44918249
0.06256172 0.06256172 0.54354804
0.29792057 0.06256172 0.54354804
0.44918249 0.06256172 0.54354804
0.54354804 0.06256172 0.54354804
0.62788641 0.06256172 0.54354804
0.70904681 0.06256172 0.54354804
0.78854028 0.06256172 0.54354804
0.86632907 0.06256172 0.54354804
0.91886608 0.06256172 0.54354804
0.06256172 0.29792057 0.54354804
0.29792057 0.29792057 0.54354804
0.44918249 0.29792057 0.54354804
0.54354804 0.29792057 0.54354804
0.62788641 0.29792057 0.54354804
0.70904681 0.29792057 0.54354804
0.78854028 0.29792057 0.54354804
0.86632907 0.29792057 0.54354804
0.91886608 0.29792057 0.54354804
0.06256172 0.44918249 0.54354804
0.29792057 0.44918249 0.54354804
0.44918249 0.44918249 0.54354804
0.54354804 0.44918249 0.54354804
0.62788641 0.44918249 0.54354804
0.70904681 0.44918249 0.54354804
0.78854028 0.44918249 0.54354804
0.86632907 0.44918249 0.54354804
0.91886608 0.44918249 0.54354804
0.06256172 0.54354804 0.54354804
0.29792057 0.54354804 0.54354804
0.44918249 0.54354804 0.54354804
0.54354804 0.54354804 0.54354804
0.62788641 0.54354804 0.54354804
0.70904681 0.54354804 0.54354804
0.78854028 0.54354804 0.54354804
0.86632907 0.54354804 0.54354804
0.91886608 0.54354804 0.54354804
0.06256172 0.62788641 0.54354804
0.29792057 0.62788641 0.54354804
0.44918249 0.62788641 0.54354804
0.54354804 0.62788641 0.54354804
0.62788641 0.62788641 0.54354804
0.70904681 0.62788641 0.54354804
0.78854028 0.62788641 0.54354804
0.86632907 0.62788641 0.54354804
0.91886608 0.62788641 0.54354804
0.06256172 0.70904681 0.54354804
0.29792057 0.70904681 0.54354804
0.44918249 0.70904681 0.54354804
0.54354804 0.70904681 0.54354804
0.62788641 0.70904681 0.54354804
0.70904681 0.70904681 0.54354804
0.78854028 0.70904681 0.54354804
0.86632907 0.70904681 0.54354804
0.91886608 0.70904681 0.54354804
0.06256172 0.78854028 0.54354804
0.29792057 0.78854028 0.54354804
0.44918249 0.78854028 0.54354804
0.54354804 0.78854028 0.54354804
0.62788641 0.78854028 0.54354804
0.70904681 0.78854028 0.54354804
0.78854028 0.78854028 0.54354804
0.86632907 0.78854028 0.54354804
0.91886608 0.78854028 0.54354804
0.06256172 0.86632907 0.54354804
0.29792057 0.86632907 0.54354804
0.44918249 0.86632907 0.54354804
0.54354804 0.86632907 0.54354804
0.62788641 0.86632907 0.54354804
0.70904681 0.86632907 0.54354804
0.78854028 0.86632907 0.54354804
0.86632907 0.86632907 0.54354804
0.91886608 0.86632907 0.54354804
0.06256172 0.91886608 0.54354804
0.29792057 0.91886608 0.54354804
0.44918249 0.91886608 0.54354804
0.54354804 0.91886608 0.54354804
0.62788641 0.91886608 0.54354804
0.70904681 0.91886608 0.54354804
0.78854028 0.91886608 0.54354804
0.86632907 0.91886608 0.54354804
0.91886608 0.91886608 0.54354804
0.06256172 0.06256172 0.62788641
0.29792057 0.06256172 0.62788641
0.44918249 0.06256172 0.62788641
0.54354804 0.06256172 0.62788641
0.62788641 0.06256172 0.62788641
0.70904681 0.06256172 0.62788641
0.78854028 0.06256172 0.62788641
0.86632907 0.06256172 0.62788641
0.91886608 0.06256172 0.62788641
0.06256172 0.29792057 0.62788641
0.29792057 0.29792057 0.62788641
0.44918249 0.29792057 0.62788641
0.54354804 0.29792057 0.62788641
0.62788641 0.29792057 0.62788641
0.70904681 0.29792057 0.62788641
0.78854028 0.29792057 0.62788641
0.86632907 0.29792057 0.62788641
0.91886608 0.29792057 0.62788641
0.06256172 0.44918249 0.62788641
0.29792057 0.44918249 0.62788641
0.44918249 0.44918249 0.62788641
0.54354804 0.44918249 0.62788641
0.62788641 0.44918249 0.62788641
0.70904681 0.44918249 0.62788641
0.78854028 0.44918249 0.62788641
0.86632907 0.44918249 0.62788641
0.91886608 0.44918249 0.62788641
0.06256172 0.54354804 0.62788641
0.29792057 0.54354804 0.62788641
0.44918249 0.54354804 0.62788641
0.54354804 0.54354804 0.62788641
0.62788641 0.54354804 0.62788641
0.70904681 0.54354804 0.62788641
0.78854028 0.54354804 0.62788641
0.86632907 0.54354804 0.62788641
0.91886608 0.54354804 0.62788641
0.06256172 0.62788641 0.62788641
0.29792057 0.62788641 0.62788641
0.44918249 0.62788641 0.62788641
0.54354804 0.62788641 0.62788641
0.62788641 0.62788641 0.62788641
0.70904681 0.62788641 0.62788641
0.78854028 0.62788641 0.62788641
0.86632907 0.62788641 0.62788641
0.91886608 0.62788641 0.62788641
0.06256172 0.70904681 0.62788641
0.29792057 0.70904681 0.62788641
0.44918249 0.70904681 0.62788641
0.54354804 0.70904681 0.62788641
0.62788641 0.70904681 0.62788641
0.70904681 0.70904681 0.62788641
0.78854028 0.70904681 0.62788641
0.86632907 0.70904681 0.62788641
0.91886608 0.70904681 0.62788641
0.06256172 0.78854028 0.62788641
0.29792057 0.78854028 0.62788641
0.44918249 0.78854028 0.62788641
0.54354804 0.78854028 0.62788641
0.62788641 0.78854028 0.62788641
0.70904681 0.78854028 0.62788641
0.78854028 0.78854028 0.62788641
0.86632907 0.78854028 0.62788641
0.91886608 0.78854028 0.62788641
0.06256172 0.86632907 0.62788641
0.29792057 0.86632907 0.62788641
0.44918249 0.86632907 0.62788641
0.54354804 0.86632907 0.62788641
0.62788641 0.86632907 0.62788641
0.70904681 0.86632907 0.62788641
0.78854028 0.86632907 0.62788641
0.86632907 0.86632907 0.62788641
0.91886608 0.86632907 0.62788641
0.06256172 0.91886608 0.62788641
0.29792057 0.91886608 0.62788641
0.44918249 0.91886608 0.62788641
0.54354804 0.91886608 0.62788641
0.62788641 0.91886608 0.62788641
0.70904681 0.91886608 0.62788641
0.78854028 0.91886608 0.62788641
0.86632907 0.91886608 0.62788641
0.91886608 0.91886608 0.62788641
0.06256172 0.06256172 0.70904681
0.29792057 0.06256172 0.70904681
0.44918249 0.06256172 0.70904681
0.54354804 0.06256172 0.70904681
0.62788641 0.06256172 0.70904681
0.70904681 0.06256172 0.70904681
0.78854028 0.06256172 0.70904681
0.86632907 0.06256172 0.70904681
0.91886608 0.06256172 0.70904681
0.06256172 0.29792057 0.70904681
0.29792057 0.29792057 0.70904681
0.44918249 0.29792057 0.70904681
0.54354804 0.29792057 0.70904681
0.62788641 0.29792057 0.70904681
0.70904681 0.29792057 0.70904681
0.78854028 0.29792057 0.70904681
0.86632907 0.29792057 0.70904681
0.91886608 0.29792057 0.70904681
0.06256172 0.44918249 0.70904681
0.29792057 0.44918249 0.70904681
0.44918249 0.44918249 0.70904681
0.54354804 0.44918249 0.70904681
0.62788641 0.44918249 0.70904681
0.70904681 0.44918249 0.70904681
0.78854028 0.44918249 0.70904681
0.86632907 0.44918249 0.70904681
0.91886608 0.44918249 0.70904681
0.06256172 0.54354804 0.70904681
0.29792057 0.54354804 0.70904681
0.44918249 0.54354804 0.70904681
0.54354804 0.54354804 0.70904681
0.62788641 0.54354804 0.70904681
0.70904681 0.54354804 0.70904681
0.78854028 0.54354804 0.70904681
0.86632907 0.54354804 0.70904681
0.91886608 0.54354804 0.70904681
0.06256172 0.62788641 0.70904681
0.29792057 0.62788641 0.70904681
0.44918249 0.62788641 0.70904681
0.54354804 0.62788641 0.70904681
0.62788641 0.62788641 0.70904681
0.70904681 0.62788641 0.70904681
0.78854028 0.62788641 0.70904681
0.86632907 0.62788641 0.70904681
0.91886608 0.62788641 0.70904681
0.06256172 0.70904681 0.70904681
0.29792057 0.70904681 0.70904681
0.44918249 0.70904681 0.70904681
0.54354804 0.70904681 0.70904681
0.62788641 0.70904681 0.70904681
0.70904681 0.70904681 0.70904681
0.78854028 0.70904681 0.70904681
0.86632907 0.70904681 0.70904681
0.91886608 0.70904681 0.70904681
0.06256172 0.78854028 0.70904681
0.29792057 0.78854028 0.70904681
0.44918249 0.78854028 0.70904681
0.54354804 0.78854028 0.70904681
0.62788641 0.78854028 0.70904681
0.70904681 0.78854028 0.70904681
0.78854028 0.78854028 0.70904681
0.86632907 0.78854028 0.70904681
0.91886608 0.78854028 0.70904681
0.06256172 0.86632907 0.70904681
0.29792057 0.86632907 0.70904681
0.44918249 0.86632907 0.70904681
0.54354804 0.86632907 0.70904681
0.62788641 0.86632907 0.70904681
0.70904681 0.86632907 0.70904681
0.78854028 0.86632907 0.70904681
0.86632907 0.86632907 0.70904681
0.91886608 0.86632907 0.70904681
0.06256172 0.91886608 0.70904681
0.29792057 0.91886608 0.70904681
0.44918249 0.91886608 0.70904681
0.54354804 0.91886608 0.70904681
0.62788641 0.91886608 0.70904681
0.70904681 0.91886608 0.70904681
0.78854028 0.91886608 0.70904681
0.86632907 0.91886608 0.70904681
0.91886608 0.91886608 0.70904681
0.06256172 0.06256172 0.78854028
0.29792057 0.06256172 0.78854028
0.44918249 0.06256172 0.78854028
0.54354804 0.06256172 0.78854028
0.62788641 0.06256172 0.78854028
0.70904681 0.06256172 0.78854028
0.78854028 0.06256172 0.78854028
0.86632907 0.06256172 0.78854028
0.91886608 0.06256172 0.78854028
0.06256172 0.29792057 0.78854028
0.29792057 0.29792057 0.78854028
0.44918249 0.29792057 0.78854028
0.54354804 0.29792057 0.78854028
0.62788641 0.29792057 0.78854028
0.70904681 0.29792057 0.78854028
0.78854028 0.29792057 0.78854028
0.86632907 0.29792057 0.78854028
0.91886608 0.29792057 0.78854028
0.06256172 0.44918249 0.78854028
0.29792057 0.44918249 0.78854028
0.44918249 0.44918249 0.78854028
0.54354804 0.44918249 0.78854028
0.62788641 0.44918249 0.78854028
0.70904681 0.44918249 0.78854028
0.78854028 0.44918249 0.78854028
0.86632907 0.44918249 0.78854028
0.91886608 0.44918249 0.78854028
0.06256172 0.54354804 0.78854028
0.29792057 0.54354804 0.78854028
0.44918249 0.54354804 0.78854028
0.54354804 0.54354804 0.78854028
0.62788641 0.54354804 0.78854028
0.70904681 0.54354804 0.78854028
0.78854028 0.54354804 0.78854028
0.86632907 0.54354804 0.78854028
0.91886608 0.54354804 0.78854028
0.06256172 0.62788641 0.78854028
0.29792057 0.62788641 0.78854028
0.44918249 0.62788641 0.78854028
0.54354804 0.62788641 0.78854028
0.62788641 0.62788641 0.78854028
0.70904681 0.62788641 0.78854028
0.78854028 0.62788641 0.78854028
0.86632907 0.62788641 0.78854028
0.91886608 0.62788641 0.78854028
0.06256172 0.70904681 0.78854028
0.29792057 0.70904681 0.78854028
0.44918249 0.70904681 0.78854028
0.54354804 0.70904681 0.78854028
0.62788641 0.70904681 0.78854028
0.70904681 0.70904681 0.78854028
0.78854028 0.70904681 0.78854028
0.86632907 0.70904681 0.78854028
0.91886608 0.70904681 0.78854028
0.06256172 0.78854028 0.78854028
0.29792057 0.78854028 0.78854028
0.44918249 0.78854028 0.78854028
0.54354804 0.78854028 0.78854028
0.62788641 0.78854028 0.78854028
0.70904681 0.78854028 0.78854028
0.78854028 0.78854028 0.78854028
0.86632907 0.78854028 0.78854028
0.91886608 0.78854028 0.78854028
0.06256172 0.86632907 0.78854028
0.29792057 0.86632907 0.78854028
0.44918249 0.86632907 0.78854028
0.54354804 0.86632907 0.78854028
0.62788641 0.86632907 0.78854028
0.70904681 0.86632907 0.78854028
0.78854028 0.86632907 0.78854028
0.86632907 0.86632907 0.78854028
0.91886608 0.86632907 0.78854028
0.06256172 0.91886608 0.78854028
0.29792057 0.91886608 0.78854028
0.44918249 0.91886608 0.78854028
0.54354804 0.91886608 0.78854028
0.62788641 0.91886608 0.78854028
0.70904681 0.91886608 0.78854028
0.78854028 0.91886608 0.78854028
0.86632907 0.91886608 0.78854028
0.91886608 0.91886608 0.78854028
0.06256172 0.06256172 0.86632907
0.29792057 0.06256172 0.86632907
0.44918249 0.06256172 0.86632907
0.54354804 0.06256172 0.86632907
0.62788641 0.06256172 0.86632907
0.70904681 0.06256172 0.86632907
0.78854028 0.06256172 0.86632907
0.86632907 0.06256172 0.86632907
0.91886608 0.06256172 0.86632907
0.06256172 0.29792057 0.86632907
0.29792057 0.29792057 0.86632907
0.44918249 0.29792057 0.86632907
0.54354804 0.29792057 0.86632907
0.62788641 0.29792057 0.86632907
0.70904681 0.29792057 0.86632907
0.78854028 0.29792057 0.86632907
0.86632907 0.29792057 0.86632907
0.91886608 0.29792057 0.86632907
0.06256172 0.44918249 0.86632907
0.29792057 0.44918249 0.86632907
0.44918249 0.44918249 0.86632907
0.54354804 0.44918249 0.86632907
0.62788641 0.44918249 0.86632907
0.70904681 0.44918249 0.86632907
0.78854028 0.44918249 0.86632907
0.86632907 0.44918249 0.86632907
0.91886608 0.44918249 0.86632907
0.06256172 0.54354804 0.86632907
0.29792057 0.54354804 0.86632907
0.44918249 0.54354804 0.86632907
0.54354804 0.54354804 0.86632907
0.62788641 0.54354804 0.86632907
0.70904681 0.54354804 0.86632907
0.78854028 0.54354804 0.86632907
0.86632907 0.54354804 0.86632907
0.91886608 0.54354804 0.86632907
0.06256172 0.62788641 0.86632907
0.29792057 0.62788641 0.86632907
0.44918249 0.62788641 0.86632907
0.54354804 0.62788641 0.86632907
0.62788641 0.62788641 0.86632907
0.70904681 0.62788641 0.86632907
0.78854028 0.62788641 0.86632907
0.86632907 0.62788641 0.86632907
0.91886608 0.62788641 0.86632907
0.06256172 0.70904681 0.86632907
0.29792057 0.70904681 0.86632907
0.44918249 0.70904681 0.86632907
0.54354804 0.70904681 0.86632907
0.62788641 0.70904681 0.86632907
0.70904681 0.70904681 0.86632907
0.78854028 0.70904681 0.86632907
0.86632907 0.70904681 0.86632907
0.91886608 0.70904681 0.86632907
0.06256172 0.78854028 0.86632907
0.29792057 0.78854028 0.86632907
0.44918249 0.78854028 0.86632907
0.54354804 0.78854028 0.86632907
0.62788641 0.78854028 0.86632907
0.70904681 0.78854028 0.86632907
0.78854028 0.78854028 0.86632907
0.86632907 0.78854028 0.86632907
0.91886608 0.78854028 0.86632907
0.06256172 0.86632907 0.86632907
0.29792057 0.86632907 0.86632907
0.44918249 0.86632907 0.86632907
0.54354804 0.86632907 0.86632907
0.62788641 0.86632907 0.86632907
0.70904681 0.86632907 0.86632907
0.78854028 0.86632907 0.86632907
0.86632907 0.86632907 0.86632907
0.91886608 0.86632907 0.86632907
0.06256172 0.91886608 0.86632907
0.29792057 0.91886608 0.86632907
0.44918249 0.91886608 0.86632907
0.54354804 0.91886608 0.86632907
0.62788641 0.91886608 0.86632907
0.70904681 0.91886608 0.86632907
0.78854028 0.91886608 0.86632907
0.86632907 0.91886608 0.86632907
0.91886608 0.91886608 0.86632907
0.06256172 0.06256172 0.91886608
0.29792057 0.06256172 0.91886608
0.44918249 0.06256172 0.91886608
0.54354804 0.06256172 0.91886608
0.62788641 0.06256172 0.91886608
0.70904681 0.06256172 0.91886608
0.78854028 0.06256172 0.91886608
0.86632907 0.06256172 0.91886608
0.91886608 0.06256172 0.91886608
0.06256172 0.29792057 0.91886608
0.29792057 0.29792057 0.91886608
0.44918249 0.29792057 0.91886608
0.54354804 0.29792057 0.91886608
0.62788641 0.29792057 0.91886608
0.70904681 0.29792057 0.91886608
0.78854028 0.29792057 0.91886608
0.86632907 0.29792057 0.91886608
0.91886608 0.29792057 0.91886608
0.06256172 0.44918249 0.91886608
0.29792057 0.44918249 0.91886608
0.44918249 0.44918249 0.91886608
0.54354804 0.44918249 0.91886608
0.62788641 0.44918249 0.91886608
0.70904681 0.44918249 0.91886608
0.78854028 0.44918249 0.91886608
0.86632907 0.44918249 0.91886608
0.91886608 0.44918249 0.91886608
0.06256172 0.54354804 0.91886608
0.29792057 0.54354804 0.91886608
0.44918249 0.54354804 0.91886608
0.54354804 0.54354804 0.91886608
0.62788641 0.54354804 0.91886608
0.70904681 0.54354804 0.91886608
0.78854028 0.54354804 0.91886608
0.86632907 0.54354804 0.91886608
0.91886608 0.54354804 0.91886608
0.06256172 0.62788641 0.91886608
0.29792057 0.62788641 0.91886608
0.44918249 0.62788641 0.91886608
0.54354804 0.62788641 0.91886608
0.62788641 0.62788641 0.91886608
0.70904681 0.62788641 0.91886608
0.78854028 0.62788641 0.91886608
0.86632907 0.62788641 0.91886608
0.91886608 0.62788641 0.91886608
0.06256172 0.70904681 0.91886608
0.29792057 0.70904681 0.91886608
0.44918249 0.70904681 0.91886608
0.54354804 0.70904681 0.91886608
0.62788641 0.70904681 0.91886608
0.70904681 0.70904681 0.91886608
0.78854028 0.70904681 0.91886608
0.86632907 0.70904681 0.91886608
0.91886608 0.70904681 0.91886608
0.06256172 0.78854028 0.91886608
0.29792057 0.78854028 0.91886608
0.44918249 0.78854028 0.91886608
0.54354804 0.78854028 0.91886608
0.62788641 0.78854028 0.91886608
0.70904681 0.78854028 0.91886608
0.78854028 0.78854028 0.91886608
0.86632907 0.78854028 0.91886608
0.91886608 0.78854028 0.91886608
0.06256172 0.86632907 0.91886608
0.29792057 0.86632907 0.91886608
0.44918249 0.86632907 0.91886608
0.54354804 0.86632907 0.91886608
0.62788641 0.86632907 0.91886608
0.70904681 0.86632907 0.91886608
0.78854028 0.86632907 0.91886608
0.86632907 0.86632907 0.91886608
0.91886608 0.86632907 0.91886608
0.06256172 0.91886608 0.91886608
0.29792057 0.91886608 0.91886608
0.44918249 0.91886608 0.91886608
0.54354804 0.91886608 0.91886608
0.62788641 0.91886608 0.91886608
0.70904681 0.91886608 0.91886608
0.78854028 0.91886608 0.91886608
0.86632907 0.91886608 0.91886608
0.91886608 0.91886608 0.91886608
