src/ffmpeg_scripts/luts/flog-experimental_4p00.cube
TITLE "flog-experimental_4p00"
LUT_3D_SIZE 33
# Fujifilm F-Log/Rec2020 -> PQ (EOTF Only)/Rec2020, CineEI Shift 4.00, Black Level 0.00% IRE, Input 109% -> Output 100% - Created with LUTCalc v4.01 by Ben Turley October 2020
0.00000073 0.00000073 0.00000073
0.00000073 0.00000073 0.00000073
0.00000073 0.00000073 0.00000073
0.10554007 0.00000073 0.00000073
0.38084027 0.00000073 0.00000073
0.46800945 0.00000073 0.00000073
0.52983405 0.00000073 0.00000073
0.58072311 0.00000073 0.00000073
0.62560065 0.00000073 0.00000073
0.66676411 0.00000073 0.00000073
0.70547227 0.00000073 0.00000073
0.74248598 0.00000073 0.00000073
0.77829570 0.00000073 0.00000073
0.81323160 0.00000073 0.00000073
0.84752233 0.00000073 0.00000073
0.88132893 0.00000073 0.00000073
0.91476556 0.00000073 0.00000073
0.94791290 0.00000073 0.00000073
0.98082705 0.00000073 0.00000073
1.00000000 0.00000073 0.00000073
1.00000000 0.00000073 0.00000073
1.00000000 0.00000073 0.00000073
1.00000000 0.00000073 0.00000073
1.00000000 0.00000073 0.00000073
1.00000000 0.00000073 0.00000073
1.00000000 0.00000073 0.00000073
1.00000000 0.00000073 0.00000073
1.00000000 0.00000073 0.00000073
1.00000000 0.00000073 0.00000073
1.00000000 0.00000073 0.00000073
1.00000000 0.00000073 0.00000073
1.00000000 0.00000073 0.00000073
1.00000000 0.00000073 0.00000073
0.00000073 0.00000073 0.00000073
0.00000073 0.00000073 0.00000073
0.00000073 0.00000073 0.00000073
0.10554007 0.00000073 0.00000073
0.38084027 0.00000073 0.00000073
0.46800945 0.00000073 0.00000073
0.52983405 0.00000073 0.00000073
0.58072311 0.00000073 0.00000073
0.62560065 0.00000073 0.00000073
0.66676411 0.00000073 0.00000073
0.70547227 0.00000073 0.00000073
0.74248598 0.00000073 0.00000073
0.77829570 0.00000073 0.00000073
0.81323160 0.00000073 0.00000073
0.84752233 0.00000073 0.00000073
0.88132893 0.00000073 0.00000073
0.91476556 0.00000073 0.00000073
0.94791290 0.00000073 0.00000073
0.98082705 0.00000073 0.00000073
1.00000000 0.00000073 0.00000073
1.00000000 0.00000073 0.00000073
1.00000000 0.00000073 0.00000073
1.00000000 0.00000073 0.00000073
1.00000000 0.00000073 0.00000073
1.00000000 0.00000073 0.00000073
1.00000000 0.00000073 0.00000073
1.00000000 0.00000073 0.00000073
1.00000000 0.00000073 0.00000073
1.00000000 0.00000073 0.00000073
1.00000000 0.00000073 0.00000073
1.00000000 0.00000073 0.00000073
1.00000000 0.00000073 0.00000073
1.00000000 0.00000073 0.00000073
0.00000073 0.00000073 0.00000073
0.00000073 0.00000073 0.00000073
0.00000073 0.00000073 0.00000073
0.10554007 0.00000073 0.00000073
0.38084027 0.00000073 0.00000073
0.46800945 0.00000073 0.00000073
0.52983405 0.00000073 0.00000073
0.58072311 0.00000073 0.00000073
0.62560065 0.00000073 0.00000073
0.66676411 0.00000073 0.00000073
0.70547227 0.00000073 0.00000073
0.74248598 0.00000073 0.00000073
0.77829570 0.00000073 0.00000073
0.81323160 0.00000073 0.00000073
0.84752233 0.00000073 0.00000073
0.88132893 0.00000073 0.00000073
0.91476556 0.00000073 0.00000073
0.94791290 0.00000073 0.00000073
0.98082705 0.00000073 0.00000073
1.00000000 0.00000073 0.00000073
1.00000000 0.00000073 0.00000073
1.00000000 0.00000073 0.00000073
1.00000000 0.00000073 0.00000073
1.00000000 0.00000073 0.00000073
1.00000000 0.00000073 0.00000073
1.00000000 0.00000073 0.00000073
1.00000000 0.00000073 0.00000073
1.00000000 0.00000073 0.00000073
1.00000000 0.00000073 0.00000073
1.00000000 0.00000073 0.00000073
1.00000000 0.00000073 0.00000073
1.00000000 0.00000073 0.00000073
1.00000000 0.00000073 0.00000073
0.00000073 0.10554007 0.00000073
0.00000073 0.10554007 0.00000073
0.00000073 0.10554007 0.00000073
0.10554007 0.10554007 0.00000073
0.38084027 0.10554007 0.00000073
0.46800945 0.10554007 0.00000073
0.52983405 0.10554007 0.00000073
0.58072311 0.10554007 0.00000073
0.62560065 0.10554007 0.00000073
0.66676411 0.10554007 0.00000073
0.70547227 0.10554007 0.00000073
0.74248598 0.10554007 0.00000073
0.77829570 0.10554007 0.00000073
0.81323160 0.10554007 0.00000073
0.84752233 0.10554007 0.00000073
0.88132893 0.10554007 0.00000073
0.91476556 0.10554007 0.00000073
0.94791290 0.10554007 0.00000073
0.98082705 0.10554007 0.00000073
1.00000000 0.10554007 0.00000073
1.00000000 0.10554007 0.00000073
1.00000000 0.10554007 0.00000073
1.00000000 0.10554007 0.00000073
1.00000000 0.10554007 0.00000073
1.00000000 0.10554007 0.00000073
1.00000000 0.10554007 0.00000073
1.00000000 0.10554007 0.00000073
1.00000000 0.10554007 0.00000073
1.00000000 0.10554007 0.00000073
1.00000000 0.10554007 0.00000073
1.00000000 0.10554007 0.00000073
1.00000000 0.10554007 0.00000073
1.00000000 0.10554007 0.00000073
0.00000073 0.38084027 0.00000073
0.00000073 0.38084027 0.00000073
0.00000073 0.38084027 0.00000073
0.10554007 0.38084027 0.00000073
0.38084027 0.38084027 0.00000073
0.46800945 0.38084027 0.00000073
0.52983405 0.38084027 0.00000073
0.58072311 0.38084027 0.00000073
0.62560065 0.38084027 0.00000073
0.66676411 0.38084027 0.00000073
0.70547227 0.38084027 0.00000073
0.74248598 0.38084027 0.00000073
0.77829570 0.38084027 0.00000073
0.81323160 0.38084027 0.00000073
0.84752233 0.38084027 0.00000073
0.88132893 0.38084027 0.00000073
0.91476556 0.38084027 0.00000073
0.94791290 0.38084027 0.00000073
0.98082705 0.38084027 0.00000073
1.00000000 0.38084027 0.00000073
1.00000000 0.38084027 0.00000073
1.00000000 0.38084027 0.00000073
1.00000000 0.38084027 0.00000073
1.00000000 0.38084027 0.00000073
1.00000000 0.38084027 0.00000073
1.00000000 0.38084027 0.00000073
1.00000000 0.38084027 0.00000073
1.00000000 0.38084027 0.00000073
1.00000000 0.38084027 0.00000073
1.00000000 0.38084027 0.00000073
1.00000000 0.38084027 0.00000073
1.00000000 0.38084027 0.00000073
1.00000000 0.38084027 0.00000073
0.00000073 0.46800945 0.00000073
0.00000073 0.46800945 0.00000073
0.00000073 0.46800945 0.00000073
0.10554007 0.46800945 0.00000073
0.38084027 0.46800945 0.00000073
0.46800945 0.46800945 0.00000073
0.52983405 0.46800945 0.00000073
0.58072311 0.46800945 0.00000073
0.62560065 0.46800945 0.00000073
0.66676411 0.46800945 0.00000073
0.70547227 0.46800945 0.00000073
0.74248598 0.46800945 0.00000073
0.77829570 0.46800945 0.00000073
0.81323160 0.46800945 0.00000073
0.84752233 0.46800945 0.00000073
0.88132893 0.46800945 0.00000073
0.91476556 0.46800945 0.00000073
0.94791290 0.46800945 0.00000073
0.98082705 0.46800945 0.00000073
1.00000000 0.46800945 0.00000073
1.00000000 0.46800945 0.00000073
1.00000000 0.46800945 0.00000073
1.00000000 0.46800945 0.00000073
1.00000000 0.46800945 0.00000073
1.00000000 0.46800945 0.00000073
1.00000000 0.46800945 0.00000073
1.00000000 0.46800945 0.00000073
1.00000000 0.46800945 0.00000073
1.00000000 0.46800945 0.00000073
1.00000000 0.46800945 0.00000073
1.00000000 0.46800945 0.00000073
1.00000000 0.46800945 0.00000073
1.00000000 0.46800945 0.00000073
0.00000073 0.52983405 0.00000073
0.00000073 0.52983405 0.00000073
0.00000073 0.52983405 0.00000073
0.10554007 0.52983405 0.00000073
0.38084027 0.52983405 0.00000073
0.46800945 0.52983405 0.00000073
0.52983405 0.52983405 0.00000073
0.58072311 0.52983405 0.00000073
0.62560065 0.52983405 0.00000073
0.66676411 0.52983405 0.00000073
0.70547227 0.52983405 0.00000073
0.74248598 0.52983405 0.00000073
0.77829570 0.52983405 0.00000073
0.81323160 0.52983405 0.00000073
0.84752233 0.52983405 0.00000073
0.88132893 0.52983405 0.00000073
0.91476556 0.52983405 0.00000073
0.94791290 0.52983405 0.00000073
0.98082705 0.52983405 0.00000073
1.00000000 0.52983405 0.00000073
1.00000000 0.52983405 0.00000073
1.00000000 0.52983405 0.00000073
1.00000000 0.52983405 0.00000073
1.00000000 0.52983405 0.00000073
1.00000000 0.52983405 0.00000073
1.00000000 0.52983405 0.00000073
1.00000000 0.52983405 0.00000073
1.00000000 0.52983405 0.00000073
1.00000000 0.52983405 0.00000073
1.00000000 0.52983405 0.00000073
1.00000000 0.52983405 0.00000073
1.00000000 0.52983405 0.00000073
1.00000000 0.52983405 0.00000073
0.00000073 0.58072311 0.00000073
0.00000073 0.58072311 0.00000073
0.00000073 0.58072311 0.00000073
0.10554007 0.58072311 0.00000073
0.38084027 0.58072311 0.00000073
0.46800945 0.58072311 0.00000073
0.52983405 0.58072311 0.00000073
0.58072311 0.58072311 0.00000073
0.62560065 0.58072311 0.00000073
0.66676411 0.58072311 0.00000073
0.70547227 0.58072311 0.00000073
0.74248598 0.58072311 0.00000073
0.77829570 0.58072311 0.00000073
0.81323160 0.58072311 0.00000073
0.84752233 0.58072311 0.00000073
0.88132893 0.58072311 0.00000073
0.91476556 0.58072311 0.00000073
0.94791290 0.58072311 0.00000073
0.98082705 0.58072311 0.00000073
1.00000000 0.58072311 0.00000073
1.00000000 0.58072311 0.00000073
1.00000000 0.58072311 0.00000073
1.00000000 0.58072311 0.00000073
1.00000000 0.58072311 0.00000073
1.00000000 0.58072311 0.00000073
1.00000000 0.58072311 0.00000073
1.00000000 0.58072311 0.00000073
1.00000000 0.58072311 0.00000073
1.00000000 0.58072311 0.00000073
1.00000000 0.58072311 0.00000073
1.00000000 0.58072311 0.00000073
1.00000000 0.58072311 0.00000073
1.00000000 0.58072311 0.00000073
0.00000073 0.62560065 0.00000073
0.00000073 0.62560065 0.00000073
0.00000073 0.62560065 0.00000073
0.10554007 0.62560065 0.00000073
0.38084027 0.62560065 0.00000073
0.46800945 0.62560065 0.00000073
0.52983405 0.62560065 0.00000073
0.58072311 0.62560065 0.00000073
0.62560065 0.62560065 0.00000073
0.66676411 0.62560065 0.00000073
0.70547227 0.62560065 0.00000073
0.74248598 0.62560065 0.00000073
0.77829570 0.62560065 0.00000073
0.81323160 0.62560065 0.00000073
0.84752233 0.62560065 0.00000073
0.88132893 0.62560065 0.00000073
0.91476556 0.62560065 0.00000073
0.94791290 0.62560065 0.00000073
0.98082705 0.62560065 0.00000073
1.00000000 0.62560065 0.00000073
1.00000000 0.62560065 0.00000073
1.00000000 0.62560065 0.00000073
1.00000000 0.62560065 0.00000073
1.00000000 0.62560065 0.00000073
1.00000000 0.62560065 0.00000073
1.00000000 0.62560065 0.00000073
1.00000000 0.62560065 0.00000073
1.00000000 0.62560065 0.00000073
1.00000000 0.62560065 0.00000073
1.00000000 0.62560065 0.00000073
1.00000000 0.62560065 0.00000073
1.00000000 0.62560065 0.00000073
1.00000000 0.62560065 0.00000073
0.00000073 0.66676411 0.00000073
0.00000073 0.66676411 0.00000073
0.00000073 0.66676411 0.00000073
0.10554007 0.66676411 0.00000073
0.38084027 0.66676411 0.00000073
0.46800945 0.66676411 0.00000073
0.52983405 0.66676411 0.00000073
0.58072311 0.66676411 0.00000073
0.62560065 0.66676411 0.00000073
0.66676411 0.66676411 0.00000073
0.70547227 0.66676411 0.00000073
0.74248598 0.66676411 0.00000073
0.77829570 0.66676411 0.00000073
0.81323160 0.66676411 0.00000073
0.84752233 0.66676411 0.00000073
0.88132893 0.66676411 0.00000073
0.91476556 0.66676411 0.00000073
0.94791290 0.66676411 0.00000073
0.98082705 0.66676411 0.00000073
1.00000000 0.66676411 0.00000073
1.00000000 0.66676411 0.00000073
1.00000000 0.66676411 0.00000073
1.00000000 0.66676411 0.00000073
1.00000000 0.66676411 0.00000073
1.00000000 0.66676411 0.00000073
1.00000000 0.66676411 0.00000073
1.00000000 0.66676411 0.00000073
1.00000000 0.66676411 0.00000073
1.00000000 0.66676411 0.00000073
1.00000000 0.66676411 0.00000073
1.00000000 0.66676411 0.00000073
1.00000000 0.66676411 0.00000073
1.00000000 0.66676411 0.00000073
0.00000073 0.70547227 0.00000073
0.00000073 0.70547227 0.00000073
0.00000073 0.70547227 0.00000073
0.10554007 0.70547227 0.00000073
0.38084027 0.70547227 0.00000073
0.46800945 0.70547227 0.00000073
0.52983405 0.70547227 0.00000073
0.58072311 0.70547227 0.00000073
0.62560065 0.70547227 0.00000073
0.66676411 0.70547227 0.00000073
0.70547227 0.70547227 0.00000073
0.74248598 0.70547227 0.00000073
0.77829570 0.70547227 0.00000073
0.81323160 0.70547227 0.00000073
0.84752233 0.70547227 0.00000073
0.88132893 0.70547227 0.00000073
0.91476556 0.70547227 0.00000073
0.94791290 0.70547227 0.00000073
0.98082705 0.70547227 0.00000073
1.00000000 0.70547227 0.00000073
1.00000000 0.70547227 0.00000073
1.00000000 0.70547227 0.00000073
1.00000000 0.70547227 0.00000073
1.00000000 0.70547227 0.00000073
1.00000000 0.70547227 0.00000073
1.00000000 0.70547227 0.00000073
1.00000000 0.70547227 0.00000073
1.00000000 0.70547227 0.00000073
1.00000000 0.70547227 0.00000073
1.00000000 0.70547227 0.00000073
1.00000000 0.70547227 0.00000073
1.00000000 0.70547227 0.00000073
1.00000000 0.70547227 0.00000073
0.00000073 0.74248598 0.00000073
0.00000073 0.74248598 0.00000073
0.00000073 0.74248598 0.00000073
0.10554007 0.74248598 0.00000073
0.38084027 0.74248598 0.00000073
0.46800945 0.74248598 0.00000073
0.52983405 0.74248598 0.00000073
0.58072311 0.74248598 0.00000073
0.62560065 0.74248598 0.00000073
0.66676411 0.74248598 0.00000073
0.70547227 0.74248598 0.00000073
0.74248598 0.74248598 0.00000073
0.77829570 0.74248598 0.00000073
0.81323160 0.74248598 0.00000073
0.84752233 0.74248598 0.00000073
0.88132893 0.74248598 0.00000073
0.91476556 0.74248598 0.00000073
0.94791290 0.74248598 0.00000073
0.98082705 0.74248598 0.00000073
1.00000000 0.74248598 0.00000073
1.00000000 0.74248598 0.00000073
1.00000000 0.74248598 0.00000073
1.00000000 0.74248598 0.00000073
1.00000000 0.74248598 0.00000073
1.00000000 0.74248598 0.00000073
1.00000000 0.74248598 0.00000073
1.00000000 0.74248598 0.00000073
1.00000000 0.74248598 0.00000073
1.00000000 0.74248598 0.00000073
1.00000000 0.74248598 0.00000073
1.00000000 0.74248598 0.00000073
1.00000000 0.74248598 0.00000073
1.00000000 0.74248598 0.00000073
0.00000073 0.77829570 0.00000073
0.00000073 0.77829570 0.00000073
0.00000073 0.77829570 0.00000073
0.10554007 0.77829570 0.00000073
0.38084027 0.77829570 0.00000073
0.46800945 0.77829570 0.00000073
0.52983405 0.77829570 0.00000073
0.58072311 0.77829570 0.00000073
0.62560065 0.77829570 0.00000073
0.66676411 0.77829570 0.00000073
0.70547227 0.77829570 0.00000073
0.74248598 0.77829570 0.00000073
0.77829570 0.77829570 0.00000073
0.81323160 0.77829570 0.00000073
0.84752233 0.77829570 0.00000073
0.88132893 0.77829570 0.00000073
0.91476556 0.77829570 0.00000073
0.94791290 0.77829570 0.00000073
0.98082705 0.77829570 0.00000073
1.00000000 0.77829570 0.00000073
1.00000000 0.77829570 0.00000073
1.00000000 0.77829570 0.00000073
1.00000000 0.77829570 0.00000073
1.00000000 0.77829570 0.00000073
1.00000000 0.77829570 0.00000073
1.00000000 0.77829570 0.00000073
1.00000000 0.77829570 0.00000073
1.00000000 0.77829570 0.00000073
1.00000000 0.77829570 0.00000073
1.00000000 0.77829570 0.00000073
1.00000000 0.77829570 0.00000073
1.00000000 0.77829570 0.00000073
1.00000000 0.77829570 0.00000073
0.00000073 0.81323160 0.00000073
0.00000073 0.81323160 0.00000073
0.00000073 0.81323160 0.00000073
0.10554007 0.81323160 0.00000073
0.38084027 0.81323160 0.00000073
0.46800945 0.81323160 0.00000073
0.52983405 0.81323160 0.00000073
0.58072311 0.81323160 0.00000073
0.62560065 0.81323160 0.00000073
0.66676411 0.81323160 0.00000073
0.70547227 0.81323160 0.00000073
0.74248598 0.81323160 0.00000073
0.77829570 0.81323160 0.00000073
0.81323160 0.81323160 0.00000073
0.84752233 0.81323160 0.00000073
0.88132893 0.81323160 0.00000073
0.91476556 0.81323160 0.00000073
0.94791290 0.81323160 0.00000073
0.98082705 0.81323160 0.00000073
1.00000000 0.81323160 0.00000073
1.00000000 0.81323160 0.00000073
1.00000000 0.81323160 0.00000073
1.00000000 0.81323160 0.00000073
1.00000000 0.81323160 0.00000073
1.00000000 0.81323160 0.00000073
1.00000000 0.81323160 0.00000073
1.00000000 0.81323160 0.00000073
1.00000000 0.81323160 0.00000073
1.00000000 0.81323160 0.00000073
1.00000000 0.81323160 0.00000073
1.00000000 0.81323160 0.00000073
1.00000000 0.81323160 0.00000073
1.00000000 0.81323160 0.00000073
0.00000073 0.84752233 0.00000073
0.00000073 0.84752233 0.00000073
0.00000073 0.84752233 0.00000073
0.10554007 0.84752233 0.00000073
0.38084027 0.84752233 0.00000073
0.46800945 0.84752233 0.00000073
0.52983405 0.84752233 0.00000073
0.58072311 0.84752233 0.00000073
0.62560065 0.84752233 0.00000073
0.66676411 0.84752233 0.00000073
0.70547227 0.84752233 0.00000073
0.74248598 0.84752233 0.00000073
0.77829570 0.84752233 0.00000073
0.81323160 0.84752233 0.00000073
0.84752233 0.84752233 0.00000073
0.88132893 0.84752233 0.00000073
0.91476556 0.84752233 0.00000073
0.94791290 0.84752233 0.00000073
0.98082705 0.84752233 0.00000073
1.00000000 0.84752233 0.00000073
1.00000000 0.84752233 0.00000073
1.00000000 0.84752233 0.00000073
1.00000000 0.84752233 0.00000073
1.00000000 0.84752233 0.00000073
1.00000000 0.84752233 0.00000073
1.00000000 0.84752233 0.00000073
1.00000000 0.84752233 0.00000073
1.00000000 0.84752233 0.00000073
1.00000000 0.84752233 0.00000073
1.00000000 0.84752233 0.00000073
1.00000000 0.84752233 0.00000073
1.00000000 0.84752233 0.00000073
1.00000000 0.84752233 0.00000073
0.00000073 0.88132893 0.00000073
0.00000073 0.88132893 0.00000073
0.00000073 0.88132893 0.00000073
0.10554007 0.88132893 0.00000073
0.38084027 0.88132893 0.00000073
0.46800945 0.88132893 0.00000073
0.52983405 0.88132893 0.00000073
0.58072311 0.88132893 0.00000073
0.62560065 0.88132893 0.00000073
0.66676411 0.88132893 0.00000073
0.70547227 0.88132893 0.00000073
0.74248598 0.88132893 0.00000073
0.77829570 0.88132893 0.00000073
0.81323160 0.88132893 0.00000073
0.84752233 0.88132893 0.00000073
0.88132893 0.88132893 0.00000073
0.91476556 0.88132893 0.00000073
0.94791290 0.88132893 0.00000073
0.98082705 0.88132893 0.00000073
1.00000000 0.88132893 0.00000073
1.00000000 0.88132893 0.00000073
1.00000000 0.88132893 0.00000073
1.00000000 0.88132893 0.00000073
1.00000000 0.88132893 0.00000073
1.00000000 0.88132893 0.00000073
1.00000000 0.88132893 0.00000073
1.00000000 0.88132893 0.00000073
1.00000000 0.88132893 0.00000073
1.00000000 0.88132893 0.00000073
1.00000000 0.88132893 0.00000073
1.00000000 0.88132893 0.00000073
1.00000000 0.88132893 0.00000073
1.00000000 0.88132893 0.00000073
0.00000073 0.91476556 0.00000073
0.00000073 0.91476556 0.00000073
0.00000073 0.91476556 0.00000073
0.10554007 0.91476556 0.00000073
0.38084027 0.91476556 0.00000073
0.46800945 0.91476556 0.00000073
0.52983405 0.91476556 0.00000073
0.58072311 0.91476556 0.00000073
0.62560065 0.91476556 0.00000073
0.66676411 0.91476556 0.00000073
0.70547227 0.91476556 0.00000073
0.74248598 0.91476556 0.00000073
0.77829570 0.91476556 0.00000073
0.81323160 0.91476556 0.00000073
0.84752233 0.91476556 0.00000073
0.88132893 0.91476556 0.00000073
0.91476556 0.91476556 0.00000073
0.94791290 0.91476556 0.00000073
0.98082705 0.91476556 0.00000073
1.00000000 0.91476556 0.00000073
1.00000000 0.91476556 0.00000073
1.00000000 0.91476556 0.00000073
1.00000000 0.91476556 0.00000073
1.00000000 0.91476556 0.00000073
1.00000000 0.91476556 0.00000073
1.00000000 0.91476556 0.00000073
1.00000000 0.91476556 0.00000073
1.00000000 0.91476556 0.00000073
1.00000000 0.91476556 0.00000073
1.00000000 0.91476556 0.00000073
1.00000000 0.91476556 0.00000073
1.00000000 0.91476556 0.00000073
1.00000000 0.91476556 0.00000073
0.00000073 0.94791290 0.00000073
0.00000073 0.94791290 0.00000073
0.00000073 0.94791290 0.00000073
0.10554007 0.94791290 0.00000073
0.38084027 0.94791290 0.00000073
0.46800945 0.94791290 0.00000073
0.52983405 0.94791290 0.00000073
0.58072311 0.94791290 0.00000073
0.62560065 0.94791290 0.00000073
0.66676411 0.94791290 0.00000073
0.70547227 0.94791290 0.00000073
0.74248598 0.94791290 0.00000073
0.77829570 0.94791290 0.00000073
0.81323160 0.94791290 0.00000073
0.84752233 0.94791290 0.00000073
0.88132893 0.94791290 0.00000073
0.91476556 0.94791290 0.00000073
0.94791290 0.94791290 0.00000073
0.98082705 0.94791290 0.00000073
1.00000000 0.94791290 0.00000073
1.00000000 0.94791290 0.00000073
1.00000000 0.94791290 0.00000073
1.00000000 0.94791290 0.00000073
1.00000000 0.94791290 0.00000073
1.00000000 0.94791290 0.00000073
1.00000000 0.94791290 0.00000073
1.00000000 0.94791290 0.00000073
1.00000000 0.94791290 0.00000073
1.00000000 0.94791290 0.00000073
1.00000000 0.94791290 0.00000073
1.00000000 0.94791290 0.00000073
1.00000000 0.94791290 0.00000073
1.00000000 0.94791290 0.00000073
0.00000073 0.98082705 0.00000073
0.00000073 0.98082705 0.00000073
0.00000073 0.98082705 0.00000073
0.10554007 0.98082705 0.00000073
0.38084027 0.98082705 0.00000073
0.46800945 0.98082705 0.00000073
0.52983405 0.98082705 0.00000073
0.58072311 0.98082705 0.00000073
0.62560065 0.98082705 0.00000073
0.66676411 0.98082705 0.00000073
0.70547227 0.98082705 0.00000073
0.74248598 0.98082705 0.00000073
0.77829570 0.98082705 0.00000073
0.81323160 0.98082705 0.00000073
0.84752233 0.98082705 0.00000073
0.88132893 0.98082705 0.00000073
0.91476556 0.98082705 0.00000073
0.94791290 0.98082705 0.00000073
0.98082705 0.98082705 0.00000073
1.00000000 0.98082705 0.00000073
1.00000000 0.98082705 0.00000073
1.00000000 0.98082705 0.00000073
1.00000000 0.98082705 0.00000073
1.00000000 0.98082705 0.00000073
1.00000000 0.98082705 0.00000073
1.00000000 0.98082705 0.00000073
1.00000000 0.98082705 0.00000073
1.00000000 0.98082705 0.00000073
1.00000000 0.98082705 0.00000073
1.00000000 0.98082705 0.00000073
1.00000000 0.98082705 0.00000073
1.00000000 0.98082705 0.00000073
1.00000000 0.98082705 0.00000073
0.00000073 1.00000000 0.00000073
0.00000073 1.00000000 0.00000073
0.00000073 1.00000000 0.00000073
0.10554007 1.00000000 0.00000073
0.38084027 1.00000000 0.00000073
0.46800945 1.00000000 0.00000073
0.52983405 1.00000000 0.00000073
0.58072311 1.00000000 0.00000073
0.62560065 1.00000000 0.00000073
0.66676411 1.00000000 0.00000073
0.70547227 1.00000000 0.00000073
0.74248598 1.00000000 0.00000073
0.77829570 1.00000000 0.00000073
0.81323160 1.00000000 0.00000073
0.84752233 1.00000000 0.00000073
0.88132893 1.00000000 0.00000073
0.91476556 1.00000000 0.00000073
0.94791290 1.00000000 0.00000073
0.98082705 1.00000000 0.00000073
1.00000000 1.00000000 0.00000073
1.00000000 1.00000000 0.00000073
1.00000000 1.00000000 0.00000073
1.00000000 1.00000000 0.00000073
1.00000000 1.00000000 0.00000073
1.00000000 1.00000000 0.00000073
1.00000000 1.00000000 0.00000073
1.00000000 1.00000000 0.00000073
1.00000000 1.00000000 0.00000073
1.00000000 1.00000000 0.00000073
1.00000000 1.00000000 0.00000073
1.00000000 1.00000000 0.00000073
1.00000000 1.00000000 0.00000073
1.00000000 1.00000000 0.00000073
0.00000073 1.00000000 0.00000073
0.00000073 1.00000000 0.00000073
0.00000073 1.00000000 0.00000073
0.10554007 1.00000000 0.00000073
0.38084027 1.00000000 0.00000073
0.46800945 1.00000000 0.00000073
0.52983405 1.00000000 0.00000073
0.58072311 1.00000000 0.00000073
0.62560065 1.00000000 0.00000073
0.66676411 1.00000000 0.00000073
0.70547227 1.00000000 0.00000073
0.74248598 1.00000000 0.00000073
0.77829570 1.00000000 0.00000073
0.81323160 1.00000000 0.00000073
0.84752233 1.00000000 0.00000073
0.88132893 1.00000000 0.00000073
0.91476556 1.00000000 0.00000073
0.94791290 1.00000000 0.00000073
0.98082705 1.00000000 0.00000073
1.00000000 1.00000000 0.00000073
1.00000000 1.00000000 0.00000073
1.00000000 1.00000000 0.00000073
1.00000000 1.00000000 0.00000073
1.00000000 1.00000000 0.00000073
1.00000000 1.00000000 0.00000073
1.00000000 1.00000000 0.00000073
1.00000000 1.00000000 0.00000073
1.00000000 1.00000000 0.00000073
1.00000000 1.00000000 0.00000073
1.00000000 1.00000000 0.00000073
1.00000000 1.00000000 0.00000073
1.00000000 1.00000000 0.00000073
1.00000000 1.00000000 0.00000073
0.00000073 1.00000000 0.00000073
0.00000073 1.00000000 0.00000073
0.00000073 1.00000000 0.00000073
0.10554007 1.00000000 0.00000073
0.38084027 1.00000000 0.00000073
0.46800945 1.00000000 0.00000073
0.52983405 1.00000000 0.00000073
0.58072311 1.00000000 0.00000073
0.62560065 1.00000000 0.00000073
0.66676411 1.00000000 0.00000073
0.70547227 1.00000000 0.00000073
0.74248598 1.00000000 0.00000073
0.77829570 1.00000000 0.00000073
0.81323160 1.00000000 0.00000073
0.84752233 1.00000000 0.00000073
0.88132893 1.00000000 0.00000073
0.91476556 1.00000000 0.00000073
0.94791290 1.00000000 0.00000073
0.98082705 1.00000000 0.00000073
1.00000000 1.00000000 0.00000073
1.00000000 1.00000000 0.00000073
1.00000000 1.00000000 0.00000073
1.00000000 1.00000000 0.00000073
1.00000000 1.00000000 0.00000073
1.00000000 1.00000000 0.00000073
1.00000000 1.00000000 0.00000073
1.00000000 1.00000000 0.00000073
