src/ffmpeg_scripts/luts/flog-experimental_-3p67.cube
TITLE "flog-experimental_-3p67"
LUT_3D_SIZE 5
# Fujifilm F-Log/Rec2020 -> PQ (EOTF Only)/Rec2020, CineEI Shift -3.67, Black Level 0.00% IRE, Input 109% -> Output 100% - Created with LUTCalc v4.01 by Ben Turley October 2020
0.00000073 0.00000073 0.00000073
0.13035101 0.00000073 0.00000073
0.26534520 0.00000073 0.00000073
0.43422795 0.00000073 0.00000073
0.64230689 0.00000073 0.00000073
0.00000073 0.13035101 0.00000073
0.13035101 0.13035101 0.00000073
0.26534520 0.13035101 0.00000073
0.43422795 0.13035101 0.00000073
0.64230689 0.13035101 0.00000073
0.00000073 0.26534520 0.00000073
0.13035101 0.26534520 0.00000073
0.26534520 0.26534520 0.00000073
0.43422795 0.26534520 0.00000073
0.64230689 0.26534520 0.00000073
0.00000073 0.43422795 0.00000073
0.13035101 0.43422795 0.00000073
0.26534520 0.43422795 0.00000073
0.43422795 0.43422795 0.00000073
0.64230689 0.43422795 0.00000073
0.00000073 0.64230689 0.00000073
0.13035101 0.64230689 0.00000073
0.26534520 0.64230689 0.00000073
0.43422795 0.64230689 0.00000073
0.64230689 0.64230689 0.00000073
0.00000073 0.00000073 0.13035101
0.13035101 0.00000073 0.13035101
0.26534520 0.00000073 0.13035101
0.43422795 0.00000073 0.13035101
0.64230689 0.00000073 0.13035101
0.00000073 0.13035101 0.13035101
0.13035101 0.13035101 0.13035101
0.26534520 0.13035101 0.13035101
0.43422795 0.13035101 0.13035101
0.64230689 0.13035101 0.13035101
0.00000073 0.26534520 0.13035101
0.13035101 0.26534520 0.13035101
0.26534520 0.26534520 0.13035101
0.43422795 0.26534520 0.13035101
0.64230689 0.26534520 0.13035101
0.00000073 0.43422795 0.13035101
0.13035101 0.43422795 0.13035101
0.26534520 0.43422795 0.13035101
0.43422795 0.43422795 0.13035101
0.64230689 0.43422795 0.13035101
0.00000073 0.64230689 0.13035101
0.13035101 0.64230689 0.13035101
0.26534520 0.64230689 0.13035101
0.43422795 0.64230689 0.13035101
0.64230689 0.64230689 0.13035101
0.00000073 0.00000073 0.26534520
0.13035101 0.00000073 0.26534520
0.26534520 0.00000073 0.26534520
0.43422795 0.00000073 0.26534520
0.64230689 0.00000073 0.26534520
0.00000073 0.13035101 0.26534520
0.13035101 0.13035101 0.26534520
0.26534520 0.13035101 0.26534520
0.43422795 0.13035101 0.26534520
0.64230689 0.13035101 0.26534520
0.00000073 0.26534520 0.26534520
0.13035101 0.26534520 0.26534520
0.26534520 0.26534520 0.26534520
0.43422795 0.26534520 0.26534520
0.64230689 0.26534520 0.26534520
0.00000073 0.43422795 0.26534520
0.13035101 0.43422795 0.26534520
0.26534520 0.43422795 0.26534520
0.43422795 0.43422795 0.26534520
0.64230689 0.43422795 0.26534520
0.00000073 0.64230689 0.26534520
0.13035101 0.64230689 0.26534520
0.26534520 0.64230689 0.26534520
0.43422795 0.64230689 0.26534520
0.64230689 0.64230689 0.26534520
0.00000073 0.00000073 0.43422795
0.13035101 0.00000073 0.43422795
0.26534520 0.00000073 0.43422795
0.43422795 0.00000073 0.43422795
0.64230689 0.00000073 0.43422795
0.00000073 0.13035101 0.43422795
0.13035101 0.13035101 0.43422795
0.26534520 0.13035101 0.43422795
0.43422795 0.13035101 0.43422795
0.64230689 0.13035101 0.43422795
0.00000073 0.26534520 0.43422795
0.13035101 0.26534520 0.43422795
0.26534520 0.26534520 0.43422795
0.43422795 0.26534520 0.43422795
0.64230689 0.26534520 0.43422795
0.00000073 0.43422795 0.43422795
0.13035101 0.43422795 0.43422795
0.26534520 0.43422795 0.43422795
0.43422795 0.43422795 0.43422795
0.64230689 0.43422795 0.43422795
0.00000073 0.64230689 0.43422795
0.13035101 0.64230689 0.43422795
0.26534520 0.64230689 0.43422795
0.43422795 0.64230689 0.43422795
0.64230689 0.64230689 0.43422795
0.00000073 0.00000073 0.64230689
0.13035101 0.00000073 0.64230689
0.26534520 0.00000073 0.64230689
0.43422795 0.00000073 0.64230689
0.64230689 0.00000073 0.64230689
0.00000073 0.13035101 0.64230689
0.13035101 0.13035101 0.64230689
0.26534520 0.13035101 0.64230689
0.43422795 0.13035101 0.64230689
0.64230689 0.13035101 0.64230689
0.00000073 0.26534520 0.64230689
0.13035101 0.26534520 0.64230689
0.26534520 0.26534520 0.64230689
0.43422795 0.26534520 0.64230689
0.64230689 0.26534520 0.64230689
0.00000073 0.43422795 0.64230689
0.13035101 0.43422795 0.64230689
0.26534520 0.43422795 0.64230689
0.43422795 0.43422795 0.64230689
0.64230689 0.43422795 0.64230689
0.00000073 0.64230689 0.64230689
0.13035101 0.64230689 0.64230689
0.26534520 0.64230689 0.64230689
0.43422795 0.64230689 0.64230689
0.64230689 0.64230689 0.64230689
