src/ffmpeg_scripts/luts/flog-smpte2084_-0p67.cube
TITLE "flog-smpte2084_-0p67"
LUT_3D_SIZE 33
# Fujifilm F-Log/Rec2020 -> PQ (EOTF Only)/Rec2020, CineEI Shift -0.67, Black Level 0.00% IRE, Input 109% -> Output 109% - Created with LUTCalc v4.01 by Ben Turley October 2020
0.06256172 0.06256172 0.06256172
0.06256172 0.06256172 0.06256172
0.06256172 0.06256172 0.06256172
0.07721844 0.06256172 0.06256172
0.14405158 0.06256172 0.06256172
0.17177349 0.06256172 0.06256172
0.19314638 0.06256172 0.06256172
0.21177009 0.06256172 0.06256172
0.22894991 0.06256172 0.06256172
0.24532082 0.06256172 0.06256172
0.26124304 0.06256172 0.06256172
0.27694121 0.06256172 0.06256172
0.29256434 0.06256172 0.06256172
0.30821535 0.06256172 0.06256172
0.32396702 0.06256172 0.06256172
0.33987138 0.06256172 0.06256172
0.35596548 0.06256172 0.06256172
0.37227511 0.06256172 0.06256172
0.38881743 0.06256172 0.06256172
0.40560273 0.06256172 0.06256172
0.42263577 0.06256172 0.06256172
0.43991679 0.06256172 0.06256172
0.45744228 0.06256172 0.06256172
0.47520564 0.06256172 0.06256172
0.49319765 0.06256172 0.06256172
0.51140693 0.06256172 0.06256172
0.52982030 0.06256172 0.06256172
0.54842308 0.06256172 0.06256172
0.56719940 0.06256172 0.06256172
0.58613238 0.06256172 0.06256172
0.60520440 0.06256172 0.06256172
0.62439728 0.06256172 0.06256172
0.64369240 0.06256172 0.06256172
0.06256172 0.06256172 0.06256172
0.06256172 0.06256172 0.06256172
0.06256172 0.06256172 0.06256172
0.07721844 0.06256172 0.06256172
0.14405158 0.06256172 0.06256172
0.17177349 0.06256172 0.06256172
0.19314638 0.06256172 0.06256172
0.21177009 0.06256172 0.06256172
0.22894991 0.06256172 0.06256172
0.24532082 0.06256172 0.06256172
0.26124304 0.06256172 0.06256172
0.27694121 0.06256172 0.06256172
0.29256434 0.06256172 0.06256172
0.30821535 0.06256172 0.06256172
0.32396702 0.06256172 0.06256172
0.33987138 0.06256172 0.06256172
0.35596548 0.06256172 0.06256172
0.37227511 0.06256172 0.06256172
0.38881743 0.06256172 0.06256172
0.40560273 0.06256172 0.06256172
0.42263577 0.06256172 0.06256172
0.43991679 0.06256172 0.06256172
0.45744228 0.06256172 0.06256172
0.47520564 0.06256172 0.06256172
0.49319765 0.06256172 0.06256172
0.51140693 0.06256172 0.06256172
0.52982030 0.06256172 0.06256172
0.54842308 0.06256172 0.06256172
0.56719940 0.06256172 0.06256172
0.58613238 0.06256172 0.06256172
0.60520440 0.06256172 0.06256172
0.62439728 0.06256172 0.06256172
0.64369240 0.06256172 0.06256172
0.06256172 0.06256172 0.06256172
0.06256172 0.06256172 0.06256172
0.06256172 0.06256172 0.06256172
0.07721844 0.06256172 0.06256172
0.14405158 0.06256172 0.06256172
0.17177349 0.06256172 0.06256172
0.19314638 0.06256172 0.06256172
0.21177009 0.06256172 0.06256172
0.22894991 0.06256172 0.06256172
0.24532082 0.06256172 0.06256172
0.26124304 0.06256172 0.06256172
0.27694121 0.06256172 0.06256172
0.29256434 0.06256172 0.06256172
0.30821535 0.06256172 0.06256172
0.32396702 0.06256172 0.06256172
0.33987138 0.06256172 0.06256172
0.35596548 0.06256172 0.06256172
0.37227511 0.06256172 0.06256172
0.38881743 0.06256172 0.06256172
0.40560273 0.06256172 0.06256172
0.42263577 0.06256172 0.06256172
0.43991679 0.06256172 0.06256172
0.45744228 0.06256172 0.06256172
0.47520564 0.06256172 0.06256172
0.49319765 0.06256172 0.06256172
0.51140693 0.06256172 0.06256172
0.52982030 0.06256172 0.06256172
0.54842308 0.06256172 0.06256172
0.56719940 0.06256172 0.06256172
0.58613238 0.06256172 0.06256172
0.60520440 0.06256172 0.06256172
0.62439728 0.06256172 0.06256172
0.64369240 0.06256172 0.06256172
0.06256172 0.07721844 0.06256172
0.06256172 0.07721844 0.06256172
0.06256172 0.07721844 0.06256172
0.07721844 0.07721844 0.06256172
0.14405158 0.07721844 0.06256172
0.17177349 0.07721844 0.06256172
0.19314638 0.07721844 0.06256172
0.21177009 0.07721844 0.06256172
0.22894991 0.07721844 0.06256172
0.24532082 0.07721844 0.06256172
0.26124304 0.07721844 0.06256172
0.27694121 0.07721844 0.06256172
0.29256434 0.07721844 0.06256172
0.30821535 0.07721844 0.06256172
0.32396702 0.07721844 0.06256172
0.33987138 0.07721844 0.06256172
0.35596548 0.07721844 0.06256172
0.37227511 0.07721844 0.06256172
0.38881743 0.07721844 0.06256172
0.40560273 0.07721844 0.06256172
0.42263577 0.07721844 0.06256172
0.43991679 0.07721844 0.06256172
0.45744228 0.07721844 0.06256172
0.47520564 0.07721844 0.06256172
0.49319765 0.07721844 0.06256172
0.51140693 0.07721844 0.06256172
0.52982030 0.07721844 0.06256172
0.54842308 0.07721844 0.06256172
0.56719940 0.07721844 0.06256172
0.58613238 0.07721844 0.06256172
0.60520440 0.07721844 0.06256172
0.62439728 0.07721844 0.06256172
0.64369240 0.07721844 0.06256172
0.06256172 0.14405158 0.06256172
0.06256172 0.14405158 0.06256172
0.06256172 0.14405158 0.06256172
0.07721844 0.14405158 0.06256172
0.14405158 0.14405158 0.06256172
0.17177349 0.14405158 0.06256172
0.19314638 0.14405158 0.06256172
0.21177009 0.14405158 0.06256172
0.22894991 0.14405158 0.06256172
0.24532082 0.14405158 0.06256172
0.26124304 0.14405158 0.06256172
0.27694121 0.14405158 0.06256172
0.29256434 0.14405158 0.06256172
0.30821535 0.14405158 0.06256172
0.32396702 0.14405158 0.06256172
0.33987138 0.14405158 0.06256172
0.35596548 0.14405158 0.06256172
0.37227511 0.14405158 0.06256172
0.38881743 0.14405158 0.06256172
0.40560273 0.14405158 0.06256172
0.42263577 0.14405158 0.06256172
0.43991679 0.14405158 0.06256172
0.45744228 0.14405158 0.06256172
0.47520564 0.14405158 0.06256172
0.49319765 0.14405158 0.06256172
0.51140693 0.14405158 0.06256172
0.52982030 0.14405158 0.06256172
0.54842308 0.14405158 0.06256172
0.56719940 0.14405158 0.06256172
0.58613238 0.14405158 0.06256172
0.60520440 0.14405158 0.06256172
0.62439728 0.14405158 0.06256172
0.64369240 0.14405158 0.06256172
0.06256172 0.17177349 0.06256172
0.06256172 0.17177349 0.06256172
0.06256172 0.17177349 0.06256172
0.07721844 0.17177349 0.06256172
0.14405158 0.17177349 0.06256172
0.17177349 0.17177349 0.06256172
0.19314638 0.17177349 0.06256172
0.21177009 0.17177349 0.06256172
0.22894991 0.17177349 0.06256172
0.24532082 0.17177349 0.06256172
0.26124304 0.17177349 0.06256172
0.27694121 0.17177349 0.06256172
0.29256434 0.17177349 0.06256172
0.30821535 0.17177349 0.06256172
0.32396702 0.17177349 0.06256172
0.33987138 0.17177349 0.06256172
0.35596548 0.17177349 0.06256172
0.37227511 0.17177349 0.06256172
0.38881743 0.17177349 0.06256172
0.40560273 0.17177349 0.06256172
0.42263577 0.17177349 0.06256172
0.43991679 0.17177349 0.06256172
0.45744228 0.17177349 0.06256172
0.47520564 0.17177349 0.06256172
0.49319765 0.17177349 0.06256172
0.51140693 0.17177349 0.06256172
0.52982030 0.17177349 0.06256172
0.54842308 0.17177349 0.06256172
0.56719940 0.17177349 0.06256172
0.58613238 0.17177349 0.06256172
0.60520440 0.17177349 0.06256172
0.62439728 0.17177349 0.06256172
0.64369240 0.17177349 0.06256172
0.06256172 0.19314638 0.06256172
0.06256172 0.19314638 0.06256172
0.06256172 0.19314638 0.06256172
0.07721844 0.19314638 0.06256172
0.14405158 0.19314638 0.06256172
0.17177349 0.19314638 0.06256172
0.19314638 0.19314638 0.06256172
0.21177009 0.19314638 0.06256172
0.22894991 0.19314638 0.06256172
0.24532082 0.19314638 0.06256172
0.26124304 0.19314638 0.06256172
0.27694121 0.19314638 0.06256172
0.29256434 0.19314638 0.06256172
0.30821535 0.19314638 0.06256172
0.32396702 0.19314638 0.06256172
0.33987138 0.19314638 0.06256172
0.35596548 0.19314638 0.06256172
0.37227511 0.19314638 0.06256172
0.38881743 0.19314638 0.06256172
0.40560273 0.19314638 0.06256172
0.42263577 0.19314638 0.06256172
0.43991679 0.19314638 0.06256172
0.45744228 0.19314638 0.06256172
0.47520564 0.19314638 0.06256172
0.49319765 0.19314638 0.06256172
0.51140693 0.19314638 0.06256172
0.52982030 0.19314638 0.06256172
0.54842308 0.19314638 0.06256172
0.56719940 0.19314638 0.06256172
0.58613238 0.19314638 0.06256172
0.60520440 0.19314638 0.06256172
0.62439728 0.19314638 0.06256172
0.64369240 0.19314638 0.06256172
0.06256172 0.21177009 0.06256172
0.06256172 0.21177009 0.06256172
0.06256172 0.21177009 0.06256172
0.07721844 0.21177009 0.06256172
0.14405158 0.21177009 0.06256172
0.17177349 0.21177009 0.06256172
0.19314638 0.21177009 0.06256172
0.21177009 0.21177009 0.06256172
0.22894991 0.21177009 0.06256172
0.24532082 0.21177009 0.06256172
0.26124304 0.21177009 0.06256172
0.27694121 0.21177009 0.06256172
0.29256434 0.21177009 0.06256172
0.30821535 0.21177009 0.06256172
0.32396702 0.21177009 0.06256172
0.33987138 0.21177009 0.06256172
0.35596548 0.21177009 0.06256172
0.37227511 0.21177009 0.06256172
0.38881743 0.21177009 0.06256172
0.40560273 0.21177009 0.06256172
0.42263577 0.21177009 0.06256172
0.43991679 0.21177009 0.06256172
0.45744228 0.21177009 0.06256172
0.47520564 0.21177009 0.06256172
0.49319765 0.21177009 0.06256172
0.51140693 0.21177009 0.06256172
0.52982030 0.21177009 0.06256172
0.54842308 0.21177009 0.06256172
0.56719940 0.21177009 0.06256172
0.58613238 0.21177009 0.06256172
0.60520440 0.21177009 0.06256172
0.62439728 0.21177009 0.06256172
0.64369240 0.21177009 0.06256172
0.06256172 0.22894991 0.06256172
0.06256172 0.22894991 0.06256172
0.06256172 0.22894991 0.06256172
0.07721844 0.22894991 0.06256172
0.14405158 0.22894991 0.06256172
0.17177349 0.22894991 0.06256172
0.19314638 0.22894991 0.06256172
0.21177009 0.22894991 0.06256172
0.22894991 0.22894991 0.06256172
0.24532082 0.22894991 0.06256172
0.26124304 0.22894991 0.06256172
0.27694121 0.22894991 0.06256172
0.29256434 0.22894991 0.06256172
0.30821535 0.22894991 0.06256172
0.32396702 0.22894991 0.06256172
0.33987138 0.22894991 0.06256172
0.35596548 0.22894991 0.06256172
0.37227511 0.22894991 0.06256172
0.38881743 0.22894991 0.06256172
0.40560273 0.22894991 0.06256172
0.42263577 0.22894991 0.06256172
0.43991679 0.22894991 0.06256172
0.45744228 0.22894991 0.06256172
0.47520564 0.22894991 0.06256172
0.49319765 0.22894991 0.06256172
0.51140693 0.22894991 0.06256172
0.52982030 0.22894991 0.06256172
0.54842308 0.22894991 0.06256172
0.56719940 0.22894991 0.06256172
0.58613238 0.22894991 0.06256172
0.60520440 0.22894991 0.06256172
0.62439728 0.22894991 0.06256172
0.64369240 0.22894991 0.06256172
0.06256172 0.24532082 0.06256172
0.06256172 0.24532082 0.06256172
0.06256172 0.24532082 0.06256172
0.07721844 0.24532082 0.06256172
0.14405158 0.24532082 0.06256172
0.17177349 0.24532082 0.06256172
0.19314638 0.24532082 0.06256172
0.21177009 0.24532082 0.06256172
0.22894991 0.24532082 0.06256172
0.24532082 0.24532082 0.06256172
0.26124304 0.24532082 0.06256172
0.27694121 0.24532082 0.06256172
0.29256434 0.24532082 0.06256172
0.30821535 0.24532082 0.06256172
0.32396702 0.24532082 0.06256172
0.33987138 0.24532082 0.06256172
0.35596548 0.24532082 0.06256172
0.37227511 0.24532082 0.06256172
0.38881743 0.24532082 0.06256172
0.40560273 0.24532082 0.06256172
0.42263577 0.24532082 0.06256172
0.43991679 0.24532082 0.06256172
0.45744228 0.24532082 0.06256172
0.47520564 0.24532082 0.06256172
0.49319765 0.24532082 0.06256172
0.51140693 0.24532082 0.06256172
0.52982030 0.24532082 0.06256172
0.54842308 0.24532082 0.06256172
0.56719940 0.24532082 0.06256172
0.58613238 0.24532082 0.06256172
0.60520440 0.24532082 0.06256172
0.62439728 0.24532082 0.06256172
0.64369240 0.24532082 0.06256172
0.06256172 0.26124304 0.06256172
0.06256172 0.26124304 0.06256172
0.06256172 0.26124304 0.06256172
0.07721844 0.26124304 0.06256172
0.14405158 0.26124304 0.06256172
0.17177349 0.26124304 0.06256172
0.19314638 0.26124304 0.06256172
0.21177009 0.26124304 0.06256172
0.22894991 0.26124304 0.06256172
0.24532082 0.26124304 0.06256172
0.26124304 0.26124304 0.06256172
0.27694121 0.26124304 0.06256172
0.29256434 0.26124304 0.06256172
0.30821535 0.26124304 0.06256172
0.32396702 0.26124304 0.06256172
0.33987138 0.26124304 0.06256172
0.35596548 0.26124304 0.06256172
0.37227511 0.26124304 0.06256172
0.38881743 0.26124304 0.06256172
0.40560273 0.26124304 0.06256172
0.42263577 0.26124304 0.06256172
0.43991679 0.26124304 0.06256172
0.45744228 0.26124304 0.06256172
0.47520564 0.26124304 0.06256172
0.49319765 0.26124304 0.06256172
0.51140693 0.26124304 0.06256172
0.52982030 0.26124304 0.06256172
0.54842308 0.26124304 0.06256172
0.56719940 0.26124304 0.06256172
0.58613238 0.26124304 0.06256172
0.60520440 0.26124304 0.06256172
0.62439728 0.26124304 0.06256172
0.64369240 0.26124304 0.06256172
0.06256172 0.27694121 0.06256172
0.06256172 0.27694121 0.06256172
0.06256172 0.27694121 0.06256172
0.07721844 0.27694121 0.06256172
0.14405158 0.27694121 0.06256172
0.17177349 0.27694121 0.06256172
0.19314638 0.27694121 0.06256172
0.21177009 0.27694121 0.06256172
0.22894991 0.27694121 0.06256172
0.24532082 0.27694121 0.06256172
0.26124304 0.27694121 0.06256172
0.27694121 0.27694121 0.06256172
0.29256434 0.27694121 0.06256172
0.30821535 0.27694121 0.06256172
0.32396702 0.27694121 0.06256172
0.33987138 0.27694121 0.06256172
0.35596548 0.27694121 0.06256172
0.37227511 0.27694121 0.06256172
0.38881743 0.27694121 0.06256172
0.40560273 0.27694121 0.06256172
0.42263577 0.27694121 0.06256172
0.43991679 0.27694121 0.06256172
0.45744228 0.27694121 0.06256172
0.47520564 0.27694121 0.06256172
0.49319765 0.27694121 0.06256172
0.51140693 0.27694121 0.06256172
0.52982030 0.27694121 0.06256172
0.54842308 0.27694121 0.06256172
0.56719940 0.27694121 0.06256172
0.58613238 0.27694121 0.06256172
0.60520440 0.27694121 0.06256172
0.62439728 0.27694121 0.06256172
0.64369240 0.27694121 0.06256172
0.06256172 0.29256434 0.06256172
0.06256172 0.29256434 0.06256172
0.06256172 0.29256434 0.06256172
0.07721844 0.29256434 0.06256172
0.14405158 0.29256434 0.06256172
0.17177349 0.29256434 0.06256172
0.19314638 0.29256434 0.06256172
0.21177009 0.29256434 0.06256172
0.22894991 0.29256434 0.06256172
0.24532082 0.29256434 0.06256172
0.26124304 0.29256434 0.06256172
0.27694121 0.29256434 0.06256172
0.29256434 0.29256434 0.06256172
0.30821535 0.29256434 0.06256172
0.32396702 0.29256434 0.06256172
0.33987138 0.29256434 0.06256172
0.35596548 0.29256434 0.06256172
0.37227511 0.29256434 0.06256172
0.38881743 0.29256434 0.06256172
0.40560273 0.29256434 0.06256172
0.42263577 0.29256434 0.06256172
0.43991679 0.29256434 0.06256172
0.45744228 0.29256434 0.06256172
0.47520564 0.29256434 0.06256172
0.49319765 0.29256434 0.06256172
0.51140693 0.29256434 0.06256172
0.52982030 0.29256434 0.06256172
0.54842308 0.29256434 0.06256172
0.56719940 0.29256434 0.06256172
0.58613238 0.29256434 0.06256172
0.60520440 0.29256434 0.06256172
0.62439728 0.29256434 0.06256172
0.64369240 0.29256434 0.06256172
0.06256172 0.30821535 0.06256172
0.06256172 0.30821535 0.06256172
0.06256172 0.30821535 0.06256172
0.07721844 0.30821535 0.06256172
0.14405158 0.30821535 0.06256172
0.17177349 0.30821535 0.06256172
0.19314638 0.30821535 0.06256172
0.21177009 0.30821535 0.06256172
0.22894991 0.30821535 0.06256172
0.24532082 0.30821535 0.06256172
0.26124304 0.30821535 0.06256172
0.27694121 0.30821535 0.06256172
0.29256434 0.30821535 0.06256172
0.30821535 0.30821535 0.06256172
0.32396702 0.30821535 0.06256172
0.33987138 0.30821535 0.06256172
0.35596548 0.30821535 0.06256172
0.37227511 0.30821535 0.06256172
0.38881743 0.30821535 0.06256172
0.40560273 0.30821535 0.06256172
0.42263577 0.30821535 0.06256172
0.43991679 0.30821535 0.06256172
0.45744228 0.30821535 0.06256172
0.47520564 0.30821535 0.06256172
0.49319765 0.30821535 0.06256172
0.51140693 0.30821535 0.06256172
0.52982030 0.30821535 0.06256172
0.54842308 0.30821535 0.06256172
0.56719940 0.30821535 0.06256172
0.58613238 0.30821535 0.06256172
0.60520440 0.30821535 0.06256172
0.62439728 0.30821535 0.06256172
0.64369240 0.30821535 0.06256172
0.06256172 0.32396702 0.06256172
0.06256172 0.32396702 0.06256172
0.06256172 0.32396702 0.06256172
0.07721844 0.32396702 0.06256172
0.14405158 0.32396702 0.06256172
0.17177349 0.32396702 0.06256172
0.19314638 0.32396702 0.06256172
0.21177009 0.32396702 0.06256172
0.22894991 0.32396702 0.06256172
0.24532082 0.32396702 0.06256172
0.26124304 0.32396702 0.06256172
0.27694121 0.32396702 0.06256172
0.29256434 0.32396702 0.06256172
0.30821535 0.32396702 0.06256172
0.32396702 0.32396702 0.06256172
0.33987138 0.32396702 0.06256172
0.35596548 0.32396702 0.06256172
0.37227511 0.32396702 0.06256172
0.38881743 0.32396702 0.06256172
0.40560273 0.32396702 0.06256172
0.42263577 0.32396702 0.06256172
0.43991679 0.32396702 0.06256172
0.45744228 0.32396702 0.06256172
0.47520564 0.32396702 0.06256172
0.49319765 0.32396702 0.06256172
0.51140693 0.32396702 0.06256172
0.52982030 0.32396702 0.06256172
0.54842308 0.32396702 0.06256172
0.56719940 0.32396702 0.06256172
0.58613238 0.32396702 0.06256172
0.60520440 0.32396702 0.06256172
0.62439728 0.32396702 0.06256172
0.64369240 0.32396702 0.06256172
0.06256172 0.33987138 0.06256172
0.06256172 0.33987138 0.06256172
0.06256172 0.33987138 0.06256172
0.07721844 0.33987138 0.06256172
0.14405158 0.33987138 0.06256172
0.17177349 0.33987138 0.06256172
0.19314638 0.33987138 0.06256172
0.21177009 0.33987138 0.06256172
0.22894991 0.33987138 0.06256172
0.24532082 0.33987138 0.06256172
0.26124304 0.33987138 0.06256172
0.27694121 0.33987138 0.06256172
0.29256434 0.33987138 0.06256172
0.30821535 0.33987138 0.06256172
0.32396702 0.33987138 0.06256172
0.33987138 0.33987138 0.06256172
0.35596548 0.33987138 0.06256172
0.37227511 0.33987138 0.06256172
0.38881743 0.33987138 0.06256172
0.40560273 0.33987138 0.06256172
0.42263577 0.33987138 0.06256172
0.43991679 0.33987138 0.06256172
0.45744228 0.33987138 0.06256172
0.47520564 0.33987138 0.06256172
0.49319765 0.33987138 0.06256172
0.51140693 0.33987138 0.06256172
0.52982030 0.33987138 0.06256172
0.54842308 0.33987138 0.06256172
0.56719940 0.33987138 0.06256172
0.58613238 0.33987138 0.06256172
0.60520440 0.33987138 0.06256172
0.62439728 0.33987138 0.06256172
0.64369240 0.33987138 0.06256172
0.06256172 0.35596548 0.06256172
0.06256172 0.35596548 0.06256172
0.06256172 0.35596548 0.06256172
0.07721844 0.35596548 0.06256172
0.14405158 0.35596548 0.06256172
0.17177349 0.35596548 0.06256172
0.19314638 0.35596548 0.06256172
0.21177009 0.35596548 0.06256172
0.22894991 0.35596548 0.06256172
0.24532082 0.35596548 0.06256172
0.26124304 0.35596548 0.06256172
0.27694121 0.35596548 0.06256172
0.29256434 0.35596548 0.06256172
0.30821535 0.35596548 0.06256172
0.32396702 0.35596548 0.06256172
0.33987138 0.35596548 0.06256172
0.35596548 0.35596548 0.06256172
0.37227511 0.35596548 0.06256172
0.38881743 0.35596548 0.06256172
0.40560273 0.35596548 0.06256172
0.42263577 0.35596548 0.06256172
0.43991679 0.35596548 0.06256172
0.45744228 0.35596548 0.06256172
0.47520564 0.35596548 0.06256172
0.49319765 0.35596548 0.06256172
0.51140693 0.35596548 0.06256172
0.52982030 0.35596548 0.06256172
0.54842308 0.35596548 0.06256172
0.56719940 0.35596548 0.06256172
0.58613238 0.35596548 0.06256172
0.60520440 0.35596548 0.06256172
0.62439728 0.35596548 0.06256172
0.64369240 0.35596548 0.06256172
0.06256172 0.37227511 0.06256172
0.06256172 0.37227511 0.06256172
0.06256172 0.37227511 0.06256172
0.07721844 0.37227511 0.06256172
0.14405158 0.37227511 0.06256172
0.17177349 0.37227511 0.06256172
0.19314638 0.37227511 0.06256172
0.21177009 0.37227511 0.06256172
0.22894991 0.37227511 0.06256172
0.24532082 0.37227511 0.06256172
0.26124304 0.37227511 0.06256172
0.27694121 0.37227511 0.06256172
0.29256434 0.37227511 0.06256172
0.30821535 0.37227511 0.06256172
0.32396702 0.37227511 0.06256172
0.33987138 0.37227511 0.06256172
0.35596548 0.37227511 0.06256172
0.37227511 0.37227511 0.06256172
0.38881743 0.37227511 0.06256172
0.40560273 0.37227511 0.06256172
0.42263577 0.37227511 0.06256172
0.43991679 0.37227511 0.06256172
0.45744228 0.37227511 0.06256172
0.47520564 0.37227511 0.06256172
0.49319765 0.37227511 0.06256172
0.51140693 0.37227511 0.06256172
0.52982030 0.37227511 0.06256172
0.54842308 0.37227511 0.06256172
0.56719940 0.37227511 0.06256172
0.58613238 0.37227511 0.06256172
0.60520440 0.37227511 0.06256172
0.62439728 0.37227511 0.06256172
0.64369240 0.37227511 0.06256172
0.06256172 0.38881743 0.06256172
0.06256172 0.38881743 0.06256172
0.06256172 0.38881743 0.06256172
0.07721844 0.38881743 0.06256172
0.14405158 0.38881743 0.06256172
0.17177349 0.38881743 0.06256172
0.19314638 0.38881743 0.06256172
0.21177009 0.38881743 0.06256172
0.22894991 0.38881743 0.06256172
0.24532082 0.38881743 0.06256172
0.26124304 0.38881743 0.06256172
0.27694121 0.38881743 0.06256172
0.29256434 0.38881743 0.06256172
0.30821535 0.38881743 0.06256172
0.32396702 0.38881743 0.06256172
0.33987138 0.38881743 0.06256172
0.35596548 0.38881743 0.06256172
0.37227511 0.38881743 0.06256172
0.38881743 0.38881743 0.06256172
0.40560273 0.38881743 0.06256172
0.42263577 0.38881743 0.06256172
0.43991679 0.38881743 0.06256172
0.45744228 0.38881743 0.06256172
0.47520564 0.38881743 0.06256172
0.49319765 0.38881743 0.06256172
0.51140693 0.38881743 0.06256172
0.52982030 0.38881743 0.06256172
0.54842308 0.38881743 0.06256172
0.56719940 0.38881743 0.06256172
0.58613238 0.38881743 0.06256172
0.60520440 0.38881743 0.06256172
0.62439728 0.38881743 0.06256172
0.64369240 0.38881743 0.06256172
0.06256172 0.40560273 0.06256172
0.06256172 0.40560273 0.06256172
0.06256172 0.40560273 0.06256172
0.07721844 0.40560273 0.06256172
0.14405158 0.40560273 0.06256172
0.17177349 0.40560273 0.06256172
0.19314638 0.40560273 0.06256172
0.21177009 0.40560273 0.06256172
0.22894991 0.40560273 0.06256172
0.24532082 0.40560273 0.06256172
0.26124304 0.40560273 0.06256172
0.27694121 0.40560273 0.06256172
0.29256434 0.40560273 0.06256172
0.30821535 0.40560273 0.06256172
0.32396702 0.40560273 0.06256172
0.33987138 0.40560273 0.06256172
0.35596548 0.40560273 0.06256172
0.37227511 0.40560273 0.06256172
0.38881743 0.40560273 0.06256172
0.40560273 0.40560273 0.06256172
0.42263577 0.40560273 0.06256172
0.43991679 0.40560273 0.06256172
0.45744228 0.40560273 0.06256172
0.47520564 0.40560273 0.06256172
0.49319765 0.40560273 0.06256172
0.51140693 0.40560273 0.06256172
0.52982030 0.40560273 0.06256172
0.54842308 0.40560273 0.06256172
0.56719940 0.40560273 0.06256172
0.58613238 0.40560273 0.06256172
0.60520440 0.40560273 0.06256172
0.62439728 0.40560273 0.06256172
0.64369240 0.40560273 0.06256172
0.06256172 0.42263577 0.06256172
0.06256172 0.42263577 0.06256172
0.06256172 0.42263577 0.06256172
0.07721844 0.42263577 0.06256172
0.14405158 0.42263577 0.06256172
0.17177349 0.42263577 0.06256172
0.19314638 0.42263577 0.06256172
0.21177009 0.42263577 0.06256172
0.22894991 0.42263577 0.06256172
0.24532082 0.42263577 0.06256172
0.26124304 0.42263577 0.06256172
0.27694121 0.42263577 0.06256172
0.29256434 0.42263577 0.06256172
0.30821535 0.42263577 0.06256172
0.32396702 0.42263577 0.06256172
0.33987138 0.42263577 0.06256172
0.35596548 0.42263577 0.06256172
0.37227511 0.42263577 0.06256172
0.38881743 0.42263577 0.06256172
0.40560273 0.42263577 0.06256172
0.42263577 0.42263577 0.06256172
0.43991679 0.42263577 0.06256172
0.45744228 0.42263577 0.06256172
0.47520564 0.42263577 0.06256172
0.49319765 0.42263577 0.06256172
0.51140693 0.42263577 0.06256172
0.52982030 0.42263577 0.06256172
0.54842308 0.42263577 0.06256172
0.56719940 0.42263577 0.06256172
0.58613238 0.42263577 0.06256172
0.60520440 0.42263577 0.06256172
0.62439728 0.42263577 0.06256172
0.64369240 0.42263577 0.06256172
0.06256172 0.43991679 0.06256172
0.06256172 0.43991679 0.06256172
0.06256172 0.43991679 0.06256172
0.07721844 0.43991679 0.06256172
0.14405158 0.43991679 0.06256172
0.17177349 0.43991679 0.06256172
0.19314638 0.43991679 0.06256172
0.21177009 0.43991679 0.06256172
0.22894991 0.43991679 0.06256172
0.24532082 0.43991679 0.06256172
0.26124304 0.43991679 0.06256172
0.27694121 0.43991679 0.06256172
0.29256434 0.43991679 0.06256172
0.30821535 0.43991679 0.06256172
0.32396702 0.43991679 0.06256172
0.33987138 0.43991679 0.06256172
0.35596548 0.43991679 0.06256172
0.37227511 0.43991679 0.06256172
0.38881743 0.43991679 0.06256172
0.40560273 0.43991679 0.06256172
0.42263577 0.43991679 0.06256172
0.43991679 0.43991679 0.06256172
0.45744228 0.43991679 0.06256172
0.47520564 0.43991679 0.06256172
0.49319765 0.43991679 0.06256172
0.51140693 0.43991679 0.06256172
0.52982030 0.43991679 0.06256172
