src/ffmpeg_scripts/luts/flog-smpte2084_-1p67.cube
TITLE "flog-smpte2084_-1p67"
LUT_3D_SIZE 33
# Fujifilm F-Log/Rec2020 -> PQ (EOTF Only)/Rec2020, CineEI Shift -1.67, Black Level 0.00% IRE, Input 109% -> Output 109% - Created with LUTCalc v4.01 by Ben Turley October 2020
0.06256172 0.06256172 0.06256172
0.06256172 0.06256172 0.06256172
0.06256172 0.06256172 0.06256172
0.07275443 0.06256172 0.06256172
0.12443152 0.06256172 0.06256172
0.14713242 0.06256172 0.06256172
0.16498031 0.06256172 0.06256172
0.18074581 0.06256172 0.06256172
0.19544844 0.06256172 0.06256172
0.20959011 0.06256172 0.06256172
0.22345892 0.06256172 0.06256172
0.23723678 0.06256172 0.06256172
0.25104593 0.06256172 0.06256172
0.26497202 0.06256172 0.06256172
0.27907658 0.06256172 0.06256172
0.29340433 0.06256172 0.06256172
0.30798770 0.06256172 0.06256172
0.32284979 0.06256172 0.06256172
0.33800636 0.06256172 0.06256172
0.35346724 0.06256172 0.06256172
0.36923741 0.06256172 0.06256172
0.38531772 0.06256172 0.06256172
0.40170561 0.06256172 0.06256172
0.41839552 0.06256172 0.06256172
0.43537936 0.06256172 0.06256172
0.45264685 0.06256172 0.06256172
0.47018583 0.06256172 0.06256172
0.48798253 0.06256172 0.06256172
0.50602178 0.06256172 0.06256172
0.52428730 0.06256172 0.06256172
0.54276180 0.06256172 0.06256172
0.56142724 0.06256172 0.06256172
0.58026493 0.06256172 0.06256172
0.06256172 0.06256172 0.06256172
0.06256172 0.06256172 0.06256172
0.06256172 0.06256172 0.06256172
0.07275443 0.06256172 0.06256172
0.12443152 0.06256172 0.06256172
0.14713242 0.06256172 0.06256172
0.16498031 0.06256172 0.06256172
0.18074581 0.06256172 0.06256172
0.19544844 0.06256172 0.06256172
0.20959011 0.06256172 0.06256172
0.22345892 0.06256172 0.06256172
0.23723678 0.06256172 0.06256172
0.25104593 0.06256172 0.06256172
0.26497202 0.06256172 0.06256172
0.27907658 0.06256172 0.06256172
0.29340433 0.06256172 0.06256172
0.30798770 0.06256172 0.06256172
0.32284979 0.06256172 0.06256172
0.33800636 0.06256172 0.06256172
0.35346724 0.06256172 0.06256172
0.36923741 0.06256172 0.06256172
0.38531772 0.06256172 0.06256172
0.40170561 0.06256172 0.06256172
0.41839552 0.06256172 0.06256172
0.43537936 0.06256172 0.06256172
0.45264685 0.06256172 0.06256172
0.47018583 0.06256172 0.06256172
0.48798253 0.06256172 0.06256172
0.50602178 0.06256172 0.06256172
0.52428730 0.06256172 0.06256172
0.54276180 0.06256172 0.06256172
0.56142724 0.06256172 0.06256172
0.58026493 0.06256172 0.06256172
0.06256172 0.06256172 0.06256172
0.06256172 0.06256172 0.06256172
0.06256172 0.06256172 0.06256172
0.07275443 0.06256172 0.06256172
0.12443152 0.06256172 0.06256172
0.14713242 0.06256172 0.06256172
0.16498031 0.06256172 0.06256172
0.18074581 0.06256172 0.06256172
0.19544844 0.06256172 0.06256172
0.20959011 0.06256172 0.06256172
0.22345892 0.06256172 0.06256172
0.23723678 0.06256172 0.06256172
0.25104593 0.06256172 0.06256172
0.26497202 0.06256172 0.06256172
0.27907658 0.06256172 0.06256172
0.29340433 0.06256172 0.06256172
0.30798770 0.06256172 0.06256172
0.32284979 0.06256172 0.06256172
0.33800636 0.06256172 0.06256172
0.35346724 0.06256172 0.06256172
0.36923741 0.06256172 0.06256172
0.38531772 0.06256172 0.06256172
0.40170561 0.06256172 0.06256172
0.41839552 0.06256172 0.06256172
0.43537936 0.06256172 0.06256172
0.45264685 0.06256172 0.06256172
0.47018583 0.06256172 0.06256172
0.48798253 0.06256172 0.06256172
0.50602178 0.06256172 0.06256172
0.52428730 0.06256172 0.06256172
0.54276180 0.06256172 0.06256172
0.56142724 0.06256172 0.06256172
0.58026493 0.06256172 0.06256172
0.06256172 0.07275443 0.06256172
0.06256172 0.07275443 0.06256172
0.06256172 0.07275443 0.06256172
0.07275443 0.07275443 0.06256172
0.12443152 0.07275443 0.06256172
0.14713242 0.07275443 0.06256172
0.16498031 0.07275443 0.06256172
0.18074581 0.07275443 0.06256172
0.19544844 0.07275443 0.06256172
0.20959011 0.07275443 0.06256172
0.22345892 0.07275443 0.06256172
0.23723678 0.07275443 0.06256172
0.25104593 0.07275443 0.06256172
0.26497202 0.07275443 0.06256172
0.27907658 0.07275443 0.06256172
0.29340433 0.07275443 0.06256172
0.30798770 0.07275443 0.06256172
0.32284979 0.07275443 0.06256172
0.33800636 0.07275443 0.06256172
0.35346724 0.07275443 0.06256172
0.36923741 0.07275443 0.06256172
0.38531772 0.07275443 0.06256172
0.40170561 0.07275443 0.06256172
0.41839552 0.07275443 0.06256172
0.43537936 0.07275443 0.06256172
0.45264685 0.07275443 0.06256172
0.47018583 0.07275443 0.06256172
0.48798253 0.07275443 0.06256172
0.50602178 0.07275443 0.06256172
0.52428730 0.07275443 0.06256172
0.54276180 0.07275443 0.06256172
0.56142724 0.07275443 0.06256172
0.58026493 0.07275443 0.06256172
0.06256172 0.12443152 0.06256172
0.06256172 0.12443152 0.06256172
0.06256172 0.12443152 0.06256172
0.07275443 0.12443152 0.06256172
0.12443152 0.12443152 0.06256172
0.14713242 0.12443152 0.06256172
0.16498031 0.12443152 0.06256172
0.18074581 0.12443152 0.06256172
0.19544844 0.12443152 0.06256172
0.20959011 0.12443152 0.06256172
0.22345892 0.12443152 0.06256172
0.23723678 0.12443152 0.06256172
0.25104593 0.12443152 0.06256172
0.26497202 0.12443152 0.06256172
0.27907658 0.12443152 0.06256172
0.29340433 0.12443152 0.06256172
0.30798770 0.12443152 0.06256172
0.32284979 0.12443152 0.06256172
0.33800636 0.12443152 0.06256172
0.35346724 0.12443152 0.06256172
0.36923741 0.12443152 0.06256172
0.38531772 0.12443152 0.06256172
0.40170561 0.12443152 0.06256172
0.41839552 0.12443152 0.06256172
0.43537936 0.12443152 0.06256172
0.45264685 0.12443152 0.06256172
0.47018583 0.12443152 0.06256172
0.48798253 0.12443152 0.06256172
0.50602178 0.12443152 0.06256172
0.52428730 0.12443152 0.06256172
0.54276180 0.12443152 0.06256172
0.56142724 0.12443152 0.06256172
0.58026493 0.12443152 0.06256172
0.06256172 0.14713242 0.06256172
0.06256172 0.14713242 0.06256172
0.06256172 0.14713242 0.06256172
0.07275443 0.14713242 0.06256172
0.12443152 0.14713242 0.06256172
0.14713242 0.14713242 0.06256172
0.16498031 0.14713242 0.06256172
0.18074581 0.14713242 0.06256172
0.19544844 0.14713242 0.06256172
0.20959011 0.14713242 0.06256172
0.22345892 0.14713242 0.06256172
0.23723678 0.14713242 0.06256172
0.25104593 0.14713242 0.06256172
0.26497202 0.14713242 0.06256172
0.27907658 0.14713242 0.06256172
0.29340433 0.14713242 0.06256172
0.30798770 0.14713242 0.06256172
0.32284979 0.14713242 0.06256172
0.33800636 0.14713242 0.06256172
0.35346724 0.14713242 0.06256172
0.36923741 0.14713242 0.06256172
0.38531772 0.14713242 0.06256172
0.40170561 0.14713242 0.06256172
0.41839552 0.14713242 0.06256172
0.43537936 0.14713242 0.06256172
0.45264685 0.14713242 0.06256172
0.47018583 0.14713242 0.06256172
0.48798253 0.14713242 0.06256172
0.50602178 0.14713242 0.06256172
0.52428730 0.14713242 0.06256172
0.54276180 0.14713242 0.06256172
0.56142724 0.14713242 0.06256172
0.58026493 0.14713242 0.06256172
0.06256172 0.16498031 0.06256172
0.06256172 0.16498031 0.06256172
0.06256172 0.16498031 0.06256172
0.07275443 0.16498031 0.06256172
0.12443152 0.16498031 0.06256172
0.14713242 0.16498031 0.06256172
0.16498031 0.16498031 0.06256172
0.18074581 0.16498031 0.06256172
0.19544844 0.16498031 0.06256172
0.20959011 0.16498031 0.06256172
0.22345892 0.16498031 0.06256172
0.23723678 0.16498031 0.06256172
0.25104593 0.16498031 0.06256172
0.26497202 0.16498031 0.06256172
0.27907658 0.16498031 0.06256172
0.29340433 0.16498031 0.06256172
0.30798770 0.16498031 0.06256172
0.32284979 0.16498031 0.06256172
0.33800636 0.16498031 0.06256172
0.35346724 0.16498031 0.06256172
0.36923741 0.16498031 0.06256172
0.38531772 0.16498031 0.06256172
0.40170561 0.16498031 0.06256172
0.41839552 0.16498031 0.06256172
0.43537936 0.16498031 0.06256172
0.45264685 0.16498031 0.06256172
0.47018583 0.16498031 0.06256172
0.48798253 0.16498031 0.06256172
0.50602178 0.16498031 0.06256172
0.52428730 0.16498031 0.06256172
0.54276180 0.16498031 0.06256172
0.56142724 0.16498031 0.06256172
0.58026493 0.16498031 0.06256172
0.06256172 0.18074581 0.06256172
0.06256172 0.18074581 0.06256172
0.06256172 0.18074581 0.06256172
0.07275443 0.18074581 0.06256172
0.12443152 0.18074581 0.06256172
0.14713242 0.18074581 0.06256172
0.16498031 0.18074581 0.06256172
0.18074581 0.18074581 0.06256172
0.19544844 0.18074581 0.06256172
0.20959011 0.18074581 0.06256172
0.22345892 0.18074581 0.06256172
0.23723678 0.18074581 0.06256172
0.25104593 0.18074581 0.06256172
0.26497202 0.18074581 0.06256172
0.27907658 0.18074581 0.06256172
0.29340433 0.18074581 0.06256172
0.30798770 0.18074581 0.06256172
0.32284979 0.18074581 0.06256172
0.33800636 0.18074581 0.06256172
0.35346724 0.18074581 0.06256172
0.36923741 0.18074581 0.06256172
0.38531772 0.18074581 0.06256172
0.40170561 0.18074581 0.06256172
0.41839552 0.18074581 0.06256172
0.43537936 0.18074581 0.06256172
0.45264685 0.18074581 0.06256172
0.47018583 0.18074581 0.06256172
0.48798253 0.18074581 0.06256172
0.50602178 0.18074581 0.06256172
0.52428730 0.18074581 0.06256172
0.54276180 0.18074581 0.06256172
0.56142724 0.18074581 0.06256172
0.58026493 0.18074581 0.06256172
0.06256172 0.19544844 0.06256172
0.06256172 0.19544844 0.06256172
0.06256172 0.19544844 0.06256172
0.07275443 0.19544844 0.06256172
0.12443152 0.19544844 0.06256172
0.14713242 0.19544844 0.06256172
0.16498031 0.19544844 0.06256172
0.18074581 0.19544844 0.06256172
0.19544844 0.19544844 0.06256172
0.20959011 0.19544844 0.06256172
0.22345892 0.19544844 0.06256172
0.23723678 0.19544844 0.06256172
0.25104593 0.19544844 0.06256172
0.26497202 0.19544844 0.06256172
0.27907658 0.19544844 0.06256172
0.29340433 0.19544844 0.06256172
0.30798770 0.19544844 0.06256172
0.32284979 0.19544844 0.06256172
0.33800636 0.19544844 0.06256172
0.35346724 0.19544844 0.06256172
0.36923741 0.19544844 0.06256172
0.38531772 0.19544844 0.06256172
0.40170561 0.19544844 0.06256172
0.41839552 0.19544844 0.06256172
0.43537936 0.19544844 0.06256172
0.45264685 0.19544844 0.06256172
0.47018583 0.19544844 0.06256172
0.48798253 0.19544844 0.06256172
0.50602178 0.19544844 0.06256172
0.52428730 0.19544844 0.06256172
0.54276180 0.19544844 0.06256172
0.56142724 0.19544844 0.06256172
0.58026493 0.19544844 0.06256172
0.06256172 0.20959011 0.06256172
0.06256172 0.20959011 0.06256172
0.06256172 0.20959011 0.06256172
0.07275443 0.20959011 0.06256172
0.12443152 0.20959011 0.06256172
0.14713242 0.20959011 0.06256172
0.16498031 0.20959011 0.06256172
0.18074581 0.20959011 0.06256172
0.19544844 0.20959011 0.06256172
0.20959011 0.20959011 0.06256172
0.22345892 0.20959011 0.06256172
0.23723678 0.20959011 0.06256172
0.25104593 0.20959011 0.06256172
0.26497202 0.20959011 0.06256172
0.27907658 0.20959011 0.06256172
0.29340433 0.20959011 0.06256172
0.30798770 0.20959011 0.06256172
0.32284979 0.20959011 0.06256172
0.33800636 0.20959011 0.06256172
0.35346724 0.20959011 0.06256172
0.36923741 0.20959011 0.06256172
0.38531772 0.20959011 0.06256172
0.40170561 0.20959011 0.06256172
0.41839552 0.20959011 0.06256172
0.43537936 0.20959011 0.06256172
0.45264685 0.20959011 0.06256172
0.47018583 0.20959011 0.06256172
0.48798253 0.20959011 0.06256172
0.50602178 0.20959011 0.06256172
0.52428730 0.20959011 0.06256172
0.54276180 0.20959011 0.06256172
0.56142724 0.20959011 0.06256172
0.58026493 0.20959011 0.06256172
0.06256172 0.22345892 0.06256172
0.06256172 0.22345892 0.06256172
0.06256172 0.22345892 0.06256172
0.07275443 0.22345892 0.06256172
0.12443152 0.22345892 0.06256172
0.14713242 0.22345892 0.06256172
0.16498031 0.22345892 0.06256172
0.18074581 0.22345892 0.06256172
0.19544844 0.22345892 0.06256172
0.20959011 0.22345892 0.06256172
0.22345892 0.22345892 0.06256172
0.23723678 0.22345892 0.06256172
0.25104593 0.22345892 0.06256172
0.26497202 0.22345892 0.06256172
0.27907658 0.22345892 0.06256172
0.29340433 0.22345892 0.06256172
0.30798770 0.22345892 0.06256172
0.32284979 0.22345892 0.06256172
0.33800636 0.22345892 0.06256172
0.35346724 0.22345892 0.06256172
0.36923741 0.22345892 0.06256172
0.38531772 0.22345892 0.06256172
0.40170561 0.22345892 0.06256172
0.41839552 0.22345892 0.06256172
0.43537936 0.22345892 0.06256172
0.45264685 0.22345892 0.06256172
0.47018583 0.22345892 0.06256172
0.48798253 0.22345892 0.06256172
0.50602178 0.22345892 0.06256172
0.52428730 0.22345892 0.06256172
0.54276180 0.22345892 0.06256172
0.56142724 0.22345892 0.06256172
0.58026493 0.22345892 0.06256172
0.06256172 0.23723678 0.06256172
0.06256172 0.23723678 0.06256172
0.06256172 0.23723678 0.06256172
0.07275443 0.23723678 0.06256172
0.12443152 0.23723678 0.06256172
0.14713242 0.23723678 0.06256172
0.16498031 0.23723678 0.06256172
0.18074581 0.23723678 0.06256172
0.19544844 0.23723678 0.06256172
0.20959011 0.23723678 0.06256172
0.22345892 0.23723678 0.06256172
0.23723678 0.23723678 0.06256172
0.25104593 0.23723678 0.06256172
0.26497202 0.23723678 0.06256172
0.27907658 0.23723678 0.06256172
0.29340433 0.23723678 0.06256172
0.30798770 0.23723678 0.06256172
0.32284979 0.23723678 0.06256172
0.33800636 0.23723678 0.06256172
0.35346724 0.23723678 0.06256172
0.36923741 0.23723678 0.06256172
0.38531772 0.23723678 0.06256172
0.40170561 0.23723678 0.06256172
0.41839552 0.23723678 0.06256172
0.43537936 0.23723678 0.06256172
0.45264685 0.23723678 0.06256172
0.47018583 0.23723678 0.06256172
0.48798253 0.23723678 0.06256172
0.50602178 0.23723678 0.06256172
0.52428730 0.23723678 0.06256172
0.54276180 0.23723678 0.06256172
0.56142724 0.23723678 0.06256172
0.58026493 0.23723678 0.06256172
0.06256172 0.25104593 0.06256172
0.06256172 0.25104593 0.06256172
0.06256172 0.25104593 0.06256172
0.07275443 0.25104593 0.06256172
0.12443152 0.25104593 0.06256172
0.14713242 0.25104593 0.06256172
0.16498031 0.25104593 0.06256172
0.18074581 0.25104593 0.06256172
0.19544844 0.25104593 0.06256172
0.20959011 0.25104593 0.06256172
0.22345892 0.25104593 0.06256172
0.23723678 0.25104593 0.06256172
0.25104593 0.25104593 0.06256172
0.26497202 0.25104593 0.06256172
0.27907658 0.25104593 0.06256172
0.29340433 0.25104593 0.06256172
0.30798770 0.25104593 0.06256172
0.32284979 0.25104593 0.06256172
0.33800636 0.25104593 0.06256172
0.35346724 0.25104593 0.06256172
0.36923741 0.25104593 0.06256172
0.38531772 0.25104593 0.06256172
0.40170561 0.25104593 0.06256172
0.41839552 0.25104593 0.06256172
0.43537936 0.25104593 0.06256172
0.45264685 0.25104593 0.06256172
0.47018583 0.25104593 0.06256172
0.48798253 0.25104593 0.06256172
0.50602178 0.25104593 0.06256172
0.52428730 0.25104593 0.06256172
0.54276180 0.25104593 0.06256172
0.56142724 0.25104593 0.06256172
0.58026493 0.25104593 0.06256172
0.06256172 0.26497202 0.06256172
0.06256172 0.26497202 0.06256172
0.06256172 0.26497202 0.06256172
0.07275443 0.26497202 0.06256172
0.12443152 0.26497202 0.06256172
0.14713242 0.26497202 0.06256172
0.16498031 0.26497202 0.06256172
0.18074581 0.26497202 0.06256172
0.19544844 0.26497202 0.06256172
0.20959011 0.26497202 0.06256172
0.22345892 0.26497202 0.06256172
0.23723678 0.26497202 0.06256172
0.25104593 0.26497202 0.06256172
0.26497202 0.26497202 0.06256172
0.27907658 0.26497202 0.06256172
0.29340433 0.26497202 0.06256172
0.30798770 0.26497202 0.06256172
0.32284979 0.26497202 0.06256172
0.33800636 0.26497202 0.06256172
0.35346724 0.26497202 0.06256172
0.36923741 0.26497202 0.06256172
0.38531772 0.26497202 0.06256172
0.40170561 0.26497202 0.06256172
0.41839552 0.26497202 0.06256172
0.43537936 0.26497202 0.06256172
0.45264685 0.26497202 0.06256172
0.47018583 0.26497202 0.06256172
0.48798253 0.26497202 0.06256172
0.50602178 0.26497202 0.06256172
0.52428730 0.26497202 0.06256172
0.54276180 0.26497202 0.06256172
0.56142724 0.26497202 0.06256172
0.58026493 0.26497202 0.06256172
0.06256172 0.27907658 0.06256172
0.06256172 0.27907658 0.06256172
0.06256172 0.27907658 0.06256172
0.07275443 0.27907658 0.06256172
0.12443152 0.27907658 0.06256172
0.14713242 0.27907658 0.06256172
0.16498031 0.27907658 0.06256172
0.18074581 0.27907658 0.06256172
0.19544844 0.27907658 0.06256172
0.20959011 0.27907658 0.06256172
0.22345892 0.27907658 0.06256172
0.23723678 0.27907658 0.06256172
0.25104593 0.27907658 0.06256172
0.26497202 0.27907658 0.06256172
0.27907658 0.27907658 0.06256172
0.29340433 0.27907658 0.06256172
0.30798770 0.27907658 0.06256172
0.32284979 0.27907658 0.06256172
0.33800636 0.27907658 0.06256172
0.35346724 0.27907658 0.06256172
0.36923741 0.27907658 0.06256172
0.38531772 0.27907658 0.06256172
0.40170561 0.27907658 0.06256172
0.41839552 0.27907658 0.06256172
0.43537936 0.27907658 0.06256172
0.45264685 0.27907658 0.06256172
0.47018583 0.27907658 0.06256172
0.48798253 0.27907658 0.06256172
0.50602178 0.27907658 0.06256172
0.52428730 0.27907658 0.06256172
0.54276180 0.27907658 0.06256172
0.56142724 0.27907658 0.06256172
0.58026493 0.27907658 0.06256172
0.06256172 0.29340433 0.06256172
0.06256172 0.29340433 0.06256172
0.06256172 0.29340433 0.06256172
0.07275443 0.29340433 0.06256172
0.12443152 0.29340433 0.06256172
0.14713242 0.29340433 0.06256172
0.16498031 0.29340433 0.06256172
0.18074581 0.29340433 0.06256172
0.19544844 0.29340433 0.06256172
0.20959011 0.29340433 0.06256172
0.22345892 0.29340433 0.06256172
0.23723678 0.29340433 0.06256172
0.25104593 0.29340433 0.06256172
0.26497202 0.29340433 0.06256172
0.27907658 0.29340433 0.06256172
0.29340433 0.29340433 0.06256172
0.30798770 0.29340433 0.06256172
0.32284979 0.29340433 0.06256172
0.33800636 0.29340433 0.06256172
0.35346724 0.29340433 0.06256172
0.36923741 0.29340433 0.06256172
0.38531772 0.29340433 0.06256172
0.40170561 0.29340433 0.06256172
0.41839552 0.29340433 0.06256172
0.43537936 0.29340433 0.06256172
0.45264685 0.29340433 0.06256172
0.47018583 0.29340433 0.06256172
0.48798253 0.29340433 0.06256172
0.50602178 0.29340433 0.06256172
0.52428730 0.29340433 0.06256172
0.54276180 0.29340433 0.06256172
0.56142724 0.29340433 0.06256172
0.58026493 0.29340433 0.06256172
0.06256172 0.30798770 0.06256172
0.06256172 0.30798770 0.06256172
0.06256172 0.30798770 0.06256172
0.07275443 0.30798770 0.06256172
0.12443152 0.30798770 0.06256172
0.14713242 0.30798770 0.06256172
0.16498031 0.30798770 0.06256172
0.18074581 0.30798770 0.06256172
0.19544844 0.30798770 0.06256172
0.20959011 0.30798770 0.06256172
0.22345892 0.30798770 0.06256172
0.23723678 0.30798770 0.06256172
0.25104593 0.30798770 0.06256172
0.26497202 0.30798770 0.06256172
0.27907658 0.30798770 0.06256172
0.29340433 0.30798770 0.06256172
0.30798770 0.30798770 0.06256172
0.32284979 0.30798770 0.06256172
0.33800636 0.30798770 0.06256172
0.35346724 0.30798770 0.06256172
0.36923741 0.30798770 0.06256172
0.38531772 0.30798770 0.06256172
0.40170561 0.30798770 0.06256172
0.41839552 0.30798770 0.06256172
0.43537936 0.30798770 0.06256172
0.45264685 0.30798770 0.06256172
0.47018583 0.30798770 0.06256172
0.48798253 0.30798770 0.06256172
0.50602178 0.30798770 0.06256172
0.52428730 0.30798770 0.06256172
0.54276180 0.30798770 0.06256172
0.56142724 0.30798770 0.06256172
0.58026493 0.30798770 0.06256172
0.06256172 0.32284979 0.06256172
0.06256172 0.32284979 0.06256172
0.06256172 0.32284979 0.06256172
0.07275443 0.32284979 0.06256172
0.12443152 0.32284979 0.06256172
0.14713242 0.32284979 0.06256172
0.16498031 0.32284979 0.06256172
0.18074581 0.32284979 0.06256172
0.19544844 0.32284979 0.06256172
0.20959011 0.32284979 0.06256172
0.22345892 0.32284979 0.06256172
0.23723678 0.32284979 0.06256172
0.25104593 0.32284979 0.06256172
0.26497202 0.32284979 0.06256172
0.27907658 0.32284979 0.06256172
0.29340433 0.32284979 0.06256172
0.30798770 0.32284979 0.06256172
0.32284979 0.32284979 0.06256172
0.33800636 0.32284979 0.06256172
0.35346724 0.32284979 0.06256172
0.36923741 0.32284979 0.06256172
0.38531772 0.32284979 0.06256172
0.40170561 0.32284979 0.06256172
0.41839552 0.32284979 0.06256172
0.43537936 0.32284979 0.06256172
0.45264685 0.32284979 0.06256172
0.47018583 0.32284979 0.06256172
0.48798253 0.32284979 0.06256172
0.50602178 0.32284979 0.06256172
0.52428730 0.32284979 0.06256172
0.54276180 0.32284979 0.06256172
0.56142724 0.32284979 0.06256172
0.58026493 0.32284979 0.06256172
0.06256172 0.33800636 0.06256172
0.06256172 0.33800636 0.06256172
0.06256172 0.33800636 0.06256172
0.07275443 0.33800636 0.06256172
0.12443152 0.33800636 0.06256172
0.14713242 0.33800636 0.06256172
0.16498031 0.33800636 0.06256172
0.18074581 0.33800636 0.06256172
0.19544844 0.33800636 0.06256172
0.20959011 0.33800636 0.06256172
0.22345892 0.33800636 0.06256172
0.23723678 0.33800636 0.06256172
0.25104593 0.33800636 0.06256172
0.26497202 0.33800636 0.06256172
0.27907658 0.33800636 0.06256172
0.29340433 0.33800636 0.06256172
0.30798770 0.33800636 0.06256172
0.32284979 0.33800636 0.06256172
0.33800636 0.33800636 0.06256172
0.35346724 0.33800636 0.06256172
0.36923741 0.33800636 0.06256172
0.38531772 0.33800636 0.06256172
0.40170561 0.33800636 0.06256172
0.41839552 0.33800636 0.06256172
0.43537936 0.33800636 0.06256172
0.45264685 0.33800636 0.06256172
0.47018583 0.33800636 0.06256172
0.48798253 0.33800636 0.06256172
0.50602178 0.33800636 0.06256172
0.52428730 0.33800636 0.06256172
0.54276180 0.33800636 0.06256172
0.56142724 0.33800636 0.06256172
0.58026493 0.33800636 0.06256172
0.06256172 0.35346724 0.06256172
0.06256172 0.35346724 0.06256172
0.06256172 0.35346724 0.06256172
0.07275443 0.35346724 0.06256172
0.12443152 0.35346724 0.06256172
0.14713242 0.35346724 0.06256172
0.16498031 0.35346724 0.06256172
0.18074581 0.35346724 0.06256172
0.19544844 0.35346724 0.06256172
0.20959011 0.35346724 0.06256172
0.22345892 0.35346724 0.06256172
0.23723678 0.35346724 0.06256172
0.25104593 0.35346724 0.06256172
0.26497202 0.35346724 0.06256172
0.27907658 0.35346724 0.06256172
0.29340433 0.35346724 0.06256172
0.30798770 0.35346724 0.06256172
0.32284979 0.35346724 0.06256172
0.33800636 0.35346724 0.06256172
0.35346724 0.35346724 0.06256172
0.36923741 0.35346724 0.06256172
0.38531772 0.35346724 0.06256172
0.40170561 0.35346724 0.06256172
0.41839552 0.35346724 0.06256172
0.43537936 0.35346724 0.06256172
0.45264685 0.35346724 0.06256172
0.47018583 0.35346724 0.06256172
0.48798253 0.35346724 0.06256172
0.50602178 0.35346724 0.06256172
0.52428730 0.35346724 0.06256172
0.54276180 0.35346724 0.06256172
0.56142724 0.35346724 0.06256172
0.58026493 0.35346724 0.06256172
0.06256172 0.36923741 0.06256172
0.06256172 0.36923741 0.06256172
0.06256172 0.36923741 0.06256172
0.07275443 0.36923741 0.06256172
0.12443152 0.36923741 0.06256172
0.14713242 0.36923741 0.06256172
0.16498031 0.36923741 0.06256172
0.18074581 0.36923741 0.06256172
0.19544844 0.36923741 0.06256172
0.20959011 0.36923741 0.06256172
0.22345892 0.36923741 0.06256172
0.23723678 0.36923741 0.06256172
0.25104593 0.36923741 0.06256172
0.26497202 0.36923741 0.06256172
0.27907658 0.36923741 0.06256172
0.29340433 0.36923741 0.06256172
0.30798770 0.36923741 0.06256172
0.32284979 0.36923741 0.06256172
0.33800636 0.36923741 0.06256172
0.35346724 0.36923741 0.06256172
0.36923741 0.36923741 0.06256172
0.38531772 0.36923741 0.06256172
0.40170561 0.36923741 0.06256172
0.41839552 0.36923741 0.06256172
0.43537936 0.36923741 0.06256172
0.45264685 0.36923741 0.06256172
0.47018583 0.36923741 0.06256172
0.48798253 0.36923741 0.06256172
0.50602178 0.36923741 0.06256172
0.52428730 0.36923741 0.06256172
0.54276180 0.36923741 0.06256172
0.56142724 0.36923741 0.06256172
0.58026493 0.36923741 0.06256172
0.06256172 0.38531772 0.06256172
0.06256172 0.38531772 0.06256172
0.06256172 0.38531772 0.06256172
0.07275443 0.38531772 0.06256172
0.12443152 0.38531772 0.06256172
0.14713242 0.38531772 0.06256172
0.16498031 0.38531772 0.06256172
0.18074581 0.38531772 0.06256172
0.19544844 0.38531772 0.06256172
0.20959011 0.38531772 0.06256172
0.22345892 0.38531772 0.06256172
0.23723678 0.38531772 0.06256172
0.25104593 0.38531772 0.06256172
0.26497202 0.38531772 0.06256172
0.27907658 0.38531772 0.06256172
0.29340433 0.38531772 0.06256172
0.30798770 0.38531772 0.06256172
0.32284979 0.38531772 0.06256172
0.33800636 0.38531772 0.06256172
0.35346724 0.38531772 0.06256172
0.36923741 0.38531772 0.06256172
0.38531772 0.38531772 0.06256172
0.40170561 0.38531772 0.06256172
0.41839552 0.38531772 0.06256172
0.43537936 0.38531772 0.06256172
0.45264685 0.38531772 0.06256172
0.47018583 0.38531772 0.06256172
