src/ffmpeg_scripts/luts/flog-smpte2084_4p00.cube
TITLE "flog-smpte2084_4p00"
LUT_3D_SIZE 33
# Fujifilm F-Log/Rec2020 -> PQ (EOTF Only)/Rec2020, CineEI Shift 4.00, Black Level 0.00% IRE, Input 109% -> Output 109% - Created with LUTCalc v4.01 by Ben Turley October 2020
0.06256172 0.06256172 0.06256172
0.06256172 0.06256172 0.06256172
0.06256172 0.06256172 0.06256172
0.12778504 0.06256172 0.06256172
0.29792057 0.06256172 0.06256172
0.35179112 0.06256172 0.06256172
0.38999873 0.06256172 0.06256172
0.42144817 0.06256172 0.06256172
0.44918249 0.06256172 0.06256172
0.47462151 0.06256172 0.06256172
0.49854315 0.06256172 0.06256172
0.52141763 0.06256172 0.06256172
0.54354804 0.06256172 0.06256172
0.56513842 0.06256172 0.06256172
0.58633009 0.06256172 0.06256172
0.60722257 0.06256172 0.06256172
0.62788641 0.06256172 0.06256172
0.64837147 0.06256172 0.06256172
0.66871242 0.06256172 0.06256172
0.68893260 0.06256172 0.06256172
0.70904681 0.06256172 0.06256172
0.72906328 0.06256172 0.06256172
0.74898524 0.06256172 0.06256172
0.76881209 0.06256172 0.06256172
0.78854028 0.06256172 0.06256172
0.80816403 0.06256172 0.06256172
0.82767595 0.06256172 0.06256172
0.84706744 0.06256172 0.06256172
0.86632907 0.06256172 0.06256172
0.88545090 0.06256172 0.06256172
0.90442272 0.06256172 0.06256172
0.91886608 0.06256172 0.06256172
0.91886608 0.06256172 0.06256172
0.06256172 0.06256172 0.06256172
0.06256172 0.06256172 0.06256172
0.06256172 0.06256172 0.06256172
0.12778504 0.06256172 0.06256172
0.29792057 0.06256172 0.06256172
0.35179112 0.06256172 0.06256172
0.38999873 0.06256172 0.06256172
0.42144817 0.06256172 0.06256172
0.44918249 0.06256172 0.06256172
0.47462151 0.06256172 0.06256172
0.49854315 0.06256172 0.06256172
0.52141763 0.06256172 0.06256172
0.54354804 0.06256172 0.06256172
0.56513842 0.06256172 0.06256172
0.58633009 0.06256172 0.06256172
0.60722257 0.06256172 0.06256172
0.62788641 0.06256172 0.06256172
0.64837147 0.06256172 0.06256172
0.66871242 0.06256172 0.06256172
0.68893260 0.06256172 0.06256172
0.70904681 0.06256172 0.06256172
0.72906328 0.06256172 0.06256172
0.74898524 0.06256172 0.06256172
0.76881209 0.06256172 0.06256172
0.78854028 0.06256172 0.06256172
0.80816403 0.06256172 0.06256172
0.82767595 0.06256172 0.06256172
0.84706744 0.06256172 0.06256172
0.86632907 0.06256172 0.06256172
0.88545090 0.06256172 0.06256172
0.90442272 0.06256172 0.06256172
0.91886608 0.06256172 0.06256172
0.91886608 0.06256172 0.06256172
0.06256172 0.06256172 0.06256172
0.06256172 0.06256172 0.06256172
0.06256172 0.06256172 0.06256172
0.12778504 0.06256172 0.06256172
0.29792057 0.06256172 0.06256172
0.35179112 0.06256172 0.06256172
0.38999873 0.06256172 0.06256172
0.42144817 0.06256172 0.06256172
0.44918249 0.06256172 0.06256172
0.47462151 0.06256172 0.06256172
0.49854315 0.06256172 0.06256172
0.52141763 0.06256172 0.06256172
0.54354804 0.06256172 0.06256172
0.56513842 0.06256172 0.06256172
0.58633009 0.06256172 0.06256172
0.60722257 0.06256172 0.06256172
0.62788641 0.06256172 0.06256172
0.64837147 0.06256172 0.06256172
0.66871242 0.06256172 0.06256172
0.68893260 0.06256172 0.06256172
0.70904681 0.06256172 0.06256172
0.72906328 0.06256172 0.06256172
0.74898524 0.06256172 0.06256172
0.76881209 0.06256172 0.06256172
0.78854028 0.06256172 0.06256172
0.80816403 0.06256172 0.06256172
0.82767595 0.06256172 0.06256172
0.84706744 0.06256172 0.06256172
0.86632907 0.06256172 0.06256172
0.88545090 0.06256172 0.06256172
0.90442272 0.06256172 0.06256172
0.91886608 0.06256172 0.06256172
0.91886608 0.06256172 0.06256172
0.06256172 0.12778504 0.06256172
0.06256172 0.12778504 0.06256172
0.06256172 0.12778504 0.06256172
0.12778504 0.12778504 0.06256172
0.29792057 0.12778504 0.06256172
0.35179112 0.12778504 0.06256172
0.38999873 0.12778504 0.06256172
0.42144817 0.12778504 0.06256172
0.44918249 0.12778504 0.06256172
0.47462151 0.12778504 0.06256172
0.49854315 0.12778504 0.06256172
0.52141763 0.12778504 0.06256172
0.54354804 0.12778504 0.06256172
0.56513842 0.12778504 0.06256172
0.58633009 0.12778504 0.06256172
0.60722257 0.12778504 0.06256172
0.62788641 0.12778504 0.06256172
0.64837147 0.12778504 0.06256172
0.66871242 0.12778504 0.06256172
0.68893260 0.12778504 0.06256172
0.70904681 0.12778504 0.06256172
0.72906328 0.12778504 0.06256172
0.74898524 0.12778504 0.06256172
0.76881209 0.12778504 0.06256172
0.78854028 0.12778504 0.06256172
0.80816403 0.12778504 0.06256172
0.82767595 0.12778504 0.06256172
0.84706744 0.12778504 0.06256172
0.86632907 0.12778504 0.06256172
0.88545090 0.12778504 0.06256172
0.90442272 0.12778504 0.06256172
0.91886608 0.12778504 0.06256172
0.91886608 0.12778504 0.06256172
0.06256172 0.29792057 0.06256172
0.06256172 0.29792057 0.06256172
0.06256172 0.29792057 0.06256172
0.12778504 0.29792057 0.06256172
0.29792057 0.29792057 0.06256172
0.35179112 0.29792057 0.06256172
0.38999873 0.29792057 0.06256172
0.42144817 0.29792057 0.06256172
0.44918249 0.29792057 0.06256172
0.47462151 0.29792057 0.06256172
0.49854315 0.29792057 0.06256172
0.52141763 0.29792057 0.06256172
0.54354804 0.29792057 0.06256172
0.56513842 0.29792057 0.06256172
0.58633009 0.29792057 0.06256172
0.60722257 0.29792057 0.06256172
0.62788641 0.29792057 0.06256172
0.64837147 0.29792057 0.06256172
0.66871242 0.29792057 0.06256172
0.68893260 0.29792057 0.06256172
0.70904681 0.29792057 0.06256172
0.72906328 0.29792057 0.06256172
0.74898524 0.29792057 0.06256172
0.76881209 0.29792057 0.06256172
0.78854028 0.29792057 0.06256172
0.80816403 0.29792057 0.06256172
0.82767595 0.29792057 0.06256172
0.84706744 0.29792057 0.06256172
0.86632907 0.29792057 0.06256172
0.88545090 0.29792057 0.06256172
0.90442272 0.29792057 0.06256172
0.91886608 0.29792057 0.06256172
0.91886608 0.29792057 0.06256172
0.06256172 0.35179112 0.06256172
0.06256172 0.35179112 0.06256172
0.06256172 0.35179112 0.06256172
0.12778504 0.35179112 0.06256172
0.29792057 0.35179112 0.06256172
0.35179112 0.35179112 0.06256172
0.38999873 0.35179112 0.06256172
0.42144817 0.35179112 0.06256172
0.44918249 0.35179112 0.06256172
0.47462151 0.35179112 0.06256172
0.49854315 0.35179112 0.06256172
0.52141763 0.35179112 0.06256172
0.54354804 0.35179112 0.06256172
0.56513842 0.35179112 0.06256172
0.58633009 0.35179112 0.06256172
0.60722257 0.35179112 0.06256172
0.62788641 0.35179112 0.06256172
0.64837147 0.35179112 0.06256172
0.66871242 0.35179112 0.06256172
0.68893260 0.35179112 0.06256172
0.70904681 0.35179112 0.06256172
0.72906328 0.35179112 0.06256172
0.74898524 0.35179112 0.06256172
0.76881209 0.35179112 0.06256172
0.78854028 0.35179112 0.06256172
0.80816403 0.35179112 0.06256172
0.82767595 0.35179112 0.06256172
0.84706744 0.35179112 0.06256172
0.86632907 0.35179112 0.06256172
0.88545090 0.35179112 0.06256172
0.90442272 0.35179112 0.06256172
0.91886608 0.35179112 0.06256172
0.91886608 0.35179112 0.06256172
0.06256172 0.38999873 0.06256172
0.06256172 0.38999873 0.06256172
0.06256172 0.38999873 0.06256172
0.12778504 0.38999873 0.06256172
0.29792057 0.38999873 0.06256172
0.35179112 0.38999873 0.06256172
0.38999873 0.38999873 0.06256172
0.42144817 0.38999873 0.06256172
0.44918249 0.38999873 0.06256172
0.47462151 0.38999873 0.06256172
0.49854315 0.38999873 0.06256172
0.52141763 0.38999873 0.06256172
0.54354804 0.38999873 0.06256172
0.56513842 0.38999873 0.06256172
0.58633009 0.38999873 0.06256172
0.60722257 0.38999873 0.06256172
0.62788641 0.38999873 0.06256172
0.64837147 0.38999873 0.06256172
0.66871242 0.38999873 0.06256172
0.68893260 0.38999873 0.06256172
0.70904681 0.38999873 0.06256172
0.72906328 0.38999873 0.06256172
0.74898524 0.38999873 0.06256172
0.76881209 0.38999873 0.06256172
0.78854028 0.38999873 0.06256172
0.80816403 0.38999873 0.06256172
0.82767595 0.38999873 0.06256172
0.84706744 0.38999873 0.06256172
0.86632907 0.38999873 0.06256172
0.88545090 0.38999873 0.06256172
0.90442272 0.38999873 0.06256172
0.91886608 0.38999873 0.06256172
0.91886608 0.38999873 0.06256172
0.06256172 0.42144817 0.06256172
0.06256172 0.42144817 0.06256172
0.06256172 0.42144817 0.06256172
0.12778504 0.42144817 0.06256172
0.29792057 0.42144817 0.06256172
0.35179112 0.42144817 0.06256172
0.38999873 0.42144817 0.06256172
0.42144817 0.42144817 0.06256172
0.44918249 0.42144817 0.06256172
0.47462151 0.42144817 0.06256172
0.49854315 0.42144817 0.06256172
0.52141763 0.42144817 0.06256172
0.54354804 0.42144817 0.06256172
0.56513842 0.42144817 0.06256172
0.58633009 0.42144817 0.06256172
0.60722257 0.42144817 0.06256172
0.62788641 0.42144817 0.06256172
0.64837147 0.42144817 0.06256172
0.66871242 0.42144817 0.06256172
0.68893260 0.42144817 0.06256172
0.70904681 0.42144817 0.06256172
0.72906328 0.42144817 0.06256172
0.74898524 0.42144817 0.06256172
0.76881209 0.42144817 0.06256172
0.78854028 0.42144817 0.06256172
0.80816403 0.42144817 0.06256172
0.82767595 0.42144817 0.06256172
0.84706744 0.42144817 0.06256172
0.86632907 0.42144817 0.06256172
0.88545090 0.42144817 0.06256172
0.90442272 0.42144817 0.06256172
0.91886608 0.42144817 0.06256172
0.91886608 0.42144817 0.06256172
0.06256172 0.44918249 0.06256172
0.06256172 0.44918249 0.06256172
0.06256172 0.44918249 0.06256172
0.12778504 0.44918249 0.06256172
0.29792057 0.44918249 0.06256172
0.35179112 0.44918249 0.06256172
0.38999873 0.44918249 0.06256172
0.42144817 0.44918249 0.06256172
0.44918249 0.44918249 0.06256172
0.47462151 0.44918249 0.06256172
0.49854315 0.44918249 0.06256172
0.52141763 0.44918249 0.06256172
0.54354804 0.44918249 0.06256172
0.56513842 0.44918249 0.06256172
0.58633009 0.44918249 0.06256172
0.60722257 0.44918249 0.06256172
0.62788641 0.44918249 0.06256172
0.64837147 0.44918249 0.06256172
0.66871242 0.44918249 0.06256172
0.68893260 0.44918249 0.06256172
0.70904681 0.44918249 0.06256172
0.72906328 0.44918249 0.06256172
0.74898524 0.44918249 0.06256172
0.76881209 0.44918249 0.06256172
0.78854028 0.44918249 0.06256172
0.80816403 0.44918249 0.06256172
0.82767595 0.44918249 0.06256172
0.84706744 0.44918249 0.06256172
0.86632907 0.44918249 0.06256172
0.88545090 0.44918249 0.06256172
0.90442272 0.44918249 0.06256172
0.91886608 0.44918249 0.06256172
0.91886608 0.44918249 0.06256172
0.06256172 0.47462151 0.06256172
0.06256172 0.47462151 0.06256172
0.06256172 0.47462151 0.06256172
0.12778504 0.47462151 0.06256172
0.29792057 0.47462151 0.06256172
0.35179112 0.47462151 0.06256172
0.38999873 0.47462151 0.06256172
0.42144817 0.47462151 0.06256172
0.44918249 0.47462151 0.06256172
0.47462151 0.47462151 0.06256172
0.49854315 0.47462151 0.06256172
0.52141763 0.47462151 0.06256172
0.54354804 0.47462151 0.06256172
0.56513842 0.47462151 0.06256172
0.58633009 0.47462151 0.06256172
0.60722257 0.47462151 0.06256172
0.62788641 0.47462151 0.06256172
0.64837147 0.47462151 0.06256172
0.66871242 0.47462151 0.06256172
0.68893260 0.47462151 0.06256172
0.70904681 0.47462151 0.06256172
0.72906328 0.47462151 0.06256172
0.74898524 0.47462151 0.06256172
0.76881209 0.47462151 0.06256172
0.78854028 0.47462151 0.06256172
0.80816403 0.47462151 0.06256172
0.82767595 0.47462151 0.06256172
0.84706744 0.47462151 0.06256172
0.86632907 0.47462151 0.06256172
0.88545090 0.47462151 0.06256172
0.90442272 0.47462151 0.06256172
0.91886608 0.47462151 0.06256172
0.91886608 0.47462151 0.06256172
0.06256172 0.49854315 0.06256172
0.06256172 0.49854315 0.06256172
0.06256172 0.49854315 0.06256172
0.12778504 0.49854315 0.06256172
0.29792057 0.49854315 0.06256172
0.35179112 0.49854315 0.06256172
0.38999873 0.49854315 0.06256172
0.42144817 0.49854315 0.06256172
0.44918249 0.49854315 0.06256172
0.47462151 0.49854315 0.06256172
0.49854315 0.49854315 0.06256172
0.52141763 0.49854315 0.06256172
0.54354804 0.49854315 0.06256172
0.56513842 0.49854315 0.06256172
0.58633009 0.49854315 0.06256172
0.60722257 0.49854315 0.06256172
0.62788641 0.49854315 0.06256172
0.64837147 0.49854315 0.06256172
0.66871242 0.49854315 0.06256172
0.68893260 0.49854315 0.06256172
0.70904681 0.49854315 0.06256172
0.72906328 0.49854315 0.06256172
0.74898524 0.49854315 0.06256172
0.76881209 0.49854315 0.06256172
0.78854028 0.49854315 0.06256172
0.80816403 0.49854315 0.06256172
0.82767595 0.49854315 0.06256172
0.84706744 0.49854315 0.06256172
0.86632907 0.49854315 0.06256172
0.88545090 0.49854315 0.06256172
0.90442272 0.49854315 0.06256172
0.91886608 0.49854315 0.06256172
0.91886608 0.49854315 0.06256172
0.06256172 0.52141763 0.06256172
0.06256172 0.52141763 0.06256172
0.06256172 0.52141763 0.06256172
0.12778504 0.52141763 0.06256172
0.29792057 0.52141763 0.06256172
0.35179112 0.52141763 0.06256172
0.38999873 0.52141763 0.06256172
0.42144817 0.52141763 0.06256172
0.44918249 0.52141763 0.06256172
0.47462151 0.52141763 0.06256172
0.49854315 0.52141763 0.06256172
0.52141763 0.52141763 0.06256172
0.54354804 0.52141763 0.06256172
0.56513842 0.52141763 0.06256172
0.58633009 0.52141763 0.06256172
0.60722257 0.52141763 0.06256172
0.62788641 0.52141763 0.06256172
0.64837147 0.52141763 0.06256172
0.66871242 0.52141763 0.06256172
0.68893260 0.52141763 0.06256172
0.70904681 0.52141763 0.06256172
0.72906328 0.52141763 0.06256172
0.74898524 0.52141763 0.06256172
0.76881209 0.52141763 0.06256172
0.78854028 0.52141763 0.06256172
0.80816403 0.52141763 0.06256172
0.82767595 0.52141763 0.06256172
0.84706744 0.52141763 0.06256172
0.86632907 0.52141763 0.06256172
0.88545090 0.52141763 0.06256172
0.90442272 0.52141763 0.06256172
0.91886608 0.52141763 0.06256172
0.91886608 0.52141763 0.06256172
0.06256172 0.54354804 0.06256172
0.06256172 0.54354804 0.06256172
0.06256172 0.54354804 0.06256172
0.12778504 0.54354804 0.06256172
0.29792057 0.54354804 0.06256172
0.35179112 0.54354804 0.06256172
0.38999873 0.54354804 0.06256172
0.42144817 0.54354804 0.06256172
0.44918249 0.54354804 0.06256172
0.47462151 0.54354804 0.06256172
0.49854315 0.54354804 0.06256172
0.52141763 0.54354804 0.06256172
0.54354804 0.54354804 0.06256172
0.56513842 0.54354804 0.06256172
0.58633009 0.54354804 0.06256172
0.60722257 0.54354804 0.06256172
0.62788641 0.54354804 0.06256172
0.64837147 0.54354804 0.06256172
0.66871242 0.54354804 0.06256172
0.68893260 0.54354804 0.06256172
0.70904681 0.54354804 0.06256172
0.72906328 0.54354804 0.06256172
0.74898524 0.54354804 0.06256172
0.76881209 0.54354804 0.06256172
0.78854028 0.54354804 0.06256172
0.80816403 0.54354804 0.06256172
0.82767595 0.54354804 0.06256172
0.84706744 0.54354804 0.06256172
0.86632907 0.54354804 0.06256172
0.88545090 0.54354804 0.06256172
0.90442272 0.54354804 0.06256172
0.91886608 0.54354804 0.06256172
0.91886608 0.54354804 0.06256172
0.06256172 0.56513842 0.06256172
0.06256172 0.56513842 0.06256172
0.06256172 0.56513842 0.06256172
0.12778504 0.56513842 0.06256172
0.29792057 0.56513842 0.06256172
0.35179112 0.56513842 0.06256172
0.38999873 0.56513842 0.06256172
0.42144817 0.56513842 0.06256172
0.44918249 0.56513842 0.06256172
0.47462151 0.56513842 0.06256172
0.49854315 0.56513842 0.06256172
0.52141763 0.56513842 0.06256172
0.54354804 0.56513842 0.06256172
0.56513842 0.56513842 0.06256172
0.58633009 0.56513842 0.06256172
0.60722257 0.56513842 0.06256172
0.62788641 0.56513842 0.06256172
0.64837147 0.56513842 0.06256172
0.66871242 0.56513842 0.06256172
0.68893260 0.56513842 0.06256172
0.70904681 0.56513842 0.06256172
0.72906328 0.56513842 0.06256172
0.74898524 0.56513842 0.06256172
0.76881209 0.56513842 0.06256172
0.78854028 0.56513842 0.06256172
0.80816403 0.56513842 0.06256172
0.82767595 0.56513842 0.06256172
0.84706744 0.56513842 0.06256172
0.86632907 0.56513842 0.06256172
0.88545090 0.56513842 0.06256172
0.90442272 0.56513842 0.06256172
0.91886608 0.56513842 0.06256172
0.91886608 0.56513842 0.06256172
0.06256172 0.58633009 0.06256172
0.06256172 0.58633009 0.06256172
0.06256172 0.58633009 0.06256172
0.12778504 0.58633009 0.06256172
0.29792057 0.58633009 0.06256172
0.35179112 0.58633009 0.06256172
0.38999873 0.58633009 0.06256172
0.42144817 0.58633009 0.06256172
0.44918249 0.58633009 0.06256172
0.47462151 0.58633009 0.06256172
0.49854315 0.58633009 0.06256172
0.52141763 0.58633009 0.06256172
0.54354804 0.58633009 0.06256172
0.56513842 0.58633009 0.06256172
0.58633009 0.58633009 0.06256172
0.60722257 0.58633009 0.06256172
0.62788641 0.58633009 0.06256172
0.64837147 0.58633009 0.06256172
0.66871242 0.58633009 0.06256172
0.68893260 0.58633009 0.06256172
0.70904681 0.58633009 0.06256172
0.72906328 0.58633009 0.06256172
0.74898524 0.58633009 0.06256172
0.76881209 0.58633009 0.06256172
0.78854028 0.58633009 0.06256172
0.80816403 0.58633009 0.06256172
0.82767595 0.58633009 0.06256172
0.84706744 0.58633009 0.06256172
0.86632907 0.58633009 0.06256172
0.88545090 0.58633009 0.06256172
0.90442272 0.58633009 0.06256172
0.91886608 0.58633009 0.06256172
0.91886608 0.58633009 0.06256172
0.06256172 0.60722257 0.06256172
0.06256172 0.60722257 0.06256172
0.06256172 0.60722257 0.06256172
0.12778504 0.60722257 0.06256172
0.29792057 0.60722257 0.06256172
0.35179112 0.60722257 0.06256172
0.38999873 0.60722257 0.06256172
0.42144817 0.60722257 0.06256172
0.44918249 0.60722257 0.06256172
0.47462151 0.60722257 0.06256172
0.49854315 0.60722257 0.06256172
0.52141763 0.60722257 0.06256172
0.54354804 0.60722257 0.06256172
0.56513842 0.60722257 0.06256172
0.58633009 0.60722257 0.06256172
0.60722257 0.60722257 0.06256172
0.62788641 0.60722257 0.06256172
0.64837147 0.60722257 0.06256172
0.66871242 0.60722257 0.06256172
0.68893260 0.60722257 0.06256172
0.70904681 0.60722257 0.06256172
0.72906328 0.60722257 0.06256172
0.74898524 0.60722257 0.06256172
0.76881209 0.60722257 0.06256172
0.78854028 0.60722257 0.06256172
0.80816403 0.60722257 0.06256172
0.82767595 0.60722257 0.06256172
0.84706744 0.60722257 0.06256172
0.86632907 0.60722257 0.06256172
0.88545090 0.60722257 0.06256172
0.90442272 0.60722257 0.06256172
0.91886608 0.60722257 0.06256172
0.91886608 0.60722257 0.06256172
0.06256172 0.62788641 0.06256172
0.06256172 0.62788641 0.06256172
0.06256172 0.62788641 0.06256172
0.12778504 0.62788641 0.06256172
0.29792057 0.62788641 0.06256172
0.35179112 0.62788641 0.06256172
0.38999873 0.62788641 0.06256172
0.42144817 0.62788641 0.06256172
0.44918249 0.62788641 0.06256172
0.47462151 0.62788641 0.06256172
0.49854315 0.62788641 0.06256172
0.52141763 0.62788641 0.06256172
0.54354804 0.62788641 0.06256172
0.56513842 0.62788641 0.06256172
0.58633009 0.62788641 0.06256172
0.60722257 0.62788641 0.06256172
0.62788641 0.62788641 0.06256172
0.64837147 0.62788641 0.06256172
0.66871242 0.62788641 0.06256172
0.68893260 0.62788641 0.06256172
0.70904681 0.62788641 0.06256172
0.72906328 0.62788641 0.06256172
0.74898524 0.62788641 0.06256172
0.76881209 0.62788641 0.06256172
0.78854028 0.62788641 0.06256172
0.80816403 0.62788641 0.06256172
0.82767595 0.62788641 0.06256172
0.84706744 0.62788641 0.06256172
0.86632907 0.62788641 0.06256172
0.88545090 0.62788641 0.06256172
0.90442272 0.62788641 0.06256172
0.91886608 0.62788641 0.06256172
0.91886608 0.62788641 0.06256172
0.06256172 0.64837147 0.06256172
0.06256172 0.64837147 0.06256172
0.06256172 0.64837147 0.06256172
0.12778504 0.64837147 0.06256172
0.29792057 0.64837147 0.06256172
0.35179112 0.64837147 0.06256172
0.38999873 0.64837147 0.06256172
0.42144817 0.64837147 0.06256172
0.44918249 0.64837147 0.06256172
0.47462151 0.64837147 0.06256172
0.49854315 0.64837147 0.06256172
0.52141763 0.64837147 0.06256172
0.54354804 0.64837147 0.06256172
0.56513842 0.64837147 0.06256172
0.58633009 0.64837147 0.06256172
0.60722257 0.64837147 0.06256172
0.62788641 0.64837147 0.06256172
0.64837147 0.64837147 0.06256172
0.66871242 0.64837147 0.06256172
0.68893260 0.64837147 0.06256172
0.70904681 0.64837147 0.06256172
0.72906328 0.64837147 0.06256172
0.74898524 0.64837147 0.06256172
0.76881209 0.64837147 0.06256172
0.78854028 0.64837147 0.06256172
0.80816403 0.64837147 0.06256172
0.82767595 0.64837147 0.06256172
0.84706744 0.64837147 0.06256172
0.86632907 0.64837147 0.06256172
0.88545090 0.64837147 0.06256172
0.90442272 0.64837147 0.06256172
0.91886608 0.64837147 0.06256172
0.91886608 0.64837147 0.06256172
0.06256172 0.66871242 0.06256172
0.06256172 0.66871242 0.06256172
0.06256172 0.66871242 0.06256172
0.12778504 0.66871242 0.06256172
0.29792057 0.66871242 0.06256172
0.35179112 0.66871242 0.06256172
0.38999873 0.66871242 0.06256172
0.42144817 0.66871242 0.06256172
0.44918249 0.66871242 0.06256172
0.47462151 0.66871242 0.06256172
0.49854315 0.66871242 0.06256172
0.52141763 0.66871242 0.06256172
0.54354804 0.66871242 0.06256172
0.56513842 0.66871242 0.06256172
0.58633009 0.66871242 0.06256172
0.60722257 0.66871242 0.06256172
0.62788641 0.66871242 0.06256172
0.64837147 0.66871242 0.06256172
0.66871242 0.66871242 0.06256172
0.68893260 0.66871242 0.06256172
0.70904681 0.66871242 0.06256172
0.72906328 0.66871242 0.06256172
0.74898524 0.66871242 0.06256172
0.76881209 0.66871242 0.06256172
0.78854028 0.66871242 0.06256172
0.80816403 0.66871242 0.06256172
0.82767595 0.66871242 0.06256172
0.84706744 0.66871242 0.06256172
0.86632907 0.66871242 0.06256172
0.88545090 0.66871242 0.06256172
0.90442272 0.66871242 0.06256172
0.91886608 0.66871242 0.06256172
0.91886608 0.66871242 0.06256172
0.06256172 0.68893260 0.06256172
0.06256172 0.68893260 0.06256172
0.06256172 0.68893260 0.06256172
0.12778504 0.68893260 0.06256172
0.29792057 0.68893260 0.06256172
0.35179112 0.68893260 0.06256172
0.38999873 0.68893260 0.06256172
0.42144817 0.68893260 0.06256172
0.44918249 0.68893260 0.06256172
0.47462151 0.68893260 0.06256172
0.49854315 0.68893260 0.06256172
0.52141763 0.68893260 0.06256172
0.54354804 0.68893260 0.06256172
0.56513842 0.68893260 0.06256172
0.58633009 0.68893260 0.06256172
0.60722257 0.68893260 0.06256172
0.62788641 0.68893260 0.06256172
0.64837147 0.68893260 0.06256172
0.66871242 0.68893260 0.06256172
0.68893260 0.68893260 0.06256172
0.70904681 0.68893260 0.06256172
0.72906328 0.68893260 0.06256172
0.74898524 0.68893260 0.06256172
0.76881209 0.68893260 0.06256172
0.78854028 0.68893260 0.06256172
0.80816403 0.68893260 0.06256172
0.82767595 0.68893260 0.06256172
0.84706744 0.68893260 0.06256172
0.86632907 0.68893260 0.06256172
0.88545090 0.68893260 0.06256172
0.90442272 0.68893260 0.06256172
0.91886608 0.68893260 0.06256172
0.91886608 0.68893260 0.06256172
0.06256172 0.70904681 0.06256172
0.06256172 0.70904681 0.06256172
0.06256172 0.70904681 0.06256172
0.12778504 0.70904681 0.06256172
0.29792057 0.70904681 0.06256172
0.35179112 0.70904681 0.06256172
0.38999873 0.70904681 0.06256172
0.42144817 0.70904681 0.06256172
0.44918249 0.70904681 0.06256172
0.47462151 0.70904681 0.06256172
0.49854315 0.70904681 0.06256172
0.52141763 0.70904681 0.06256172
0.54354804 0.70904681 0.06256172
0.56513842 0.70904681 0.06256172
0.58633009 0.70904681 0.06256172
0.60722257 0.70904681 0.06256172
0.62788641 0.70904681 0.06256172
0.64837147 0.70904681 0.06256172
0.66871242 0.70904681 0.06256172
0.68893260 0.70904681 0.06256172
0.70904681 0.70904681 0.06256172
0.72906328 0.70904681 0.06256172
0.74898524 0.70904681 0.06256172
0.76881209 0.70904681 0.06256172
0.78854028 0.70904681 0.06256172
0.80816403 0.70904681 0.06256172
0.82767595 0.70904681 0.06256172
0.84706744 0.70904681 0.06256172
0.86632907 0.70904681 0.06256172
0.88545090 0.70904681 0.06256172
0.90442272 0.70904681 0.06256172
0.91886608 0.70904681 0.06256172
0.91886608 0.70904681 0.06256172
0.06256172 0.72906328 0.06256172
0.06256172 0.72906328 0.06256172
0.06256172 0.72906328 0.06256172
0.12778504 0.72906328 0.06256172
0.29792057 0.72906328 0.06256172
0.35179112 0.72906328 0.06256172
0.38999873 0.72906328 0.06256172
0.42144817 0.72906328 0.06256172
0.44918249 0.72906328 0.06256172
0.47462151 0.72906328 0.06256172
0.49854315 0.72906328 0.06256172
0.52141763 0.72906328 0.06256172
0.54354804 0.72906328 0.06256172
0.56513842 0.72906328 0.06256172
0.58633009 0.72906328 0.06256172
0.60722257 0.72906328 0.06256172
0.62788641 0.72906328 0.06256172
0.64837147 0.72906328 0.06256172
0.66871242 0.72906328 0.06256172
0.68893260 0.72906328 0.06256172
0.70904681 0.72906328 0.06256172
0.72906328 0.72906328 0.06256172
0.74898524 0.72906328 0.06256172
0.76881209 0.72906328 0.06256172
0.78854028 0.72906328 0.06256172
0.80816403 0.72906328 0.06256172
0.82767595 0.72906328 0.06256172
