src/ffmpeg_scripts/luts/flog-experimental_-1p67.cube
TITLE "flog-experimental_-1p67"
LUT_3D_SIZE 5
# Fujifilm F-Log/Rec2020 -> PQ (EOTF Only)/Rec2020, CineEI Shift -1.67, Black Level 0.00% IRE, Input 109% -> Output 100% - Created with LUTCalc v4.01 by Ben Turley October 2020
0.00000073 0.00000073 0.00000073
0.21502778 0.00000073 0.00000073
0.39713013 0.00000073 0.00000073
0.60326549 0.00000073 0.00000073
0.83770816 0.00000073 0.00000073
0.00000073 0.21502778 0.00000073
0.21502778 0.21502778 0.00000073
0.39713013 0.21502778 0.00000073
0.60326549 0.21502778 0.00000073
0.83770816 0.21502778 0.00000073
0.00000073 0.39713013 0.00000073
0.21502778 0.39713013 0.00000073
0.39713013 0.39713013 0.00000073
0.60326549 0.39713013 0.00000073
0.83770816 0.39713013 0.00000073
0.00000073 0.60326549 0.00000073
0.21502778 0.60326549 0.00000073
0.39713013 0.60326549 0.00000073
0.60326549 0.60326549 0.00000073
0.83770816 0.60326549 0.00000073
0.00000073 0.83770816 0.00000073
0.21502778 0.83770816 0.00000073
0.39713013 0.83770816 0.00000073
0.60326549 0.83770816 0.00000073
0.83770816 0.83770816 0.00000073
0.00000073 0.00000073 0.21502778
0.21502778 0.00000073 0.21502778
0.39713013 0.00000073 0.21502778
0.60326549 0.00000073 0.21502778
0.83770816 0.00000073 0.21502778
0.00000073 0.21502778 0.21502778
0.21502778 0.21502778 0.21502778
0.39713013 0.21502778 0.21502778
0.60326549 0.21502778 0.21502778
0.83770816 0.21502778 0.21502778
0.00000073 0.39713013 0.21502778
0.21502778 0.39713013 0.21502778
0.39713013 0.39713013 0.21502778
0.60326549 0.39713013 0.21502778
0.83770816 0.39713013 0.21502778
0.00000073 0.60326549 0.21502778
0.21502778 0.60326549 0.21502778
0.39713013 0.60326549 0.21502778
0.60326549 0.60326549 0.21502778
0.83770816 0.60326549 0.21502778
0.00000073 0.83770816 0.21502778
0.21502778 0.83770816 0.21502778
0.39713013 0.83770816 0.21502778
0.60326549 0.83770816 0.21502778
0.83770816 0.83770816 0.21502778
0.00000073 0.00000073 0.39713013
0.21502778 0.00000073 0.39713013
0.39713013 0.00000073 0.39713013
0.60326549 0.00000073 0.39713013
0.83770816 0.00000073 0.39713013
0.00000073 0.21502778 0.39713013
0.21502778 0.21502778 0.39713013
0.39713013 0.21502778 0.39713013
0.60326549 0.21502778 0.39713013
0.83770816 0.21502778 0.39713013
0.00000073 0.39713013 0.39713013
0.21502778 0.39713013 0.39713013
0.39713013 0.39713013 0.39713013
0.60326549 0.39713013 0.39713013
0.83770816 0.39713013 0.39713013
0.00000073 0.60326549 0.39713013
0.21502778 0.60326549 0.39713013
0.39713013 0.60326549 0.39713013
0.60326549 0.60326549 0.39713013
0.83770816 0.60326549 0.39713013
0.00000073 0.83770816 0.39713013
0.21502778 0.83770816 0.39713013
0.39713013 0.83770816 0.39713013
0.60326549 0.83770816 0.39713013
0.83770816 0.83770816 0.39713013
0.00000073 0.00000073 0.60326549
0.21502778 0.00000073 0.60326549
0.39713013 0.00000073 0.60326549
0.60326549 0.00000073 0.60326549
0.83770816 0.00000073 0.60326549
0.00000073 0.21502778 0.60326549
0.21502778 0.21502778 0.60326549
0.39713013 0.21502778 0.60326549
0.60326549 0.21502778 0.60326549
0.83770816 0.21502778 0.60326549
0.00000073 0.39713013 0.60326549
0.21502778 0.39713013 0.60326549
0.39713013 0.39713013 0.60326549
0.60326549 0.39713013 0.60326549
0.83770816 0.39713013 0.60326549
0.00000073 0.60326549 0.60326549
0.21502778 0.60326549 0.60326549
0.39713013 0.60326549 0.60326549
0.60326549 0.60326549 0.60326549
0.83770816 0.60326549 0.60326549
0.00000073 0.83770816 0.60326549
0.21502778 0.83770816 0.60326549
0.39713013 0.83770816 0.60326549
0.60326549 0.83770816 0.60326549
0.83770816 0.83770816 0.60326549
0.00000073 0.00000073 0.83770816
0.21502778 0.00000073 0.83770816
0.39713013 0.00000073 0.83770816
0.60326549 0.00000073 0.83770816
0.83770816 0.00000073 0.83770816
0.00000073 0.21502778 0.83770816
0.21502778 0.21502778 0.83770816
0.39713013 0.21502778 0.83770816
0.60326549 0.21502778 0.83770816
0.83770816 0.21502778 0.83770816
0.00000073 0.39713013 0.83770816
0.21502778 0.39713013 0.83770816
0.39713013 0.39713013 0.83770816
0.60326549 0.39713013 0.83770816
0.83770816 0.39713013 0.83770816
0.00000073 0.60326549 0.83770816
0.21502778 0.60326549 0.83770816
0.39713013 0.60326549 0.83770816
0.60326549 0.60326549 0.83770816
0.83770816 0.60326549 0.83770816
0.00000073 0.83770816 0.83770816
0.21502778 0.83770816 0.83770816
0.39713013 0.83770816 0.83770816
0.60326549 0.83770816 0.83770816
0.83770816 0.83770816 0.83770816
