src/ffmpeg_scripts/luts/flog-smpte2084_1p67.cube
TITLE "flog-smpte2084_1p67"
LUT_3D_SIZE 33
# Fujifilm F-Log/Rec2020 -> PQ (EOTF Only)/Rec2020, CineEI Shift 1.67, Black Level 0.00% IRE, Input 109% -> Output 109% - Created with LUTCalc v4.01 by Ben Turley October 2020
0.06256172 0.06256172 0.06256172
0.06256172 0.06256172 0.06256172
0.06256172 0.06256172 0.06256172
0.09488391 0.06256172 0.06256172
0.20746837 0.06256172 0.06256172
0.24822498 0.06256172 0.06256172
0.27830338 0.06256172 0.06256172
0.30373697 0.06256172 0.06256172
0.32664582 0.06256172 0.06256172
0.34803762 0.06256172 0.06256172
0.36847256 0.06256172 0.06256172
0.38829325 0.06256172 0.06256172
0.40772270 0.06256172 0.06256172
0.42691210 0.06256172 0.06256172
0.44596654 0.06256172 0.06256172
0.46495999 0.06256172 0.06256172
0.48394444 0.06256172 0.06256172
0.50295589 0.06256172 0.06256172
0.52201839 0.06256172 0.06256172
0.54114687 0.06256172 0.06256172
0.56034916 0.06256172 0.06256172
0.57962757 0.06256172 0.06256172
0.59898003 0.06256172 0.06256172
0.61840101 0.06256172 0.06256172
0.63788224 0.06256172 0.06256172
0.65741333 0.06256172 0.06256172
0.67698222 0.06256172 0.06256172
0.69657561 0.06256172 0.06256172
0.71617927 0.06256172 0.06256172
0.73577831 0.06256172 0.06256172
0.75535744 0.06256172 0.06256172
0.77490117 0.06256172 0.06256172
0.79439395 0.06256172 0.06256172
0.06256172 0.06256172 0.06256172
0.06256172 0.06256172 0.06256172
0.06256172 0.06256172 0.06256172
0.09488391 0.06256172 0.06256172
0.20746837 0.06256172 0.06256172
0.24822498 0.06256172 0.06256172
0.27830338 0.06256172 0.06256172
0.30373697 0.06256172 0.06256172
0.32664582 0.06256172 0.06256172
0.34803762 0.06256172 0.06256172
0.36847256 0.06256172 0.06256172
0.38829325 0.06256172 0.06256172
0.40772270 0.06256172 0.06256172
0.42691210 0.06256172 0.06256172
0.44596654 0.06256172 0.06256172
0.46495999 0.06256172 0.06256172
0.48394444 0.06256172 0.06256172
0.50295589 0.06256172 0.06256172
0.52201839 0.06256172 0.06256172
0.54114687 0.06256172 0.06256172
0.56034916 0.06256172 0.06256172
0.57962757 0.06256172 0.06256172
0.59898003 0.06256172 0.06256172
0.61840101 0.06256172 0.06256172
0.63788224 0.06256172 0.06256172
0.65741333 0.06256172 0.06256172
0.67698222 0.06256172 0.06256172
0.69657561 0.06256172 0.06256172
0.71617927 0.06256172 0.06256172
0.73577831 0.06256172 0.06256172
0.75535744 0.06256172 0.06256172
0.77490117 0.06256172 0.06256172
0.79439395 0.06256172 0.06256172
0.06256172 0.06256172 0.06256172
0.06256172 0.06256172 0.06256172
0.06256172 0.06256172 0.06256172
0.09488391 0.06256172 0.06256172
0.20746837 0.06256172 0.06256172
0.24822498 0.06256172 0.06256172
0.27830338 0.06256172 0.06256172
0.30373697 0.06256172 0.06256172
0.32664582 0.06256172 0.06256172
0.34803762 0.06256172 0.06256172
0.36847256 0.06256172 0.06256172
0.38829325 0.06256172 0.06256172
0.40772270 0.06256172 0.06256172
0.42691210 0.06256172 0.06256172
0.44596654 0.06256172 0.06256172
0.46495999 0.06256172 0.06256172
0.48394444 0.06256172 0.06256172
0.50295589 0.06256172 0.06256172
0.52201839 0.06256172 0.06256172
0.54114687 0.06256172 0.06256172
0.56034916 0.06256172 0.06256172
0.57962757 0.06256172 0.06256172
0.59898003 0.06256172 0.06256172
0.61840101 0.06256172 0.06256172
0.63788224 0.06256172 0.06256172
0.65741333 0.06256172 0.06256172
0.67698222 0.06256172 0.06256172
0.69657561 0.06256172 0.06256172
0.71617927 0.06256172 0.06256172
0.73577831 0.06256172 0.06256172
0.75535744 0.06256172 0.06256172
0.77490117 0.06256172 0.06256172
0.79439395 0.06256172 0.06256172
0.06256172 0.09488391 0.06256172
0.06256172 0.09488391 0.06256172
0.06256172 0.09488391 0.06256172
0.09488391 0.09488391 0.06256172
0.20746837 0.09488391 0.06256172
0.24822498 0.09488391 0.06256172
0.27830338 0.09488391 0.06256172
0.30373697 0.09488391 0.06256172
0.32664582 0.09488391 0.06256172
0.34803762 0.09488391 0.06256172
0.36847256 0.09488391 0.06256172
0.38829325 0.09488391 0.06256172
0.40772270 0.09488391 0.06256172
0.42691210 0.09488391 0.06256172
0.44596654 0.09488391 0.06256172
0.46495999 0.09488391 0.06256172
0.48394444 0.09488391 0.06256172
0.50295589 0.09488391 0.06256172
0.52201839 0.09488391 0.06256172
0.54114687 0.09488391 0.06256172
0.56034916 0.09488391 0.06256172
0.57962757 0.09488391 0.06256172
0.59898003 0.09488391 0.06256172
0.61840101 0.09488391 0.06256172
0.63788224 0.09488391 0.06256172
0.65741333 0.09488391 0.06256172
0.67698222 0.09488391 0.06256172
0.69657561 0.09488391 0.06256172
0.71617927 0.09488391 0.06256172
0.73577831 0.09488391 0.06256172
0.75535744 0.09488391 0.06256172
0.77490117 0.09488391 0.06256172
0.79439395 0.09488391 0.06256172
0.06256172 0.20746837 0.06256172
0.06256172 0.20746837 0.06256172
0.06256172 0.20746837 0.06256172
0.09488391 0.20746837 0.06256172
0.20746837 0.20746837 0.06256172
0.24822498 0.20746837 0.06256172
0.27830338 0.20746837 0.06256172
0.30373697 0.20746837 0.06256172
0.32664582 0.20746837 0.06256172
0.34803762 0.20746837 0.06256172
0.36847256 0.20746837 0.06256172
0.38829325 0.20746837 0.06256172
0.40772270 0.20746837 0.06256172
0.42691210 0.20746837 0.06256172
0.44596654 0.20746837 0.06256172
0.46495999 0.20746837 0.06256172
0.48394444 0.20746837 0.06256172
0.50295589 0.20746837 0.06256172
0.52201839 0.20746837 0.06256172
0.54114687 0.20746837 0.06256172
0.56034916 0.20746837 0.06256172
0.57962757 0.20746837 0.06256172
0.59898003 0.20746837 0.06256172
0.61840101 0.20746837 0.06256172
0.63788224 0.20746837 0.06256172
0.65741333 0.20746837 0.06256172
0.67698222 0.20746837 0.06256172
0.69657561 0.20746837 0.06256172
0.71617927 0.20746837 0.06256172
0.73577831 0.20746837 0.06256172
0.75535744 0.20746837 0.06256172
0.77490117 0.20746837 0.06256172
0.79439395 0.20746837 0.06256172
0.06256172 0.24822498 0.06256172
0.06256172 0.24822498 0.06256172
0.06256172 0.24822498 0.06256172
0.09488391 0.24822498 0.06256172
0.20746837 0.24822498 0.06256172
0.24822498 0.24822498 0.06256172
0.27830338 0.24822498 0.06256172
0.30373697 0.24822498 0.06256172
0.32664582 0.24822498 0.06256172
0.34803762 0.24822498 0.06256172
0.36847256 0.24822498 0.06256172
0.38829325 0.24822498 0.06256172
0.40772270 0.24822498 0.06256172
0.42691210 0.24822498 0.06256172
0.44596654 0.24822498 0.06256172
0.46495999 0.24822498 0.06256172
0.48394444 0.24822498 0.06256172
0.50295589 0.24822498 0.06256172
0.52201839 0.24822498 0.06256172
0.54114687 0.24822498 0.06256172
0.56034916 0.24822498 0.06256172
0.57962757 0.24822498 0.06256172
0.59898003 0.24822498 0.06256172
0.61840101 0.24822498 0.06256172
0.63788224 0.24822498 0.06256172
0.65741333 0.24822498 0.06256172
0.67698222 0.24822498 0.06256172
0.69657561 0.24822498 0.06256172
0.71617927 0.24822498 0.06256172
0.73577831 0.24822498 0.06256172
0.75535744 0.24822498 0.06256172
0.77490117 0.24822498 0.06256172
0.79439395 0.24822498 0.06256172
0.06256172 0.27830338 0.06256172
0.06256172 0.27830338 0.06256172
0.06256172 0.27830338 0.06256172
0.09488391 0.27830338 0.06256172
0.20746837 0.27830338 0.06256172
0.24822498 0.27830338 0.06256172
0.27830338 0.27830338 0.06256172
0.30373697 0.27830338 0.06256172
0.32664582 0.27830338 0.06256172
0.34803762 0.27830338 0.06256172
0.36847256 0.27830338 0.06256172
0.38829325 0.27830338 0.06256172
0.40772270 0.27830338 0.06256172
0.42691210 0.27830338 0.06256172
0.44596654 0.27830338 0.06256172
0.46495999 0.27830338 0.06256172
0.48394444 0.27830338 0.06256172
0.50295589 0.27830338 0.06256172
0.52201839 0.27830338 0.06256172
0.54114687 0.27830338 0.06256172
0.56034916 0.27830338 0.06256172
0.57962757 0.27830338 0.06256172
0.59898003 0.27830338 0.06256172
0.61840101 0.27830338 0.06256172
0.63788224 0.27830338 0.06256172
0.65741333 0.27830338 0.06256172
0.67698222 0.27830338 0.06256172
0.69657561 0.27830338 0.06256172
0.71617927 0.27830338 0.06256172
0.73577831 0.27830338 0.06256172
0.75535744 0.27830338 0.06256172
0.77490117 0.27830338 0.06256172
0.79439395 0.27830338 0.06256172
0.06256172 0.30373697 0.06256172
0.06256172 0.30373697 0.06256172
0.06256172 0.30373697 0.06256172
0.09488391 0.30373697 0.06256172
0.20746837 0.30373697 0.06256172
0.24822498 0.30373697 0.06256172
0.27830338 0.30373697 0.06256172
0.30373697 0.30373697 0.06256172
0.32664582 0.30373697 0.06256172
0.34803762 0.30373697 0.06256172
0.36847256 0.30373697 0.06256172
0.38829325 0.30373697 0.06256172
0.40772270 0.30373697 0.06256172
0.42691210 0.30373697 0.06256172
0.44596654 0.30373697 0.06256172
0.46495999 0.30373697 0.06256172
0.48394444 0.30373697 0.06256172
0.50295589 0.30373697 0.06256172
0.52201839 0.30373697 0.06256172
0.54114687 0.30373697 0.06256172
0.56034916 0.30373697 0.06256172
0.57962757 0.30373697 0.06256172
0.59898003 0.30373697 0.06256172
0.61840101 0.30373697 0.06256172
0.63788224 0.30373697 0.06256172
0.65741333 0.30373697 0.06256172
0.67698222 0.30373697 0.06256172
0.69657561 0.30373697 0.06256172
0.71617927 0.30373697 0.06256172
0.73577831 0.30373697 0.06256172
0.75535744 0.30373697 0.06256172
0.77490117 0.30373697 0.06256172
0.79439395 0.30373697 0.06256172
0.06256172 0.32664582 0.06256172
0.06256172 0.32664582 0.06256172
0.06256172 0.32664582 0.06256172
0.09488391 0.32664582 0.06256172
0.20746837 0.32664582 0.06256172
0.24822498 0.32664582 0.06256172
0.27830338 0.32664582 0.06256172
0.30373697 0.32664582 0.06256172
0.32664582 0.32664582 0.06256172
0.34803762 0.32664582 0.06256172
0.36847256 0.32664582 0.06256172
0.38829325 0.32664582 0.06256172
0.40772270 0.32664582 0.06256172
0.42691210 0.32664582 0.06256172
0.44596654 0.32664582 0.06256172
0.46495999 0.32664582 0.06256172
0.48394444 0.32664582 0.06256172
0.50295589 0.32664582 0.06256172
0.52201839 0.32664582 0.06256172
0.54114687 0.32664582 0.06256172
0.56034916 0.32664582 0.06256172
0.57962757 0.32664582 0.06256172
0.59898003 0.32664582 0.06256172
0.61840101 0.32664582 0.06256172
0.63788224 0.32664582 0.06256172
0.65741333 0.32664582 0.06256172
0.67698222 0.32664582 0.06256172
0.69657561 0.32664582 0.06256172
0.71617927 0.32664582 0.06256172
0.73577831 0.32664582 0.06256172
0.75535744 0.32664582 0.06256172
0.77490117 0.32664582 0.06256172
0.79439395 0.32664582 0.06256172
0.06256172 0.34803762 0.06256172
0.06256172 0.34803762 0.06256172
0.06256172 0.34803762 0.06256172
0.09488391 0.34803762 0.06256172
0.20746837 0.34803762 0.06256172
0.24822498 0.34803762 0.06256172
0.27830338 0.34803762 0.06256172
0.30373697 0.34803762 0.06256172
0.32664582 0.34803762 0.06256172
0.34803762 0.34803762 0.06256172
0.36847256 0.34803762 0.06256172
0.38829325 0.34803762 0.06256172
0.40772270 0.34803762 0.06256172
0.42691210 0.34803762 0.06256172
0.44596654 0.34803762 0.06256172
0.46495999 0.34803762 0.06256172
0.48394444 0.34803762 0.06256172
0.50295589 0.34803762 0.06256172
0.52201839 0.34803762 0.06256172
0.54114687 0.34803762 0.06256172
0.56034916 0.34803762 0.06256172
0.57962757 0.34803762 0.06256172
0.59898003 0.34803762 0.06256172
0.61840101 0.34803762 0.06256172
0.63788224 0.34803762 0.06256172
0.65741333 0.34803762 0.06256172
0.67698222 0.34803762 0.06256172
0.69657561 0.34803762 0.06256172
0.71617927 0.34803762 0.06256172
0.73577831 0.34803762 0.06256172
0.75535744 0.34803762 0.06256172
0.77490117 0.34803762 0.06256172
0.79439395 0.34803762 0.06256172
0.06256172 0.36847256 0.06256172
0.06256172 0.36847256 0.06256172
0.06256172 0.36847256 0.06256172
0.09488391 0.36847256 0.06256172
0.20746837 0.36847256 0.06256172
0.24822498 0.36847256 0.06256172
0.27830338 0.36847256 0.06256172
0.30373697 0.36847256 0.06256172
0.32664582 0.36847256 0.06256172
0.34803762 0.36847256 0.06256172
0.36847256 0.36847256 0.06256172
0.38829325 0.36847256 0.06256172
0.40772270 0.36847256 0.06256172
0.42691210 0.36847256 0.06256172
0.44596654 0.36847256 0.06256172
0.46495999 0.36847256 0.06256172
0.48394444 0.36847256 0.06256172
0.50295589 0.36847256 0.06256172
0.52201839 0.36847256 0.06256172
0.54114687 0.36847256 0.06256172
0.56034916 0.36847256 0.06256172
0.57962757 0.36847256 0.06256172
0.59898003 0.36847256 0.06256172
0.61840101 0.36847256 0.06256172
0.63788224 0.36847256 0.06256172
0.65741333 0.36847256 0.06256172
0.67698222 0.36847256 0.06256172
0.69657561 0.36847256 0.06256172
0.71617927 0.36847256 0.06256172
0.73577831 0.36847256 0.06256172
0.75535744 0.36847256 0.06256172
0.77490117 0.36847256 0.06256172
0.79439395 0.36847256 0.06256172
0.06256172 0.38829325 0.06256172
0.06256172 0.38829325 0.06256172
0.06256172 0.38829325 0.06256172
0.09488391 0.38829325 0.06256172
0.20746837 0.38829325 0.06256172
0.24822498 0.38829325 0.06256172
0.27830338 0.38829325 0.06256172
0.30373697 0.38829325 0.06256172
0.32664582 0.38829325 0.06256172
0.34803762 0.38829325 0.06256172
0.36847256 0.38829325 0.06256172
0.38829325 0.38829325 0.06256172
0.40772270 0.38829325 0.06256172
0.42691210 0.38829325 0.06256172
0.44596654 0.38829325 0.06256172
0.46495999 0.38829325 0.06256172
0.48394444 0.38829325 0.06256172
0.50295589 0.38829325 0.06256172
0.52201839 0.38829325 0.06256172
0.54114687 0.38829325 0.06256172
0.56034916 0.38829325 0.06256172
0.57962757 0.38829325 0.06256172
0.59898003 0.38829325 0.06256172
0.61840101 0.38829325 0.06256172
0.63788224 0.38829325 0.06256172
0.65741333 0.38829325 0.06256172
0.67698222 0.38829325 0.06256172
0.69657561 0.38829325 0.06256172
0.71617927 0.38829325 0.06256172
0.73577831 0.38829325 0.06256172
0.75535744 0.38829325 0.06256172
0.77490117 0.38829325 0.06256172
0.79439395 0.38829325 0.06256172
0.06256172 0.40772270 0.06256172
0.06256172 0.40772270 0.06256172
0.06256172 0.40772270 0.06256172
0.09488391 0.40772270 0.06256172
0.20746837 0.40772270 0.06256172
0.24822498 0.40772270 0.06256172
0.27830338 0.40772270 0.06256172
0.30373697 0.40772270 0.06256172
0.32664582 0.40772270 0.06256172
0.34803762 0.40772270 0.06256172
0.36847256 0.40772270 0.06256172
0.38829325 0.40772270 0.06256172
0.40772270 0.40772270 0.06256172
0.42691210 0.40772270 0.06256172
0.44596654 0.40772270 0.06256172
0.46495999 0.40772270 0.06256172
0.48394444 0.40772270 0.06256172
0.50295589 0.40772270 0.06256172
0.52201839 0.40772270 0.06256172
0.54114687 0.40772270 0.06256172
0.56034916 0.40772270 0.06256172
0.57962757 0.40772270 0.06256172
0.59898003 0.40772270 0.06256172
0.61840101 0.40772270 0.06256172
0.63788224 0.40772270 0.06256172
0.65741333 0.40772270 0.06256172
0.67698222 0.40772270 0.06256172
0.69657561 0.40772270 0.06256172
0.71617927 0.40772270 0.06256172
0.73577831 0.40772270 0.06256172
0.75535744 0.40772270 0.06256172
0.77490117 0.40772270 0.06256172
0.79439395 0.40772270 0.06256172
0.06256172 0.42691210 0.06256172
0.06256172 0.42691210 0.06256172
0.06256172 0.42691210 0.06256172
0.09488391 0.42691210 0.06256172
0.20746837 0.42691210 0.06256172
0.24822498 0.42691210 0.06256172
0.27830338 0.42691210 0.06256172
0.30373697 0.42691210 0.06256172
0.32664582 0.42691210 0.06256172
0.34803762 0.42691210 0.06256172
0.36847256 0.42691210 0.06256172
0.38829325 0.42691210 0.06256172
0.40772270 0.42691210 0.06256172
0.42691210 0.42691210 0.06256172
0.44596654 0.42691210 0.06256172
0.46495999 0.42691210 0.06256172
0.48394444 0.42691210 0.06256172
0.50295589 0.42691210 0.06256172
0.52201839 0.42691210 0.06256172
0.54114687 0.42691210 0.06256172
0.56034916 0.42691210 0.06256172
0.57962757 0.42691210 0.06256172
0.59898003 0.42691210 0.06256172
0.61840101 0.42691210 0.06256172
0.63788224 0.42691210 0.06256172
0.65741333 0.42691210 0.06256172
0.67698222 0.42691210 0.06256172
0.69657561 0.42691210 0.06256172
0.71617927 0.42691210 0.06256172
0.73577831 0.42691210 0.06256172
0.75535744 0.42691210 0.06256172
0.77490117 0.42691210 0.06256172
0.79439395 0.42691210 0.06256172
0.06256172 0.44596654 0.06256172
0.06256172 0.44596654 0.06256172
0.06256172 0.44596654 0.06256172
0.09488391 0.44596654 0.06256172
0.20746837 0.44596654 0.06256172
0.24822498 0.44596654 0.06256172
0.27830338 0.44596654 0.06256172
0.30373697 0.44596654 0.06256172
0.32664582 0.44596654 0.06256172
0.34803762 0.44596654 0.06256172
0.36847256 0.44596654 0.06256172
0.38829325 0.44596654 0.06256172
0.40772270 0.44596654 0.06256172
0.42691210 0.44596654 0.06256172
0.44596654 0.44596654 0.06256172
0.46495999 0.44596654 0.06256172
0.48394444 0.44596654 0.06256172
0.50295589 0.44596654 0.06256172
0.52201839 0.44596654 0.06256172
0.54114687 0.44596654 0.06256172
0.56034916 0.44596654 0.06256172
0.57962757 0.44596654 0.06256172
0.59898003 0.44596654 0.06256172
0.61840101 0.44596654 0.06256172
0.63788224 0.44596654 0.06256172
0.65741333 0.44596654 0.06256172
0.67698222 0.44596654 0.06256172
0.69657561 0.44596654 0.06256172
0.71617927 0.44596654 0.06256172
0.73577831 0.44596654 0.06256172
0.75535744 0.44596654 0.06256172
0.77490117 0.44596654 0.06256172
0.79439395 0.44596654 0.06256172
0.06256172 0.46495999 0.06256172
0.06256172 0.46495999 0.06256172
0.06256172 0.46495999 0.06256172
0.09488391 0.46495999 0.06256172
0.20746837 0.46495999 0.06256172
0.24822498 0.46495999 0.06256172
0.27830338 0.46495999 0.06256172
0.30373697 0.46495999 0.06256172
0.32664582 0.46495999 0.06256172
0.34803762 0.46495999 0.06256172
0.36847256 0.46495999 0.06256172
0.38829325 0.46495999 0.06256172
0.40772270 0.46495999 0.06256172
0.42691210 0.46495999 0.06256172
0.44596654 0.46495999 0.06256172
0.46495999 0.46495999 0.06256172
0.48394444 0.46495999 0.06256172
0.50295589 0.46495999 0.06256172
0.52201839 0.46495999 0.06256172
0.54114687 0.46495999 0.06256172
0.56034916 0.46495999 0.06256172
0.57962757 0.46495999 0.06256172
0.59898003 0.46495999 0.06256172
0.61840101 0.46495999 0.06256172
0.63788224 0.46495999 0.06256172
0.65741333 0.46495999 0.06256172
0.67698222 0.46495999 0.06256172
0.69657561 0.46495999 0.06256172
0.71617927 0.46495999 0.06256172
0.73577831 0.46495999 0.06256172
0.75535744 0.46495999 0.06256172
0.77490117 0.46495999 0.06256172
0.79439395 0.46495999 0.06256172
0.06256172 0.48394444 0.06256172
0.06256172 0.48394444 0.06256172
0.06256172 0.48394444 0.06256172
0.09488391 0.48394444 0.06256172
0.20746837 0.48394444 0.06256172
0.24822498 0.48394444 0.06256172
0.27830338 0.48394444 0.06256172
0.30373697 0.48394444 0.06256172
0.32664582 0.48394444 0.06256172
0.34803762 0.48394444 0.06256172
0.36847256 0.48394444 0.06256172
0.38829325 0.48394444 0.06256172
0.40772270 0.48394444 0.06256172
0.42691210 0.48394444 0.06256172
0.44596654 0.48394444 0.06256172
0.46495999 0.48394444 0.06256172
0.48394444 0.48394444 0.06256172
0.50295589 0.48394444 0.06256172
0.52201839 0.48394444 0.06256172
0.54114687 0.48394444 0.06256172
0.56034916 0.48394444 0.06256172
0.57962757 0.48394444 0.06256172
0.59898003 0.48394444 0.06256172
0.61840101 0.48394444 0.06256172
0.63788224 0.48394444 0.06256172
0.65741333 0.48394444 0.06256172
0.67698222 0.48394444 0.06256172
0.69657561 0.48394444 0.06256172
0.71617927 0.48394444 0.06256172
0.73577831 0.48394444 0.06256172
0.75535744 0.48394444 0.06256172
0.77490117 0.48394444 0.06256172
0.79439395 0.48394444 0.06256172
0.06256172 0.50295589 0.06256172
0.06256172 0.50295589 0.06256172
0.06256172 0.50295589 0.06256172
0.09488391 0.50295589 0.06256172
0.20746837 0.50295589 0.06256172
0.24822498 0.50295589 0.06256172
0.27830338 0.50295589 0.06256172
0.30373697 0.50295589 0.06256172
0.32664582 0.50295589 0.06256172
0.34803762 0.50295589 0.06256172
0.36847256 0.50295589 0.06256172
0.38829325 0.50295589 0.06256172
0.40772270 0.50295589 0.06256172
0.42691210 0.50295589 0.06256172
0.44596654 0.50295589 0.06256172
0.46495999 0.50295589 0.06256172
0.48394444 0.50295589 0.06256172
0.50295589 0.50295589 0.06256172
0.52201839 0.50295589 0.06256172
0.54114687 0.50295589 0.06256172
0.56034916 0.50295589 0.06256172
0.57962757 0.50295589 0.06256172
0.59898003 0.50295589 0.06256172
0.61840101 0.50295589 0.06256172
0.63788224 0.50295589 0.06256172
0.65741333 0.50295589 0.06256172
0.67698222 0.50295589 0.06256172
0.69657561 0.50295589 0.06256172
0.71617927 0.50295589 0.06256172
0.73577831 0.50295589 0.06256172
0.75535744 0.50295589 0.06256172
0.77490117 0.50295589 0.06256172
0.79439395 0.50295589 0.06256172
0.06256172 0.52201839 0.06256172
0.06256172 0.52201839 0.06256172
0.06256172 0.52201839 0.06256172
0.09488391 0.52201839 0.06256172
0.20746837 0.52201839 0.06256172
0.24822498 0.52201839 0.06256172
0.27830338 0.52201839 0.06256172
0.30373697 0.52201839 0.06256172
0.32664582 0.52201839 0.06256172
0.34803762 0.52201839 0.06256172
0.36847256 0.52201839 0.06256172
0.38829325 0.52201839 0.06256172
0.40772270 0.52201839 0.06256172
0.42691210 0.52201839 0.06256172
0.44596654 0.52201839 0.06256172
0.46495999 0.52201839 0.06256172
0.48394444 0.52201839 0.06256172
0.50295589 0.52201839 0.06256172
0.52201839 0.52201839 0.06256172
0.54114687 0.52201839 0.06256172
0.56034916 0.52201839 0.06256172
0.57962757 0.52201839 0.06256172
0.59898003 0.52201839 0.06256172
0.61840101 0.52201839 0.06256172
0.63788224 0.52201839 0.06256172
0.65741333 0.52201839 0.06256172
0.67698222 0.52201839 0.06256172
0.69657561 0.52201839 0.06256172
0.71617927 0.52201839 0.06256172
0.73577831 0.52201839 0.06256172
0.75535744 0.52201839 0.06256172
0.77490117 0.52201839 0.06256172
0.79439395 0.52201839 0.06256172
0.06256172 0.54114687 0.06256172
0.06256172 0.54114687 0.06256172
0.06256172 0.54114687 0.06256172
0.09488391 0.54114687 0.06256172
0.20746837 0.54114687 0.06256172
0.24822498 0.54114687 0.06256172
0.27830338 0.54114687 0.06256172
0.30373697 0.54114687 0.06256172
0.32664582 0.54114687 0.06256172
0.34803762 0.54114687 0.06256172
0.36847256 0.54114687 0.06256172
0.38829325 0.54114687 0.06256172
0.40772270 0.54114687 0.06256172
0.42691210 0.54114687 0.06256172
0.44596654 0.54114687 0.06256172
0.46495999 0.54114687 0.06256172
0.48394444 0.54114687 0.06256172
0.50295589 0.54114687 0.06256172
0.52201839 0.54114687 0.06256172
0.54114687 0.54114687 0.06256172
0.56034916 0.54114687 0.06256172
0.57962757 0.54114687 0.06256172
0.59898003 0.54114687 0.06256172
0.61840101 0.54114687 0.06256172
0.63788224 0.54114687 0.06256172
0.65741333 0.54114687 0.06256172
0.67698222 0.54114687 0.06256172
0.69657561 0.54114687 0.06256172
0.71617927 0.54114687 0.06256172
0.73577831 0.54114687 0.06256172
0.75535744 0.54114687 0.06256172
0.77490117 0.54114687 0.06256172
0.79439395 0.54114687 0.06256172
0.06256172 0.56034916 0.06256172
0.06256172 0.56034916 0.06256172
0.06256172 0.56034916 0.06256172
0.09488391 0.56034916 0.06256172
0.20746837 0.56034916 0.06256172
0.24822498 0.56034916 0.06256172
0.27830338 0.56034916 0.06256172
0.30373697 0.56034916 0.06256172
0.32664582 0.56034916 0.06256172
0.34803762 0.56034916 0.06256172
0.36847256 0.56034916 0.06256172
0.38829325 0.56034916 0.06256172
0.40772270 0.56034916 0.06256172
0.42691210 0.56034916 0.06256172
0.44596654 0.56034916 0.06256172
0.46495999 0.56034916 0.06256172
0.48394444 0.56034916 0.06256172
0.50295589 0.56034916 0.06256172
0.52201839 0.56034916 0.06256172
0.54114687 0.56034916 0.06256172
0.56034916 0.56034916 0.06256172
0.57962757 0.56034916 0.06256172
0.59898003 0.56034916 0.06256172
0.61840101 0.56034916 0.06256172
0.63788224 0.56034916 0.06256172
0.65741333 0.56034916 0.06256172
0.67698222 0.56034916 0.06256172
0.69657561 0.56034916 0.06256172
0.71617927 0.56034916 0.06256172
0.73577831 0.56034916 0.06256172
0.75535744 0.56034916 0.06256172
0.77490117 0.56034916 0.06256172
0.79439395 0.56034916 0.06256172
0.06256172 0.57962757 0.06256172
0.06256172 0.57962757 0.06256172
0.06256172 0.57962757 0.06256172
0.09488391 0.57962757 0.06256172
0.20746837 0.57962757 0.06256172
0.24822498 0.57962757 0.06256172
0.27830338 0.57962757 0.06256172
0.30373697 0.57962757 0.06256172
0.32664582 0.57962757 0.06256172
0.34803762 0.57962757 0.06256172
0.36847256 0.57962757 0.06256172
0.38829325 0.57962757 0.06256172
0.40772270 0.57962757 0.06256172
0.42691210 0.57962757 0.06256172
0.44596654 0.57962757 0.06256172
0.46495999 0.57962757 0.06256172
0.48394444 0.57962757 0.06256172
0.50295589 0.57962757 0.06256172
0.52201839 0.57962757 0.06256172
0.54114687 0.57962757 0.06256172
0.56034916 0.57962757 0.06256172
0.57962757 0.57962757 0.06256172
0.59898003 0.57962757 0.06256172
0.61840101 0.57962757 0.06256172
0.63788224 0.57962757 0.06256172
0.65741333 0.57962757 0.06256172
0.67698222 0.57962757 0.06256172
