src/ffmpeg_scripts/luts/flog-experimental_3p33.cube
TITLE "flog-experimental_3p33"
LUT_3D_SIZE 9
# Fujifilm F-Log/Rec2020 -> PQ (EOTF Only)/Rec2020, CineEI Shift 3.33, Black Level 0.00% IRE, Input 109% -> Output 100% - Created with LUTCalc v4.01 by Ben Turley October 2020
0.00000073 0.00000073 0.00000073
0.33451146 0.00000073 0.00000073
0.56537210 0.00000073 0.00000073
0.71283983 0.00000073 0.00000073
0.84644850 0.00000073 0.00000073
0.97643804 0.00000073 0.00000073
1.00000000 0.00000073 0.00000073
1.00000000 0.00000073 0.00000073
1.00000000 0.00000073 0.00000073
0.00000073 0.33451146 0.00000073
0.33451146 0.33451146 0.00000073
0.56537210 0.33451146 0.00000073
0.71283983 0.33451146 0.00000073
0.84644850 0.33451146 0.00000073
0.97643804 0.33451146 0.00000073
1.00000000 0.33451146 0.00000073
1.00000000 0.33451146 0.00000073
1.00000000 0.33451146 0.00000073
0.00000073 0.56537210 0.00000073
0.33451146 0.56537210 0.00000073
0.56537210 0.56537210 0.00000073
0.71283983 0.56537210 0.00000073
0.84644850 0.56537210 0.00000073
0.97643804 0.56537210 0.00000073
1.00000000 0.56537210 0.00000073
1.00000000 0.56537210 0.00000073
1.00000000 0.56537210 0.00000073
0.00000073 0.71283983 0.00000073
0.33451146 0.71283983 0.00000073
0.56537210 0.71283983 0.00000073
0.71283983 0.71283983 0.00000073
0.84644850 0.71283983 0.00000073
0.97643804 0.71283983 0.00000073
1.00000000 0.71283983 0.00000073
1.00000000 0.71283983 0.00000073
1.00000000 0.71283983 0.00000073
0.00000073 0.84644850 0.00000073
0.33451146 0.84644850 0.00000073
0.56537210 0.84644850 0.00000073
0.71283983 0.84644850 0.00000073
0.84644850 0.84644850 0.00000073
0.97643804 0.84644850 0.00000073
1.00000000 0.84644850 0.00000073
1.00000000 0.84644850 0.00000073
1.00000000 0.84644850 0.00000073
0.00000073 0.97643804 0.00000073
0.33451146 0.97643804 0.00000073
0.56537210 0.97643804 0.00000073
0.71283983 0.97643804 0.00000073
0.84644850 0.97643804 0.00000073
0.97643804 0.97643804 0.00000073
1.00000000 0.97643804 0.00000073
1.00000000 0.97643804 0.00000073
1.00000000 0.97643804 0.00000073
0.00000073 1.00000000 0.00000073
0.33451146 1.00000000 0.00000073
0.56537210 1.00000000 0.00000073
0.71283983 1.00000000 0.00000073
0.84644850 1.00000000 0.00000073
0.97643804 1.00000000 0.00000073
1.00000000 1.00000000 0.00000073
1.00000000 1.00000000 0.00000073
1.00000000 1.00000000 0.00000073
0.00000073 1.00000000 0.00000073
0.33451146 1.00000000 0.00000073
0.56537210 1.00000000 0.00000073
0.71283983 1.00000000 0.00000073
0.84644850 1.00000000 0.00000073
0.97643804 1.00000000 0.00000073
1.00000000 1.00000000 0.00000073
1.00000000 1.00000000 0.00000073
1.00000000 1.00000000 0.00000073
0.00000073 1.00000000 0.00000073
0.33451146 1.00000000 0.00000073
0.56537210 1.00000000 0.00000073
0.71283983 1.00000000 0.00000073
0.84644850 1.00000000 0.00000073
0.97643804 1.00000000 0.00000073
1.00000000 1.00000000 0.00000073
1.00000000 1.00000000 0.00000073
1.00000000 1.00000000 0.00000073
0.00000073 0.00000073 0.33451146
0.33451146 0.00000073 0.33451146
0.56537210 0.00000073 0.33451146
0.71283983 0.00000073 0.33451146
0.84644850 0.00000073 0.33451146
0.97643804 0.00000073 0.33451146
1.00000000 0.00000073 0.33451146
1.00000000 0.00000073 0.33451146
1.00000000 0.00000073 0.33451146
0.00000073 0.33451146 0.33451146
0.33451146 0.33451146 0.33451146
0.56537210 0.33451146 0.33451146
0.71283983 0.33451146 0.33451146
0.84644850 0.33451146 0.33451146
0.97643804 0.33451146 0.33451146
1.00000000 0.33451146 0.33451146
1.00000000 0.33451146 0.33451146
1.00000000 0.33451146 0.33451146
0.00000073 0.56537210 0.33451146
0.33451146 0.56537210 0.33451146
0.56537210 0.56537210 0.33451146
0.71283983 0.56537210 0.33451146
0.84644850 0.56537210 0.33451146
0.97643804 0.56537210 0.33451146
1.00000000 0.56537210 0.33451146
1.00000000 0.56537210 0.33451146
1.00000000 0.56537210 0.33451146
0.00000073 0.71283983 0.33451146
0.33451146 0.71283983 0.33451146
0.56537210 0.71283983 0.33451146
0.71283983 0.71283983 0.33451146
0.84644850 0.71283983 0.33451146
0.97643804 0.71283983 0.33451146
1.00000000 0.71283983 0.33451146
1.00000000 0.71283983 0.33451146
1.00000000 0.71283983 0.33451146
0.00000073 0.84644850 0.33451146
0.33451146 0.84644850 0.33451146
0.56537210 0.84644850 0.33451146
0.71283983 0.84644850 0.33451146
0.84644850 0.84644850 0.33451146
0.97643804 0.84644850 0.33451146
1.00000000 0.84644850 0.33451146
1.00000000 0.84644850 0.33451146
1.00000000 0.84644850 0.33451146
0.00000073 0.97643804 0.33451146
0.33451146 0.97643804 0.33451146
0.56537210 0.97643804 0.33451146
0.71283983 0.97643804 0.33451146
0.84644850 0.97643804 0.33451146
0.97643804 0.97643804 0.33451146
1.00000000 0.97643804 0.33451146
1.00000000 0.97643804 0.33451146
1.00000000 0.97643804 0.33451146
0.00000073 1.00000000 0.33451146
0.33451146 1.00000000 0.33451146
0.56537210 1.00000000 0.33451146
0.71283983 1.00000000 0.33451146
0.84644850 1.00000000 0.33451146
0.97643804 1.00000000 0.33451146
1.00000000 1.00000000 0.33451146
1.00000000 1.00000000 0.33451146
1.00000000 1.00000000 0.33451146
0.00000073 1.00000000 0.33451146
0.33451146 1.00000000 0.33451146
0.56537210 1.00000000 0.33451146
0.71283983 1.00000000 0.33451146
0.84644850 1.00000000 0.33451146
0.97643804 1.00000000 0.33451146
1.00000000 1.00000000 0.33451146
1.00000000 1.00000000 0.33451146
1.00000000 1.00000000 0.33451146
0.00000073 1.00000000 0.33451146
0.33451146 1.00000000 0.33451146
0.56537210 1.00000000 0.33451146
0.71283983 1.00000000 0.33451146
0.84644850 1.00000000 0.33451146
0.97643804 1.00000000 0.33451146
1.00000000 1.00000000 0.33451146
1.00000000 1.00000000 0.33451146
1.00000000 1.00000000 0.33451146
0.00000073 0.00000073 0.56537210
0.33451146 0.00000073 0.56537210
0.56537210 0.00000073 0.56537210
0.71283983 0.00000073 0.56537210
0.84644850 0.00000073 0.56537210
0.97643804 0.00000073 0.56537210
1.00000000 0.00000073 0.56537210
1.00000000 0.00000073 0.56537210
1.00000000 0.00000073 0.56537210
0.00000073 0.33451146 0.56537210
0.33451146 0.33451146 0.56537210
0.56537210 0.33451146 0.56537210
0.71283983 0.33451146 0.56537210
0.84644850 0.33451146 0.56537210
0.97643804 0.33451146 0.56537210
1.00000000 0.33451146 0.56537210
1.00000000 0.33451146 0.56537210
1.00000000 0.33451146 0.56537210
0.00000073 0.56537210 0.56537210
0.33451146 0.56537210 0.56537210
0.56537210 0.56537210 0.56537210
0.71283983 0.56537210 0.56537210
0.84644850 0.56537210 0.56537210
0.97643804 0.56537210 0.56537210
1.00000000 0.56537210 0.56537210
1.00000000 0.56537210 0.56537210
1.00000000 0.56537210 0.56537210
0.00000073 0.71283983 0.56537210
0.33451146 0.71283983 0.56537210
0.56537210 0.71283983 0.56537210
0.71283983 0.71283983 0.56537210
0.84644850 0.71283983 0.56537210
0.97643804 0.71283983 0.56537210
1.00000000 0.71283983 0.56537210
1.00000000 0.71283983 0.56537210
1.00000000 0.71283983 0.56537210
0.00000073 0.84644850 0.56537210
0.33451146 0.84644850 0.56537210
0.56537210 0.84644850 0.56537210
0.71283983 0.84644850 0.56537210
0.84644850 0.84644850 0.56537210
0.97643804 0.84644850 0.56537210
1.00000000 0.84644850 0.56537210
1.00000000 0.84644850 0.56537210
1.00000000 0.84644850 0.56537210
0.00000073 0.97643804 0.56537210
0.33451146 0.97643804 0.56537210
0.56537210 0.97643804 0.56537210
0.71283983 0.97643804 0.56537210
0.84644850 0.97643804 0.56537210
0.97643804 0.97643804 0.56537210
1.00000000 0.97643804 0.56537210
1.00000000 0.97643804 0.56537210
1.00000000 0.97643804 0.56537210
0.00000073 1.00000000 0.56537210
0.33451146 1.00000000 0.56537210
0.56537210 1.00000000 0.56537210
0.71283983 1.00000000 0.56537210
0.84644850 1.00000000 0.56537210
0.97643804 1.00000000 0.56537210
1.00000000 1.00000000 0.56537210
1.00000000 1.00000000 0.56537210
1.00000000 1.00000000 0.56537210
0.00000073 1.00000000 0.56537210
0.33451146 1.00000000 0.56537210
0.56537210 1.00000000 0.56537210
0.71283983 1.00000000 0.56537210
0.84644850 1.00000000 0.56537210
0.97643804 1.00000000 0.56537210
1.00000000 1.00000000 0.56537210
1.00000000 1.00000000 0.56537210
1.00000000 1.00000000 0.56537210
0.00000073 1.00000000 0.56537210
0.33451146 1.00000000 0.56537210
0.56537210 1.00000000 0.56537210
0.71283983 1.00000000 0.56537210
0.84644850 1.00000000 0.56537210
0.97643804 1.00000000 0.56537210
1.00000000 1.00000000 0.56537210
1.00000000 1.00000000 0.56537210
1.00000000 1.00000000 0.56537210
0.00000073 0.00000073 0.71283983
0.33451146 0.00000073 0.71283983
0.56537210 0.00000073 0.71283983
0.71283983 0.00000073 0.71283983
0.84644850 0.00000073 0.71283983
0.97643804 0.00000073 0.71283983
1.00000000 0.00000073 0.71283983
1.00000000 0.00000073 0.71283983
1.00000000 0.00000073 0.71283983
0.00000073 0.33451146 0.71283983
0.33451146 0.33451146 0.71283983
0.56537210 0.33451146 0.71283983
0.71283983 0.33451146 0.71283983
0.84644850 0.33451146 0.71283983
0.97643804 0.33451146 0.71283983
1.00000000 0.33451146 0.71283983
1.00000000 0.33451146 0.71283983
1.00000000 0.33451146 0.71283983
0.00000073 0.56537210 0.71283983
0.33451146 0.56537210 0.71283983
0.56537210 0.56537210 0.71283983
0.71283983 0.56537210 0.71283983
0.84644850 0.56537210 0.71283983
0.97643804 0.56537210 0.71283983
1.00000000 0.56537210 0.71283983
1.00000000 0.56537210 0.71283983
1.00000000 0.56537210 0.71283983
0.00000073 0.71283983 0.71283983
0.33451146 0.71283983 0.71283983
0.56537210 0.71283983 0.71283983
0.71283983 0.71283983 0.71283983
0.84644850 0.71283983 0.71283983
0.97643804 0.71283983 0.71283983
1.00000000 0.71283983 0.71283983
1.00000000 0.71283983 0.71283983
1.00000000 0.71283983 0.71283983
0.00000073 0.84644850 0.71283983
0.33451146 0.84644850 0.71283983
0.56537210 0.84644850 0.71283983
0.71283983 0.84644850 0.71283983
0.84644850 0.84644850 0.71283983
0.97643804 0.84644850 0.71283983
1.00000000 0.84644850 0.71283983
1.00000000 0.84644850 0.71283983
1.00000000 0.84644850 0.71283983
0.00000073 0.97643804 0.71283983
0.33451146 0.97643804 0.71283983
0.56537210 0.97643804 0.71283983
0.71283983 0.97643804 0.71283983
0.84644850 0.97643804 0.71283983
0.97643804 0.97643804 0.71283983
1.00000000 0.97643804 0.71283983
1.00000000 0.97643804 0.71283983
1.00000000 0.97643804 0.71283983
0.00000073 1.00000000 0.71283983
0.33451146 1.00000000 0.71283983
0.56537210 1.00000000 0.71283983
0.71283983 1.00000000 0.71283983
0.84644850 1.00000000 0.71283983
0.97643804 1.00000000 0.71283983
1.00000000 1.00000000 0.71283983
1.00000000 1.00000000 0.71283983
1.00000000 1.00000000 0.71283983
0.00000073 1.00000000 0.71283983
0.33451146 1.00000000 0.71283983
0.56537210 1.00000000 0.71283983
0.71283983 1.00000000 0.71283983
0.84644850 1.00000000 0.71283983
0.97643804 1.00000000 0.71283983
1.00000000 1.00000000 0.71283983
1.00000000 1.00000000 0.71283983
1.00000000 1.00000000 0.71283983
0.00000073 1.00000000 0.71283983
0.33451146 1.00000000 0.71283983
0.56537210 1.00000000 0.71283983
0.71283983 1.00000000 0.71283983
0.84644850 1.00000000 0.71283983
0.97643804 1.00000000 0.71283983
1.00000000 1.00000000 0.71283983
1.00000000 1.00000000 0.71283983
1.00000000 1.00000000 0.71283983
0.00000073 0.00000073 0.84644850
0.33451146 0.00000073 0.84644850
0.56537210 0.00000073 0.84644850
0.71283983 0.00000073 0.84644850
0.84644850 0.00000073 0.84644850
0.97643804 0.00000073 0.84644850
1.00000000 0.00000073 0.84644850
1.00000000 0.00000073 0.84644850
1.00000000 0.00000073 0.84644850
0.00000073 0.33451146 0.84644850
0.33451146 0.33451146 0.84644850
0.56537210 0.33451146 0.84644850
0.71283983 0.33451146 0.84644850
0.84644850 0.33451146 0.84644850
0.97643804 0.33451146 0.84644850
1.00000000 0.33451146 0.84644850
1.00000000 0.33451146 0.84644850
1.00000000 0.33451146 0.84644850
0.00000073 0.56537210 0.84644850
0.33451146 0.56537210 0.84644850
0.56537210 0.56537210 0.84644850
0.71283983 0.56537210 0.84644850
0.84644850 0.56537210 0.84644850
0.97643804 0.56537210 0.84644850
1.00000000 0.56537210 0.84644850
1.00000000 0.56537210 0.84644850
1.00000000 0.56537210 0.84644850
0.00000073 0.71283983 0.84644850
0.33451146 0.71283983 0.84644850
0.56537210 0.71283983 0.84644850
0.71283983 0.71283983 0.84644850
0.84644850 0.71283983 0.84644850
0.97643804 0.71283983 0.84644850
1.00000000 0.71283983 0.84644850
1.00000000 0.71283983 0.84644850
1.00000000 0.71283983 0.84644850
0.00000073 0.84644850 0.84644850
0.33451146 0.84644850 0.84644850
0.56537210 0.84644850 0.84644850
0.71283983 0.84644850 0.84644850
0.84644850 0.84644850 0.84644850
0.97643804 0.84644850 0.84644850
1.00000000 0.84644850 0.84644850
1.00000000 0.84644850 0.84644850
1.00000000 0.84644850 0.84644850
0.00000073 0.97643804 0.84644850
0.33451146 0.97643804 0.84644850
0.56537210 0.97643804 0.84644850
0.71283983 0.97643804 0.84644850
0.84644850 0.97643804 0.84644850
0.97643804 0.97643804 0.84644850
1.00000000 0.97643804 0.84644850
1.00000000 0.97643804 0.84644850
1.00000000 0.97643804 0.84644850
0.00000073 1.00000000 0.84644850
0.33451146 1.00000000 0.84644850
0.56537210 1.00000000 0.84644850
0.71283983 1.00000000 0.84644850
0.84644850 1.00000000 0.84644850
0.97643804 1.00000000 0.84644850
1.00000000 1.00000000 0.84644850
1.00000000 1.00000000 0.84644850
1.00000000 1.00000000 0.84644850
0.00000073 1.00000000 0.84644850
0.33451146 1.00000000 0.84644850
0.56537210 1.00000000 0.84644850
0.71283983 1.00000000 0.84644850
0.84644850 1.00000000 0.84644850
0.97643804 1.00000000 0.84644850
1.00000000 1.00000000 0.84644850
1.00000000 1.00000000 0.84644850
1.00000000 1.00000000 0.84644850
0.00000073 1.00000000 0.84644850
0.33451146 1.00000000 0.84644850
0.56537210 1.00000000 0.84644850
0.71283983 1.00000000 0.84644850
0.84644850 1.00000000 0.84644850
0.97643804 1.00000000 0.84644850
1.00000000 1.00000000 0.84644850
1.00000000 1.00000000 0.84644850
1.00000000 1.00000000 0.84644850
0.00000073 0.00000073 0.97643804
0.33451146 0.00000073 0.97643804
0.56537210 0.00000073 0.97643804
0.71283983 0.00000073 0.97643804
0.84644850 0.00000073 0.97643804
0.97643804 0.00000073 0.97643804
1.00000000 0.00000073 0.97643804
1.00000000 0.00000073 0.97643804
1.00000000 0.00000073 0.97643804
0.00000073 0.33451146 0.97643804
0.33451146 0.33451146 0.97643804
0.56537210 0.33451146 0.97643804
0.71283983 0.33451146 0.97643804
0.84644850 0.33451146 0.97643804
0.97643804 0.33451146 0.97643804
1.00000000 0.33451146 0.97643804
1.00000000 0.33451146 0.97643804
1.00000000 0.33451146 0.97643804
0.00000073 0.56537210 0.97643804
0.33451146 0.56537210 0.97643804
0.56537210 0.56537210 0.97643804
0.71283983 0.56537210 0.97643804
0.84644850 0.56537210 0.97643804
0.97643804 0.56537210 0.97643804
1.00000000 0.56537210 0.97643804
1.00000000 0.56537210 0.97643804
1.00000000 0.56537210 0.97643804
0.00000073 0.71283983 0.97643804
0.33451146 0.71283983 0.97643804
0.56537210 0.71283983 0.97643804
0.71283983 0.71283983 0.97643804
0.84644850 0.71283983 0.97643804
0.97643804 0.71283983 0.97643804
1.00000000 0.71283983 0.97643804
1.00000000 0.71283983 0.97643804
1.00000000 0.71283983 0.97643804
0.00000073 0.84644850 0.97643804
0.33451146 0.84644850 0.97643804
0.56537210 0.84644850 0.97643804
0.71283983 0.84644850 0.97643804
0.84644850 0.84644850 0.97643804
0.97643804 0.84644850 0.97643804
1.00000000 0.84644850 0.97643804
1.00000000 0.84644850 0.97643804
1.00000000 0.84644850 0.97643804
0.00000073 0.97643804 0.97643804
0.33451146 0.97643804 0.97643804
0.56537210 0.97643804 0.97643804
0.71283983 0.97643804 0.97643804
0.84644850 0.97643804 0.97643804
0.97643804 0.97643804 0.97643804
1.00000000 0.97643804 0.97643804
1.00000000 0.97643804 0.97643804
1.00000000 0.97643804 0.97643804
0.00000073 1.00000000 0.97643804
0.33451146 1.00000000 0.97643804
0.56537210 1.00000000 0.97643804
0.71283983 1.00000000 0.97643804
0.84644850 1.00000000 0.97643804
0.97643804 1.00000000 0.97643804
1.00000000 1.00000000 0.97643804
1.00000000 1.00000000 0.97643804
1.00000000 1.00000000 0.97643804
0.00000073 1.00000000 0.97643804
0.33451146 1.00000000 0.97643804
0.56537210 1.00000000 0.97643804
0.71283983 1.00000000 0.97643804
0.84644850 1.00000000 0.97643804
0.97643804 1.00000000 0.97643804
1.00000000 1.00000000 0.97643804
1.00000000 1.00000000 0.97643804
1.00000000 1.00000000 0.97643804
0.00000073 1.00000000 0.97643804
0.33451146 1.00000000 0.97643804
0.56537210 1.00000000 0.97643804
0.71283983 1.00000000 0.97643804
0.84644850 1.00000000 0.97643804
0.97643804 1.00000000 0.97643804
1.00000000 1.00000000 0.97643804
1.00000000 1.00000000 0.97643804
1.00000000 1.00000000 0.97643804
0.00000073 0.00000073 1.00000000
0.33451146 0.00000073 1.00000000
0.56537210 0.00000073 1.00000000
0.71283983 0.00000073 1.00000000
0.84644850 0.00000073 1.00000000
0.97643804 0.00000073 1.00000000
1.00000000 0.00000073 1.00000000
1.00000000 0.00000073 1.00000000
1.00000000 0.00000073 1.00000000
0.00000073 0.33451146 1.00000000
0.33451146 0.33451146 1.00000000
0.56537210 0.33451146 1.00000000
0.71283983 0.33451146 1.00000000
0.84644850 0.33451146 1.00000000
0.97643804 0.33451146 1.00000000
1.00000000 0.33451146 1.00000000
1.00000000 0.33451146 1.00000000
1.00000000 0.33451146 1.00000000
0.00000073 0.56537210 1.00000000
0.33451146 0.56537210 1.00000000
0.56537210 0.56537210 1.00000000
0.71283983 0.56537210 1.00000000
0.84644850 0.56537210 1.00000000
0.97643804 0.56537210 1.00000000
1.00000000 0.56537210 1.00000000
1.00000000 0.56537210 1.00000000
1.00000000 0.56537210 1.00000000
0.00000073 0.71283983 1.00000000
0.33451146 0.71283983 1.00000000
0.56537210 0.71283983 1.00000000
0.71283983 0.71283983 1.00000000
0.84644850 0.71283983 1.00000000
0.97643804 0.71283983 1.00000000
1.00000000 0.71283983 1.00000000
1.00000000 0.71283983 1.00000000
1.00000000 0.71283983 1.00000000
0.00000073 0.84644850 1.00000000
0.33451146 0.84644850 1.00000000
0.56537210 0.84644850 1.00000000
0.71283983 0.84644850 1.00000000
0.84644850 0.84644850 1.00000000
0.97643804 0.84644850 1.00000000
1.00000000 0.84644850 1.00000000
1.00000000 0.84644850 1.00000000
1.00000000 0.84644850 1.00000000
0.00000073 0.97643804 1.00000000
0.33451146 0.97643804 1.00000000
0.56537210 0.97643804 1.00000000
0.71283983 0.97643804 1.00000000
0.84644850 0.97643804 1.00000000
0.97643804 0.97643804 1.00000000
1.00000000 0.97643804 1.00000000
1.00000000 0.97643804 1.00000000
1.00000000 0.97643804 1.00000000
0.00000073 1.00000000 1.00000000
0.33451146 1.00000000 1.00000000
0.56537210 1.00000000 1.00000000
0.71283983 1.00000000 1.00000000
0.84644850 1.00000000 1.00000000
0.97643804 1.00000000 1.00000000
1.00000000 1.00000000 1.00000000
1.00000000 1.00000000 1.00000000
1.00000000 1.00000000 1.00000000
0.00000073 1.00000000 1.00000000
0.33451146 1.00000000 1.00000000
0.56537210 1.00000000 1.00000000
0.71283983 1.00000000 1.00000000
0.84644850 1.00000000 1.00000000
0.97643804 1.00000000 1.00000000
1.00000000 1.00000000 1.00000000
1.00000000 1.00000000 1.00000000
1.00000000 1.00000000 1.00000000
0.00000073 1.00000000 1.00000000
0.33451146 1.00000000 1.00000000
0.56537210 1.00000000 1.00000000
0.71283983 1.00000000 1.00000000
0.84644850 1.00000000 1.00000000
0.97643804 1.00000000 1.00000000
1.00000000 1.00000000 1.00000000
1.00000000 1.00000000 1.00000000
1.00000000 1.00000000 1.00000000
0.00000073 0.00000073 1.00000000
0.33451146 0.00000073 1.00000000
0.56537210 0.00000073 1.00000000
0.71283983 0.00000073 1.00000000
0.84644850 0.00000073 1.00000000
0.97643804 0.00000073 1.00000000
1.00000000 0.00000073 1.00000000
1.00000000 0.00000073 1.00000000
1.00000000 0.00000073 1.00000000
0.00000073 0.33451146 1.00000000
0.33451146 0.33451146 1.00000000
0.56537210 0.33451146 1.00000000
0.71283983 0.33451146 1.00000000
0.84644850 0.33451146 1.00000000
0.97643804 0.33451146 1.00000000
1.00000000 0.33451146 1.00000000
1.00000000 0.33451146 1.00000000
1.00000000 0.33451146 1.00000000
0.00000073 0.56537210 1.00000000
0.33451146 0.56537210 1.00000000
0.56537210 0.56537210 1.00000000
0.71283983 0.56537210 1.00000000
0.84644850 0.56537210 1.00000000
0.97643804 0.56537210 1.00000000
1.00000000 0.56537210 1.00000000
1.00000000 0.56537210 1.00000000
1.00000000 0.56537210 1.00000000
0.00000073 0.71283983 1.00000000
0.33451146 0.71283983 1.00000000
0.56537210 0.71283983 1.00000000
0.71283983 0.71283983 1.00000000
0.84644850 0.71283983 1.00000000
0.97643804 0.71283983 1.00000000
1.00000000 0.71283983 1.00000000
1.00000000 0.71283983 1.00000000
1.00000000 0.71283983 1.00000000
0.00000073 0.84644850 1.00000000
0.33451146 0.84644850 1.00000000
0.56537210 0.84644850 1.00000000
0.71283983 0.84644850 1.00000000
0.84644850 0.84644850 1.00000000
0.97643804 0.84644850 1.00000000
1.00000000 0.84644850 1.00000000
1.00000000 0.84644850 1.00000000
1.00000000 0.84644850 1.00000000
0.00000073 0.97643804 1.00000000
0.33451146 0.97643804 1.00000000
0.56537210 0.97643804 1.00000000
0.71283983 0.97643804 1.00000000
0.84644850 0.97643804 1.00000000
0.97643804 0.97643804 1.00000000
1.00000000 0.97643804 1.00000000
1.00000000 0.97643804 1.00000000
1.00000000 0.97643804 1.00000000
0.00000073 1.00000000 1.00000000
0.33451146 1.00000000 1.00000000
0.56537210 1.00000000 1.00000000
0.71283983 1.00000000 1.00000000
0.84644850 1.00000000 1.00000000
0.97643804 1.00000000 1.00000000
1.00000000 1.00000000 1.00000000
1.00000000 1.00000000 1.00000000
1.00000000 1.00000000 1.00000000
0.00000073 1.00000000 1.00000000
0.33451146 1.00000000 1.00000000
0.56537210 1.00000000 1.00000000
0.71283983 1.00000000 1.00000000
0.84644850 1.00000000 1.00000000
0.97643804 1.00000000 1.00000000
1.00000000 1.00000000 1.00000000
1.00000000 1.00000000 1.00000000
1.00000000 1.00000000 1.00000000
0.00000073 1.00000000 1.00000000
0.33451146 1.00000000 1.00000000
0.56537210 1.00000000 1.00000000
0.71283983 1.00000000 1.00000000
0.84644850 1.00000000 1.00000000
0.97643804 1.00000000 1.00000000
1.00000000 1.00000000 1.00000000
1.00000000 1.00000000 1.00000000
1.00000000 1.00000000 1.00000000
0.00000073 0.00000073 1.00000000
0.33451146 0.00000073 1.00000000
0.56537210 0.00000073 1.00000000
0.71283983 0.00000073 1.00000000
0.84644850 0.00000073 1.00000000
0.97643804 0.00000073 1.00000000
1.00000000 0.00000073 1.00000000
1.00000000 0.00000073 1.00000000
1.00000000 0.00000073 1.00000000
0.00000073 0.33451146 1.00000000
0.33451146 0.33451146 1.00000000
0.56537210 0.33451146 1.00000000
0.71283983 0.33451146 1.00000000
0.84644850 0.33451146 1.00000000
0.97643804 0.33451146 1.00000000
1.00000000 0.33451146 1.00000000
1.00000000 0.33451146 1.00000000
1.00000000 0.33451146 1.00000000
0.00000073 0.56537210 1.00000000
0.33451146 0.56537210 1.00000000
0.56537210 0.56537210 1.00000000
0.71283983 0.56537210 1.00000000
0.84644850 0.56537210 1.00000000
0.97643804 0.56537210 1.00000000
1.00000000 0.56537210 1.00000000
1.00000000 0.56537210 1.00000000
1.00000000 0.56537210 1.00000000
0.00000073 0.71283983 1.00000000
0.33451146 0.71283983 1.00000000
0.56537210 0.71283983 1.00000000
0.71283983 0.71283983 1.00000000
0.84644850 0.71283983 1.00000000
0.97643804 0.71283983 1.00000000
1.00000000 0.71283983 1.00000000
1.00000000 0.71283983 1.00000000
1.00000000 0.71283983 1.00000000
0.00000073 0.84644850 1.00000000
0.33451146 0.84644850 1.00000000
0.56537210 0.84644850 1.00000000
0.71283983 0.84644850 1.00000000
0.84644850 0.84644850 1.00000000
0.97643804 0.84644850 1.00000000
1.00000000 0.84644850 1.00000000
1.00000000 0.84644850 1.00000000
1.00000000 0.84644850 1.00000000
0.00000073 0.97643804 1.00000000
0.33451146 0.97643804 1.00000000
0.56537210 0.97643804 1.00000000
0.71283983 0.97643804 1.00000000
0.84644850 0.97643804 1.00000000
0.97643804 0.97643804 1.00000000
1.00000000 0.97643804 1.00000000
1.00000000 0.97643804 1.00000000
1.00000000 0.97643804 1.00000000
0.00000073 1.00000000 1.00000000
0.33451146 1.00000000 1.00000000
0.56537210 1.00000000 1.00000000
0.71283983 1.00000000 1.00000000
0.84644850 1.00000000 1.00000000
0.97643804 1.00000000 1.00000000
1.00000000 1.00000000 1.00000000
1.00000000 1.00000000 1.00000000
1.00000000 1.00000000 1.00000000
0.00000073 1.00000000 1.00000000
0.33451146 1.00000000 1.00000000
0.56537210 1.00000000 1.00000000
0.71283983 1.00000000 1.00000000
0.84644850 1.00000000 1.00000000
0.97643804 1.00000000 1.00000000
1.00000000 1.00000000 1.00000000
1.00000000 1.00000000 1.00000000
1.00000000 1.00000000 1.00000000
0.00000073 1.00000000 1.00000000
0.33451146 1.00000000 1.00000000
0.56537210 1.00000000 1.00000000
0.71283983 1.00000000 1.00000000
0.84644850 1.00000000 1.00000000
0.97643804 1.00000000 1.00000000
1.00000000 1.00000000 1.00000000
1.00000000 1.00000000 1.00000000
1.00000000 1.00000000 1.00000000
