src/ffmpeg_scripts/luts/flog-smpte2084_-1p33.cube
TITLE "flog-smpte2084_-1p33"
LUT_3D_SIZE 33
# Fujifilm F-Log/Rec2020 -> PQ (EOTF Only)/Rec2020, CineEI Shift -1.33, Black Level 0.00% IRE, Input 109% -> Output 109% - Created with LUTCalc v4.01 by Ben Turley October 2020
0.06256172 0.06256172 0.06256172
0.06256172 0.06256172 0.06256172
0.06256172 0.06256172 0.06256172
0.07408333 0.06256172 0.06256172
0.13051194 0.06256172 0.06256172
0.15483371 0.06256172 0.06256172
0.17383080 0.06256172 0.06256172
0.19053472 0.06256172 0.06256172
0.20605540 0.06256172 0.06256172
0.22093700 0.06256172 0.06256172
0.23549059 0.06256172 0.06256172
0.24991168 0.06256172 0.06256172
0.26433105 0.06256172 0.06256172
0.27883982 0.06256172 0.06256172
0.29350308 0.06256172 0.06256172
0.30836784 0.06256172 0.06256172
0.32346792 0.06256172 0.06256172
0.33882723 0.06256172 0.06256172
0.35446188 0.06256172 0.06256172
0.37038174 0.06256172 0.06256172
0.38659163 0.06256172 0.06256172
0.40309210 0.06256172 0.06256172
0.41988015 0.06256172 0.06256172
0.43694979 0.06256172 0.06256172
0.45429244 0.06256172 0.06256172
0.47189734 0.06256172 0.06256172
0.48975190 0.06256172 0.06256172
0.50784192 0.06256172 0.06256172
0.52615191 0.06256172 0.06256172
0.54466526 0.06256172 0.06256172
0.56336449 0.06256172 0.06256172
0.58223139 0.06256172 0.06256172
0.60124722 0.06256172 0.06256172
0.06256172 0.06256172 0.06256172
0.06256172 0.06256172 0.06256172
0.06256172 0.06256172 0.06256172
0.07408333 0.06256172 0.06256172
0.13051194 0.06256172 0.06256172
0.15483371 0.06256172 0.06256172
0.17383080 0.06256172 0.06256172
0.19053472 0.06256172 0.06256172
0.20605540 0.06256172 0.06256172
0.22093700 0.06256172 0.06256172
0.23549059 0.06256172 0.06256172
0.24991168 0.06256172 0.06256172
0.26433105 0.06256172 0.06256172
0.27883982 0.06256172 0.06256172
0.29350308 0.06256172 0.06256172
0.30836784 0.06256172 0.06256172
0.32346792 0.06256172 0.06256172
0.33882723 0.06256172 0.06256172
0.35446188 0.06256172 0.06256172
0.37038174 0.06256172 0.06256172
0.38659163 0.06256172 0.06256172
0.40309210 0.06256172 0.06256172
0.41988015 0.06256172 0.06256172
0.43694979 0.06256172 0.06256172
0.45429244 0.06256172 0.06256172
0.47189734 0.06256172 0.06256172
0.48975190 0.06256172 0.06256172
0.50784192 0.06256172 0.06256172
0.52615191 0.06256172 0.06256172
0.54466526 0.06256172 0.06256172
0.56336449 0.06256172 0.06256172
0.58223139 0.06256172 0.06256172
0.60124722 0.06256172 0.06256172
0.06256172 0.06256172 0.06256172
0.06256172 0.06256172 0.06256172
0.06256172 0.06256172 0.06256172
0.07408333 0.06256172 0.06256172
0.13051194 0.06256172 0.06256172
0.15483371 0.06256172 0.06256172
0.17383080 0.06256172 0.06256172
0.19053472 0.06256172 0.06256172
0.20605540 0.06256172 0.06256172
0.22093700 0.06256172 0.06256172
0.23549059 0.06256172 0.06256172
0.24991168 0.06256172 0.06256172
0.26433105 0.06256172 0.06256172
0.27883982 0.06256172 0.06256172
0.29350308 0.06256172 0.06256172
0.30836784 0.06256172 0.06256172
0.32346792 0.06256172 0.06256172
0.33882723 0.06256172 0.06256172
0.35446188 0.06256172 0.06256172
0.37038174 0.06256172 0.06256172
0.38659163 0.06256172 0.06256172
0.40309210 0.06256172 0.06256172
0.41988015 0.06256172 0.06256172
0.43694979 0.06256172 0.06256172
0.45429244 0.06256172 0.06256172
0.47189734 0.06256172 0.06256172
0.48975190 0.06256172 0.06256172
0.50784192 0.06256172 0.06256172
0.52615191 0.06256172 0.06256172
0.54466526 0.06256172 0.06256172
0.56336449 0.06256172 0.06256172
0.58223139 0.06256172 0.06256172
0.60124722 0.06256172 0.06256172
0.06256172 0.07408333 0.06256172
0.06256172 0.07408333 0.06256172
0.06256172 0.07408333 0.06256172
0.07408333 0.07408333 0.06256172
0.13051194 0.07408333 0.06256172
0.15483371 0.07408333 0.06256172
0.17383080 0.07408333 0.06256172
0.19053472 0.07408333 0.06256172
0.20605540 0.07408333 0.06256172
0.22093700 0.07408333 0.06256172
0.23549059 0.07408333 0.06256172
0.24991168 0.07408333 0.06256172
0.26433105 0.07408333 0.06256172
0.27883982 0.07408333 0.06256172
0.29350308 0.07408333 0.06256172
0.30836784 0.07408333 0.06256172
0.32346792 0.07408333 0.06256172
0.33882723 0.07408333 0.06256172
0.35446188 0.07408333 0.06256172
0.37038174 0.07408333 0.06256172
0.38659163 0.07408333 0.06256172
0.40309210 0.07408333 0.06256172
0.41988015 0.07408333 0.06256172
0.43694979 0.07408333 0.06256172
0.45429244 0.07408333 0.06256172
0.47189734 0.07408333 0.06256172
0.48975190 0.07408333 0.06256172
0.50784192 0.07408333 0.06256172
0.52615191 0.07408333 0.06256172
0.54466526 0.07408333 0.06256172
0.56336449 0.07408333 0.06256172
0.58223139 0.07408333 0.06256172
0.60124722 0.07408333 0.06256172
0.06256172 0.13051194 0.06256172
0.06256172 0.13051194 0.06256172
0.06256172 0.13051194 0.06256172
0.07408333 0.13051194 0.06256172
0.13051194 0.13051194 0.06256172
0.15483371 0.13051194 0.06256172
0.17383080 0.13051194 0.06256172
0.19053472 0.13051194 0.06256172
0.20605540 0.13051194 0.06256172
0.22093700 0.13051194 0.06256172
0.23549059 0.13051194 0.06256172
0.24991168 0.13051194 0.06256172
0.26433105 0.13051194 0.06256172
0.27883982 0.13051194 0.06256172
0.29350308 0.13051194 0.06256172
0.30836784 0.13051194 0.06256172
0.32346792 0.13051194 0.06256172
0.33882723 0.13051194 0.06256172
0.35446188 0.13051194 0.06256172
0.37038174 0.13051194 0.06256172
0.38659163 0.13051194 0.06256172
0.40309210 0.13051194 0.06256172
0.41988015 0.13051194 0.06256172
0.43694979 0.13051194 0.06256172
0.45429244 0.13051194 0.06256172
0.47189734 0.13051194 0.06256172
0.48975190 0.13051194 0.06256172
0.50784192 0.13051194 0.06256172
0.52615191 0.13051194 0.06256172
0.54466526 0.13051194 0.06256172
0.56336449 0.13051194 0.06256172
0.58223139 0.13051194 0.06256172
0.60124722 0.13051194 0.06256172
0.06256172 0.15483371 0.06256172
0.06256172 0.15483371 0.06256172
0.06256172 0.15483371 0.06256172
0.07408333 0.15483371 0.06256172
0.13051194 0.15483371 0.06256172
0.15483371 0.15483371 0.06256172
0.17383080 0.15483371 0.06256172
0.19053472 0.15483371 0.06256172
0.20605540 0.15483371 0.06256172
0.22093700 0.15483371 0.06256172
0.23549059 0.15483371 0.06256172
0.24991168 0.15483371 0.06256172
0.26433105 0.15483371 0.06256172
0.27883982 0.15483371 0.06256172
0.29350308 0.15483371 0.06256172
0.30836784 0.15483371 0.06256172
0.32346792 0.15483371 0.06256172
0.33882723 0.15483371 0.06256172
0.35446188 0.15483371 0.06256172
0.37038174 0.15483371 0.06256172
0.38659163 0.15483371 0.06256172
0.40309210 0.15483371 0.06256172
0.41988015 0.15483371 0.06256172
0.43694979 0.15483371 0.06256172
0.45429244 0.15483371 0.06256172
0.47189734 0.15483371 0.06256172
0.48975190 0.15483371 0.06256172
0.50784192 0.15483371 0.06256172
0.52615191 0.15483371 0.06256172
0.54466526 0.15483371 0.06256172
0.56336449 0.15483371 0.06256172
0.58223139 0.15483371 0.06256172
0.60124722 0.15483371 0.06256172
0.06256172 0.17383080 0.06256172
0.06256172 0.17383080 0.06256172
0.06256172 0.17383080 0.06256172
0.07408333 0.17383080 0.06256172
0.13051194 0.17383080 0.06256172
0.15483371 0.17383080 0.06256172
0.17383080 0.17383080 0.06256172
0.19053472 0.17383080 0.06256172
0.20605540 0.17383080 0.06256172
0.22093700 0.17383080 0.06256172
0.23549059 0.17383080 0.06256172
0.24991168 0.17383080 0.06256172
0.26433105 0.17383080 0.06256172
0.27883982 0.17383080 0.06256172
0.29350308 0.17383080 0.06256172
0.30836784 0.17383080 0.06256172
0.32346792 0.17383080 0.06256172
0.33882723 0.17383080 0.06256172
0.35446188 0.17383080 0.06256172
0.37038174 0.17383080 0.06256172
0.38659163 0.17383080 0.06256172
0.40309210 0.17383080 0.06256172
0.41988015 0.17383080 0.06256172
0.43694979 0.17383080 0.06256172
0.45429244 0.17383080 0.06256172
0.47189734 0.17383080 0.06256172
0.48975190 0.17383080 0.06256172
0.50784192 0.17383080 0.06256172
0.52615191 0.17383080 0.06256172
0.54466526 0.17383080 0.06256172
0.56336449 0.17383080 0.06256172
0.58223139 0.17383080 0.06256172
0.60124722 0.17383080 0.06256172
0.06256172 0.19053472 0.06256172
0.06256172 0.19053472 0.06256172
0.06256172 0.19053472 0.06256172
0.07408333 0.19053472 0.06256172
0.13051194 0.19053472 0.06256172
0.15483371 0.19053472 0.06256172
0.17383080 0.19053472 0.06256172
0.19053472 0.19053472 0.06256172
0.20605540 0.19053472 0.06256172
0.22093700 0.19053472 0.06256172
0.23549059 0.19053472 0.06256172
0.24991168 0.19053472 0.06256172
0.26433105 0.19053472 0.06256172
0.27883982 0.19053472 0.06256172
0.29350308 0.19053472 0.06256172
0.30836784 0.19053472 0.06256172
0.32346792 0.19053472 0.06256172
0.33882723 0.19053472 0.06256172
0.35446188 0.19053472 0.06256172
0.37038174 0.19053472 0.06256172
0.38659163 0.19053472 0.06256172
0.40309210 0.19053472 0.06256172
0.41988015 0.19053472 0.06256172
0.43694979 0.19053472 0.06256172
0.45429244 0.19053472 0.06256172
0.47189734 0.19053472 0.06256172
0.48975190 0.19053472 0.06256172
0.50784192 0.19053472 0.06256172
0.52615191 0.19053472 0.06256172
0.54466526 0.19053472 0.06256172
0.56336449 0.19053472 0.06256172
0.58223139 0.19053472 0.06256172
0.60124722 0.19053472 0.06256172
0.06256172 0.20605540 0.06256172
0.06256172 0.20605540 0.06256172
0.06256172 0.20605540 0.06256172
0.07408333 0.20605540 0.06256172
0.13051194 0.20605540 0.06256172
0.15483371 0.20605540 0.06256172
0.17383080 0.20605540 0.06256172
0.19053472 0.20605540 0.06256172
0.20605540 0.20605540 0.06256172
0.22093700 0.20605540 0.06256172
0.23549059 0.20605540 0.06256172
0.24991168 0.20605540 0.06256172
0.26433105 0.20605540 0.06256172
0.27883982 0.20605540 0.06256172
0.29350308 0.20605540 0.06256172
0.30836784 0.20605540 0.06256172
0.32346792 0.20605540 0.06256172
0.33882723 0.20605540 0.06256172
0.35446188 0.20605540 0.06256172
0.37038174 0.20605540 0.06256172
0.38659163 0.20605540 0.06256172
0.40309210 0.20605540 0.06256172
0.41988015 0.20605540 0.06256172
0.43694979 0.20605540 0.06256172
0.45429244 0.20605540 0.06256172
0.47189734 0.20605540 0.06256172
0.48975190 0.20605540 0.06256172
0.50784192 0.20605540 0.06256172
0.52615191 0.20605540 0.06256172
0.54466526 0.20605540 0.06256172
0.56336449 0.20605540 0.06256172
0.58223139 0.20605540 0.06256172
0.60124722 0.20605540 0.06256172
0.06256172 0.22093700 0.06256172
0.06256172 0.22093700 0.06256172
0.06256172 0.22093700 0.06256172
0.07408333 0.22093700 0.06256172
0.13051194 0.22093700 0.06256172
0.15483371 0.22093700 0.06256172
0.17383080 0.22093700 0.06256172
0.19053472 0.22093700 0.06256172
0.20605540 0.22093700 0.06256172
0.22093700 0.22093700 0.06256172
0.23549059 0.22093700 0.06256172
0.24991168 0.22093700 0.06256172
0.26433105 0.22093700 0.06256172
0.27883982 0.22093700 0.06256172
0.29350308 0.22093700 0.06256172
0.30836784 0.22093700 0.06256172
0.32346792 0.22093700 0.06256172
0.33882723 0.22093700 0.06256172
0.35446188 0.22093700 0.06256172
0.37038174 0.22093700 0.06256172
0.38659163 0.22093700 0.06256172
0.40309210 0.22093700 0.06256172
0.41988015 0.22093700 0.06256172
0.43694979 0.22093700 0.06256172
0.45429244 0.22093700 0.06256172
0.47189734 0.22093700 0.06256172
0.48975190 0.22093700 0.06256172
0.50784192 0.22093700 0.06256172
0.52615191 0.22093700 0.06256172
0.54466526 0.22093700 0.06256172
0.56336449 0.22093700 0.06256172
0.58223139 0.22093700 0.06256172
0.60124722 0.22093700 0.06256172
0.06256172 0.23549059 0.06256172
0.06256172 0.23549059 0.06256172
0.06256172 0.23549059 0.06256172
0.07408333 0.23549059 0.06256172
0.13051194 0.23549059 0.06256172
0.15483371 0.23549059 0.06256172
0.17383080 0.23549059 0.06256172
0.19053472 0.23549059 0.06256172
0.20605540 0.23549059 0.06256172
0.22093700 0.23549059 0.06256172
0.23549059 0.23549059 0.06256172
0.24991168 0.23549059 0.06256172
0.26433105 0.23549059 0.06256172
0.27883982 0.23549059 0.06256172
0.29350308 0.23549059 0.06256172
0.30836784 0.23549059 0.06256172
0.32346792 0.23549059 0.06256172
0.33882723 0.23549059 0.06256172
0.35446188 0.23549059 0.06256172
0.37038174 0.23549059 0.06256172
0.38659163 0.23549059 0.06256172
0.40309210 0.23549059 0.06256172
0.41988015 0.23549059 0.06256172
0.43694979 0.23549059 0.06256172
0.45429244 0.23549059 0.06256172
0.47189734 0.23549059 0.06256172
0.48975190 0.23549059 0.06256172
0.50784192 0.23549059 0.06256172
0.52615191 0.23549059 0.06256172
0.54466526 0.23549059 0.06256172
0.56336449 0.23549059 0.06256172
0.58223139 0.23549059 0.06256172
0.60124722 0.23549059 0.06256172
0.06256172 0.24991168 0.06256172
0.06256172 0.24991168 0.06256172
0.06256172 0.24991168 0.06256172
0.07408333 0.24991168 0.06256172
0.13051194 0.24991168 0.06256172
0.15483371 0.24991168 0.06256172
0.17383080 0.24991168 0.06256172
0.19053472 0.24991168 0.06256172
0.20605540 0.24991168 0.06256172
0.22093700 0.24991168 0.06256172
0.23549059 0.24991168 0.06256172
0.24991168 0.24991168 0.06256172
0.26433105 0.24991168 0.06256172
0.27883982 0.24991168 0.06256172
0.29350308 0.24991168 0.06256172
0.30836784 0.24991168 0.06256172
0.32346792 0.24991168 0.06256172
0.33882723 0.24991168 0.06256172
0.35446188 0.24991168 0.06256172
0.37038174 0.24991168 0.06256172
0.38659163 0.24991168 0.06256172
0.40309210 0.24991168 0.06256172
0.41988015 0.24991168 0.06256172
0.43694979 0.24991168 0.06256172
0.45429244 0.24991168 0.06256172
0.47189734 0.24991168 0.06256172
0.48975190 0.24991168 0.06256172
0.50784192 0.24991168 0.06256172
0.52615191 0.24991168 0.06256172
0.54466526 0.24991168 0.06256172
0.56336449 0.24991168 0.06256172
0.58223139 0.24991168 0.06256172
0.60124722 0.24991168 0.06256172
0.06256172 0.26433105 0.06256172
0.06256172 0.26433105 0.06256172
0.06256172 0.26433105 0.06256172
0.07408333 0.26433105 0.06256172
0.13051194 0.26433105 0.06256172
0.15483371 0.26433105 0.06256172
0.17383080 0.26433105 0.06256172
0.19053472 0.26433105 0.06256172
0.20605540 0.26433105 0.06256172
0.22093700 0.26433105 0.06256172
0.23549059 0.26433105 0.06256172
0.24991168 0.26433105 0.06256172
0.26433105 0.26433105 0.06256172
0.27883982 0.26433105 0.06256172
0.29350308 0.26433105 0.06256172
0.30836784 0.26433105 0.06256172
0.32346792 0.26433105 0.06256172
0.33882723 0.26433105 0.06256172
0.35446188 0.26433105 0.06256172
0.37038174 0.26433105 0.06256172
0.38659163 0.26433105 0.06256172
0.40309210 0.26433105 0.06256172
0.41988015 0.26433105 0.06256172
0.43694979 0.26433105 0.06256172
0.45429244 0.26433105 0.06256172
0.47189734 0.26433105 0.06256172
0.48975190 0.26433105 0.06256172
0.50784192 0.26433105 0.06256172
0.52615191 0.26433105 0.06256172
0.54466526 0.26433105 0.06256172
0.56336449 0.26433105 0.06256172
0.58223139 0.26433105 0.06256172
0.60124722 0.26433105 0.06256172
0.06256172 0.27883982 0.06256172
0.06256172 0.27883982 0.06256172
0.06256172 0.27883982 0.06256172
0.07408333 0.27883982 0.06256172
0.13051194 0.27883982 0.06256172
0.15483371 0.27883982 0.06256172
0.17383080 0.27883982 0.06256172
0.19053472 0.27883982 0.06256172
0.20605540 0.27883982 0.06256172
0.22093700 0.27883982 0.06256172
0.23549059 0.27883982 0.06256172
0.24991168 0.27883982 0.06256172
0.26433105 0.27883982 0.06256172
0.27883982 0.27883982 0.06256172
0.29350308 0.27883982 0.06256172
0.30836784 0.27883982 0.06256172
0.32346792 0.27883982 0.06256172
0.33882723 0.27883982 0.06256172
0.35446188 0.27883982 0.06256172
0.37038174 0.27883982 0.06256172
0.38659163 0.27883982 0.06256172
0.40309210 0.27883982 0.06256172
0.41988015 0.27883982 0.06256172
0.43694979 0.27883982 0.06256172
0.45429244 0.27883982 0.06256172
0.47189734 0.27883982 0.06256172
0.48975190 0.27883982 0.06256172
0.50784192 0.27883982 0.06256172
0.52615191 0.27883982 0.06256172
0.54466526 0.27883982 0.06256172
0.56336449 0.27883982 0.06256172
0.58223139 0.27883982 0.06256172
0.60124722 0.27883982 0.06256172
0.06256172 0.29350308 0.06256172
0.06256172 0.29350308 0.06256172
0.06256172 0.29350308 0.06256172
0.07408333 0.29350308 0.06256172
0.13051194 0.29350308 0.06256172
0.15483371 0.29350308 0.06256172
0.17383080 0.29350308 0.06256172
0.19053472 0.29350308 0.06256172
0.20605540 0.29350308 0.06256172
0.22093700 0.29350308 0.06256172
0.23549059 0.29350308 0.06256172
0.24991168 0.29350308 0.06256172
0.26433105 0.29350308 0.06256172
0.27883982 0.29350308 0.06256172
0.29350308 0.29350308 0.06256172
0.30836784 0.29350308 0.06256172
0.32346792 0.29350308 0.06256172
0.33882723 0.29350308 0.06256172
0.35446188 0.29350308 0.06256172
0.37038174 0.29350308 0.06256172
0.38659163 0.29350308 0.06256172
0.40309210 0.29350308 0.06256172
0.41988015 0.29350308 0.06256172
0.43694979 0.29350308 0.06256172
0.45429244 0.29350308 0.06256172
0.47189734 0.29350308 0.06256172
0.48975190 0.29350308 0.06256172
0.50784192 0.29350308 0.06256172
0.52615191 0.29350308 0.06256172
0.54466526 0.29350308 0.06256172
0.56336449 0.29350308 0.06256172
0.58223139 0.29350308 0.06256172
0.60124722 0.29350308 0.06256172
0.06256172 0.30836784 0.06256172
0.06256172 0.30836784 0.06256172
0.06256172 0.30836784 0.06256172
0.07408333 0.30836784 0.06256172
0.13051194 0.30836784 0.06256172
0.15483371 0.30836784 0.06256172
0.17383080 0.30836784 0.06256172
0.19053472 0.30836784 0.06256172
0.20605540 0.30836784 0.06256172
0.22093700 0.30836784 0.06256172
0.23549059 0.30836784 0.06256172
0.24991168 0.30836784 0.06256172
0.26433105 0.30836784 0.06256172
0.27883982 0.30836784 0.06256172
0.29350308 0.30836784 0.06256172
0.30836784 0.30836784 0.06256172
0.32346792 0.30836784 0.06256172
0.33882723 0.30836784 0.06256172
0.35446188 0.30836784 0.06256172
0.37038174 0.30836784 0.06256172
0.38659163 0.30836784 0.06256172
0.40309210 0.30836784 0.06256172
0.41988015 0.30836784 0.06256172
0.43694979 0.30836784 0.06256172
0.45429244 0.30836784 0.06256172
0.47189734 0.30836784 0.06256172
0.48975190 0.30836784 0.06256172
0.50784192 0.30836784 0.06256172
0.52615191 0.30836784 0.06256172
0.54466526 0.30836784 0.06256172
0.56336449 0.30836784 0.06256172
0.58223139 0.30836784 0.06256172
0.60124722 0.30836784 0.06256172
0.06256172 0.32346792 0.06256172
0.06256172 0.32346792 0.06256172
0.06256172 0.32346792 0.06256172
0.07408333 0.32346792 0.06256172
0.13051194 0.32346792 0.06256172
0.15483371 0.32346792 0.06256172
0.17383080 0.32346792 0.06256172
0.19053472 0.32346792 0.06256172
0.20605540 0.32346792 0.06256172
0.22093700 0.32346792 0.06256172
0.23549059 0.32346792 0.06256172
0.24991168 0.32346792 0.06256172
0.26433105 0.32346792 0.06256172
0.27883982 0.32346792 0.06256172
0.29350308 0.32346792 0.06256172
0.30836784 0.32346792 0.06256172
0.32346792 0.32346792 0.06256172
0.33882723 0.32346792 0.06256172
0.35446188 0.32346792 0.06256172
0.37038174 0.32346792 0.06256172
0.38659163 0.32346792 0.06256172
0.40309210 0.32346792 0.06256172
0.41988015 0.32346792 0.06256172
0.43694979 0.32346792 0.06256172
0.45429244 0.32346792 0.06256172
0.47189734 0.32346792 0.06256172
0.48975190 0.32346792 0.06256172
0.50784192 0.32346792 0.06256172
0.52615191 0.32346792 0.06256172
0.54466526 0.32346792 0.06256172
0.56336449 0.32346792 0.06256172
0.58223139 0.32346792 0.06256172
0.60124722 0.32346792 0.06256172
0.06256172 0.33882723 0.06256172
0.06256172 0.33882723 0.06256172
0.06256172 0.33882723 0.06256172
0.07408333 0.33882723 0.06256172
0.13051194 0.33882723 0.06256172
0.15483371 0.33882723 0.06256172
0.17383080 0.33882723 0.06256172
0.19053472 0.33882723 0.06256172
0.20605540 0.33882723 0.06256172
0.22093700 0.33882723 0.06256172
0.23549059 0.33882723 0.06256172
0.24991168 0.33882723 0.06256172
0.26433105 0.33882723 0.06256172
0.27883982 0.33882723 0.06256172
0.29350308 0.33882723 0.06256172
0.30836784 0.33882723 0.06256172
0.32346792 0.33882723 0.06256172
0.33882723 0.33882723 0.06256172
0.35446188 0.33882723 0.06256172
0.37038174 0.33882723 0.06256172
0.38659163 0.33882723 0.06256172
0.40309210 0.33882723 0.06256172
0.41988015 0.33882723 0.06256172
0.43694979 0.33882723 0.06256172
0.45429244 0.33882723 0.06256172
0.47189734 0.33882723 0.06256172
0.48975190 0.33882723 0.06256172
0.50784192 0.33882723 0.06256172
0.52615191 0.33882723 0.06256172
0.54466526 0.33882723 0.06256172
0.56336449 0.33882723 0.06256172
0.58223139 0.33882723 0.06256172
0.60124722 0.33882723 0.06256172
0.06256172 0.35446188 0.06256172
0.06256172 0.35446188 0.06256172
0.06256172 0.35446188 0.06256172
0.07408333 0.35446188 0.06256172
0.13051194 0.35446188 0.06256172
0.15483371 0.35446188 0.06256172
0.17383080 0.35446188 0.06256172
0.19053472 0.35446188 0.06256172
0.20605540 0.35446188 0.06256172
0.22093700 0.35446188 0.06256172
0.23549059 0.35446188 0.06256172
0.24991168 0.35446188 0.06256172
0.26433105 0.35446188 0.06256172
0.27883982 0.35446188 0.06256172
0.29350308 0.35446188 0.06256172
0.30836784 0.35446188 0.06256172
0.32346792 0.35446188 0.06256172
0.33882723 0.35446188 0.06256172
0.35446188 0.35446188 0.06256172
0.37038174 0.35446188 0.06256172
0.38659163 0.35446188 0.06256172
0.40309210 0.35446188 0.06256172
0.41988015 0.35446188 0.06256172
0.43694979 0.35446188 0.06256172
0.45429244 0.35446188 0.06256172
0.47189734 0.35446188 0.06256172
0.48975190 0.35446188 0.06256172
0.50784192 0.35446188 0.06256172
0.52615191 0.35446188 0.06256172
0.54466526 0.35446188 0.06256172
0.56336449 0.35446188 0.06256172
0.58223139 0.35446188 0.06256172
0.60124722 0.35446188 0.06256172
0.06256172 0.37038174 0.06256172
0.06256172 0.37038174 0.06256172
0.06256172 0.37038174 0.06256172
0.07408333 0.37038174 0.06256172
0.13051194 0.37038174 0.06256172
0.15483371 0.37038174 0.06256172
0.17383080 0.37038174 0.06256172
0.19053472 0.37038174 0.06256172
0.20605540 0.37038174 0.06256172
0.22093700 0.37038174 0.06256172
0.23549059 0.37038174 0.06256172
0.24991168 0.37038174 0.06256172
0.26433105 0.37038174 0.06256172
0.27883982 0.37038174 0.06256172
0.29350308 0.37038174 0.06256172
0.30836784 0.37038174 0.06256172
0.32346792 0.37038174 0.06256172
0.33882723 0.37038174 0.06256172
0.35446188 0.37038174 0.06256172
0.37038174 0.37038174 0.06256172
0.38659163 0.37038174 0.06256172
0.40309210 0.37038174 0.06256172
0.41988015 0.37038174 0.06256172
0.43694979 0.37038174 0.06256172
0.45429244 0.37038174 0.06256172
0.47189734 0.37038174 0.06256172
0.48975190 0.37038174 0.06256172
0.50784192 0.37038174 0.06256172
0.52615191 0.37038174 0.06256172
0.54466526 0.37038174 0.06256172
0.56336449 0.37038174 0.06256172
0.58223139 0.37038174 0.06256172
0.60124722 0.37038174 0.06256172
0.06256172 0.38659163 0.06256172
0.06256172 0.38659163 0.06256172
0.06256172 0.38659163 0.06256172
0.07408333 0.38659163 0.06256172
0.13051194 0.38659163 0.06256172
0.15483371 0.38659163 0.06256172
0.17383080 0.38659163 0.06256172
0.19053472 0.38659163 0.06256172
0.20605540 0.38659163 0.06256172
0.22093700 0.38659163 0.06256172
0.23549059 0.38659163 0.06256172
0.24991168 0.38659163 0.06256172
0.26433105 0.38659163 0.06256172
0.27883982 0.38659163 0.06256172
0.29350308 0.38659163 0.06256172
0.30836784 0.38659163 0.06256172
0.32346792 0.38659163 0.06256172
0.33882723 0.38659163 0.06256172
0.35446188 0.38659163 0.06256172
0.37038174 0.38659163 0.06256172
0.38659163 0.38659163 0.06256172
0.40309210 0.38659163 0.06256172
0.41988015 0.38659163 0.06256172
0.43694979 0.38659163 0.06256172
0.45429244 0.38659163 0.06256172
0.47189734 0.38659163 0.06256172
0.48975190 0.38659163 0.06256172
0.50784192 0.38659163 0.06256172
0.52615191 0.38659163 0.06256172
0.54466526 0.38659163 0.06256172
0.56336449 0.38659163 0.06256172
0.58223139 0.38659163 0.06256172
0.60124722 0.38659163 0.06256172
0.06256172 0.40309210 0.06256172
0.06256172 0.40309210 0.06256172
0.06256172 0.40309210 0.06256172
0.07408333 0.40309210 0.06256172
0.13051194 0.40309210 0.06256172
0.15483371 0.40309210 0.06256172
0.17383080 0.40309210 0.06256172
0.19053472 0.40309210 0.06256172
0.20605540 0.40309210 0.06256172
0.22093700 0.40309210 0.06256172
0.23549059 0.40309210 0.06256172
0.24991168 0.40309210 0.06256172
0.26433105 0.40309210 0.06256172
0.27883982 0.40309210 0.06256172
0.29350308 0.40309210 0.06256172
0.30836784 0.40309210 0.06256172
0.32346792 0.40309210 0.06256172
0.33882723 0.40309210 0.06256172
0.35446188 0.40309210 0.06256172
0.37038174 0.40309210 0.06256172
0.38659163 0.40309210 0.06256172
0.40309210 0.40309210 0.06256172
0.41988015 0.40309210 0.06256172
0.43694979 0.40309210 0.06256172
0.45429244 0.40309210 0.06256172
0.47189734 0.40309210 0.06256172
0.48975190 0.40309210 0.06256172
