src/ffmpeg_scripts/luts/flog-experimental_1p33.cube
TITLE "flog-experimental_1p33"
LUT_3D_SIZE 33
# Fujifilm F-Log/Rec2020 -> PQ (EOTF Only)/Rec2020, CineEI Shift 1.33, Black Level 0.00% IRE, Input 109% -> Output 100% - Created with LUTCalc v4.01 by Ben Turley October 2020
0.00000073 0.00000073 0.00000073
0.00000073 0.00000073 0.00000073
0.00000073 0.00000073 0.00000073
0.04695934 0.00000073 0.00000073
0.21719753 0.00000073 0.00000073
0.28003608 0.00000073 0.00000073
0.32669143 0.00000073 0.00000073
0.36630484 0.00000073 0.00000073
0.40210215 0.00000073 0.00000073
0.43562123 0.00000073 0.00000073
0.46771907 0.00000073 0.00000073
0.49892097 0.00000073 0.00000073
0.52956952 0.00000073 0.00000073
0.55989738 0.00000073 0.00000073
0.59006651 0.00000073 0.00000073
0.62019095 0.00000073 0.00000073
0.65035087 0.00000073 0.00000073
0.68060171 0.00000073 0.00000073
0.71098032 0.00000073 0.00000073
0.74150930 0.00000073 0.00000073
0.77220018 0.00000073 0.00000073
0.80305574 0.00000073 0.00000073
0.83407185 0.00000073 0.00000073
0.86523883 0.00000073 0.00000073
0.89654267 0.00000073 0.00000073
0.92796587 0.00000073 0.00000073
0.95948823 0.00000073 0.00000073
0.99108749 0.00000073 0.00000073
1.00000000 0.00000073 0.00000073
1.00000000 0.00000073 0.00000073
1.00000000 0.00000073 0.00000073
1.00000000 0.00000073 0.00000073
1.00000000 0.00000073 0.00000073
0.00000073 0.00000073 0.00000073
0.00000073 0.00000073 0.00000073
0.00000073 0.00000073 0.00000073
0.04695934 0.00000073 0.00000073
0.21719753 0.00000073 0.00000073
0.28003608 0.00000073 0.00000073
0.32669143 0.00000073 0.00000073
0.36630484 0.00000073 0.00000073
0.40210215 0.00000073 0.00000073
0.43562123 0.00000073 0.00000073
0.46771907 0.00000073 0.00000073
0.49892097 0.00000073 0.00000073
0.52956952 0.00000073 0.00000073
0.55989738 0.00000073 0.00000073
0.59006651 0.00000073 0.00000073
0.62019095 0.00000073 0.00000073
0.65035087 0.00000073 0.00000073
0.68060171 0.00000073 0.00000073
0.71098032 0.00000073 0.00000073
0.74150930 0.00000073 0.00000073
0.77220018 0.00000073 0.00000073
0.80305574 0.00000073 0.00000073
0.83407185 0.00000073 0.00000073
0.86523883 0.00000073 0.00000073
0.89654267 0.00000073 0.00000073
0.92796587 0.00000073 0.00000073
0.95948823 0.00000073 0.00000073
0.99108749 0.00000073 0.00000073
1.00000000 0.00000073 0.00000073
1.00000000 0.00000073 0.00000073
1.00000000 0.00000073 0.00000073
1.00000000 0.00000073 0.00000073
1.00000000 0.00000073 0.00000073
0.00000073 0.00000073 0.00000073
0.00000073 0.00000073 0.00000073
0.00000073 0.00000073 0.00000073
0.04695934 0.00000073 0.00000073
0.21719753 0.00000073 0.00000073
0.28003608 0.00000073 0.00000073
0.32669143 0.00000073 0.00000073
0.36630484 0.00000073 0.00000073
0.40210215 0.00000073 0.00000073
0.43562123 0.00000073 0.00000073
0.46771907 0.00000073 0.00000073
0.49892097 0.00000073 0.00000073
0.52956952 0.00000073 0.00000073
0.55989738 0.00000073 0.00000073
0.59006651 0.00000073 0.00000073
0.62019095 0.00000073 0.00000073
0.65035087 0.00000073 0.00000073
0.68060171 0.00000073 0.00000073
0.71098032 0.00000073 0.00000073
0.74150930 0.00000073 0.00000073
0.77220018 0.00000073 0.00000073
0.80305574 0.00000073 0.00000073
0.83407185 0.00000073 0.00000073
0.86523883 0.00000073 0.00000073
0.89654267 0.00000073 0.00000073
0.92796587 0.00000073 0.00000073
0.95948823 0.00000073 0.00000073
0.99108749 0.00000073 0.00000073
1.00000000 0.00000073 0.00000073
1.00000000 0.00000073 0.00000073
1.00000000 0.00000073 0.00000073
1.00000000 0.00000073 0.00000073
1.00000000 0.00000073 0.00000073
0.00000073 0.04695934 0.00000073
0.00000073 0.04695934 0.00000073
0.00000073 0.04695934 0.00000073
0.04695934 0.04695934 0.00000073
0.21719753 0.04695934 0.00000073
0.28003608 0.04695934 0.00000073
0.32669143 0.04695934 0.00000073
0.36630484 0.04695934 0.00000073
0.40210215 0.04695934 0.00000073
0.43562123 0.04695934 0.00000073
0.46771907 0.04695934 0.00000073
0.49892097 0.04695934 0.00000073
0.52956952 0.04695934 0.00000073
0.55989738 0.04695934 0.00000073
0.59006651 0.04695934 0.00000073
0.62019095 0.04695934 0.00000073
0.65035087 0.04695934 0.00000073
0.68060171 0.04695934 0.00000073
0.71098032 0.04695934 0.00000073
0.74150930 0.04695934 0.00000073
0.77220018 0.04695934 0.00000073
0.80305574 0.04695934 0.00000073
0.83407185 0.04695934 0.00000073
0.86523883 0.04695934 0.00000073
0.89654267 0.04695934 0.00000073
0.92796587 0.04695934 0.00000073
0.95948823 0.04695934 0.00000073
0.99108749 0.04695934 0.00000073
1.00000000 0.04695934 0.00000073
1.00000000 0.04695934 0.00000073
1.00000000 0.04695934 0.00000073
1.00000000 0.04695934 0.00000073
1.00000000 0.04695934 0.00000073
0.00000073 0.21719753 0.00000073
0.00000073 0.21719753 0.00000073
0.00000073 0.21719753 0.00000073
0.04695934 0.21719753 0.00000073
0.21719753 0.21719753 0.00000073
0.28003608 0.21719753 0.00000073
0.32669143 0.21719753 0.00000073
0.36630484 0.21719753 0.00000073
0.40210215 0.21719753 0.00000073
0.43562123 0.21719753 0.00000073
0.46771907 0.21719753 0.00000073
0.49892097 0.21719753 0.00000073
0.52956952 0.21719753 0.00000073
0.55989738 0.21719753 0.00000073
0.59006651 0.21719753 0.00000073
0.62019095 0.21719753 0.00000073
0.65035087 0.21719753 0.00000073
0.68060171 0.21719753 0.00000073
0.71098032 0.21719753 0.00000073
0.74150930 0.21719753 0.00000073
0.77220018 0.21719753 0.00000073
0.80305574 0.21719753 0.00000073
0.83407185 0.21719753 0.00000073
0.86523883 0.21719753 0.00000073
0.89654267 0.21719753 0.00000073
0.92796587 0.21719753 0.00000073
0.95948823 0.21719753 0.00000073
0.99108749 0.21719753 0.00000073
1.00000000 0.21719753 0.00000073
1.00000000 0.21719753 0.00000073
1.00000000 0.21719753 0.00000073
1.00000000 0.21719753 0.00000073
1.00000000 0.21719753 0.00000073
0.00000073 0.28003608 0.00000073
0.00000073 0.28003608 0.00000073
0.00000073 0.28003608 0.00000073
0.04695934 0.28003608 0.00000073
0.21719753 0.28003608 0.00000073
0.28003608 0.28003608 0.00000073
0.32669143 0.28003608 0.00000073
0.36630484 0.28003608 0.00000073
0.40210215 0.28003608 0.00000073
0.43562123 0.28003608 0.00000073
0.46771907 0.28003608 0.00000073
0.49892097 0.28003608 0.00000073
0.52956952 0.28003608 0.00000073
0.55989738 0.28003608 0.00000073
0.59006651 0.28003608 0.00000073
0.62019095 0.28003608 0.00000073
0.65035087 0.28003608 0.00000073
0.68060171 0.28003608 0.00000073
0.71098032 0.28003608 0.00000073
0.74150930 0.28003608 0.00000073
0.77220018 0.28003608 0.00000073
0.80305574 0.28003608 0.00000073
0.83407185 0.28003608 0.00000073
0.86523883 0.28003608 0.00000073
0.89654267 0.28003608 0.00000073
0.92796587 0.28003608 0.00000073
0.95948823 0.28003608 0.00000073
0.99108749 0.28003608 0.00000073
1.00000000 0.28003608 0.00000073
1.00000000 0.28003608 0.00000073
1.00000000 0.28003608 0.00000073
1.00000000 0.28003608 0.00000073
1.00000000 0.28003608 0.00000073
0.00000073 0.32669143 0.00000073
0.00000073 0.32669143 0.00000073
0.00000073 0.32669143 0.00000073
0.04695934 0.32669143 0.00000073
0.21719753 0.32669143 0.00000073
0.28003608 0.32669143 0.00000073
0.32669143 0.32669143 0.00000073
0.36630484 0.32669143 0.00000073
0.40210215 0.32669143 0.00000073
0.43562123 0.32669143 0.00000073
0.46771907 0.32669143 0.00000073
0.49892097 0.32669143 0.00000073
0.52956952 0.32669143 0.00000073
0.55989738 0.32669143 0.00000073
0.59006651 0.32669143 0.00000073
0.62019095 0.32669143 0.00000073
0.65035087 0.32669143 0.00000073
0.68060171 0.32669143 0.00000073
0.71098032 0.32669143 0.00000073
0.74150930 0.32669143 0.00000073
0.77220018 0.32669143 0.00000073
0.80305574 0.32669143 0.00000073
0.83407185 0.32669143 0.00000073
0.86523883 0.32669143 0.00000073
0.89654267 0.32669143 0.00000073
0.92796587 0.32669143 0.00000073
0.95948823 0.32669143 0.00000073
0.99108749 0.32669143 0.00000073
1.00000000 0.32669143 0.00000073
1.00000000 0.32669143 0.00000073
1.00000000 0.32669143 0.00000073
1.00000000 0.32669143 0.00000073
1.00000000 0.32669143 0.00000073
0.00000073 0.36630484 0.00000073
0.00000073 0.36630484 0.00000073
0.00000073 0.36630484 0.00000073
0.04695934 0.36630484 0.00000073
0.21719753 0.36630484 0.00000073
0.28003608 0.36630484 0.00000073
0.32669143 0.36630484 0.00000073
0.36630484 0.36630484 0.00000073
0.40210215 0.36630484 0.00000073
0.43562123 0.36630484 0.00000073
0.46771907 0.36630484 0.00000073
0.49892097 0.36630484 0.00000073
0.52956952 0.36630484 0.00000073
0.55989738 0.36630484 0.00000073
0.59006651 0.36630484 0.00000073
0.62019095 0.36630484 0.00000073
0.65035087 0.36630484 0.00000073
0.68060171 0.36630484 0.00000073
0.71098032 0.36630484 0.00000073
0.74150930 0.36630484 0.00000073
0.77220018 0.36630484 0.00000073
0.80305574 0.36630484 0.00000073
0.83407185 0.36630484 0.00000073
0.86523883 0.36630484 0.00000073
0.89654267 0.36630484 0.00000073
0.92796587 0.36630484 0.00000073
0.95948823 0.36630484 0.00000073
0.99108749 0.36630484 0.00000073
1.00000000 0.36630484 0.00000073
1.00000000 0.36630484 0.00000073
1.00000000 0.36630484 0.00000073
1.00000000 0.36630484 0.00000073
1.00000000 0.36630484 0.00000073
0.00000073 0.40210215 0.00000073
0.00000073 0.40210215 0.00000073
0.00000073 0.40210215 0.00000073
0.04695934 0.40210215 0.00000073
0.21719753 0.40210215 0.00000073
0.28003608 0.40210215 0.00000073
0.32669143 0.40210215 0.00000073
0.36630484 0.40210215 0.00000073
0.40210215 0.40210215 0.00000073
0.43562123 0.40210215 0.00000073
0.46771907 0.40210215 0.00000073
0.49892097 0.40210215 0.00000073
0.52956952 0.40210215 0.00000073
0.55989738 0.40210215 0.00000073
0.59006651 0.40210215 0.00000073
0.62019095 0.40210215 0.00000073
0.65035087 0.40210215 0.00000073
0.68060171 0.40210215 0.00000073
0.71098032 0.40210215 0.00000073
0.74150930 0.40210215 0.00000073
0.77220018 0.40210215 0.00000073
0.80305574 0.40210215 0.00000073
0.83407185 0.40210215 0.00000073
0.86523883 0.40210215 0.00000073
0.89654267 0.40210215 0.00000073
0.92796587 0.40210215 0.00000073
0.95948823 0.40210215 0.00000073
0.99108749 0.40210215 0.00000073
1.00000000 0.40210215 0.00000073
1.00000000 0.40210215 0.00000073
1.00000000 0.40210215 0.00000073
1.00000000 0.40210215 0.00000073
1.00000000 0.40210215 0.00000073
0.00000073 0.43562123 0.00000073
0.00000073 0.43562123 0.00000073
0.00000073 0.43562123 0.00000073
0.04695934 0.43562123 0.00000073
0.21719753 0.43562123 0.00000073
0.28003608 0.43562123 0.00000073
0.32669143 0.43562123 0.00000073
0.36630484 0.43562123 0.00000073
0.40210215 0.43562123 0.00000073
0.43562123 0.43562123 0.00000073
0.46771907 0.43562123 0.00000073
0.49892097 0.43562123 0.00000073
0.52956952 0.43562123 0.00000073
0.55989738 0.43562123 0.00000073
0.59006651 0.43562123 0.00000073
0.62019095 0.43562123 0.00000073
0.65035087 0.43562123 0.00000073
0.68060171 0.43562123 0.00000073
0.71098032 0.43562123 0.00000073
0.74150930 0.43562123 0.00000073
0.77220018 0.43562123 0.00000073
0.80305574 0.43562123 0.00000073
0.83407185 0.43562123 0.00000073
0.86523883 0.43562123 0.00000073
0.89654267 0.43562123 0.00000073
0.92796587 0.43562123 0.00000073
0.95948823 0.43562123 0.00000073
0.99108749 0.43562123 0.00000073
1.00000000 0.43562123 0.00000073
1.00000000 0.43562123 0.00000073
1.00000000 0.43562123 0.00000073
1.00000000 0.43562123 0.00000073
1.00000000 0.43562123 0.00000073
0.00000073 0.46771907 0.00000073
0.00000073 0.46771907 0.00000073
0.00000073 0.46771907 0.00000073
0.04695934 0.46771907 0.00000073
0.21719753 0.46771907 0.00000073
0.28003608 0.46771907 0.00000073
0.32669143 0.46771907 0.00000073
0.36630484 0.46771907 0.00000073
0.40210215 0.46771907 0.00000073
0.43562123 0.46771907 0.00000073
0.46771907 0.46771907 0.00000073
0.49892097 0.46771907 0.00000073
0.52956952 0.46771907 0.00000073
0.55989738 0.46771907 0.00000073
0.59006651 0.46771907 0.00000073
0.62019095 0.46771907 0.00000073
0.65035087 0.46771907 0.00000073
0.68060171 0.46771907 0.00000073
0.71098032 0.46771907 0.00000073
0.74150930 0.46771907 0.00000073
0.77220018 0.46771907 0.00000073
0.80305574 0.46771907 0.00000073
0.83407185 0.46771907 0.00000073
0.86523883 0.46771907 0.00000073
0.89654267 0.46771907 0.00000073
0.92796587 0.46771907 0.00000073
0.95948823 0.46771907 0.00000073
0.99108749 0.46771907 0.00000073
1.00000000 0.46771907 0.00000073
1.00000000 0.46771907 0.00000073
1.00000000 0.46771907 0.00000073
1.00000000 0.46771907 0.00000073
1.00000000 0.46771907 0.00000073
0.00000073 0.49892097 0.00000073
0.00000073 0.49892097 0.00000073
0.00000073 0.49892097 0.00000073
0.04695934 0.49892097 0.00000073
0.21719753 0.49892097 0.00000073
0.28003608 0.49892097 0.00000073
0.32669143 0.49892097 0.00000073
0.36630484 0.49892097 0.00000073
0.40210215 0.49892097 0.00000073
0.43562123 0.49892097 0.00000073
0.46771907 0.49892097 0.00000073
0.49892097 0.49892097 0.00000073
0.52956952 0.49892097 0.00000073
0.55989738 0.49892097 0.00000073
0.59006651 0.49892097 0.00000073
0.62019095 0.49892097 0.00000073
0.65035087 0.49892097 0.00000073
0.68060171 0.49892097 0.00000073
0.71098032 0.49892097 0.00000073
0.74150930 0.49892097 0.00000073
0.77220018 0.49892097 0.00000073
0.80305574 0.49892097 0.00000073
0.83407185 0.49892097 0.00000073
0.86523883 0.49892097 0.00000073
0.89654267 0.49892097 0.00000073
0.92796587 0.49892097 0.00000073
0.95948823 0.49892097 0.00000073
0.99108749 0.49892097 0.00000073
1.00000000 0.49892097 0.00000073
1.00000000 0.49892097 0.00000073
1.00000000 0.49892097 0.00000073
1.00000000 0.49892097 0.00000073
1.00000000 0.49892097 0.00000073
0.00000073 0.52956952 0.00000073
0.00000073 0.52956952 0.00000073
0.00000073 0.52956952 0.00000073
0.04695934 0.52956952 0.00000073
0.21719753 0.52956952 0.00000073
0.28003608 0.52956952 0.00000073
0.32669143 0.52956952 0.00000073
0.36630484 0.52956952 0.00000073
0.40210215 0.52956952 0.00000073
0.43562123 0.52956952 0.00000073
0.46771907 0.52956952 0.00000073
0.49892097 0.52956952 0.00000073
0.52956952 0.52956952 0.00000073
0.55989738 0.52956952 0.00000073
0.59006651 0.52956952 0.00000073
0.62019095 0.52956952 0.00000073
0.65035087 0.52956952 0.00000073
0.68060171 0.52956952 0.00000073
0.71098032 0.52956952 0.00000073
0.74150930 0.52956952 0.00000073
0.77220018 0.52956952 0.00000073
0.80305574 0.52956952 0.00000073
0.83407185 0.52956952 0.00000073
0.86523883 0.52956952 0.00000073
0.89654267 0.52956952 0.00000073
0.92796587 0.52956952 0.00000073
0.95948823 0.52956952 0.00000073
0.99108749 0.52956952 0.00000073
1.00000000 0.52956952 0.00000073
1.00000000 0.52956952 0.00000073
1.00000000 0.52956952 0.00000073
1.00000000 0.52956952 0.00000073
1.00000000 0.52956952 0.00000073
0.00000073 0.55989738 0.00000073
0.00000073 0.55989738 0.00000073
0.00000073 0.55989738 0.00000073
0.04695934 0.55989738 0.00000073
0.21719753 0.55989738 0.00000073
0.28003608 0.55989738 0.00000073
0.32669143 0.55989738 0.00000073
0.36630484 0.55989738 0.00000073
0.40210215 0.55989738 0.00000073
0.43562123 0.55989738 0.00000073
0.46771907 0.55989738 0.00000073
0.49892097 0.55989738 0.00000073
0.52956952 0.55989738 0.00000073
0.55989738 0.55989738 0.00000073
0.59006651 0.55989738 0.00000073
0.62019095 0.55989738 0.00000073
0.65035087 0.55989738 0.00000073
0.68060171 0.55989738 0.00000073
0.71098032 0.55989738 0.00000073
0.74150930 0.55989738 0.00000073
0.77220018 0.55989738 0.00000073
0.80305574 0.55989738 0.00000073
0.83407185 0.55989738 0.00000073
0.86523883 0.55989738 0.00000073
0.89654267 0.55989738 0.00000073
0.92796587 0.55989738 0.00000073
0.95948823 0.55989738 0.00000073
0.99108749 0.55989738 0.00000073
1.00000000 0.55989738 0.00000073
1.00000000 0.55989738 0.00000073
1.00000000 0.55989738 0.00000073
1.00000000 0.55989738 0.00000073
1.00000000 0.55989738 0.00000073
0.00000073 0.59006651 0.00000073
0.00000073 0.59006651 0.00000073
0.00000073 0.59006651 0.00000073
0.04695934 0.59006651 0.00000073
0.21719753 0.59006651 0.00000073
0.28003608 0.59006651 0.00000073
0.32669143 0.59006651 0.00000073
0.36630484 0.59006651 0.00000073
0.40210215 0.59006651 0.00000073
0.43562123 0.59006651 0.00000073
0.46771907 0.59006651 0.00000073
0.49892097 0.59006651 0.00000073
0.52956952 0.59006651 0.00000073
0.55989738 0.59006651 0.00000073
0.59006651 0.59006651 0.00000073
0.62019095 0.59006651 0.00000073
0.65035087 0.59006651 0.00000073
0.68060171 0.59006651 0.00000073
0.71098032 0.59006651 0.00000073
0.74150930 0.59006651 0.00000073
0.77220018 0.59006651 0.00000073
0.80305574 0.59006651 0.00000073
0.83407185 0.59006651 0.00000073
0.86523883 0.59006651 0.00000073
0.89654267 0.59006651 0.00000073
0.92796587 0.59006651 0.00000073
0.95948823 0.59006651 0.00000073
0.99108749 0.59006651 0.00000073
1.00000000 0.59006651 0.00000073
1.00000000 0.59006651 0.00000073
1.00000000 0.59006651 0.00000073
1.00000000 0.59006651 0.00000073
1.00000000 0.59006651 0.00000073
0.00000073 0.62019095 0.00000073
0.00000073 0.62019095 0.00000073
0.00000073 0.62019095 0.00000073
0.04695934 0.62019095 0.00000073
0.21719753 0.62019095 0.00000073
0.28003608 0.62019095 0.00000073
0.32669143 0.62019095 0.00000073
0.36630484 0.62019095 0.00000073
0.40210215 0.62019095 0.00000073
0.43562123 0.62019095 0.00000073
0.46771907 0.62019095 0.00000073
0.49892097 0.62019095 0.00000073
0.52956952 0.62019095 0.00000073
0.55989738 0.62019095 0.00000073
0.59006651 0.62019095 0.00000073
0.62019095 0.62019095 0.00000073
0.65035087 0.62019095 0.00000073
0.68060171 0.62019095 0.00000073
0.71098032 0.62019095 0.00000073
0.74150930 0.62019095 0.00000073
0.77220018 0.62019095 0.00000073
0.80305574 0.62019095 0.00000073
0.83407185 0.62019095 0.00000073
0.86523883 0.62019095 0.00000073
0.89654267 0.62019095 0.00000073
0.92796587 0.62019095 0.00000073
0.95948823 0.62019095 0.00000073
0.99108749 0.62019095 0.00000073
1.00000000 0.62019095 0.00000073
1.00000000 0.62019095 0.00000073
1.00000000 0.62019095 0.00000073
1.00000000 0.62019095 0.00000073
1.00000000 0.62019095 0.00000073
0.00000073 0.65035087 0.00000073
0.00000073 0.65035087 0.00000073
0.00000073 0.65035087 0.00000073
0.04695934 0.65035087 0.00000073
0.21719753 0.65035087 0.00000073
0.28003608 0.65035087 0.00000073
0.32669143 0.65035087 0.00000073
0.36630484 0.65035087 0.00000073
0.40210215 0.65035087 0.00000073
0.43562123 0.65035087 0.00000073
0.46771907 0.65035087 0.00000073
0.49892097 0.65035087 0.00000073
0.52956952 0.65035087 0.00000073
0.55989738 0.65035087 0.00000073
0.59006651 0.65035087 0.00000073
0.62019095 0.65035087 0.00000073
0.65035087 0.65035087 0.00000073
0.68060171 0.65035087 0.00000073
0.71098032 0.65035087 0.00000073
0.74150930 0.65035087 0.00000073
0.77220018 0.65035087 0.00000073
0.80305574 0.65035087 0.00000073
0.83407185 0.65035087 0.00000073
0.86523883 0.65035087 0.00000073
0.89654267 0.65035087 0.00000073
0.92796587 0.65035087 0.00000073
0.95948823 0.65035087 0.00000073
0.99108749 0.65035087 0.00000073
1.00000000 0.65035087 0.00000073
1.00000000 0.65035087 0.00000073
1.00000000 0.65035087 0.00000073
1.00000000 0.65035087 0.00000073
1.00000000 0.65035087 0.00000073
0.00000073 0.68060171 0.00000073
0.00000073 0.68060171 0.00000073
0.00000073 0.68060171 0.00000073
0.04695934 0.68060171 0.00000073
0.21719753 0.68060171 0.00000073
0.28003608 0.68060171 0.00000073
0.32669143 0.68060171 0.00000073
0.36630484 0.68060171 0.00000073
0.40210215 0.68060171 0.00000073
0.43562123 0.68060171 0.00000073
0.46771907 0.68060171 0.00000073
0.49892097 0.68060171 0.00000073
0.52956952 0.68060171 0.00000073
0.55989738 0.68060171 0.00000073
0.59006651 0.68060171 0.00000073
0.62019095 0.68060171 0.00000073
0.65035087 0.68060171 0.00000073
0.68060171 0.68060171 0.00000073
0.71098032 0.68060171 0.00000073
0.74150930 0.68060171 0.00000073
0.77220018 0.68060171 0.00000073
0.80305574 0.68060171 0.00000073
0.83407185 0.68060171 0.00000073
0.86523883 0.68060171 0.00000073
0.89654267 0.68060171 0.00000073
0.92796587 0.68060171 0.00000073
0.95948823 0.68060171 0.00000073
0.99108749 0.68060171 0.00000073
1.00000000 0.68060171 0.00000073
1.00000000 0.68060171 0.00000073
1.00000000 0.68060171 0.00000073
1.00000000 0.68060171 0.00000073
1.00000000 0.68060171 0.00000073
0.00000073 0.71098032 0.00000073
0.00000073 0.71098032 0.00000073
0.00000073 0.71098032 0.00000073
0.04695934 0.71098032 0.00000073
0.21719753 0.71098032 0.00000073
0.28003608 0.71098032 0.00000073
0.32669143 0.71098032 0.00000073
0.36630484 0.71098032 0.00000073
0.40210215 0.71098032 0.00000073
0.43562123 0.71098032 0.00000073
0.46771907 0.71098032 0.00000073
0.49892097 0.71098032 0.00000073
0.52956952 0.71098032 0.00000073
0.55989738 0.71098032 0.00000073
0.59006651 0.71098032 0.00000073
0.62019095 0.71098032 0.00000073
0.65035087 0.71098032 0.00000073
0.68060171 0.71098032 0.00000073
0.71098032 0.71098032 0.00000073
0.74150930 0.71098032 0.00000073
0.77220018 0.71098032 0.00000073
0.80305574 0.71098032 0.00000073
0.83407185 0.71098032 0.00000073
0.86523883 0.71098032 0.00000073
0.89654267 0.71098032 0.00000073
0.92796587 0.71098032 0.00000073
0.95948823 0.71098032 0.00000073
0.99108749 0.71098032 0.00000073
1.00000000 0.71098032 0.00000073
1.00000000 0.71098032 0.00000073
1.00000000 0.71098032 0.00000073
1.00000000 0.71098032 0.00000073
1.00000000 0.71098032 0.00000073
0.00000073 0.74150930 0.00000073
0.00000073 0.74150930 0.00000073
0.00000073 0.74150930 0.00000073
0.04695934 0.74150930 0.00000073
0.21719753 0.74150930 0.00000073
0.28003608 0.74150930 0.00000073
0.32669143 0.74150930 0.00000073
0.36630484 0.74150930 0.00000073
0.40210215 0.74150930 0.00000073
0.43562123 0.74150930 0.00000073
0.46771907 0.74150930 0.00000073
0.49892097 0.74150930 0.00000073
0.52956952 0.74150930 0.00000073
0.55989738 0.74150930 0.00000073
0.59006651 0.74150930 0.00000073
0.62019095 0.74150930 0.00000073
0.65035087 0.74150930 0.00000073
0.68060171 0.74150930 0.00000073
0.71098032 0.74150930 0.00000073
0.74150930 0.74150930 0.00000073
0.77220018 0.74150930 0.00000073
0.80305574 0.74150930 0.00000073
0.83407185 0.74150930 0.00000073
0.86523883 0.74150930 0.00000073
0.89654267 0.74150930 0.00000073
0.92796587 0.74150930 0.00000073
0.95948823 0.74150930 0.00000073
0.99108749 0.74150930 0.00000073
1.00000000 0.74150930 0.00000073
1.00000000 0.74150930 0.00000073
1.00000000 0.74150930 0.00000073
1.00000000 0.74150930 0.00000073
1.00000000 0.74150930 0.00000073
0.00000073 0.77220018 0.00000073
0.00000073 0.77220018 0.00000073
0.00000073 0.77220018 0.00000073
0.04695934 0.77220018 0.00000073
0.21719753 0.77220018 0.00000073
0.28003608 0.77220018 0.00000073
0.32669143 0.77220018 0.00000073
0.36630484 0.77220018 0.00000073
0.40210215 0.77220018 0.00000073
0.43562123 0.77220018 0.00000073
0.46771907 0.77220018 0.00000073
0.49892097 0.77220018 0.00000073
0.52956952 0.77220018 0.00000073
0.55989738 0.77220018 0.00000073
0.59006651 0.77220018 0.00000073
0.62019095 0.77220018 0.00000073
0.65035087 0.77220018 0.00000073
0.68060171 0.77220018 0.00000073
0.71098032 0.77220018 0.00000073
0.74150930 0.77220018 0.00000073
0.77220018 0.77220018 0.00000073
0.80305574 0.77220018 0.00000073
0.83407185 0.77220018 0.00000073
0.86523883 0.77220018 0.00000073
0.89654267 0.77220018 0.00000073
0.92796587 0.77220018 0.00000073
0.95948823 0.77220018 0.00000073
0.99108749 0.77220018 0.00000073
1.00000000 0.77220018 0.00000073
1.00000000 0.77220018 0.00000073
1.00000000 0.77220018 0.00000073
1.00000000 0.77220018 0.00000073
1.00000000 0.77220018 0.00000073
0.00000073 0.80305574 0.00000073
0.00000073 0.80305574 0.00000073
0.00000073 0.80305574 0.00000073
0.04695934 0.80305574 0.00000073
0.21719753 0.80305574 0.00000073
0.28003608 0.80305574 0.00000073
0.32669143 0.80305574 0.00000073
0.36630484 0.80305574 0.00000073
0.40210215 0.80305574 0.00000073
0.43562123 0.80305574 0.00000073
0.46771907 0.80305574 0.00000073
0.49892097 0.80305574 0.00000073
0.52956952 0.80305574 0.00000073
0.55989738 0.80305574 0.00000073
0.59006651 0.80305574 0.00000073
0.62019095 0.80305574 0.00000073
0.65035087 0.80305574 0.00000073
0.68060171 0.80305574 0.00000073
0.71098032 0.80305574 0.00000073
0.74150930 0.80305574 0.00000073
0.77220018 0.80305574 0.00000073
0.80305574 0.80305574 0.00000073
0.83407185 0.80305574 0.00000073
0.86523883 0.80305574 0.00000073
0.89654267 0.80305574 0.00000073
0.92796587 0.80305574 0.00000073
0.95948823 0.80305574 0.00000073
