src/ffmpeg_scripts/luts/flog-experimental_2p33.cube
TITLE "flog-experimental_2p33"
LUT_3D_SIZE 9
# Fujifilm F-Log/Rec2020 -> PQ (EOTF Only)/Rec2020, CineEI Shift 2.33, Black Level 0.00% IRE, Input 109% -> Output 100% - Created with LUTCalc v4.01 by Ben Turley October 2020
0.00000073 0.00000073 0.00000073
0.27175912 0.00000073 0.00000073
0.48023241 0.00000073 0.00000073
0.61843870 0.00000073 0.00000073
0.74640070 0.00000073 0.00000073
0.87309232 0.00000073 0.00000073
1.00000000 0.00000073 0.00000073
1.00000000 0.00000073 0.00000073
1.00000000 0.00000073 0.00000073
0.00000073 0.27175912 0.00000073
0.27175912 0.27175912 0.00000073
0.48023241 0.27175912 0.00000073
0.61843870 0.27175912 0.00000073
0.74640070 0.27175912 0.00000073
0.87309232 0.27175912 0.00000073
1.00000000 0.27175912 0.00000073
1.00000000 0.27175912 0.00000073
1.00000000 0.27175912 0.00000073
0.00000073 0.48023241 0.00000073
0.27175912 0.48023241 0.00000073
0.48023241 0.48023241 0.00000073
0.61843870 0.48023241 0.00000073
0.74640070 0.48023241 0.00000073
0.87309232 0.48023241 0.00000073
1.00000000 0.48023241 0.00000073
1.00000000 0.48023241 0.00000073
1.00000000 0.48023241 0.00000073
0.00000073 0.61843870 0.00000073
0.27175912 0.61843870 0.00000073
0.48023241 0.61843870 0.00000073
0.61843870 0.61843870 0.00000073
0.74640070 0.61843870 0.00000073
0.87309232 0.61843870 0.00000073
1.00000000 0.61843870 0.00000073
1.00000000 0.61843870 0.00000073
1.00000000 0.61843870 0.00000073
0.00000073 0.74640070 0.00000073
0.27175912 0.74640070 0.00000073
0.48023241 0.74640070 0.00000073
0.61843870 0.74640070 0.00000073
0.74640070 0.74640070 0.00000073
0.87309232 0.74640070 0.00000073
1.00000000 0.74640070 0.00000073
1.00000000 0.74640070 0.00000073
1.00000000 0.74640070 0.00000073
0.00000073 0.87309232 0.00000073
0.27175912 0.87309232 0.00000073
0.48023241 0.87309232 0.00000073
0.61843870 0.87309232 0.00000073
0.74640070 0.87309232 0.00000073
0.87309232 0.87309232 0.00000073
1.00000000 0.87309232 0.00000073
1.00000000 0.87309232 0.00000073
1.00000000 0.87309232 0.00000073
0.00000073 1.00000000 0.00000073
0.27175912 1.00000000 0.00000073
0.48023241 1.00000000 0.00000073
0.61843870 1.00000000 0.00000073
0.74640070 1.00000000 0.00000073
0.87309232 1.00000000 0.00000073
1.00000000 1.00000000 0.00000073
1.00000000 1.00000000 0.00000073
1.00000000 1.00000000 0.00000073
0.00000073 1.00000000 0.00000073
0.27175912 1.00000000 0.00000073
0.48023241 1.00000000 0.00000073
0.61843870 1.00000000 0.00000073
0.74640070 1.00000000 0.00000073
0.87309232 1.00000000 0.00000073
1.00000000 1.00000000 0.00000073
1.00000000 1.00000000 0.00000073
1.00000000 1.00000000 0.00000073
0.00000073 1.00000000 0.00000073
0.27175912 1.00000000 0.00000073
0.48023241 1.00000000 0.00000073
0.61843870 1.00000000 0.00000073
0.74640070 1.00000000 0.00000073
0.87309232 1.00000000 0.00000073
1.00000000 1.00000000 0.00000073
1.00000000 1.00000000 0.00000073
1.00000000 1.00000000 0.00000073
0.00000073 0.00000073 0.27175912
0.27175912 0.00000073 0.27175912
0.48023241 0.00000073 0.27175912
0.61843870 0.00000073 0.27175912
0.74640070 0.00000073 0.27175912
0.87309232 0.00000073 0.27175912
1.00000000 0.00000073 0.27175912
1.00000000 0.00000073 0.27175912
1.00000000 0.00000073 0.27175912
0.00000073 0.27175912 0.27175912
0.27175912 0.27175912 0.27175912
0.48023241 0.27175912 0.27175912
0.61843870 0.27175912 0.27175912
0.74640070 0.27175912 0.27175912
0.87309232 0.27175912 0.27175912
1.00000000 0.27175912 0.27175912
1.00000000 0.27175912 0.27175912
1.00000000 0.27175912 0.27175912
0.00000073 0.48023241 0.27175912
0.27175912 0.48023241 0.27175912
0.48023241 0.48023241 0.27175912
0.61843870 0.48023241 0.27175912
0.74640070 0.48023241 0.27175912
0.87309232 0.48023241 0.27175912
1.00000000 0.48023241 0.27175912
1.00000000 0.48023241 0.27175912
1.00000000 0.48023241 0.27175912
0.00000073 0.61843870 0.27175912
0.27175912 0.61843870 0.27175912
0.48023241 0.61843870 0.27175912
0.61843870 0.61843870 0.27175912
0.74640070 0.61843870 0.27175912
0.87309232 0.61843870 0.27175912
1.00000000 0.61843870 0.27175912
1.00000000 0.61843870 0.27175912
1.00000000 0.61843870 0.27175912
0.00000073 0.74640070 0.27175912
0.27175912 0.74640070 0.27175912
0.48023241 0.74640070 0.27175912
0.61843870 0.74640070 0.27175912
0.74640070 0.74640070 0.27175912
0.87309232 0.74640070 0.27175912
1.00000000 0.74640070 0.27175912
1.00000000 0.74640070 0.27175912
1.00000000 0.74640070 0.27175912
0.00000073 0.87309232 0.27175912
0.27175912 0.87309232 0.27175912
0.48023241 0.87309232 0.27175912
0.61843870 0.87309232 0.27175912
0.74640070 0.87309232 0.27175912
0.87309232 0.87309232 0.27175912
1.00000000 0.87309232 0.27175912
1.00000000 0.87309232 0.27175912
1.00000000 0.87309232 0.27175912
0.00000073 1.00000000 0.27175912
0.27175912 1.00000000 0.27175912
0.48023241 1.00000000 0.27175912
0.61843870 1.00000000 0.27175912
0.74640070 1.00000000 0.27175912
0.87309232 1.00000000 0.27175912
1.00000000 1.00000000 0.27175912
1.00000000 1.00000000 0.27175912
1.00000000 1.00000000 0.27175912
0.00000073 1.00000000 0.27175912
0.27175912 1.00000000 0.27175912
0.48023241 1.00000000 0.27175912
0.61843870 1.00000000 0.27175912
0.74640070 1.00000000 0.27175912
0.87309232 1.00000000 0.27175912
1.00000000 1.00000000 0.27175912
1.00000000 1.00000000 0.27175912
1.00000000 1.00000000 0.27175912
0.00000073 1.00000000 0.27175912
0.27175912 1.00000000 0.27175912
0.48023241 1.00000000 0.27175912
0.61843870 1.00000000 0.27175912
0.74640070 1.00000000 0.27175912
0.87309232 1.00000000 0.27175912
1.00000000 1.00000000 0.27175912
1.00000000 1.00000000 0.27175912
1.00000000 1.00000000 0.27175912
0.00000073 0.00000073 0.48023241
0.27175912 0.00000073 0.48023241
0.48023241 0.00000073 0.48023241
0.61843870 0.00000073 0.48023241
0.74640070 0.00000073 0.48023241
0.87309232 0.00000073 0.48023241
1.00000000 0.00000073 0.48023241
1.00000000 0.00000073 0.48023241
1.00000000 0.00000073 0.48023241
0.00000073 0.27175912 0.48023241
0.27175912 0.27175912 0.48023241
0.48023241 0.27175912 0.48023241
0.61843870 0.27175912 0.48023241
0.74640070 0.27175912 0.48023241
0.87309232 0.27175912 0.48023241
1.00000000 0.27175912 0.48023241
1.00000000 0.27175912 0.48023241
1.00000000 0.27175912 0.48023241
0.00000073 0.48023241 0.48023241
0.27175912 0.48023241 0.48023241
0.48023241 0.48023241 0.48023241
0.61843870 0.48023241 0.48023241
0.74640070 0.48023241 0.48023241
0.87309232 0.48023241 0.48023241
1.00000000 0.48023241 0.48023241
1.00000000 0.48023241 0.48023241
1.00000000 0.48023241 0.48023241
0.00000073 0.61843870 0.48023241
0.27175912 0.61843870 0.48023241
0.48023241 0.61843870 0.48023241
0.61843870 0.61843870 0.48023241
0.74640070 0.61843870 0.48023241
0.87309232 0.61843870 0.48023241
1.00000000 0.61843870 0.48023241
1.00000000 0.61843870 0.48023241
1.00000000 0.61843870 0.48023241
0.00000073 0.74640070 0.48023241
0.27175912 0.74640070 0.48023241
0.48023241 0.74640070 0.48023241
0.61843870 0.74640070 0.48023241
0.74640070 0.74640070 0.48023241
0.87309232 0.74640070 0.48023241
1.00000000 0.74640070 0.48023241
1.00000000 0.74640070 0.48023241
1.00000000 0.74640070 0.48023241
0.00000073 0.87309232 0.48023241
0.27175912 0.87309232 0.48023241
0.48023241 0.87309232 0.48023241
0.61843870 0.87309232 0.48023241
0.74640070 0.87309232 0.48023241
0.87309232 0.87309232 0.48023241
1.00000000 0.87309232 0.48023241
1.00000000 0.87309232 0.48023241
1.00000000 0.87309232 0.48023241
0.00000073 1.00000000 0.48023241
0.27175912 1.00000000 0.48023241
0.48023241 1.00000000 0.48023241
0.61843870 1.00000000 0.48023241
0.74640070 1.00000000 0.48023241
0.87309232 1.00000000 0.48023241
1.00000000 1.00000000 0.48023241
1.00000000 1.00000000 0.48023241
1.00000000 1.00000000 0.48023241
0.00000073 1.00000000 0.48023241
0.27175912 1.00000000 0.48023241
0.48023241 1.00000000 0.48023241
0.61843870 1.00000000 0.48023241
0.74640070 1.00000000 0.48023241
0.87309232 1.00000000 0.48023241
1.00000000 1.00000000 0.48023241
1.00000000 1.00000000 0.48023241
1.00000000 1.00000000 0.48023241
0.00000073 1.00000000 0.48023241
0.27175912 1.00000000 0.48023241
0.48023241 1.00000000 0.48023241
0.61843870 1.00000000 0.48023241
0.74640070 1.00000000 0.48023241
0.87309232 1.00000000 0.48023241
1.00000000 1.00000000 0.48023241
1.00000000 1.00000000 0.48023241
1.00000000 1.00000000 0.48023241
0.00000073 0.00000073 0.61843870
0.27175912 0.00000073 0.61843870
0.48023241 0.00000073 0.61843870
0.61843870 0.00000073 0.61843870
0.74640070 0.00000073 0.61843870
0.87309232 0.00000073 0.61843870
1.00000000 0.00000073 0.61843870
1.00000000 0.00000073 0.61843870
1.00000000 0.00000073 0.61843870
0.00000073 0.27175912 0.61843870
0.27175912 0.27175912 0.61843870
0.48023241 0.27175912 0.61843870
0.61843870 0.27175912 0.61843870
0.74640070 0.27175912 0.61843870
0.87309232 0.27175912 0.61843870
1.00000000 0.27175912 0.61843870
1.00000000 0.27175912 0.61843870
1.00000000 0.27175912 0.61843870
0.00000073 0.48023241 0.61843870
0.27175912 0.48023241 0.61843870
0.48023241 0.48023241 0.61843870
0.61843870 0.48023241 0.61843870
0.74640070 0.48023241 0.61843870
0.87309232 0.48023241 0.61843870
1.00000000 0.48023241 0.61843870
1.00000000 0.48023241 0.61843870
1.00000000 0.48023241 0.61843870
0.00000073 0.61843870 0.61843870
0.27175912 0.61843870 0.61843870
0.48023241 0.61843870 0.61843870
0.61843870 0.61843870 0.61843870
0.74640070 0.61843870 0.61843870
0.87309232 0.61843870 0.61843870
1.00000000 0.61843870 0.61843870
1.00000000 0.61843870 0.61843870
1.00000000 0.61843870 0.61843870
0.00000073 0.74640070 0.61843870
0.27175912 0.74640070 0.61843870
0.48023241 0.74640070 0.61843870
0.61843870 0.74640070 0.61843870
0.74640070 0.74640070 0.61843870
0.87309232 0.74640070 0.61843870
1.00000000 0.74640070 0.61843870
1.00000000 0.74640070 0.61843870
1.00000000 0.74640070 0.61843870
0.00000073 0.87309232 0.61843870
0.27175912 0.87309232 0.61843870
0.48023241 0.87309232 0.61843870
0.61843870 0.87309232 0.61843870
0.74640070 0.87309232 0.61843870
0.87309232 0.87309232 0.61843870
1.00000000 0.87309232 0.61843870
1.00000000 0.87309232 0.61843870
1.00000000 0.87309232 0.61843870
0.00000073 1.00000000 0.61843870
0.27175912 1.00000000 0.61843870
0.48023241 1.00000000 0.61843870
0.61843870 1.00000000 0.61843870
0.74640070 1.00000000 0.61843870
0.87309232 1.00000000 0.61843870
1.00000000 1.00000000 0.61843870
1.00000000 1.00000000 0.61843870
1.00000000 1.00000000 0.61843870
0.00000073 1.00000000 0.61843870
0.27175912 1.00000000 0.61843870
0.48023241 1.00000000 0.61843870
0.61843870 1.00000000 0.61843870
0.74640070 1.00000000 0.61843870
0.87309232 1.00000000 0.61843870
1.00000000 1.00000000 0.61843870
1.00000000 1.00000000 0.61843870
1.00000000 1.00000000 0.61843870
0.00000073 1.00000000 0.61843870
0.27175912 1.00000000 0.61843870
0.48023241 1.00000000 0.61843870
0.61843870 1.00000000 0.61843870
0.74640070 1.00000000 0.61843870
0.87309232 1.00000000 0.61843870
1.00000000 1.00000000 0.61843870
1.00000000 1.00000000 0.61843870
1.00000000 1.00000000 0.61843870
0.00000073 0.00000073 0.74640070
0.27175912 0.00000073 0.74640070
0.48023241 0.00000073 0.74640070
0.61843870 0.00000073 0.74640070
0.74640070 0.00000073 0.74640070
0.87309232 0.00000073 0.74640070
1.00000000 0.00000073 0.74640070
1.00000000 0.00000073 0.74640070
1.00000000 0.00000073 0.74640070
0.00000073 0.27175912 0.74640070
0.27175912 0.27175912 0.74640070
0.48023241 0.27175912 0.74640070
0.61843870 0.27175912 0.74640070
0.74640070 0.27175912 0.74640070
0.87309232 0.27175912 0.74640070
1.00000000 0.27175912 0.74640070
1.00000000 0.27175912 0.74640070
1.00000000 0.27175912 0.74640070
0.00000073 0.48023241 0.74640070
0.27175912 0.48023241 0.74640070
0.48023241 0.48023241 0.74640070
0.61843870 0.48023241 0.74640070
0.74640070 0.48023241 0.74640070
0.87309232 0.48023241 0.74640070
1.00000000 0.48023241 0.74640070
1.00000000 0.48023241 0.74640070
1.00000000 0.48023241 0.74640070
0.00000073 0.61843870 0.74640070
0.27175912 0.61843870 0.74640070
0.48023241 0.61843870 0.74640070
0.61843870 0.61843870 0.74640070
0.74640070 0.61843870 0.74640070
0.87309232 0.61843870 0.74640070
1.00000000 0.61843870 0.74640070
1.00000000 0.61843870 0.74640070
1.00000000 0.61843870 0.74640070
0.00000073 0.74640070 0.74640070
0.27175912 0.74640070 0.74640070
0.48023241 0.74640070 0.74640070
0.61843870 0.74640070 0.74640070
0.74640070 0.74640070 0.74640070
0.87309232 0.74640070 0.74640070
1.00000000 0.74640070 0.74640070
1.00000000 0.74640070 0.74640070
1.00000000 0.74640070 0.74640070
0.00000073 0.87309232 0.74640070
0.27175912 0.87309232 0.74640070
0.48023241 0.87309232 0.74640070
0.61843870 0.87309232 0.74640070
0.74640070 0.87309232 0.74640070
0.87309232 0.87309232 0.74640070
1.00000000 0.87309232 0.74640070
1.00000000 0.87309232 0.74640070
1.00000000 0.87309232 0.74640070
0.00000073 1.00000000 0.74640070
0.27175912 1.00000000 0.74640070
0.48023241 1.00000000 0.74640070
0.61843870 1.00000000 0.74640070
0.74640070 1.00000000 0.74640070
0.87309232 1.00000000 0.74640070
1.00000000 1.00000000 0.74640070
1.00000000 1.00000000 0.74640070
1.00000000 1.00000000 0.74640070
0.00000073 1.00000000 0.74640070
0.27175912 1.00000000 0.74640070
0.48023241 1.00000000 0.74640070
0.61843870 1.00000000 0.74640070
0.74640070 1.00000000 0.74640070
0.87309232 1.00000000 0.74640070
1.00000000 1.00000000 0.74640070
1.00000000 1.00000000 0.74640070
1.00000000 1.00000000 0.74640070
0.00000073 1.00000000 0.74640070
0.27175912 1.00000000 0.74640070
0.48023241 1.00000000 0.74640070
0.61843870 1.00000000 0.74640070
0.74640070 1.00000000 0.74640070
0.87309232 1.00000000 0.74640070
1.00000000 1.00000000 0.74640070
1.00000000 1.00000000 0.74640070
1.00000000 1.00000000 0.74640070
0.00000073 0.00000073 0.87309232
0.27175912 0.00000073 0.87309232
0.48023241 0.00000073 0.87309232
0.61843870 0.00000073 0.87309232
0.74640070 0.00000073 0.87309232
0.87309232 0.00000073 0.87309232
1.00000000 0.00000073 0.87309232
1.00000000 0.00000073 0.87309232
1.00000000 0.00000073 0.87309232
0.00000073 0.27175912 0.87309232
0.27175912 0.27175912 0.87309232
0.48023241 0.27175912 0.87309232
0.61843870 0.27175912 0.87309232
0.74640070 0.27175912 0.87309232
0.87309232 0.27175912 0.87309232
1.00000000 0.27175912 0.87309232
1.00000000 0.27175912 0.87309232
1.00000000 0.27175912 0.87309232
0.00000073 0.48023241 0.87309232
0.27175912 0.48023241 0.87309232
0.48023241 0.48023241 0.87309232
0.61843870 0.48023241 0.87309232
0.74640070 0.48023241 0.87309232
0.87309232 0.48023241 0.87309232
1.00000000 0.48023241 0.87309232
1.00000000 0.48023241 0.87309232
1.00000000 0.48023241 0.87309232
0.00000073 0.61843870 0.87309232
0.27175912 0.61843870 0.87309232
0.48023241 0.61843870 0.87309232
0.61843870 0.61843870 0.87309232
0.74640070 0.61843870 0.87309232
0.87309232 0.61843870 0.87309232
1.00000000 0.61843870 0.87309232
1.00000000 0.61843870 0.87309232
1.00000000 0.61843870 0.87309232
0.00000073 0.74640070 0.87309232
0.27175912 0.74640070 0.87309232
0.48023241 0.74640070 0.87309232
0.61843870 0.74640070 0.87309232
0.74640070 0.74640070 0.87309232
0.87309232 0.74640070 0.87309232
1.00000000 0.74640070 0.87309232
1.00000000 0.74640070 0.87309232
1.00000000 0.74640070 0.87309232
0.00000073 0.87309232 0.87309232
0.27175912 0.87309232 0.87309232
0.48023241 0.87309232 0.87309232
0.61843870 0.87309232 0.87309232
0.74640070 0.87309232 0.87309232
0.87309232 0.87309232 0.87309232
1.00000000 0.87309232 0.87309232
1.00000000 0.87309232 0.87309232
1.00000000 0.87309232 0.87309232
0.00000073 1.00000000 0.87309232
0.27175912 1.00000000 0.87309232
0.48023241 1.00000000 0.87309232
0.61843870 1.00000000 0.87309232
0.74640070 1.00000000 0.87309232
0.87309232 1.00000000 0.87309232
1.00000000 1.00000000 0.87309232
1.00000000 1.00000000 0.87309232
1.00000000 1.00000000 0.87309232
0.00000073 1.00000000 0.87309232
0.27175912 1.00000000 0.87309232
0.48023241 1.00000000 0.87309232
0.61843870 1.00000000 0.87309232
0.74640070 1.00000000 0.87309232
0.87309232 1.00000000 0.87309232
1.00000000 1.00000000 0.87309232
1.00000000 1.00000000 0.87309232
1.00000000 1.00000000 0.87309232
0.00000073 1.00000000 0.87309232
0.27175912 1.00000000 0.87309232
0.48023241 1.00000000 0.87309232
0.61843870 1.00000000 0.87309232
0.74640070 1.00000000 0.87309232
0.87309232 1.00000000 0.87309232
1.00000000 1.00000000 0.87309232
1.00000000 1.00000000 0.87309232
1.00000000 1.00000000 0.87309232
0.00000073 0.00000073 1.00000000
0.27175912 0.00000073 1.00000000
0.48023241 0.00000073 1.00000000
0.61843870 0.00000073 1.00000000
0.74640070 0.00000073 1.00000000
0.87309232 0.00000073 1.00000000
1.00000000 0.00000073 1.00000000
1.00000000 0.00000073 1.00000000
1.00000000 0.00000073 1.00000000
0.00000073 0.27175912 1.00000000
0.27175912 0.27175912 1.00000000
0.48023241 0.27175912 1.00000000
0.61843870 0.27175912 1.00000000
0.74640070 0.27175912 1.00000000
0.87309232 0.27175912 1.00000000
1.00000000 0.27175912 1.00000000
1.00000000 0.27175912 1.00000000
1.00000000 0.27175912 1.00000000
0.00000073 0.48023241 1.00000000
0.27175912 0.48023241 1.00000000
0.48023241 0.48023241 1.00000000
0.61843870 0.48023241 1.00000000
0.74640070 0.48023241 1.00000000
0.87309232 0.48023241 1.00000000
1.00000000 0.48023241 1.00000000
1.00000000 0.48023241 1.00000000
1.00000000 0.48023241 1.00000000
0.00000073 0.61843870 1.00000000
0.27175912 0.61843870 1.00000000
0.48023241 0.61843870 1.00000000
0.61843870 0.61843870 1.00000000
0.74640070 0.61843870 1.00000000
0.87309232 0.61843870 1.00000000
1.00000000 0.61843870 1.00000000
1.00000000 0.61843870 1.00000000
1.00000000 0.61843870 1.00000000
0.00000073 0.74640070 1.00000000
0.27175912 0.74640070 1.00000000
0.48023241 0.74640070 1.00000000
0.61843870 0.74640070 1.00000000
0.74640070 0.74640070 1.00000000
0.87309232 0.74640070 1.00000000
1.00000000 0.74640070 1.00000000
1.00000000 0.74640070 1.00000000
1.00000000 0.74640070 1.00000000
0.00000073 0.87309232 1.00000000
0.27175912 0.87309232 1.00000000
0.48023241 0.87309232 1.00000000
0.61843870 0.87309232 1.00000000
0.74640070 0.87309232 1.00000000
0.87309232 0.87309232 1.00000000
1.00000000 0.87309232 1.00000000
1.00000000 0.87309232 1.00000000
1.00000000 0.87309232 1.00000000
0.00000073 1.00000000 1.00000000
0.27175912 1.00000000 1.00000000
0.48023241 1.00000000 1.00000000
0.61843870 1.00000000 1.00000000
0.74640070 1.00000000 1.00000000
0.87309232 1.00000000 1.00000000
1.00000000 1.00000000 1.00000000
1.00000000 1.00000000 1.00000000
1.00000000 1.00000000 1.00000000
0.00000073 1.00000000 1.00000000
0.27175912 1.00000000 1.00000000
0.48023241 1.00000000 1.00000000
0.61843870 1.00000000 1.00000000
0.74640070 1.00000000 1.00000000
0.87309232 1.00000000 1.00000000
1.00000000 1.00000000 1.00000000
1.00000000 1.00000000 1.00000000
1.00000000 1.00000000 1.00000000
0.00000073 1.00000000 1.00000000
0.27175912 1.00000000 1.00000000
0.48023241 1.00000000 1.00000000
0.61843870 1.00000000 1.00000000
0.74640070 1.00000000 1.00000000
0.87309232 1.00000000 1.00000000
1.00000000 1.00000000 1.00000000
1.00000000 1.00000000 1.00000000
1.00000000 1.00000000 1.00000000
0.00000073 0.00000073 1.00000000
0.27175912 0.00000073 1.00000000
0.48023241 0.00000073 1.00000000
0.61843870 0.00000073 1.00000000
0.74640070 0.00000073 1.00000000
0.87309232 0.00000073 1.00000000
1.00000000 0.00000073 1.00000000
1.00000000 0.00000073 1.00000000
1.00000000 0.00000073 1.00000000
0.00000073 0.27175912 1.00000000
0.27175912 0.27175912 1.00000000
0.48023241 0.27175912 1.00000000
0.61843870 0.27175912 1.00000000
0.74640070 0.27175912 1.00000000
0.87309232 0.27175912 1.00000000
1.00000000 0.27175912 1.00000000
1.00000000 0.27175912 1.00000000
1.00000000 0.27175912 1.00000000
0.00000073 0.48023241 1.00000000
0.27175912 0.48023241 1.00000000
0.48023241 0.48023241 1.00000000
0.61843870 0.48023241 1.00000000
0.74640070 0.48023241 1.00000000
0.87309232 0.48023241 1.00000000
1.00000000 0.48023241 1.00000000
1.00000000 0.48023241 1.00000000
1.00000000 0.48023241 1.00000000
0.00000073 0.61843870 1.00000000
0.27175912 0.61843870 1.00000000
0.48023241 0.61843870 1.00000000
0.61843870 0.61843870 1.00000000
0.74640070 0.61843870 1.00000000
0.87309232 0.61843870 1.00000000
1.00000000 0.61843870 1.00000000
1.00000000 0.61843870 1.00000000
1.00000000 0.61843870 1.00000000
0.00000073 0.74640070 1.00000000
0.27175912 0.74640070 1.00000000
0.48023241 0.74640070 1.00000000
0.61843870 0.74640070 1.00000000
0.74640070 0.74640070 1.00000000
0.87309232 0.74640070 1.00000000
1.00000000 0.74640070 1.00000000
1.00000000 0.74640070 1.00000000
1.00000000 0.74640070 1.00000000
0.00000073 0.87309232 1.00000000
0.27175912 0.87309232 1.00000000
0.48023241 0.87309232 1.00000000
0.61843870 0.87309232 1.00000000
0.74640070 0.87309232 1.00000000
0.87309232 0.87309232 1.00000000
1.00000000 0.87309232 1.00000000
1.00000000 0.87309232 1.00000000
1.00000000 0.87309232 1.00000000
0.00000073 1.00000000 1.00000000
0.27175912 1.00000000 1.00000000
0.48023241 1.00000000 1.00000000
0.61843870 1.00000000 1.00000000
0.74640070 1.00000000 1.00000000
0.87309232 1.00000000 1.00000000
1.00000000 1.00000000 1.00000000
1.00000000 1.00000000 1.00000000
1.00000000 1.00000000 1.00000000
0.00000073 1.00000000 1.00000000
0.27175912 1.00000000 1.00000000
0.48023241 1.00000000 1.00000000
0.61843870 1.00000000 1.00000000
0.74640070 1.00000000 1.00000000
0.87309232 1.00000000 1.00000000
1.00000000 1.00000000 1.00000000
1.00000000 1.00000000 1.00000000
1.00000000 1.00000000 1.00000000
0.00000073 1.00000000 1.00000000
0.27175912 1.00000000 1.00000000
0.48023241 1.00000000 1.00000000
0.61843870 1.00000000 1.00000000
0.74640070 1.00000000 1.00000000
0.87309232 1.00000000 1.00000000
1.00000000 1.00000000 1.00000000
1.00000000 1.00000000 1.00000000
1.00000000 1.00000000 1.00000000
0.00000073 0.00000073 1.00000000
0.27175912 0.00000073 1.00000000
0.48023241 0.00000073 1.00000000
0.61843870 0.00000073 1.00000000
0.74640070 0.00000073 1.00000000
0.87309232 0.00000073 1.00000000
1.00000000 0.00000073 1.00000000
1.00000000 0.00000073 1.00000000
1.00000000 0.00000073 1.00000000
0.00000073 0.27175912 1.00000000
0.27175912 0.27175912 1.00000000
0.48023241 0.27175912 1.00000000
0.61843870 0.27175912 1.00000000
0.74640070 0.27175912 1.00000000
0.87309232 0.27175912 1.00000000
1.00000000 0.27175912 1.00000000
1.00000000 0.27175912 1.00000000
1.00000000 0.27175912 1.00000000
0.00000073 0.48023241 1.00000000
0.27175912 0.48023241 1.00000000
0.48023241 0.48023241 1.00000000
0.61843870 0.48023241 1.00000000
0.74640070 0.48023241 1.00000000
0.87309232 0.48023241 1.00000000
1.00000000 0.48023241 1.00000000
1.00000000 0.48023241 1.00000000
1.00000000 0.48023241 1.00000000
0.00000073 0.61843870 1.00000000
0.27175912 0.61843870 1.00000000
0.48023241 0.61843870 1.00000000
0.61843870 0.61843870 1.00000000
0.74640070 0.61843870 1.00000000
0.87309232 0.61843870 1.00000000
1.00000000 0.61843870 1.00000000
1.00000000 0.61843870 1.00000000
1.00000000 0.61843870 1.00000000
0.00000073 0.74640070 1.00000000
0.27175912 0.74640070 1.00000000
0.48023241 0.74640070 1.00000000
0.61843870 0.74640070 1.00000000
0.74640070 0.74640070 1.00000000
0.87309232 0.74640070 1.00000000
1.00000000 0.74640070 1.00000000
1.00000000 0.74640070 1.00000000
1.00000000 0.74640070 1.00000000
0.00000073 0.87309232 1.00000000
0.27175912 0.87309232 1.00000000
0.48023241 0.87309232 1.00000000
0.61843870 0.87309232 1.00000000
0.74640070 0.87309232 1.00000000
0.87309232 0.87309232 1.00000000
1.00000000 0.87309232 1.00000000
1.00000000 0.87309232 1.00000000
1.00000000 0.87309232 1.00000000
0.00000073 1.00000000 1.00000000
0.27175912 1.00000000 1.00000000
0.48023241 1.00000000 1.00000000
0.61843870 1.00000000 1.00000000
0.74640070 1.00000000 1.00000000
0.87309232 1.00000000 1.00000000
1.00000000 1.00000000 1.00000000
1.00000000 1.00000000 1.00000000
1.00000000 1.00000000 1.00000000
0.00000073 1.00000000 1.00000000
0.27175912 1.00000000 1.00000000
0.48023241 1.00000000 1.00000000
0.61843870 1.00000000 1.00000000
0.74640070 1.00000000 1.00000000
0.87309232 1.00000000 1.00000000
1.00000000 1.00000000 1.00000000
1.00000000 1.00000000 1.00000000
1.00000000 1.00000000 1.00000000
0.00000073 1.00000000 1.00000000
0.27175912 1.00000000 1.00000000
0.48023241 1.00000000 1.00000000
0.61843870 1.00000000 1.00000000
0.74640070 1.00000000 1.00000000
0.87309232 1.00000000 1.00000000
1.00000000 1.00000000 1.00000000
1.00000000 1.00000000 1.00000000
1.00000000 1.00000000 1.00000000
