src/ffmpeg_scripts/luts/flog-smpte2084_3p67.cube
TITLE "flog-smpte2084_3p67"
LUT_3D_SIZE 33
# Fujifilm F-Log/Rec2020 -> PQ (EOTF Only)/Rec2020, CineEI Shift 3.67, Black Level 0.00% IRE, Input 109% -> Output 109% - Created with LUTCalc v4.01 by Ben Turley October 2020
0.06256172 0.06256172 0.06256172
0.06256172 0.06256172 0.06256172
0.06256172 0.06256172 0.06256172
0.12189842 0.06256172 0.06256172
0.28333146 0.06256172 0.06256172
0.33541532 0.06256172 0.06256172
0.37255552 0.06256172 0.06256172
0.40323762 0.06256172 0.06256172
0.43037236 0.06256172 0.06256172
0.45532115 0.06256172 0.06256172
0.47883127 0.06256172 0.06256172
0.50135502 0.06256172 0.06256172
0.52318430 0.06256172 0.06256172
0.54451572 0.06256172 0.06256172
0.56548545 0.06256172 0.06256172
0.58618936 0.06256172 0.06256172
0.60669528 0.06256172 0.06256172
0.62705101 0.06256172 0.06256172
0.64728958 0.06256172 0.06256172
0.66743301 0.06256172 0.06256172
0.68749494 0.06256172 0.06256172
0.70748263 0.06256172 0.06256172
0.72739838 0.06256172 0.06256172
0.74724074 0.06256172 0.06256172
0.76700534 0.06256172 0.06256172
0.78668563 0.06256172 0.06256172
0.80627338 0.06256172 0.06256172
0.82575922 0.06256172 0.06256172
0.84513294 0.06256172 0.06256172
0.86438378 0.06256172 0.06256172
0.88350072 0.06256172 0.06256172
0.90247265 0.06256172 0.06256172
0.91886608 0.06256172 0.06256172
0.06256172 0.06256172 0.06256172
0.06256172 0.06256172 0.06256172
0.06256172 0.06256172 0.06256172
0.12189842 0.06256172 0.06256172
0.28333146 0.06256172 0.06256172
0.33541532 0.06256172 0.06256172
0.37255552 0.06256172 0.06256172
0.40323762 0.06256172 0.06256172
0.43037236 0.06256172 0.06256172
0.45532115 0.06256172 0.06256172
0.47883127 0.06256172 0.06256172
0.50135502 0.06256172 0.06256172
0.52318430 0.06256172 0.06256172
0.54451572 0.06256172 0.06256172
0.56548545 0.06256172 0.06256172
0.58618936 0.06256172 0.06256172
0.60669528 0.06256172 0.06256172
0.62705101 0.06256172 0.06256172
0.64728958 0.06256172 0.06256172
0.66743301 0.06256172 0.06256172
0.68749494 0.06256172 0.06256172
0.70748263 0.06256172 0.06256172
0.72739838 0.06256172 0.06256172
0.74724074 0.06256172 0.06256172
0.76700534 0.06256172 0.06256172
0.78668563 0.06256172 0.06256172
0.80627338 0.06256172 0.06256172
0.82575922 0.06256172 0.06256172
0.84513294 0.06256172 0.06256172
0.86438378 0.06256172 0.06256172
0.88350072 0.06256172 0.06256172
0.90247265 0.06256172 0.06256172
0.91886608 0.06256172 0.06256172
0.06256172 0.06256172 0.06256172
0.06256172 0.06256172 0.06256172
0.06256172 0.06256172 0.06256172
0.12189842 0.06256172 0.06256172
0.28333146 0.06256172 0.06256172
0.33541532 0.06256172 0.06256172
0.37255552 0.06256172 0.06256172
0.40323762 0.06256172 0.06256172
0.43037236 0.06256172 0.06256172
0.45532115 0.06256172 0.06256172
0.47883127 0.06256172 0.06256172
0.50135502 0.06256172 0.06256172
0.52318430 0.06256172 0.06256172
0.54451572 0.06256172 0.06256172
0.56548545 0.06256172 0.06256172
0.58618936 0.06256172 0.06256172
0.60669528 0.06256172 0.06256172
0.62705101 0.06256172 0.06256172
0.64728958 0.06256172 0.06256172
0.66743301 0.06256172 0.06256172
0.68749494 0.06256172 0.06256172
0.70748263 0.06256172 0.06256172
0.72739838 0.06256172 0.06256172
0.74724074 0.06256172 0.06256172
0.76700534 0.06256172 0.06256172
0.78668563 0.06256172 0.06256172
0.80627338 0.06256172 0.06256172
0.82575922 0.06256172 0.06256172
0.84513294 0.06256172 0.06256172
0.86438378 0.06256172 0.06256172
0.88350072 0.06256172 0.06256172
0.90247265 0.06256172 0.06256172
0.91886608 0.06256172 0.06256172
0.06256172 0.12189842 0.06256172
0.06256172 0.12189842 0.06256172
0.06256172 0.12189842 0.06256172
0.12189842 0.12189842 0.06256172
0.28333146 0.12189842 0.06256172
0.33541532 0.12189842 0.06256172
0.37255552 0.12189842 0.06256172
0.40323762 0.12189842 0.06256172
0.43037236 0.12189842 0.06256172
0.45532115 0.12189842 0.06256172
0.47883127 0.12189842 0.06256172
0.50135502 0.12189842 0.06256172
0.52318430 0.12189842 0.06256172
0.54451572 0.12189842 0.06256172
0.56548545 0.12189842 0.06256172
0.58618936 0.12189842 0.06256172
0.60669528 0.12189842 0.06256172
0.62705101 0.12189842 0.06256172
0.64728958 0.12189842 0.06256172
0.66743301 0.12189842 0.06256172
0.68749494 0.12189842 0.06256172
0.70748263 0.12189842 0.06256172
0.72739838 0.12189842 0.06256172
0.74724074 0.12189842 0.06256172
0.76700534 0.12189842 0.06256172
0.78668563 0.12189842 0.06256172
0.80627338 0.12189842 0.06256172
0.82575922 0.12189842 0.06256172
0.84513294 0.12189842 0.06256172
0.86438378 0.12189842 0.06256172
0.88350072 0.12189842 0.06256172
0.90247265 0.12189842 0.06256172
0.91886608 0.12189842 0.06256172
0.06256172 0.28333146 0.06256172
0.06256172 0.28333146 0.06256172
0.06256172 0.28333146 0.06256172
0.12189842 0.28333146 0.06256172
0.28333146 0.28333146 0.06256172
0.33541532 0.28333146 0.06256172
0.37255552 0.28333146 0.06256172
0.40323762 0.28333146 0.06256172
0.43037236 0.28333146 0.06256172
0.45532115 0.28333146 0.06256172
0.47883127 0.28333146 0.06256172
0.50135502 0.28333146 0.06256172
0.52318430 0.28333146 0.06256172
0.54451572 0.28333146 0.06256172
0.56548545 0.28333146 0.06256172
0.58618936 0.28333146 0.06256172
0.60669528 0.28333146 0.06256172
0.62705101 0.28333146 0.06256172
0.64728958 0.28333146 0.06256172
0.66743301 0.28333146 0.06256172
0.68749494 0.28333146 0.06256172
0.70748263 0.28333146 0.06256172
0.72739838 0.28333146 0.06256172
0.74724074 0.28333146 0.06256172
0.76700534 0.28333146 0.06256172
0.78668563 0.28333146 0.06256172
0.80627338 0.28333146 0.06256172
0.82575922 0.28333146 0.06256172
0.84513294 0.28333146 0.06256172
0.86438378 0.28333146 0.06256172
0.88350072 0.28333146 0.06256172
0.90247265 0.28333146 0.06256172
0.91886608 0.28333146 0.06256172
0.06256172 0.33541532 0.06256172
0.06256172 0.33541532 0.06256172
0.06256172 0.33541532 0.06256172
0.12189842 0.33541532 0.06256172
0.28333146 0.33541532 0.06256172
0.33541532 0.33541532 0.06256172
0.37255552 0.33541532 0.06256172
0.40323762 0.33541532 0.06256172
0.43037236 0.33541532 0.06256172
0.45532115 0.33541532 0.06256172
0.47883127 0.33541532 0.06256172
0.50135502 0.33541532 0.06256172
0.52318430 0.33541532 0.06256172
0.54451572 0.33541532 0.06256172
0.56548545 0.33541532 0.06256172
0.58618936 0.33541532 0.06256172
0.60669528 0.33541532 0.06256172
0.62705101 0.33541532 0.06256172
0.64728958 0.33541532 0.06256172
0.66743301 0.33541532 0.06256172
0.68749494 0.33541532 0.06256172
0.70748263 0.33541532 0.06256172
0.72739838 0.33541532 0.06256172
0.74724074 0.33541532 0.06256172
0.76700534 0.33541532 0.06256172
0.78668563 0.33541532 0.06256172
0.80627338 0.33541532 0.06256172
0.82575922 0.33541532 0.06256172
0.84513294 0.33541532 0.06256172
0.86438378 0.33541532 0.06256172
0.88350072 0.33541532 0.06256172
0.90247265 0.33541532 0.06256172
0.91886608 0.33541532 0.06256172
0.06256172 0.37255552 0.06256172
0.06256172 0.37255552 0.06256172
0.06256172 0.37255552 0.06256172
0.12189842 0.37255552 0.06256172
0.28333146 0.37255552 0.06256172
0.33541532 0.37255552 0.06256172
0.37255552 0.37255552 0.06256172
0.40323762 0.37255552 0.06256172
0.43037236 0.37255552 0.06256172
0.45532115 0.37255552 0.06256172
0.47883127 0.37255552 0.06256172
0.50135502 0.37255552 0.06256172
0.52318430 0.37255552 0.06256172
0.54451572 0.37255552 0.06256172
0.56548545 0.37255552 0.06256172
0.58618936 0.37255552 0.06256172
0.60669528 0.37255552 0.06256172
0.62705101 0.37255552 0.06256172
0.64728958 0.37255552 0.06256172
0.66743301 0.37255552 0.06256172
0.68749494 0.37255552 0.06256172
0.70748263 0.37255552 0.06256172
0.72739838 0.37255552 0.06256172
0.74724074 0.37255552 0.06256172
0.76700534 0.37255552 0.06256172
0.78668563 0.37255552 0.06256172
0.80627338 0.37255552 0.06256172
0.82575922 0.37255552 0.06256172
0.84513294 0.37255552 0.06256172
0.86438378 0.37255552 0.06256172
0.88350072 0.37255552 0.06256172
0.90247265 0.37255552 0.06256172
0.91886608 0.37255552 0.06256172
0.06256172 0.40323762 0.06256172
0.06256172 0.40323762 0.06256172
0.06256172 0.40323762 0.06256172
0.12189842 0.40323762 0.06256172
0.28333146 0.40323762 0.06256172
0.33541532 0.40323762 0.06256172
0.37255552 0.40323762 0.06256172
0.40323762 0.40323762 0.06256172
0.43037236 0.40323762 0.06256172
0.45532115 0.40323762 0.06256172
0.47883127 0.40323762 0.06256172
0.50135502 0.40323762 0.06256172
0.52318430 0.40323762 0.06256172
0.54451572 0.40323762 0.06256172
0.56548545 0.40323762 0.06256172
0.58618936 0.40323762 0.06256172
0.60669528 0.40323762 0.06256172
0.62705101 0.40323762 0.06256172
0.64728958 0.40323762 0.06256172
0.66743301 0.40323762 0.06256172
0.68749494 0.40323762 0.06256172
0.70748263 0.40323762 0.06256172
0.72739838 0.40323762 0.06256172
0.74724074 0.40323762 0.06256172
0.76700534 0.40323762 0.06256172
0.78668563 0.40323762 0.06256172
0.80627338 0.40323762 0.06256172
0.82575922 0.40323762 0.06256172
0.84513294 0.40323762 0.06256172
0.86438378 0.40323762 0.06256172
0.88350072 0.40323762 0.06256172
0.90247265 0.40323762 0.06256172
0.91886608 0.40323762 0.06256172
0.06256172 0.43037236 0.06256172
0.06256172 0.43037236 0.06256172
0.06256172 0.43037236 0.06256172
0.12189842 0.43037236 0.06256172
0.28333146 0.43037236 0.06256172
0.33541532 0.43037236 0.06256172
0.37255552 0.43037236 0.06256172
0.40323762 0.43037236 0.06256172
0.43037236 0.43037236 0.06256172
0.45532115 0.43037236 0.06256172
0.47883127 0.43037236 0.06256172
0.50135502 0.43037236 0.06256172
0.52318430 0.43037236 0.06256172
0.54451572 0.43037236 0.06256172
0.56548545 0.43037236 0.06256172
0.58618936 0.43037236 0.06256172
0.60669528 0.43037236 0.06256172
0.62705101 0.43037236 0.06256172
0.64728958 0.43037236 0.06256172
0.66743301 0.43037236 0.06256172
0.68749494 0.43037236 0.06256172
0.70748263 0.43037236 0.06256172
0.72739838 0.43037236 0.06256172
0.74724074 0.43037236 0.06256172
0.76700534 0.43037236 0.06256172
0.78668563 0.43037236 0.06256172
0.80627338 0.43037236 0.06256172
0.82575922 0.43037236 0.06256172
0.84513294 0.43037236 0.06256172
0.86438378 0.43037236 0.06256172
0.88350072 0.43037236 0.06256172
0.90247265 0.43037236 0.06256172
0.91886608 0.43037236 0.06256172
0.06256172 0.45532115 0.06256172
0.06256172 0.45532115 0.06256172
0.06256172 0.45532115 0.06256172
0.12189842 0.45532115 0.06256172
0.28333146 0.45532115 0.06256172
0.33541532 0.45532115 0.06256172
0.37255552 0.45532115 0.06256172
0.40323762 0.45532115 0.06256172
0.43037236 0.45532115 0.06256172
0.45532115 0.45532115 0.06256172
0.47883127 0.45532115 0.06256172
0.50135502 0.45532115 0.06256172
0.52318430 0.45532115 0.06256172
0.54451572 0.45532115 0.06256172
0.56548545 0.45532115 0.06256172
0.58618936 0.45532115 0.06256172
0.60669528 0.45532115 0.06256172
0.62705101 0.45532115 0.06256172
0.64728958 0.45532115 0.06256172
0.66743301 0.45532115 0.06256172
0.68749494 0.45532115 0.06256172
0.70748263 0.45532115 0.06256172
0.72739838 0.45532115 0.06256172
0.74724074 0.45532115 0.06256172
0.76700534 0.45532115 0.06256172
0.78668563 0.45532115 0.06256172
0.80627338 0.45532115 0.06256172
0.82575922 0.45532115 0.06256172
0.84513294 0.45532115 0.06256172
0.86438378 0.45532115 0.06256172
0.88350072 0.45532115 0.06256172
0.90247265 0.45532115 0.06256172
0.91886608 0.45532115 0.06256172
0.06256172 0.47883127 0.06256172
0.06256172 0.47883127 0.06256172
0.06256172 0.47883127 0.06256172
0.12189842 0.47883127 0.06256172
0.28333146 0.47883127 0.06256172
0.33541532 0.47883127 0.06256172
0.37255552 0.47883127 0.06256172
0.40323762 0.47883127 0.06256172
0.43037236 0.47883127 0.06256172
0.45532115 0.47883127 0.06256172
0.47883127 0.47883127 0.06256172
0.50135502 0.47883127 0.06256172
0.52318430 0.47883127 0.06256172
0.54451572 0.47883127 0.06256172
0.56548545 0.47883127 0.06256172
0.58618936 0.47883127 0.06256172
0.60669528 0.47883127 0.06256172
0.62705101 0.47883127 0.06256172
0.64728958 0.47883127 0.06256172
0.66743301 0.47883127 0.06256172
0.68749494 0.47883127 0.06256172
0.70748263 0.47883127 0.06256172
0.72739838 0.47883127 0.06256172
0.74724074 0.47883127 0.06256172
0.76700534 0.47883127 0.06256172
0.78668563 0.47883127 0.06256172
0.80627338 0.47883127 0.06256172
0.82575922 0.47883127 0.06256172
0.84513294 0.47883127 0.06256172
0.86438378 0.47883127 0.06256172
0.88350072 0.47883127 0.06256172
0.90247265 0.47883127 0.06256172
0.91886608 0.47883127 0.06256172
0.06256172 0.50135502 0.06256172
0.06256172 0.50135502 0.06256172
0.06256172 0.50135502 0.06256172
0.12189842 0.50135502 0.06256172
0.28333146 0.50135502 0.06256172
0.33541532 0.50135502 0.06256172
0.37255552 0.50135502 0.06256172
0.40323762 0.50135502 0.06256172
0.43037236 0.50135502 0.06256172
0.45532115 0.50135502 0.06256172
0.47883127 0.50135502 0.06256172
0.50135502 0.50135502 0.06256172
0.52318430 0.50135502 0.06256172
0.54451572 0.50135502 0.06256172
0.56548545 0.50135502 0.06256172
0.58618936 0.50135502 0.06256172
0.60669528 0.50135502 0.06256172
0.62705101 0.50135502 0.06256172
0.64728958 0.50135502 0.06256172
0.66743301 0.50135502 0.06256172
0.68749494 0.50135502 0.06256172
0.70748263 0.50135502 0.06256172
0.72739838 0.50135502 0.06256172
0.74724074 0.50135502 0.06256172
0.76700534 0.50135502 0.06256172
0.78668563 0.50135502 0.06256172
0.80627338 0.50135502 0.06256172
0.82575922 0.50135502 0.06256172
0.84513294 0.50135502 0.06256172
0.86438378 0.50135502 0.06256172
0.88350072 0.50135502 0.06256172
0.90247265 0.50135502 0.06256172
0.91886608 0.50135502 0.06256172
0.06256172 0.52318430 0.06256172
0.06256172 0.52318430 0.06256172
0.06256172 0.52318430 0.06256172
0.12189842 0.52318430 0.06256172
0.28333146 0.52318430 0.06256172
0.33541532 0.52318430 0.06256172
0.37255552 0.52318430 0.06256172
0.40323762 0.52318430 0.06256172
0.43037236 0.52318430 0.06256172
0.45532115 0.52318430 0.06256172
0.47883127 0.52318430 0.06256172
0.50135502 0.52318430 0.06256172
0.52318430 0.52318430 0.06256172
0.54451572 0.52318430 0.06256172
0.56548545 0.52318430 0.06256172
0.58618936 0.52318430 0.06256172
0.60669528 0.52318430 0.06256172
0.62705101 0.52318430 0.06256172
0.64728958 0.52318430 0.06256172
0.66743301 0.52318430 0.06256172
0.68749494 0.52318430 0.06256172
0.70748263 0.52318430 0.06256172
0.72739838 0.52318430 0.06256172
0.74724074 0.52318430 0.06256172
0.76700534 0.52318430 0.06256172
0.78668563 0.52318430 0.06256172
0.80627338 0.52318430 0.06256172
0.82575922 0.52318430 0.06256172
0.84513294 0.52318430 0.06256172
0.86438378 0.52318430 0.06256172
0.88350072 0.52318430 0.06256172
0.90247265 0.52318430 0.06256172
0.91886608 0.52318430 0.06256172
0.06256172 0.54451572 0.06256172
0.06256172 0.54451572 0.06256172
0.06256172 0.54451572 0.06256172
0.12189842 0.54451572 0.06256172
0.28333146 0.54451572 0.06256172
0.33541532 0.54451572 0.06256172
0.37255552 0.54451572 0.06256172
0.40323762 0.54451572 0.06256172
0.43037236 0.54451572 0.06256172
0.45532115 0.54451572 0.06256172
0.47883127 0.54451572 0.06256172
0.50135502 0.54451572 0.06256172
0.52318430 0.54451572 0.06256172
0.54451572 0.54451572 0.06256172
0.56548545 0.54451572 0.06256172
0.58618936 0.54451572 0.06256172
0.60669528 0.54451572 0.06256172
0.62705101 0.54451572 0.06256172
0.64728958 0.54451572 0.06256172
0.66743301 0.54451572 0.06256172
0.68749494 0.54451572 0.06256172
0.70748263 0.54451572 0.06256172
0.72739838 0.54451572 0.06256172
0.74724074 0.54451572 0.06256172
0.76700534 0.54451572 0.06256172
0.78668563 0.54451572 0.06256172
0.80627338 0.54451572 0.06256172
0.82575922 0.54451572 0.06256172
0.84513294 0.54451572 0.06256172
0.86438378 0.54451572 0.06256172
0.88350072 0.54451572 0.06256172
0.90247265 0.54451572 0.06256172
0.91886608 0.54451572 0.06256172
0.06256172 0.56548545 0.06256172
0.06256172 0.56548545 0.06256172
0.06256172 0.56548545 0.06256172
0.12189842 0.56548545 0.06256172
0.28333146 0.56548545 0.06256172
0.33541532 0.56548545 0.06256172
0.37255552 0.56548545 0.06256172
0.40323762 0.56548545 0.06256172
0.43037236 0.56548545 0.06256172
0.45532115 0.56548545 0.06256172
0.47883127 0.56548545 0.06256172
0.50135502 0.56548545 0.06256172
0.52318430 0.56548545 0.06256172
0.54451572 0.56548545 0.06256172
0.56548545 0.56548545 0.06256172
0.58618936 0.56548545 0.06256172
0.60669528 0.56548545 0.06256172
0.62705101 0.56548545 0.06256172
0.64728958 0.56548545 0.06256172
0.66743301 0.56548545 0.06256172
0.68749494 0.56548545 0.06256172
0.70748263 0.56548545 0.06256172
0.72739838 0.56548545 0.06256172
0.74724074 0.56548545 0.06256172
0.76700534 0.56548545 0.06256172
0.78668563 0.56548545 0.06256172
0.80627338 0.56548545 0.06256172
0.82575922 0.56548545 0.06256172
0.84513294 0.56548545 0.06256172
0.86438378 0.56548545 0.06256172
0.88350072 0.56548545 0.06256172
0.90247265 0.56548545 0.06256172
0.91886608 0.56548545 0.06256172
0.06256172 0.58618936 0.06256172
0.06256172 0.58618936 0.06256172
0.06256172 0.58618936 0.06256172
0.12189842 0.58618936 0.06256172
0.28333146 0.58618936 0.06256172
0.33541532 0.58618936 0.06256172
0.37255552 0.58618936 0.06256172
0.40323762 0.58618936 0.06256172
0.43037236 0.58618936 0.06256172
0.45532115 0.58618936 0.06256172
0.47883127 0.58618936 0.06256172
0.50135502 0.58618936 0.06256172
0.52318430 0.58618936 0.06256172
0.54451572 0.58618936 0.06256172
0.56548545 0.58618936 0.06256172
0.58618936 0.58618936 0.06256172
0.60669528 0.58618936 0.06256172
0.62705101 0.58618936 0.06256172
0.64728958 0.58618936 0.06256172
0.66743301 0.58618936 0.06256172
0.68749494 0.58618936 0.06256172
0.70748263 0.58618936 0.06256172
0.72739838 0.58618936 0.06256172
0.74724074 0.58618936 0.06256172
0.76700534 0.58618936 0.06256172
0.78668563 0.58618936 0.06256172
0.80627338 0.58618936 0.06256172
0.82575922 0.58618936 0.06256172
0.84513294 0.58618936 0.06256172
0.86438378 0.58618936 0.06256172
0.88350072 0.58618936 0.06256172
0.90247265 0.58618936 0.06256172
0.91886608 0.58618936 0.06256172
0.06256172 0.60669528 0.06256172
0.06256172 0.60669528 0.06256172
0.06256172 0.60669528 0.06256172
0.12189842 0.60669528 0.06256172
0.28333146 0.60669528 0.06256172
0.33541532 0.60669528 0.06256172
0.37255552 0.60669528 0.06256172
0.40323762 0.60669528 0.06256172
0.43037236 0.60669528 0.06256172
0.45532115 0.60669528 0.06256172
0.47883127 0.60669528 0.06256172
0.50135502 0.60669528 0.06256172
0.52318430 0.60669528 0.06256172
0.54451572 0.60669528 0.06256172
0.56548545 0.60669528 0.06256172
0.58618936 0.60669528 0.06256172
0.60669528 0.60669528 0.06256172
0.62705101 0.60669528 0.06256172
0.64728958 0.60669528 0.06256172
0.66743301 0.60669528 0.06256172
0.68749494 0.60669528 0.06256172
0.70748263 0.60669528 0.06256172
0.72739838 0.60669528 0.06256172
0.74724074 0.60669528 0.06256172
0.76700534 0.60669528 0.06256172
0.78668563 0.60669528 0.06256172
0.80627338 0.60669528 0.06256172
0.82575922 0.60669528 0.06256172
0.84513294 0.60669528 0.06256172
0.86438378 0.60669528 0.06256172
0.88350072 0.60669528 0.06256172
0.90247265 0.60669528 0.06256172
0.91886608 0.60669528 0.06256172
0.06256172 0.62705101 0.06256172
0.06256172 0.62705101 0.06256172
0.06256172 0.62705101 0.06256172
0.12189842 0.62705101 0.06256172
0.28333146 0.62705101 0.06256172
0.33541532 0.62705101 0.06256172
0.37255552 0.62705101 0.06256172
0.40323762 0.62705101 0.06256172
0.43037236 0.62705101 0.06256172
0.45532115 0.62705101 0.06256172
0.47883127 0.62705101 0.06256172
0.50135502 0.62705101 0.06256172
0.52318430 0.62705101 0.06256172
0.54451572 0.62705101 0.06256172
0.56548545 0.62705101 0.06256172
0.58618936 0.62705101 0.06256172
0.60669528 0.62705101 0.06256172
0.62705101 0.62705101 0.06256172
0.64728958 0.62705101 0.06256172
0.66743301 0.62705101 0.06256172
0.68749494 0.62705101 0.06256172
0.70748263 0.62705101 0.06256172
0.72739838 0.62705101 0.06256172
0.74724074 0.62705101 0.06256172
0.76700534 0.62705101 0.06256172
0.78668563 0.62705101 0.06256172
0.80627338 0.62705101 0.06256172
0.82575922 0.62705101 0.06256172
0.84513294 0.62705101 0.06256172
0.86438378 0.62705101 0.06256172
0.88350072 0.62705101 0.06256172
0.90247265 0.62705101 0.06256172
0.91886608 0.62705101 0.06256172
0.06256172 0.64728958 0.06256172
0.06256172 0.64728958 0.06256172
0.06256172 0.64728958 0.06256172
0.12189842 0.64728958 0.06256172
0.28333146 0.64728958 0.06256172
0.33541532 0.64728958 0.06256172
0.37255552 0.64728958 0.06256172
0.40323762 0.64728958 0.06256172
0.43037236 0.64728958 0.06256172
0.45532115 0.64728958 0.06256172
0.47883127 0.64728958 0.06256172
0.50135502 0.64728958 0.06256172
0.52318430 0.64728958 0.06256172
0.54451572 0.64728958 0.06256172
0.56548545 0.64728958 0.06256172
0.58618936 0.64728958 0.06256172
0.60669528 0.64728958 0.06256172
0.62705101 0.64728958 0.06256172
0.64728958 0.64728958 0.06256172
0.66743301 0.64728958 0.06256172
0.68749494 0.64728958 0.06256172
0.70748263 0.64728958 0.06256172
0.72739838 0.64728958 0.06256172
0.74724074 0.64728958 0.06256172
0.76700534 0.64728958 0.06256172
0.78668563 0.64728958 0.06256172
0.80627338 0.64728958 0.06256172
0.82575922 0.64728958 0.06256172
0.84513294 0.64728958 0.06256172
0.86438378 0.64728958 0.06256172
0.88350072 0.64728958 0.06256172
0.90247265 0.64728958 0.06256172
0.91886608 0.64728958 0.06256172
0.06256172 0.66743301 0.06256172
0.06256172 0.66743301 0.06256172
0.06256172 0.66743301 0.06256172
0.12189842 0.66743301 0.06256172
0.28333146 0.66743301 0.06256172
0.33541532 0.66743301 0.06256172
0.37255552 0.66743301 0.06256172
0.40323762 0.66743301 0.06256172
0.43037236 0.66743301 0.06256172
0.45532115 0.66743301 0.06256172
0.47883127 0.66743301 0.06256172
0.50135502 0.66743301 0.06256172
0.52318430 0.66743301 0.06256172
0.54451572 0.66743301 0.06256172
0.56548545 0.66743301 0.06256172
0.58618936 0.66743301 0.06256172
0.60669528 0.66743301 0.06256172
0.62705101 0.66743301 0.06256172
0.64728958 0.66743301 0.06256172
0.66743301 0.66743301 0.06256172
0.68749494 0.66743301 0.06256172
0.70748263 0.66743301 0.06256172
0.72739838 0.66743301 0.06256172
0.74724074 0.66743301 0.06256172
0.76700534 0.66743301 0.06256172
0.78668563 0.66743301 0.06256172
0.80627338 0.66743301 0.06256172
0.82575922 0.66743301 0.06256172
0.84513294 0.66743301 0.06256172
0.86438378 0.66743301 0.06256172
0.88350072 0.66743301 0.06256172
0.90247265 0.66743301 0.06256172
0.91886608 0.66743301 0.06256172
0.06256172 0.68749494 0.06256172
0.06256172 0.68749494 0.06256172
0.06256172 0.68749494 0.06256172
0.12189842 0.68749494 0.06256172
0.28333146 0.68749494 0.06256172
0.33541532 0.68749494 0.06256172
0.37255552 0.68749494 0.06256172
0.40323762 0.68749494 0.06256172
0.43037236 0.68749494 0.06256172
0.45532115 0.68749494 0.06256172
0.47883127 0.68749494 0.06256172
0.50135502 0.68749494 0.06256172
0.52318430 0.68749494 0.06256172
0.54451572 0.68749494 0.06256172
0.56548545 0.68749494 0.06256172
0.58618936 0.68749494 0.06256172
0.60669528 0.68749494 0.06256172
0.62705101 0.68749494 0.06256172
0.64728958 0.68749494 0.06256172
0.66743301 0.68749494 0.06256172
0.68749494 0.68749494 0.06256172
0.70748263 0.68749494 0.06256172
0.72739838 0.68749494 0.06256172
0.74724074 0.68749494 0.06256172
0.76700534 0.68749494 0.06256172
0.78668563 0.68749494 0.06256172
0.80627338 0.68749494 0.06256172
0.82575922 0.68749494 0.06256172
0.84513294 0.68749494 0.06256172
0.86438378 0.68749494 0.06256172
0.88350072 0.68749494 0.06256172
0.90247265 0.68749494 0.06256172
0.91886608 0.68749494 0.06256172
0.06256172 0.70748263 0.06256172
0.06256172 0.70748263 0.06256172
0.06256172 0.70748263 0.06256172
0.12189842 0.70748263 0.06256172
0.28333146 0.70748263 0.06256172
0.33541532 0.70748263 0.06256172
0.37255552 0.70748263 0.06256172
0.40323762 0.70748263 0.06256172
0.43037236 0.70748263 0.06256172
0.45532115 0.70748263 0.06256172
0.47883127 0.70748263 0.06256172
0.50135502 0.70748263 0.06256172
0.52318430 0.70748263 0.06256172
0.54451572 0.70748263 0.06256172
0.56548545 0.70748263 0.06256172
0.58618936 0.70748263 0.06256172
0.60669528 0.70748263 0.06256172
0.62705101 0.70748263 0.06256172
0.64728958 0.70748263 0.06256172
0.66743301 0.70748263 0.06256172
0.68749494 0.70748263 0.06256172
0.70748263 0.70748263 0.06256172
0.72739838 0.70748263 0.06256172
0.74724074 0.70748263 0.06256172
0.76700534 0.70748263 0.06256172
0.78668563 0.70748263 0.06256172
0.80627338 0.70748263 0.06256172
