src/ffmpeg_scripts/luts/flog-smpte2084_0p33.cube
TITLE "flog-smpte2084_0p33"
LUT_3D_SIZE 5
# Fujifilm F-Log/Rec2020 -> PQ (EOTF Only)/Rec2020, CineEI Shift 0.33, Black Level 0.00% IRE, Input 109% -> Output 109% - Created with LUTCalc v4.01 by Ben Turley October 2020
0.06256172 0.06256172 0.06256172
0.26751310 0.06256172 0.06256172
0.40830684 0.06256172 0.06256172
0.55385942 0.06256172 0.06256172
0.70814088 0.06256172 0.06256172
0.06256172 0.26751310 0.06256172
0.26751310 0.26751310 0.06256172
0.40830684 0.26751310 0.06256172
0.55385942 0.26751310 0.06256172
0.70814088 0.26751310 0.06256172
0.06256172 0.40830684 0.06256172
0.26751310 0.40830684 0.06256172
0.40830684 0.40830684 0.06256172
0.55385942 0.40830684 0.06256172
0.70814088 0.40830684 0.06256172
0.06256172 0.55385942 0.06256172
0.26751310 0.55385942 0.06256172
0.40830684 0.55385942 0.06256172
0.55385942 0.55385942 0.06256172
0.70814088 0.55385942 0.06256172
0.06256172 0.70814088 0.06256172
0.26751310 0.70814088 0.06256172
0.40830684 0.70814088 0.06256172
0.55385942 0.70814088 0.06256172
0.70814088 0.70814088 0.06256172
0.06256172 0.06256172 0.26751310
0.26751310 0.06256172 0.26751310
0.40830684 0.06256172 0.26751310
0.55385942 0.06256172 0.26751310
0.70814088 0.06256172 0.26751310
0.06256172 0.26751310 0.26751310
0.26751310 0.26751310 0.26751310
0.40830684 0.26751310 0.26751310
0.55385942 0.26751310 0.26751310
0.70814088 0.26751310 0.26751310
0.06256172 0.40830684 0.26751310
0.26751310 0.40830684 0.26751310
0.40830684 0.40830684 0.26751310
0.55385942 0.40830684 0.26751310
0.70814088 0.40830684 0.26751310
0.06256172 0.55385942 0.26751310
0.26751310 0.55385942 0.26751310
0.40830684 0.55385942 0.26751310
0.55385942 0.55385942 0.26751310
0.70814088 0.55385942 0.26751310
0.06256172 0.70814088 0.26751310
0.26751310 0.70814088 0.26751310
0.40830684 0.70814088 0.26751310
0.55385942 0.70814088 0.26751310
0.70814088 0.70814088 0.26751310
0.06256172 0.06256172 0.40830684
0.26751310 0.06256172 0.40830684
0.40830684 0.06256172 0.40830684
0.55385942 0.06256172 0.40830684
0.70814088 0.06256172 0.40830684
0.06256172 0.26751310 0.40830684
0.26751310 0.26751310 0.40830684
0.40830684 0.26751310 0.40830684
0.55385942 0.26751310 0.40830684
0.70814088 0.26751310 0.40830684
0.06256172 0.40830684 0.40830684
0.26751310 0.40830684 0.40830684
0.40830684 0.40830684 0.40830684
0.55385942 0.40830684 0.40830684
0.70814088 0.40830684 0.40830684
0.06256172 0.55385942 0.40830684
0.26751310 0.55385942 0.40830684
0.40830684 0.55385942 0.40830684
0.55385942 0.55385942 0.40830684
0.70814088 0.55385942 0.40830684
0.06256172 0.70814088 0.40830684
0.26751310 0.70814088 0.40830684
0.40830684 0.70814088 0.40830684
0.55385942 0.70814088 0.40830684
0.70814088 0.70814088 0.40830684
0.06256172 0.06256172 0.55385942
0.26751310 0.06256172 0.55385942
0.40830684 0.06256172 0.55385942
0.55385942 0.06256172 0.55385942
0.70814088 0.06256172 0.55385942
0.06256172 0.26751310 0.55385942
0.26751310 0.26751310 0.55385942
0.40830684 0.26751310 0.55385942
0.55385942 0.26751310 0.55385942
0.70814088 0.26751310 0.55385942
0.06256172 0.40830684 0.55385942
0.26751310 0.40830684 0.55385942
0.40830684 0.40830684 0.55385942
0.55385942 0.40830684 0.55385942
0.70814088 0.40830684 0.55385942
0.06256172 0.55385942 0.55385942
0.26751310 0.55385942 0.55385942
0.40830684 0.55385942 0.55385942
0.55385942 0.55385942 0.55385942
0.70814088 0.55385942 0.55385942
0.06256172 0.70814088 0.55385942
0.26751310 0.70814088 0.55385942
0.40830684 0.70814088 0.55385942
0.55385942 0.70814088 0.55385942
0.70814088 0.70814088 0.55385942
0.06256172 0.06256172 0.70814088
0.26751310 0.06256172 0.70814088
0.40830684 0.06256172 0.70814088
0.55385942 0.06256172 0.70814088
0.70814088 0.06256172 0.70814088
0.06256172 0.26751310 0.70814088
0.26751310 0.26751310 0.70814088
0.40830684 0.26751310 0.70814088
0.55385942 0.26751310 0.70814088
0.70814088 0.26751310 0.70814088
0.06256172 0.40830684 0.70814088
0.26751310 0.40830684 0.70814088
0.40830684 0.40830684 0.70814088
0.55385942 0.40830684 0.70814088
0.70814088 0.40830684 0.70814088
0.06256172 0.55385942 0.70814088
0.26751310 0.55385942 0.70814088
0.40830684 0.55385942 0.70814088
0.55385942 0.55385942 0.70814088
0.70814088 0.55385942 0.70814088
0.06256172 0.70814088 0.70814088
0.26751310 0.70814088 0.70814088
0.40830684 0.70814088 0.70814088
0.55385942 0.70814088 0.70814088
0.70814088 0.70814088 0.70814088
