src/ffmpeg_scripts/luts/flog-experimental_0p33.cube
TITLE "flog-experimental_0p33"
LUT_3D_SIZE 33
# Fujifilm F-Log/Rec2020 -> PQ (EOTF Only)/Rec2020, CineEI Shift 0.33, Black Level 0.00% IRE, Input 109% -> Output 100% - Created with LUTCalc v4.01 by Ben Turley October 2020
0.00000073 0.00000073 0.00000073
0.00000073 0.00000073 0.00000073
0.00000073 0.00000073 0.00000073
0.03362808 0.00000073 0.00000073
0.17069256 0.00000073 0.00000073
0.22433191 0.00000073 0.00000073
0.26490269 0.00000073 0.00000073
0.29979077 0.00000073 0.00000073
0.33163726 0.00000073 0.00000073
0.36171331 0.00000073 0.00000073
0.39073315 0.00000073 0.00000073
0.41913787 0.00000073 0.00000073
0.44721726 0.00000073 0.00000073
0.47516943 0.00000073 0.00000073
0.50313311 0.00000073 0.00000073
0.53120650 0.00000073 0.00000073
0.55945882 0.00000073 0.00000073
0.58793789 0.00000073 0.00000073
0.61667526 0.00000073 0.00000073
0.64568982 0.00000073 0.00000073
0.67499047 0.00000073 0.00000073
0.70457806 0.00000073 0.00000073
0.73444696 0.00000073 0.00000073
0.76458627 0.00000073 0.00000073
0.79498079 0.00000073 0.00000073
0.82561188 0.00000073 0.00000073
0.85645806 0.00000073 0.00000073
0.88749568 0.00000073 0.00000073
0.91869930 0.00000073 0.00000073
0.95004222 0.00000073 0.00000073
0.98149676 0.00000073 0.00000073
1.00000000 0.00000073 0.00000073
1.00000000 0.00000073 0.00000073
0.00000073 0.00000073 0.00000073
0.00000073 0.00000073 0.00000073
0.00000073 0.00000073 0.00000073
0.03362808 0.00000073 0.00000073
0.17069256 0.00000073 0.00000073
0.22433191 0.00000073 0.00000073
0.26490269 0.00000073 0.00000073
0.29979077 0.00000073 0.00000073
0.33163726 0.00000073 0.00000073
0.36171331 0.00000073 0.00000073
0.39073315 0.00000073 0.00000073
0.41913787 0.00000073 0.00000073
0.44721726 0.00000073 0.00000073
0.47516943 0.00000073 0.00000073
0.50313311 0.00000073 0.00000073
0.53120650 0.00000073 0.00000073
0.55945882 0.00000073 0.00000073
0.58793789 0.00000073 0.00000073
0.61667526 0.00000073 0.00000073
0.64568982 0.00000073 0.00000073
0.67499047 0.00000073 0.00000073
0.70457806 0.00000073 0.00000073
0.73444696 0.00000073 0.00000073
0.76458627 0.00000073 0.00000073
0.79498079 0.00000073 0.00000073
0.82561188 0.00000073 0.00000073
0.85645806 0.00000073 0.00000073
0.88749568 0.00000073 0.00000073
0.91869930 0.00000073 0.00000073
0.95004222 0.00000073 0.00000073
0.98149676 0.00000073 0.00000073
1.00000000 0.00000073 0.00000073
1.00000000 0.00000073 0.00000073
0.00000073 0.00000073 0.00000073
0.00000073 0.00000073 0.00000073
0.00000073 0.00000073 0.00000073
0.03362808 0.00000073 0.00000073
0.17069256 0.00000073 0.00000073
0.22433191 0.00000073 0.00000073
0.26490269 0.00000073 0.00000073
0.29979077 0.00000073 0.00000073
0.33163726 0.00000073 0.00000073
0.36171331 0.00000073 0.00000073
0.39073315 0.00000073 0.00000073
0.41913787 0.00000073 0.00000073
0.44721726 0.00000073 0.00000073
0.47516943 0.00000073 0.00000073
0.50313311 0.00000073 0.00000073
0.53120650 0.00000073 0.00000073
0.55945882 0.00000073 0.00000073
0.58793789 0.00000073 0.00000073
0.61667526 0.00000073 0.00000073
0.64568982 0.00000073 0.00000073
0.67499047 0.00000073 0.00000073
0.70457806 0.00000073 0.00000073
0.73444696 0.00000073 0.00000073
0.76458627 0.00000073 0.00000073
0.79498079 0.00000073 0.00000073
0.82561188 0.00000073 0.00000073
0.85645806 0.00000073 0.00000073
0.88749568 0.00000073 0.00000073
0.91869930 0.00000073 0.00000073
0.95004222 0.00000073 0.00000073
0.98149676 0.00000073 0.00000073
1.00000000 0.00000073 0.00000073
1.00000000 0.00000073 0.00000073
0.00000073 0.03362808 0.00000073
0.00000073 0.03362808 0.00000073
0.00000073 0.03362808 0.00000073
0.03362808 0.03362808 0.00000073
0.17069256 0.03362808 0.00000073
0.22433191 0.03362808 0.00000073
0.26490269 0.03362808 0.00000073
0.29979077 0.03362808 0.00000073
0.33163726 0.03362808 0.00000073
0.36171331 0.03362808 0.00000073
0.39073315 0.03362808 0.00000073
0.41913787 0.03362808 0.00000073
0.44721726 0.03362808 0.00000073
0.47516943 0.03362808 0.00000073
0.50313311 0.03362808 0.00000073
0.53120650 0.03362808 0.00000073
0.55945882 0.03362808 0.00000073
0.58793789 0.03362808 0.00000073
0.61667526 0.03362808 0.00000073
0.64568982 0.03362808 0.00000073
0.67499047 0.03362808 0.00000073
0.70457806 0.03362808 0.00000073
0.73444696 0.03362808 0.00000073
0.76458627 0.03362808 0.00000073
0.79498079 0.03362808 0.00000073
0.82561188 0.03362808 0.00000073
0.85645806 0.03362808 0.00000073
0.88749568 0.03362808 0.00000073
0.91869930 0.03362808 0.00000073
0.95004222 0.03362808 0.00000073
0.98149676 0.03362808 0.00000073
1.00000000 0.03362808 0.00000073
1.00000000 0.03362808 0.00000073
0.00000073 0.17069256 0.00000073
0.00000073 0.17069256 0.00000073
0.00000073 0.17069256 0.00000073
0.03362808 0.17069256 0.00000073
0.17069256 0.17069256 0.00000073
0.22433191 0.17069256 0.00000073
0.26490269 0.17069256 0.00000073
0.29979077 0.17069256 0.00000073
0.33163726 0.17069256 0.00000073
0.36171331 0.17069256 0.00000073
0.39073315 0.17069256 0.00000073
0.41913787 0.17069256 0.00000073
0.44721726 0.17069256 0.00000073
0.47516943 0.17069256 0.00000073
0.50313311 0.17069256 0.00000073
0.53120650 0.17069256 0.00000073
0.55945882 0.17069256 0.00000073
0.58793789 0.17069256 0.00000073
0.61667526 0.17069256 0.00000073
0.64568982 0.17069256 0.00000073
0.67499047 0.17069256 0.00000073
0.70457806 0.17069256 0.00000073
0.73444696 0.17069256 0.00000073
0.76458627 0.17069256 0.00000073
0.79498079 0.17069256 0.00000073
0.82561188 0.17069256 0.00000073
0.85645806 0.17069256 0.00000073
0.88749568 0.17069256 0.00000073
0.91869930 0.17069256 0.00000073
0.95004222 0.17069256 0.00000073
0.98149676 0.17069256 0.00000073
1.00000000 0.17069256 0.00000073
1.00000000 0.17069256 0.00000073
0.00000073 0.22433191 0.00000073
0.00000073 0.22433191 0.00000073
0.00000073 0.22433191 0.00000073
0.03362808 0.22433191 0.00000073
0.17069256 0.22433191 0.00000073
0.22433191 0.22433191 0.00000073
0.26490269 0.22433191 0.00000073
0.29979077 0.22433191 0.00000073
0.33163726 0.22433191 0.00000073
0.36171331 0.22433191 0.00000073
0.39073315 0.22433191 0.00000073
0.41913787 0.22433191 0.00000073
0.44721726 0.22433191 0.00000073
0.47516943 0.22433191 0.00000073
0.50313311 0.22433191 0.00000073
0.53120650 0.22433191 0.00000073
0.55945882 0.22433191 0.00000073
0.58793789 0.22433191 0.00000073
0.61667526 0.22433191 0.00000073
0.64568982 0.22433191 0.00000073
0.67499047 0.22433191 0.00000073
0.70457806 0.22433191 0.00000073
0.73444696 0.22433191 0.00000073
0.76458627 0.22433191 0.00000073
0.79498079 0.22433191 0.00000073
0.82561188 0.22433191 0.00000073
0.85645806 0.22433191 0.00000073
0.88749568 0.22433191 0.00000073
0.91869930 0.22433191 0.00000073
0.95004222 0.22433191 0.00000073
0.98149676 0.22433191 0.00000073
1.00000000 0.22433191 0.00000073
1.00000000 0.22433191 0.00000073
0.00000073 0.26490269 0.00000073
0.00000073 0.26490269 0.00000073
0.00000073 0.26490269 0.00000073
0.03362808 0.26490269 0.00000073
0.17069256 0.26490269 0.00000073
0.22433191 0.26490269 0.00000073
0.26490269 0.26490269 0.00000073
0.29979077 0.26490269 0.00000073
0.33163726 0.26490269 0.00000073
0.36171331 0.26490269 0.00000073
0.39073315 0.26490269 0.00000073
0.41913787 0.26490269 0.00000073
0.44721726 0.26490269 0.00000073
0.47516943 0.26490269 0.00000073
0.50313311 0.26490269 0.00000073
0.53120650 0.26490269 0.00000073
0.55945882 0.26490269 0.00000073
0.58793789 0.26490269 0.00000073
0.61667526 0.26490269 0.00000073
0.64568982 0.26490269 0.00000073
0.67499047 0.26490269 0.00000073
0.70457806 0.26490269 0.00000073
0.73444696 0.26490269 0.00000073
0.76458627 0.26490269 0.00000073
0.79498079 0.26490269 0.00000073
0.82561188 0.26490269 0.00000073
0.85645806 0.26490269 0.00000073
0.88749568 0.26490269 0.00000073
0.91869930 0.26490269 0.00000073
0.95004222 0.26490269 0.00000073
0.98149676 0.26490269 0.00000073
1.00000000 0.26490269 0.00000073
1.00000000 0.26490269 0.00000073
0.00000073 0.29979077 0.00000073
0.00000073 0.29979077 0.00000073
0.00000073 0.29979077 0.00000073
0.03362808 0.29979077 0.00000073
0.17069256 0.29979077 0.00000073
0.22433191 0.29979077 0.00000073
0.26490269 0.29979077 0.00000073
0.29979077 0.29979077 0.00000073
0.33163726 0.29979077 0.00000073
0.36171331 0.29979077 0.00000073
0.39073315 0.29979077 0.00000073
0.41913787 0.29979077 0.00000073
0.44721726 0.29979077 0.00000073
0.47516943 0.29979077 0.00000073
0.50313311 0.29979077 0.00000073
0.53120650 0.29979077 0.00000073
0.55945882 0.29979077 0.00000073
0.58793789 0.29979077 0.00000073
0.61667526 0.29979077 0.00000073
0.64568982 0.29979077 0.00000073
0.67499047 0.29979077 0.00000073
0.70457806 0.29979077 0.00000073
0.73444696 0.29979077 0.00000073
0.76458627 0.29979077 0.00000073
0.79498079 0.29979077 0.00000073
0.82561188 0.29979077 0.00000073
0.85645806 0.29979077 0.00000073
0.88749568 0.29979077 0.00000073
0.91869930 0.29979077 0.00000073
0.95004222 0.29979077 0.00000073
0.98149676 0.29979077 0.00000073
1.00000000 0.29979077 0.00000073
1.00000000 0.29979077 0.00000073
0.00000073 0.33163726 0.00000073
0.00000073 0.33163726 0.00000073
0.00000073 0.33163726 0.00000073
0.03362808 0.33163726 0.00000073
0.17069256 0.33163726 0.00000073
0.22433191 0.33163726 0.00000073
0.26490269 0.33163726 0.00000073
0.29979077 0.33163726 0.00000073
0.33163726 0.33163726 0.00000073
0.36171331 0.33163726 0.00000073
0.39073315 0.33163726 0.00000073
0.41913787 0.33163726 0.00000073
0.44721726 0.33163726 0.00000073
0.47516943 0.33163726 0.00000073
0.50313311 0.33163726 0.00000073
0.53120650 0.33163726 0.00000073
0.55945882 0.33163726 0.00000073
0.58793789 0.33163726 0.00000073
0.61667526 0.33163726 0.00000073
0.64568982 0.33163726 0.00000073
0.67499047 0.33163726 0.00000073
0.70457806 0.33163726 0.00000073
0.73444696 0.33163726 0.00000073
0.76458627 0.33163726 0.00000073
0.79498079 0.33163726 0.00000073
0.82561188 0.33163726 0.00000073
0.85645806 0.33163726 0.00000073
0.88749568 0.33163726 0.00000073
0.91869930 0.33163726 0.00000073
0.95004222 0.33163726 0.00000073
0.98149676 0.33163726 0.00000073
1.00000000 0.33163726 0.00000073
1.00000000 0.33163726 0.00000073
0.00000073 0.36171331 0.00000073
0.00000073 0.36171331 0.00000073
0.00000073 0.36171331 0.00000073
0.03362808 0.36171331 0.00000073
0.17069256 0.36171331 0.00000073
0.22433191 0.36171331 0.00000073
0.26490269 0.36171331 0.00000073
0.29979077 0.36171331 0.00000073
0.33163726 0.36171331 0.00000073
0.36171331 0.36171331 0.00000073
0.39073315 0.36171331 0.00000073
0.41913787 0.36171331 0.00000073
0.44721726 0.36171331 0.00000073
0.47516943 0.36171331 0.00000073
0.50313311 0.36171331 0.00000073
0.53120650 0.36171331 0.00000073
0.55945882 0.36171331 0.00000073
0.58793789 0.36171331 0.00000073
0.61667526 0.36171331 0.00000073
0.64568982 0.36171331 0.00000073
0.67499047 0.36171331 0.00000073
0.70457806 0.36171331 0.00000073
0.73444696 0.36171331 0.00000073
0.76458627 0.36171331 0.00000073
0.79498079 0.36171331 0.00000073
0.82561188 0.36171331 0.00000073
0.85645806 0.36171331 0.00000073
0.88749568 0.36171331 0.00000073
0.91869930 0.36171331 0.00000073
0.95004222 0.36171331 0.00000073
0.98149676 0.36171331 0.00000073
1.00000000 0.36171331 0.00000073
1.00000000 0.36171331 0.00000073
0.00000073 0.39073315 0.00000073
0.00000073 0.39073315 0.00000073
0.00000073 0.39073315 0.00000073
0.03362808 0.39073315 0.00000073
0.17069256 0.39073315 0.00000073
0.22433191 0.39073315 0.00000073
0.26490269 0.39073315 0.00000073
0.29979077 0.39073315 0.00000073
0.33163726 0.39073315 0.00000073
0.36171331 0.39073315 0.00000073
0.39073315 0.39073315 0.00000073
0.41913787 0.39073315 0.00000073
0.44721726 0.39073315 0.00000073
0.47516943 0.39073315 0.00000073
0.50313311 0.39073315 0.00000073
0.53120650 0.39073315 0.00000073
0.55945882 0.39073315 0.00000073
0.58793789 0.39073315 0.00000073
0.61667526 0.39073315 0.00000073
0.64568982 0.39073315 0.00000073
0.67499047 0.39073315 0.00000073
0.70457806 0.39073315 0.00000073
0.73444696 0.39073315 0.00000073
0.76458627 0.39073315 0.00000073
0.79498079 0.39073315 0.00000073
0.82561188 0.39073315 0.00000073
0.85645806 0.39073315 0.00000073
0.88749568 0.39073315 0.00000073
0.91869930 0.39073315 0.00000073
0.95004222 0.39073315 0.00000073
0.98149676 0.39073315 0.00000073
1.00000000 0.39073315 0.00000073
1.00000000 0.39073315 0.00000073
0.00000073 0.41913787 0.00000073
0.00000073 0.41913787 0.00000073
0.00000073 0.41913787 0.00000073
0.03362808 0.41913787 0.00000073
0.17069256 0.41913787 0.00000073
0.22433191 0.41913787 0.00000073
0.26490269 0.41913787 0.00000073
0.29979077 0.41913787 0.00000073
0.33163726 0.41913787 0.00000073
0.36171331 0.41913787 0.00000073
0.39073315 0.41913787 0.00000073
0.41913787 0.41913787 0.00000073
0.44721726 0.41913787 0.00000073
0.47516943 0.41913787 0.00000073
0.50313311 0.41913787 0.00000073
0.53120650 0.41913787 0.00000073
0.55945882 0.41913787 0.00000073
0.58793789 0.41913787 0.00000073
0.61667526 0.41913787 0.00000073
0.64568982 0.41913787 0.00000073
0.67499047 0.41913787 0.00000073
0.70457806 0.41913787 0.00000073
0.73444696 0.41913787 0.00000073
0.76458627 0.41913787 0.00000073
0.79498079 0.41913787 0.00000073
0.82561188 0.41913787 0.00000073
0.85645806 0.41913787 0.00000073
0.88749568 0.41913787 0.00000073
0.91869930 0.41913787 0.00000073
0.95004222 0.41913787 0.00000073
0.98149676 0.41913787 0.00000073
1.00000000 0.41913787 0.00000073
1.00000000 0.41913787 0.00000073
0.00000073 0.44721726 0.00000073
0.00000073 0.44721726 0.00000073
0.00000073 0.44721726 0.00000073
0.03362808 0.44721726 0.00000073
0.17069256 0.44721726 0.00000073
0.22433191 0.44721726 0.00000073
0.26490269 0.44721726 0.00000073
0.29979077 0.44721726 0.00000073
0.33163726 0.44721726 0.00000073
0.36171331 0.44721726 0.00000073
0.39073315 0.44721726 0.00000073
0.41913787 0.44721726 0.00000073
0.44721726 0.44721726 0.00000073
0.47516943 0.44721726 0.00000073
0.50313311 0.44721726 0.00000073
0.53120650 0.44721726 0.00000073
0.55945882 0.44721726 0.00000073
0.58793789 0.44721726 0.00000073
0.61667526 0.44721726 0.00000073
0.64568982 0.44721726 0.00000073
0.67499047 0.44721726 0.00000073
0.70457806 0.44721726 0.00000073
0.73444696 0.44721726 0.00000073
0.76458627 0.44721726 0.00000073
0.79498079 0.44721726 0.00000073
0.82561188 0.44721726 0.00000073
0.85645806 0.44721726 0.00000073
0.88749568 0.44721726 0.00000073
0.91869930 0.44721726 0.00000073
0.95004222 0.44721726 0.00000073
0.98149676 0.44721726 0.00000073
1.00000000 0.44721726 0.00000073
1.00000000 0.44721726 0.00000073
0.00000073 0.47516943 0.00000073
0.00000073 0.47516943 0.00000073
0.00000073 0.47516943 0.00000073
0.03362808 0.47516943 0.00000073
0.17069256 0.47516943 0.00000073
0.22433191 0.47516943 0.00000073
0.26490269 0.47516943 0.00000073
0.29979077 0.47516943 0.00000073
0.33163726 0.47516943 0.00000073
0.36171331 0.47516943 0.00000073
0.39073315 0.47516943 0.00000073
0.41913787 0.47516943 0.00000073
0.44721726 0.47516943 0.00000073
0.47516943 0.47516943 0.00000073
0.50313311 0.47516943 0.00000073
0.53120650 0.47516943 0.00000073
0.55945882 0.47516943 0.00000073
0.58793789 0.47516943 0.00000073
0.61667526 0.47516943 0.00000073
0.64568982 0.47516943 0.00000073
0.67499047 0.47516943 0.00000073
0.70457806 0.47516943 0.00000073
0.73444696 0.47516943 0.00000073
0.76458627 0.47516943 0.00000073
0.79498079 0.47516943 0.00000073
0.82561188 0.47516943 0.00000073
0.85645806 0.47516943 0.00000073
0.88749568 0.47516943 0.00000073
0.91869930 0.47516943 0.00000073
0.95004222 0.47516943 0.00000073
0.98149676 0.47516943 0.00000073
1.00000000 0.47516943 0.00000073
1.00000000 0.47516943 0.00000073
0.00000073 0.50313311 0.00000073
0.00000073 0.50313311 0.00000073
0.00000073 0.50313311 0.00000073
0.03362808 0.50313311 0.00000073
0.17069256 0.50313311 0.00000073
0.22433191 0.50313311 0.00000073
0.26490269 0.50313311 0.00000073
0.29979077 0.50313311 0.00000073
0.33163726 0.50313311 0.00000073
0.36171331 0.50313311 0.00000073
0.39073315 0.50313311 0.00000073
0.41913787 0.50313311 0.00000073
0.44721726 0.50313311 0.00000073
0.47516943 0.50313311 0.00000073
0.50313311 0.50313311 0.00000073
0.53120650 0.50313311 0.00000073
0.55945882 0.50313311 0.00000073
0.58793789 0.50313311 0.00000073
0.61667526 0.50313311 0.00000073
0.64568982 0.50313311 0.00000073
0.67499047 0.50313311 0.00000073
0.70457806 0.50313311 0.00000073
0.73444696 0.50313311 0.00000073
0.76458627 0.50313311 0.00000073
0.79498079 0.50313311 0.00000073
0.82561188 0.50313311 0.00000073
0.85645806 0.50313311 0.00000073
0.88749568 0.50313311 0.00000073
0.91869930 0.50313311 0.00000073
0.95004222 0.50313311 0.00000073
0.98149676 0.50313311 0.00000073
1.00000000 0.50313311 0.00000073
1.00000000 0.50313311 0.00000073
0.00000073 0.53120650 0.00000073
0.00000073 0.53120650 0.00000073
0.00000073 0.53120650 0.00000073
0.03362808 0.53120650 0.00000073
0.17069256 0.53120650 0.00000073
0.22433191 0.53120650 0.00000073
0.26490269 0.53120650 0.00000073
0.29979077 0.53120650 0.00000073
0.33163726 0.53120650 0.00000073
0.36171331 0.53120650 0.00000073
0.39073315 0.53120650 0.00000073
0.41913787 0.53120650 0.00000073
0.44721726 0.53120650 0.00000073
0.47516943 0.53120650 0.00000073
0.50313311 0.53120650 0.00000073
0.53120650 0.53120650 0.00000073
0.55945882 0.53120650 0.00000073
0.58793789 0.53120650 0.00000073
0.61667526 0.53120650 0.00000073
0.64568982 0.53120650 0.00000073
0.67499047 0.53120650 0.00000073
0.70457806 0.53120650 0.00000073
0.73444696 0.53120650 0.00000073
0.76458627 0.53120650 0.00000073
0.79498079 0.53120650 0.00000073
0.82561188 0.53120650 0.00000073
0.85645806 0.53120650 0.00000073
0.88749568 0.53120650 0.00000073
0.91869930 0.53120650 0.00000073
0.95004222 0.53120650 0.00000073
0.98149676 0.53120650 0.00000073
1.00000000 0.53120650 0.00000073
1.00000000 0.53120650 0.00000073
0.00000073 0.55945882 0.00000073
0.00000073 0.55945882 0.00000073
0.00000073 0.55945882 0.00000073
0.03362808 0.55945882 0.00000073
0.17069256 0.55945882 0.00000073
0.22433191 0.55945882 0.00000073
0.26490269 0.55945882 0.00000073
0.29979077 0.55945882 0.00000073
0.33163726 0.55945882 0.00000073
0.36171331 0.55945882 0.00000073
0.39073315 0.55945882 0.00000073
0.41913787 0.55945882 0.00000073
0.44721726 0.55945882 0.00000073
0.47516943 0.55945882 0.00000073
0.50313311 0.55945882 0.00000073
0.53120650 0.55945882 0.00000073
0.55945882 0.55945882 0.00000073
0.58793789 0.55945882 0.00000073
0.61667526 0.55945882 0.00000073
0.64568982 0.55945882 0.00000073
0.67499047 0.55945882 0.00000073
0.70457806 0.55945882 0.00000073
0.73444696 0.55945882 0.00000073
0.76458627 0.55945882 0.00000073
0.79498079 0.55945882 0.00000073
0.82561188 0.55945882 0.00000073
0.85645806 0.55945882 0.00000073
0.88749568 0.55945882 0.00000073
0.91869930 0.55945882 0.00000073
0.95004222 0.55945882 0.00000073
0.98149676 0.55945882 0.00000073
1.00000000 0.55945882 0.00000073
1.00000000 0.55945882 0.00000073
0.00000073 0.58793789 0.00000073
0.00000073 0.58793789 0.00000073
0.00000073 0.58793789 0.00000073
0.03362808 0.58793789 0.00000073
0.17069256 0.58793789 0.00000073
0.22433191 0.58793789 0.00000073
0.26490269 0.58793789 0.00000073
0.29979077 0.58793789 0.00000073
0.33163726 0.58793789 0.00000073
0.36171331 0.58793789 0.00000073
0.39073315 0.58793789 0.00000073
0.41913787 0.58793789 0.00000073
0.44721726 0.58793789 0.00000073
0.47516943 0.58793789 0.00000073
0.50313311 0.58793789 0.00000073
0.53120650 0.58793789 0.00000073
0.55945882 0.58793789 0.00000073
0.58793789 0.58793789 0.00000073
0.61667526 0.58793789 0.00000073
0.64568982 0.58793789 0.00000073
0.67499047 0.58793789 0.00000073
0.70457806 0.58793789 0.00000073
0.73444696 0.58793789 0.00000073
0.76458627 0.58793789 0.00000073
0.79498079 0.58793789 0.00000073
0.82561188 0.58793789 0.00000073
0.85645806 0.58793789 0.00000073
0.88749568 0.58793789 0.00000073
0.91869930 0.58793789 0.00000073
0.95004222 0.58793789 0.00000073
0.98149676 0.58793789 0.00000073
1.00000000 0.58793789 0.00000073
1.00000000 0.58793789 0.00000073
0.00000073 0.61667526 0.00000073
0.00000073 0.61667526 0.00000073
0.00000073 0.61667526 0.00000073
0.03362808 0.61667526 0.00000073
0.17069256 0.61667526 0.00000073
0.22433191 0.61667526 0.00000073
0.26490269 0.61667526 0.00000073
0.29979077 0.61667526 0.00000073
0.33163726 0.61667526 0.00000073
0.36171331 0.61667526 0.00000073
0.39073315 0.61667526 0.00000073
0.41913787 0.61667526 0.00000073
0.44721726 0.61667526 0.00000073
0.47516943 0.61667526 0.00000073
0.50313311 0.61667526 0.00000073
0.53120650 0.61667526 0.00000073
0.55945882 0.61667526 0.00000073
0.58793789 0.61667526 0.00000073
0.61667526 0.61667526 0.00000073
0.64568982 0.61667526 0.00000073
0.67499047 0.61667526 0.00000073
0.70457806 0.61667526 0.00000073
0.73444696 0.61667526 0.00000073
0.76458627 0.61667526 0.00000073
0.79498079 0.61667526 0.00000073
0.82561188 0.61667526 0.00000073
0.85645806 0.61667526 0.00000073
0.88749568 0.61667526 0.00000073
0.91869930 0.61667526 0.00000073
0.95004222 0.61667526 0.00000073
0.98149676 0.61667526 0.00000073
1.00000000 0.61667526 0.00000073
1.00000000 0.61667526 0.00000073
0.00000073 0.64568982 0.00000073
0.00000073 0.64568982 0.00000073
0.00000073 0.64568982 0.00000073
0.03362808 0.64568982 0.00000073
0.17069256 0.64568982 0.00000073
0.22433191 0.64568982 0.00000073
0.26490269 0.64568982 0.00000073
0.29979077 0.64568982 0.00000073
0.33163726 0.64568982 0.00000073
0.36171331 0.64568982 0.00000073
0.39073315 0.64568982 0.00000073
0.41913787 0.64568982 0.00000073
0.44721726 0.64568982 0.00000073
0.47516943 0.64568982 0.00000073
0.50313311 0.64568982 0.00000073
0.53120650 0.64568982 0.00000073
0.55945882 0.64568982 0.00000073
0.58793789 0.64568982 0.00000073
0.61667526 0.64568982 0.00000073
0.64568982 0.64568982 0.00000073
0.67499047 0.64568982 0.00000073
0.70457806 0.64568982 0.00000073
0.73444696 0.64568982 0.00000073
0.76458627 0.64568982 0.00000073
0.79498079 0.64568982 0.00000073
0.82561188 0.64568982 0.00000073
0.85645806 0.64568982 0.00000073
0.88749568 0.64568982 0.00000073
0.91869930 0.64568982 0.00000073
0.95004222 0.64568982 0.00000073
0.98149676 0.64568982 0.00000073
1.00000000 0.64568982 0.00000073
1.00000000 0.64568982 0.00000073
0.00000073 0.67499047 0.00000073
0.00000073 0.67499047 0.00000073
0.00000073 0.67499047 0.00000073
0.03362808 0.67499047 0.00000073
0.17069256 0.67499047 0.00000073
0.22433191 0.67499047 0.00000073
0.26490269 0.67499047 0.00000073
0.29979077 0.67499047 0.00000073
0.33163726 0.67499047 0.00000073
0.36171331 0.67499047 0.00000073
0.39073315 0.67499047 0.00000073
0.41913787 0.67499047 0.00000073
0.44721726 0.67499047 0.00000073
0.47516943 0.67499047 0.00000073
0.50313311 0.67499047 0.00000073
0.53120650 0.67499047 0.00000073
0.55945882 0.67499047 0.00000073
0.58793789 0.67499047 0.00000073
0.61667526 0.67499047 0.00000073
0.64568982 0.67499047 0.00000073
0.67499047 0.67499047 0.00000073
0.70457806 0.67499047 0.00000073
0.73444696 0.67499047 0.00000073
0.76458627 0.67499047 0.00000073
0.79498079 0.67499047 0.00000073
0.82561188 0.67499047 0.00000073
0.85645806 0.67499047 0.00000073
0.88749568 0.67499047 0.00000073
0.91869930 0.67499047 0.00000073
0.95004222 0.67499047 0.00000073
0.98149676 0.67499047 0.00000073
1.00000000 0.67499047 0.00000073
1.00000000 0.67499047 0.00000073
0.00000073 0.70457806 0.00000073
0.00000073 0.70457806 0.00000073
0.00000073 0.70457806 0.00000073
0.03362808 0.70457806 0.00000073
0.17069256 0.70457806 0.00000073
0.22433191 0.70457806 0.00000073
0.26490269 0.70457806 0.00000073
0.29979077 0.70457806 0.00000073
0.33163726 0.70457806 0.00000073
0.36171331 0.70457806 0.00000073
0.39073315 0.70457806 0.00000073
0.41913787 0.70457806 0.00000073
0.44721726 0.70457806 0.00000073
0.47516943 0.70457806 0.00000073
0.50313311 0.70457806 0.00000073
0.53120650 0.70457806 0.00000073
0.55945882 0.70457806 0.00000073
0.58793789 0.70457806 0.00000073
0.61667526 0.70457806 0.00000073
0.64568982 0.70457806 0.00000073
0.67499047 0.70457806 0.00000073
0.70457806 0.70457806 0.00000073
0.73444696 0.70457806 0.00000073
0.76458627 0.70457806 0.00000073
0.79498079 0.70457806 0.00000073
0.82561188 0.70457806 0.00000073
0.85645806 0.70457806 0.00000073
