src/ffmpeg_scripts/luts/flog-experimental_2p67.cube
TITLE "flog-experimental_2p67"
LUT_3D_SIZE 5
# Fujifilm F-Log/Rec2020 -> PQ (EOTF Only)/Rec2020, CineEI Shift 2.67, Black Level 0.00% IRE, Input 109% -> Output 100% - Created with LUTCalc v4.01 by Ben Turley October 2020
0.00000073 0.00000073 0.00000073
0.50787266 0.00000073 0.00000073
0.77936536 0.00000073 0.00000073
1.00000000 0.00000073 0.00000073
1.00000000 0.00000073 0.00000073
0.00000073 0.50787266 0.00000073
0.50787266 0.50787266 0.00000073
0.77936536 0.50787266 0.00000073
1.00000000 0.50787266 0.00000073
1.00000000 0.50787266 0.00000073
0.00000073 0.77936536 0.00000073
0.50787266 0.77936536 0.00000073
0.77936536 0.77936536 0.00000073
1.00000000 0.77936536 0.00000073
1.00000000 0.77936536 0.00000073
0.00000073 1.00000000 0.00000073
0.50787266 1.00000000 0.00000073
0.77936536 1.00000000 0.00000073
1.00000000 1.00000000 0.00000073
1.00000000 1.00000000 0.00000073
0.00000073 1.00000000 0.00000073
0.50787266 1.00000000 0.00000073
0.77936536 1.00000000 0.00000073
1.00000000 1.00000000 0.00000073
1.00000000 1.00000000 0.00000073
0.00000073 0.00000073 0.50787266
0.50787266 0.00000073 0.50787266
0.77936536 0.00000073 0.50787266
1.00000000 0.00000073 0.50787266
1.00000000 0.00000073 0.50787266
0.00000073 0.50787266 0.50787266
0.50787266 0.50787266 0.50787266
0.77936536 0.50787266 0.50787266
1.00000000 0.50787266 0.50787266
1.00000000 0.50787266 0.50787266
0.00000073 0.77936536 0.50787266
0.50787266 0.77936536 0.50787266
0.77936536 0.77936536 0.50787266
1.00000000 0.77936536 0.50787266
1.00000000 0.77936536 0.50787266
0.00000073 1.00000000 0.50787266
0.50787266 1.00000000 0.50787266
0.77936536 1.00000000 0.50787266
1.00000000 1.00000000 0.50787266
1.00000000 1.00000000 0.50787266
0.00000073 1.00000000 0.50787266
0.50787266 1.00000000 0.50787266
0.77936536 1.00000000 0.50787266
1.00000000 1.00000000 0.50787266
1.00000000 1.00000000 0.50787266
0.00000073 0.00000073 0.77936536
0.50787266 0.00000073 0.77936536
0.77936536 0.00000073 0.77936536
1.00000000 0.00000073 0.77936536
1.00000000 0.00000073 0.77936536
0.00000073 0.50787266 0.77936536
0.50787266 0.50787266 0.77936536
0.77936536 0.50787266 0.77936536
1.00000000 0.50787266 0.77936536
1.00000000 0.50787266 0.77936536
0.00000073 0.77936536 0.77936536
0.50787266 0.77936536 0.77936536
0.77936536 0.77936536 0.77936536
1.00000000 0.77936536 0.77936536
1.00000000 0.77936536 0.77936536
0.00000073 1.00000000 0.77936536
0.50787266 1.00000000 0.77936536
0.77936536 1.00000000 0.77936536
1.00000000 1.00000000 0.77936536
1.00000000 1.00000000 0.77936536
0.00000073 1.00000000 0.77936536
0.50787266 1.00000000 0.77936536
0.77936536 1.00000000 0.77936536
1.00000000 1.00000000 0.77936536
1.00000000 1.00000000 0.77936536
0.00000073 0.00000073 1.00000000
0.50787266 0.00000073 1.00000000
0.77936536 0.00000073 1.00000000
1.00000000 0.00000073 1.00000000
1.00000000 0.00000073 1.00000000
0.00000073 0.50787266 1.00000000
0.50787266 0.50787266 1.00000000
0.77936536 0.50787266 1.00000000
1.00000000 0.50787266 1.00000000
1.00000000 0.50787266 1.00000000
0.00000073 0.77936536 1.00000000
0.50787266 0.77936536 1.00000000
0.77936536 0.77936536 1.00000000
1.00000000 0.77936536 1.00000000
1.00000000 0.77936536 1.00000000
0.00000073 1.00000000 1.00000000
0.50787266 1.00000000 1.00000000
0.77936536 1.00000000 1.00000000
1.00000000 1.00000000 1.00000000
1.00000000 1.00000000 1.00000000
0.00000073 1.00000000 1.00000000
0.50787266 1.00000000 1.00000000
0.77936536 1.00000000 1.00000000
1.00000000 1.00000000 1.00000000
1.00000000 1.00000000 1.00000000
0.00000073 0.00000073 1.00000000
0.50787266 0.00000073 1.00000000
0.77936536 0.00000073 1.00000000
1.00000000 0.00000073 1.00000000
1.00000000 0.00000073 1.00000000
0.00000073 0.50787266 1.00000000
0.50787266 0.50787266 1.00000000
0.77936536 0.50787266 1.00000000
1.00000000 0.50787266 1.00000000
1.00000000 0.50787266 1.00000000
0.00000073 0.77936536 1.00000000
0.50787266 0.77936536 1.00000000
0.77936536 0.77936536 1.00000000
1.00000000 0.77936536 1.00000000
1.00000000 0.77936536 1.00000000
0.00000073 1.00000000 1.00000000
0.50787266 1.00000000 1.00000000
0.77936536 1.00000000 1.00000000
1.00000000 1.00000000 1.00000000
1.00000000 1.00000000 1.00000000
0.00000073 1.00000000 1.00000000
0.50787266 1.00000000 1.00000000
0.77936536 1.00000000 1.00000000
1.00000000 1.00000000 1.00000000
1.00000000 1.00000000 1.00000000
