src/ffmpeg_scripts/luts/flog-experimental_1p33.cube
TITLE "flog-experimental_1p33"
LUT_3D_SIZE 9
# Fujifilm F-Log/Rec2020 -> PQ (EOTF Only)/Rec2020, CineEI Shift 1.33, Black Level 0.00% IRE, Input 109% -> Output 100% - Created with LUTCalc v4.01 by Ben Turley October 2020
0.00000073 0.00000073 0.00000073
0.21719753 0.00000073 0.00000073
0.40210215 0.00000073 0.00000073
0.52956952 0.00000073 0.00000073
0.65035087 0.00000073 0.00000073
0.77220018 0.00000073 0.00000073
0.89654267 0.00000073 0.00000073
1.00000000 0.00000073 0.00000073
1.00000000 0.00000073 0.00000073
0.00000073 0.21719753 0.00000073
0.21719753 0.21719753 0.00000073
0.40210215 0.21719753 0.00000073
0.52956952 0.21719753 0.00000073
0.65035087 0.21719753 0.00000073
0.77220018 0.21719753 0.00000073
0.89654267 0.21719753 0.00000073
1.00000000 0.21719753 0.00000073
1.00000000 0.21719753 0.00000073
0.00000073 0.40210215 0.00000073
0.21719753 0.40210215 0.00000073
0.40210215 0.40210215 0.00000073
0.52956952 0.40210215 0.00000073
0.65035087 0.40210215 0.00000073
0.77220018 0.40210215 0.00000073
0.89654267 0.40210215 0.00000073
1.00000000 0.40210215 0.00000073
1.00000000 0.40210215 0.00000073
0.00000073 0.52956952 0.00000073
0.21719753 0.52956952 0.00000073
0.40210215 0.52956952 0.00000073
0.52956952 0.52956952 0.00000073
0.65035087 0.52956952 0.00000073
0.77220018 0.52956952 0.00000073
0.89654267 0.52956952 0.00000073
1.00000000 0.52956952 0.00000073
1.00000000 0.52956952 0.00000073
0.00000073 0.65035087 0.00000073
0.21719753 0.65035087 0.00000073
0.40210215 0.65035087 0.00000073
0.52956952 0.65035087 0.00000073
0.65035087 0.65035087 0.00000073
0.77220018 0.65035087 0.00000073
0.89654267 0.65035087 0.00000073
1.00000000 0.65035087 0.00000073
1.00000000 0.65035087 0.00000073
0.00000073 0.77220018 0.00000073
0.21719753 0.77220018 0.00000073
0.40210215 0.77220018 0.00000073
0.52956952 0.77220018 0.00000073
0.65035087 0.77220018 0.00000073
0.77220018 0.77220018 0.00000073
0.89654267 0.77220018 0.00000073
1.00000000 0.77220018 0.00000073
1.00000000 0.77220018 0.00000073
0.00000073 0.89654267 0.00000073
0.21719753 0.89654267 0.00000073
0.40210215 0.89654267 0.00000073
0.52956952 0.89654267 0.00000073
0.65035087 0.89654267 0.00000073
0.77220018 0.89654267 0.00000073
0.89654267 0.89654267 0.00000073
1.00000000 0.89654267 0.00000073
1.00000000 0.89654267 0.00000073
0.00000073 1.00000000 0.00000073
0.21719753 1.00000000 0.00000073
0.40210215 1.00000000 0.00000073
0.52956952 1.00000000 0.00000073
0.65035087 1.00000000 0.00000073
0.77220018 1.00000000 0.00000073
0.89654267 1.00000000 0.00000073
1.00000000 1.00000000 0.00000073
1.00000000 1.00000000 0.00000073
0.00000073 1.00000000 0.00000073
0.21719753 1.00000000 0.00000073
0.40210215 1.00000000 0.00000073
0.52956952 1.00000000 0.00000073
0.65035087 1.00000000 0.00000073
0.77220018 1.00000000 0.00000073
0.89654267 1.00000000 0.00000073
1.00000000 1.00000000 0.00000073
1.00000000 1.00000000 0.00000073
0.00000073 0.00000073 0.21719753
0.21719753 0.00000073 0.21719753
0.40210215 0.00000073 0.21719753
0.52956952 0.00000073 0.21719753
0.65035087 0.00000073 0.21719753
0.77220018 0.00000073 0.21719753
0.89654267 0.00000073 0.21719753
1.00000000 0.00000073 0.21719753
1.00000000 0.00000073 0.21719753
0.00000073 0.21719753 0.21719753
0.21719753 0.21719753 0.21719753
0.40210215 0.21719753 0.21719753
0.52956952 0.21719753 0.21719753
0.65035087 0.21719753 0.21719753
0.77220018 0.21719753 0.21719753
0.89654267 0.21719753 0.21719753
1.00000000 0.21719753 0.21719753
1.00000000 0.21719753 0.21719753
0.00000073 0.40210215 0.21719753
0.21719753 0.40210215 0.21719753
0.40210215 0.40210215 0.21719753
0.52956952 0.40210215 0.21719753
0.65035087 0.40210215 0.21719753
0.77220018 0.40210215 0.21719753
0.89654267 0.40210215 0.21719753
1.00000000 0.40210215 0.21719753
1.00000000 0.40210215 0.21719753
0.00000073 0.52956952 0.21719753
0.21719753 0.52956952 0.21719753
0.40210215 0.52956952 0.21719753
0.52956952 0.52956952 0.21719753
0.65035087 0.52956952 0.21719753
0.77220018 0.52956952 0.21719753
0.89654267 0.52956952 0.21719753
1.00000000 0.52956952 0.21719753
1.00000000 0.52956952 0.21719753
0.00000073 0.65035087 0.21719753
0.21719753 0.65035087 0.21719753
0.40210215 0.65035087 0.21719753
0.52956952 0.65035087 0.21719753
0.65035087 0.65035087 0.21719753
0.77220018 0.65035087 0.21719753
0.89654267 0.65035087 0.21719753
1.00000000 0.65035087 0.21719753
1.00000000 0.65035087 0.21719753
0.00000073 0.77220018 0.21719753
0.21719753 0.77220018 0.21719753
0.40210215 0.77220018 0.21719753
0.52956952 0.77220018 0.21719753
0.65035087 0.77220018 0.21719753
0.77220018 0.77220018 0.21719753
0.89654267 0.77220018 0.21719753
1.00000000 0.77220018 0.21719753
1.00000000 0.77220018 0.21719753
0.00000073 0.89654267 0.21719753
0.21719753 0.89654267 0.21719753
0.40210215 0.89654267 0.21719753
0.52956952 0.89654267 0.21719753
0.65035087 0.89654267 0.21719753
0.77220018 0.89654267 0.21719753
0.89654267 0.89654267 0.21719753
1.00000000 0.89654267 0.21719753
1.00000000 0.89654267 0.21719753
0.00000073 1.00000000 0.21719753
0.21719753 1.00000000 0.21719753
0.40210215 1.00000000 0.21719753
0.52956952 1.00000000 0.21719753
0.65035087 1.00000000 0.21719753
0.77220018 1.00000000 0.21719753
0.89654267 1.00000000 0.21719753
1.00000000 1.00000000 0.21719753
1.00000000 1.00000000 0.21719753
0.00000073 1.00000000 0.21719753
0.21719753 1.00000000 0.21719753
0.40210215 1.00000000 0.21719753
0.52956952 1.00000000 0.21719753
0.65035087 1.00000000 0.21719753
0.77220018 1.00000000 0.21719753
0.89654267 1.00000000 0.21719753
1.00000000 1.00000000 0.21719753
1.00000000 1.00000000 0.21719753
0.00000073 0.00000073 0.40210215
0.21719753 0.00000073 0.40210215
0.40210215 0.00000073 0.40210215
0.52956952 0.00000073 0.40210215
0.65035087 0.00000073 0.40210215
0.77220018 0.00000073 0.40210215
0.89654267 0.00000073 0.40210215
1.00000000 0.00000073 0.40210215
1.00000000 0.00000073 0.40210215
0.00000073 0.21719753 0.40210215
0.21719753 0.21719753 0.40210215
0.40210215 0.21719753 0.40210215
0.52956952 0.21719753 0.40210215
0.65035087 0.21719753 0.40210215
0.77220018 0.21719753 0.40210215
0.89654267 0.21719753 0.40210215
1.00000000 0.21719753 0.40210215
1.00000000 0.21719753 0.40210215
0.00000073 0.40210215 0.40210215
0.21719753 0.40210215 0.40210215
0.40210215 0.40210215 0.40210215
0.52956952 0.40210215 0.40210215
0.65035087 0.40210215 0.40210215
0.77220018 0.40210215 0.40210215
0.89654267 0.40210215 0.40210215
1.00000000 0.40210215 0.40210215
1.00000000 0.40210215 0.40210215
0.00000073 0.52956952 0.40210215
0.21719753 0.52956952 0.40210215
0.40210215 0.52956952 0.40210215
0.52956952 0.52956952 0.40210215
0.65035087 0.52956952 0.40210215
0.77220018 0.52956952 0.40210215
0.89654267 0.52956952 0.40210215
1.00000000 0.52956952 0.40210215
1.00000000 0.52956952 0.40210215
0.00000073 0.65035087 0.40210215
0.21719753 0.65035087 0.40210215
0.40210215 0.65035087 0.40210215
0.52956952 0.65035087 0.40210215
0.65035087 0.65035087 0.40210215
0.77220018 0.65035087 0.40210215
0.89654267 0.65035087 0.40210215
1.00000000 0.65035087 0.40210215
1.00000000 0.65035087 0.40210215
0.00000073 0.77220018 0.40210215
0.21719753 0.77220018 0.40210215
0.40210215 0.77220018 0.40210215
0.52956952 0.77220018 0.40210215
0.65035087 0.77220018 0.40210215
0.77220018 0.77220018 0.40210215
0.89654267 0.77220018 0.40210215
1.00000000 0.77220018 0.40210215
1.00000000 0.77220018 0.40210215
0.00000073 0.89654267 0.40210215
0.21719753 0.89654267 0.40210215
0.40210215 0.89654267 0.40210215
0.52956952 0.89654267 0.40210215
0.65035087 0.89654267 0.40210215
0.77220018 0.89654267 0.40210215
0.89654267 0.89654267 0.40210215
1.00000000 0.89654267 0.40210215
1.00000000 0.89654267 0.40210215
0.00000073 1.00000000 0.40210215
0.21719753 1.00000000 0.40210215
0.40210215 1.00000000 0.40210215
0.52956952 1.00000000 0.40210215
0.65035087 1.00000000 0.40210215
0.77220018 1.00000000 0.40210215
0.89654267 1.00000000 0.40210215
1.00000000 1.00000000 0.40210215
1.00000000 1.00000000 0.40210215
0.00000073 1.00000000 0.40210215
0.21719753 1.00000000 0.40210215
0.40210215 1.00000000 0.40210215
0.52956952 1.00000000 0.40210215
0.65035087 1.00000000 0.40210215
0.77220018 1.00000000 0.40210215
0.89654267 1.00000000 0.40210215
1.00000000 1.00000000 0.40210215
1.00000000 1.00000000 0.40210215
0.00000073 0.00000073 0.52956952
0.21719753 0.00000073 0.52956952
0.40210215 0.00000073 0.52956952
0.52956952 0.00000073 0.52956952
0.65035087 0.00000073 0.52956952
0.77220018 0.00000073 0.52956952
0.89654267 0.00000073 0.52956952
1.00000000 0.00000073 0.52956952
1.00000000 0.00000073 0.52956952
0.00000073 0.21719753 0.52956952
0.21719753 0.21719753 0.52956952
0.40210215 0.21719753 0.52956952
0.52956952 0.21719753 0.52956952
0.65035087 0.21719753 0.52956952
0.77220018 0.21719753 0.52956952
0.89654267 0.21719753 0.52956952
1.00000000 0.21719753 0.52956952
1.00000000 0.21719753 0.52956952
0.00000073 0.40210215 0.52956952
0.21719753 0.40210215 0.52956952
0.40210215 0.40210215 0.52956952
0.52956952 0.40210215 0.52956952
0.65035087 0.40210215 0.52956952
0.77220018 0.40210215 0.52956952
0.89654267 0.40210215 0.52956952
1.00000000 0.40210215 0.52956952
1.00000000 0.40210215 0.52956952
0.00000073 0.52956952 0.52956952
0.21719753 0.52956952 0.52956952
0.40210215 0.52956952 0.52956952
0.52956952 0.52956952 0.52956952
0.65035087 0.52956952 0.52956952
0.77220018 0.52956952 0.52956952
0.89654267 0.52956952 0.52956952
1.00000000 0.52956952 0.52956952
1.00000000 0.52956952 0.52956952
0.00000073 0.65035087 0.52956952
0.21719753 0.65035087 0.52956952
0.40210215 0.65035087 0.52956952
0.52956952 0.65035087 0.52956952
0.65035087 0.65035087 0.52956952
0.77220018 0.65035087 0.52956952
0.89654267 0.65035087 0.52956952
1.00000000 0.65035087 0.52956952
1.00000000 0.65035087 0.52956952
0.00000073 0.77220018 0.52956952
0.21719753 0.77220018 0.52956952
0.40210215 0.77220018 0.52956952
0.52956952 0.77220018 0.52956952
0.65035087 0.77220018 0.52956952
0.77220018 0.77220018 0.52956952
0.89654267 0.77220018 0.52956952
1.00000000 0.77220018 0.52956952
1.00000000 0.77220018 0.52956952
0.00000073 0.89654267 0.52956952
0.21719753 0.89654267 0.52956952
0.40210215 0.89654267 0.52956952
0.52956952 0.89654267 0.52956952
0.65035087 0.89654267 0.52956952
0.77220018 0.89654267 0.52956952
0.89654267 0.89654267 0.52956952
1.00000000 0.89654267 0.52956952
1.00000000 0.89654267 0.52956952
0.00000073 1.00000000 0.52956952
0.21719753 1.00000000 0.52956952
0.40210215 1.00000000 0.52956952
0.52956952 1.00000000 0.52956952
0.65035087 1.00000000 0.52956952
0.77220018 1.00000000 0.52956952
0.89654267 1.00000000 0.52956952
1.00000000 1.00000000 0.52956952
1.00000000 1.00000000 0.52956952
0.00000073 1.00000000 0.52956952
0.21719753 1.00000000 0.52956952
0.40210215 1.00000000 0.52956952
0.52956952 1.00000000 0.52956952
0.65035087 1.00000000 0.52956952
0.77220018 1.00000000 0.52956952
0.89654267 1.00000000 0.52956952
1.00000000 1.00000000 0.52956952
1.00000000 1.00000000 0.52956952
0.00000073 0.00000073 0.65035087
0.21719753 0.00000073 0.65035087
0.40210215 0.00000073 0.65035087
0.52956952 0.00000073 0.65035087
0.65035087 0.00000073 0.65035087
0.77220018 0.00000073 0.65035087
0.89654267 0.00000073 0.65035087
1.00000000 0.00000073 0.65035087
1.00000000 0.00000073 0.65035087
0.00000073 0.21719753 0.65035087
0.21719753 0.21719753 0.65035087
0.40210215 0.21719753 0.65035087
0.52956952 0.21719753 0.65035087
0.65035087 0.21719753 0.65035087
0.77220018 0.21719753 0.65035087
0.89654267 0.21719753 0.65035087
1.00000000 0.21719753 0.65035087
1.00000000 0.21719753 0.65035087
0.00000073 0.40210215 0.65035087
0.21719753 0.40210215 0.65035087
0.40210215 0.40210215 0.65035087
0.52956952 0.40210215 0.65035087
0.65035087 0.40210215 0.65035087
0.77220018 0.40210215 0.65035087
0.89654267 0.40210215 0.65035087
1.00000000 0.40210215 0.65035087
1.00000000 0.40210215 0.65035087
0.00000073 0.52956952 0.65035087
0.21719753 0.52956952 0.65035087
0.40210215 0.52956952 0.65035087
0.52956952 0.52956952 0.65035087
0.65035087 0.52956952 0.65035087
0.77220018 0.52956952 0.65035087
0.89654267 0.52956952 0.65035087
1.00000000 0.52956952 0.65035087
1.00000000 0.52956952 0.65035087
0.00000073 0.65035087 0.65035087
0.21719753 0.65035087 0.65035087
0.40210215 0.65035087 0.65035087
0.52956952 0.65035087 0.65035087
0.65035087 0.65035087 0.65035087
0.77220018 0.65035087 0.65035087
0.89654267 0.65035087 0.65035087
1.00000000 0.65035087 0.65035087
1.00000000 0.65035087 0.65035087
0.00000073 0.77220018 0.65035087
0.21719753 0.77220018 0.65035087
0.40210215 0.77220018 0.65035087
0.52956952 0.77220018 0.65035087
0.65035087 0.77220018 0.65035087
0.77220018 0.77220018 0.65035087
0.89654267 0.77220018 0.65035087
1.00000000 0.77220018 0.65035087
1.00000000 0.77220018 0.65035087
0.00000073 0.89654267 0.65035087
0.21719753 0.89654267 0.65035087
0.40210215 0.89654267 0.65035087
0.52956952 0.89654267 0.65035087
0.65035087 0.89654267 0.65035087
0.77220018 0.89654267 0.65035087
0.89654267 0.89654267 0.65035087
1.00000000 0.89654267 0.65035087
1.00000000 0.89654267 0.65035087
0.00000073 1.00000000 0.65035087
0.21719753 1.00000000 0.65035087
0.40210215 1.00000000 0.65035087
0.52956952 1.00000000 0.65035087
0.65035087 1.00000000 0.65035087
0.77220018 1.00000000 0.65035087
0.89654267 1.00000000 0.65035087
1.00000000 1.00000000 0.65035087
1.00000000 1.00000000 0.65035087
0.00000073 1.00000000 0.65035087
0.21719753 1.00000000 0.65035087
0.40210215 1.00000000 0.65035087
0.52956952 1.00000000 0.65035087
0.65035087 1.00000000 0.65035087
0.77220018 1.00000000 0.65035087
0.89654267 1.00000000 0.65035087
1.00000000 1.00000000 0.65035087
1.00000000 1.00000000 0.65035087
0.00000073 0.00000073 0.77220018
0.21719753 0.00000073 0.77220018
0.40210215 0.00000073 0.77220018
0.52956952 0.00000073 0.77220018
0.65035087 0.00000073 0.77220018
0.77220018 0.00000073 0.77220018
0.89654267 0.00000073 0.77220018
1.00000000 0.00000073 0.77220018
1.00000000 0.00000073 0.77220018
0.00000073 0.21719753 0.77220018
0.21719753 0.21719753 0.77220018
0.40210215 0.21719753 0.77220018
0.52956952 0.21719753 0.77220018
0.65035087 0.21719753 0.77220018
0.77220018 0.21719753 0.77220018
0.89654267 0.21719753 0.77220018
1.00000000 0.21719753 0.77220018
1.00000000 0.21719753 0.77220018
0.00000073 0.40210215 0.77220018
0.21719753 0.40210215 0.77220018
0.40210215 0.40210215 0.77220018
0.52956952 0.40210215 0.77220018
0.65035087 0.40210215 0.77220018
0.77220018 0.40210215 0.77220018
0.89654267 0.40210215 0.77220018
1.00000000 0.40210215 0.77220018
1.00000000 0.40210215 0.77220018
0.00000073 0.52956952 0.77220018
0.21719753 0.52956952 0.77220018
0.40210215 0.52956952 0.77220018
0.52956952 0.52956952 0.77220018
0.65035087 0.52956952 0.77220018
0.77220018 0.52956952 0.77220018
0.89654267 0.52956952 0.77220018
1.00000000 0.52956952 0.77220018
1.00000000 0.52956952 0.77220018
0.00000073 0.65035087 0.77220018
0.21719753 0.65035087 0.77220018
0.40210215 0.65035087 0.77220018
0.52956952 0.65035087 0.77220018
0.65035087 0.65035087 0.77220018
0.77220018 0.65035087 0.77220018
0.89654267 0.65035087 0.77220018
1.00000000 0.65035087 0.77220018
1.00000000 0.65035087 0.77220018
0.00000073 0.77220018 0.77220018
0.21719753 0.77220018 0.77220018
0.40210215 0.77220018 0.77220018
0.52956952 0.77220018 0.77220018
0.65035087 0.77220018 0.77220018
0.77220018 0.77220018 0.77220018
0.89654267 0.77220018 0.77220018
1.00000000 0.77220018 0.77220018
1.00000000 0.77220018 0.77220018
0.00000073 0.89654267 0.77220018
0.21719753 0.89654267 0.77220018
0.40210215 0.89654267 0.77220018
0.52956952 0.89654267 0.77220018
0.65035087 0.89654267 0.77220018
0.77220018 0.89654267 0.77220018
0.89654267 0.89654267 0.77220018
1.00000000 0.89654267 0.77220018
1.00000000 0.89654267 0.77220018
0.00000073 1.00000000 0.77220018
0.21719753 1.00000000 0.77220018
0.40210215 1.00000000 0.77220018
0.52956952 1.00000000 0.77220018
0.65035087 1.00000000 0.77220018
0.77220018 1.00000000 0.77220018
0.89654267 1.00000000 0.77220018
1.00000000 1.00000000 0.77220018
1.00000000 1.00000000 0.77220018
0.00000073 1.00000000 0.77220018
0.21719753 1.00000000 0.77220018
0.40210215 1.00000000 0.77220018
0.52956952 1.00000000 0.77220018
0.65035087 1.00000000 0.77220018
0.77220018 1.00000000 0.77220018
0.89654267 1.00000000 0.77220018
1.00000000 1.00000000 0.77220018
1.00000000 1.00000000 0.77220018
0.00000073 0.00000073 0.89654267
0.21719753 0.00000073 0.89654267
0.40210215 0.00000073 0.89654267
0.52956952 0.00000073 0.89654267
0.65035087 0.00000073 0.89654267
0.77220018 0.00000073 0.89654267
0.89654267 0.00000073 0.89654267
1.00000000 0.00000073 0.89654267
1.00000000 0.00000073 0.89654267
0.00000073 0.21719753 0.89654267
0.21719753 0.21719753 0.89654267
0.40210215 0.21719753 0.89654267
0.52956952 0.21719753 0.89654267
0.65035087 0.21719753 0.89654267
0.77220018 0.21719753 0.89654267
0.89654267 0.21719753 0.89654267
1.00000000 0.21719753 0.89654267
1.00000000 0.21719753 0.89654267
0.00000073 0.40210215 0.89654267
0.21719753 0.40210215 0.89654267
0.40210215 0.40210215 0.89654267
0.52956952 0.40210215 0.89654267
0.65035087 0.40210215 0.89654267
0.77220018 0.40210215 0.89654267
0.89654267 0.40210215 0.89654267
1.00000000 0.40210215 0.89654267
1.00000000 0.40210215 0.89654267
0.00000073 0.52956952 0.89654267
0.21719753 0.52956952 0.89654267
0.40210215 0.52956952 0.89654267
0.52956952 0.52956952 0.89654267
0.65035087 0.52956952 0.89654267
0.77220018 0.52956952 0.89654267
0.89654267 0.52956952 0.89654267
1.00000000 0.52956952 0.89654267
1.00000000 0.52956952 0.89654267
0.00000073 0.65035087 0.89654267
0.21719753 0.65035087 0.89654267
0.40210215 0.65035087 0.89654267
0.52956952 0.65035087 0.89654267
0.65035087 0.65035087 0.89654267
0.77220018 0.65035087 0.89654267
0.89654267 0.65035087 0.89654267
1.00000000 0.65035087 0.89654267
1.00000000 0.65035087 0.89654267
0.00000073 0.77220018 0.89654267
0.21719753 0.77220018 0.89654267
0.40210215 0.77220018 0.89654267
0.52956952 0.77220018 0.89654267
0.65035087 0.77220018 0.89654267
0.77220018 0.77220018 0.89654267
0.89654267 0.77220018 0.89654267
1.00000000 0.77220018 0.89654267
1.00000000 0.77220018 0.89654267
0.00000073 0.89654267 0.89654267
0.21719753 0.89654267 0.89654267
0.40210215 0.89654267 0.89654267
0.52956952 0.89654267 0.89654267
0.65035087 0.89654267 0.89654267
0.77220018 0.89654267 0.89654267
0.89654267 0.89654267 0.89654267
1.00000000 0.89654267 0.89654267
1.00000000 0.89654267 0.89654267
0.00000073 1.00000000 0.89654267
0.21719753 1.00000000 0.89654267
0.40210215 1.00000000 0.89654267
0.52956952 1.00000000 0.89654267
0.65035087 1.00000000 0.89654267
0.77220018 1.00000000 0.89654267
0.89654267 1.00000000 0.89654267
1.00000000 1.00000000 0.89654267
1.00000000 1.00000000 0.89654267
0.00000073 1.00000000 0.89654267
0.21719753 1.00000000 0.89654267
0.40210215 1.00000000 0.89654267
0.52956952 1.00000000 0.89654267
0.65035087 1.00000000 0.89654267
0.77220018 1.00000000 0.89654267
0.89654267 1.00000000 0.89654267
1.00000000 1.00000000 0.89654267
1.00000000 1.00000000 0.89654267
0.00000073 0.00000073 1.00000000
0.21719753 0.00000073 1.00000000
0.40210215 0.00000073 1.00000000
0.52956952 0.00000073 1.00000000
0.65035087 0.00000073 1.00000000
0.77220018 0.00000073 1.00000000
0.89654267 0.00000073 1.00000000
1.00000000 0.00000073 1.00000000
1.00000000 0.00000073 1.00000000
0.00000073 0.21719753 1.00000000
0.21719753 0.21719753 1.00000000
0.40210215 0.21719753 1.00000000
0.52956952 0.21719753 1.00000000
0.65035087 0.21719753 1.00000000
0.77220018 0.21719753 1.00000000
0.89654267 0.21719753 1.00000000
1.00000000 0.21719753 1.00000000
1.00000000 0.21719753 1.00000000
0.00000073 0.40210215 1.00000000
0.21719753 0.40210215 1.00000000
0.40210215 0.40210215 1.00000000
0.52956952 0.40210215 1.00000000
0.65035087 0.40210215 1.00000000
0.77220018 0.40210215 1.00000000
0.89654267 0.40210215 1.00000000
1.00000000 0.40210215 1.00000000
1.00000000 0.40210215 1.00000000
0.00000073 0.52956952 1.00000000
0.21719753 0.52956952 1.00000000
0.40210215 0.52956952 1.00000000
0.52956952 0.52956952 1.00000000
0.65035087 0.52956952 1.00000000
0.77220018 0.52956952 1.00000000
0.89654267 0.52956952 1.00000000
1.00000000 0.52956952 1.00000000
1.00000000 0.52956952 1.00000000
0.00000073 0.65035087 1.00000000
0.21719753 0.65035087 1.00000000
0.40210215 0.65035087 1.00000000
0.52956952 0.65035087 1.00000000
0.65035087 0.65035087 1.00000000
0.77220018 0.65035087 1.00000000
0.89654267 0.65035087 1.00000000
1.00000000 0.65035087 1.00000000
1.00000000 0.65035087 1.00000000
0.00000073 0.77220018 1.00000000
0.21719753 0.77220018 1.00000000
0.40210215 0.77220018 1.00000000
0.52956952 0.77220018 1.00000000
0.65035087 0.77220018 1.00000000
0.77220018 0.77220018 1.00000000
0.89654267 0.77220018 1.00000000
1.00000000 0.77220018 1.00000000
1.00000000 0.77220018 1.00000000
0.00000073 0.89654267 1.00000000
0.21719753 0.89654267 1.00000000
0.40210215 0.89654267 1.00000000
0.52956952 0.89654267 1.00000000
0.65035087 0.89654267 1.00000000
0.77220018 0.89654267 1.00000000
0.89654267 0.89654267 1.00000000
1.00000000 0.89654267 1.00000000
1.00000000 0.89654267 1.00000000
0.00000073 1.00000000 1.00000000
0.21719753 1.00000000 1.00000000
0.40210215 1.00000000 1.00000000
0.52956952 1.00000000 1.00000000
0.65035087 1.00000000 1.00000000
0.77220018 1.00000000 1.00000000
0.89654267 1.00000000 1.00000000
1.00000000 1.00000000 1.00000000
1.00000000 1.00000000 1.00000000
0.00000073 1.00000000 1.00000000
0.21719753 1.00000000 1.00000000
0.40210215 1.00000000 1.00000000
0.52956952 1.00000000 1.00000000
0.65035087 1.00000000 1.00000000
0.77220018 1.00000000 1.00000000
0.89654267 1.00000000 1.00000000
1.00000000 1.00000000 1.00000000
1.00000000 1.00000000 1.00000000
0.00000073 0.00000073 1.00000000
0.21719753 0.00000073 1.00000000
0.40210215 0.00000073 1.00000000
0.52956952 0.00000073 1.00000000
0.65035087 0.00000073 1.00000000
0.77220018 0.00000073 1.00000000
0.89654267 0.00000073 1.00000000
1.00000000 0.00000073 1.00000000
1.00000000 0.00000073 1.00000000
0.00000073 0.21719753 1.00000000
0.21719753 0.21719753 1.00000000
0.40210215 0.21719753 1.00000000
0.52956952 0.21719753 1.00000000
0.65035087 0.21719753 1.00000000
0.77220018 0.21719753 1.00000000
0.89654267 0.21719753 1.00000000
1.00000000 0.21719753 1.00000000
1.00000000 0.21719753 1.00000000
0.00000073 0.40210215 1.00000000
0.21719753 0.40210215 1.00000000
0.40210215 0.40210215 1.00000000
0.52956952 0.40210215 1.00000000
0.65035087 0.40210215 1.00000000
0.77220018 0.40210215 1.00000000
0.89654267 0.40210215 1.00000000
1.00000000 0.40210215 1.00000000
1.00000000 0.40210215 1.00000000
0.00000073 0.52956952 1.00000000
0.21719753 0.52956952 1.00000000
0.40210215 0.52956952 1.00000000
0.52956952 0.52956952 1.00000000
0.65035087 0.52956952 1.00000000
0.77220018 0.52956952 1.00000000
0.89654267 0.52956952 1.00000000
1.00000000 0.52956952 1.00000000
1.00000000 0.52956952 1.00000000
0.00000073 0.65035087 1.00000000
0.21719753 0.65035087 1.00000000
0.40210215 0.65035087 1.00000000
0.52956952 0.65035087 1.00000000
0.65035087 0.65035087 1.00000000
0.77220018 0.65035087 1.00000000
0.89654267 0.65035087 1.00000000
1.00000000 0.65035087 1.00000000
1.00000000 0.65035087 1.00000000
0.00000073 0.77220018 1.00000000
0.21719753 0.77220018 1.00000000
0.40210215 0.77220018 1.00000000
0.52956952 0.77220018 1.00000000
0.65035087 0.77220018 1.00000000
0.77220018 0.77220018 1.00000000
0.89654267 0.77220018 1.00000000
1.00000000 0.77220018 1.00000000
1.00000000 0.77220018 1.00000000
0.00000073 0.89654267 1.00000000
0.21719753 0.89654267 1.00000000
0.40210215 0.89654267 1.00000000
0.52956952 0.89654267 1.00000000
0.65035087 0.89654267 1.00000000
0.77220018 0.89654267 1.00000000
0.89654267 0.89654267 1.00000000
1.00000000 0.89654267 1.00000000
1.00000000 0.89654267 1.00000000
0.00000073 1.00000000 1.00000000
0.21719753 1.00000000 1.00000000
0.40210215 1.00000000 1.00000000
0.52956952 1.00000000 1.00000000
0.65035087 1.00000000 1.00000000
0.77220018 1.00000000 1.00000000
0.89654267 1.00000000 1.00000000
1.00000000 1.00000000 1.00000000
1.00000000 1.00000000 1.00000000
0.00000073 1.00000000 1.00000000
0.21719753 1.00000000 1.00000000
0.40210215 1.00000000 1.00000000
0.52956952 1.00000000 1.00000000
0.65035087 1.00000000 1.00000000
0.77220018 1.00000000 1.00000000
0.89654267 1.00000000 1.00000000
1.00000000 1.00000000 1.00000000
1.00000000 1.00000000 1.00000000
