src/ffmpeg_scripts/luts/flog-smpte2084_3p33.cube
TITLE "flog-smpte2084_3p33"
LUT_3D_SIZE 5
# Fujifilm F-Log/Rec2020 -> PQ (EOTF Only)/Rec2020, CineEI Shift 3.33, Black Level 0.00% IRE, Input 109% -> Output 109% - Created with LUTCalc v4.01 by Ben Turley October 2020
0.06256172 0.06256172 0.06256172
0.41196124 0.06256172 0.06256172
0.58566647 0.06256172 0.06256172
0.74543170 0.06256172 0.06256172
0.90050961 0.06256172 0.06256172
0.06256172 0.41196124 0.06256172
0.41196124 0.41196124 0.06256172
0.58566647 0.41196124 0.06256172
0.74543170 0.41196124 0.06256172
0.90050961 0.41196124 0.06256172
0.06256172 0.58566647 0.06256172
0.41196124 0.58566647 0.06256172
0.58566647 0.58566647 0.06256172
0.74543170 0.58566647 0.06256172
0.90050961 0.58566647 0.06256172
0.06256172 0.74543170 0.06256172
0.41196124 0.74543170 0.06256172
0.58566647 0.74543170 0.06256172
0.74543170 0.74543170 0.06256172
0.90050961 0.74543170 0.06256172
0.06256172 0.90050961 0.06256172
0.41196124 0.90050961 0.06256172
0.58566647 0.90050961 0.06256172
0.74543170 0.90050961 0.06256172
0.90050961 0.90050961 0.06256172
0.06256172 0.06256172 0.41196124
0.41196124 0.06256172 0.41196124
0.58566647 0.06256172 0.41196124
0.74543170 0.06256172 0.41196124
0.90050961 0.06256172 0.41196124
0.06256172 0.41196124 0.41196124
0.41196124 0.41196124 0.41196124
0.58566647 0.41196124 0.41196124
0.74543170 0.41196124 0.41196124
0.90050961 0.41196124 0.41196124
0.06256172 0.58566647 0.41196124
0.41196124 0.58566647 0.41196124
0.58566647 0.58566647 0.41196124
0.74543170 0.58566647 0.41196124
0.90050961 0.58566647 0.41196124
0.06256172 0.74543170 0.41196124
0.41196124 0.74543170 0.41196124
0.58566647 0.74543170 0.41196124
0.74543170 0.74543170 0.41196124
0.90050961 0.74543170 0.41196124
0.06256172 0.90050961 0.41196124
0.41196124 0.90050961 0.41196124
0.58566647 0.90050961 0.41196124
0.74543170 0.90050961 0.41196124
0.90050961 0.90050961 0.41196124
0.06256172 0.06256172 0.58566647
0.41196124 0.06256172 0.58566647
0.58566647 0.06256172 0.58566647
0.74543170 0.06256172 0.58566647
0.90050961 0.06256172 0.58566647
0.06256172 0.41196124 0.58566647
0.41196124 0.41196124 0.58566647
0.58566647 0.41196124 0.58566647
0.74543170 0.41196124 0.58566647
0.90050961 0.41196124 0.58566647
0.06256172 0.58566647 0.58566647
0.41196124 0.58566647 0.58566647
0.58566647 0.58566647 0.58566647
0.74543170 0.58566647 0.58566647
0.90050961 0.58566647 0.58566647
0.06256172 0.74543170 0.58566647
0.41196124 0.74543170 0.58566647
0.58566647 0.74543170 0.58566647
0.74543170 0.74543170 0.58566647
0.90050961 0.74543170 0.58566647
0.06256172 0.90050961 0.58566647
0.41196124 0.90050961 0.58566647
0.58566647 0.90050961 0.58566647
0.74543170 0.90050961 0.58566647
0.90050961 0.90050961 0.58566647
0.06256172 0.06256172 0.74543170
0.41196124 0.06256172 0.74543170
0.58566647 0.06256172 0.74543170
0.74543170 0.06256172 0.74543170
0.90050961 0.06256172 0.74543170
0.06256172 0.41196124 0.74543170
0.41196124 0.41196124 0.74543170
0.58566647 0.41196124 0.74543170
0.74543170 0.41196124 0.74543170
0.90050961 0.41196124 0.74543170
0.06256172 0.58566647 0.74543170
0.41196124 0.58566647 0.74543170
0.58566647 0.58566647 0.74543170
0.74543170 0.58566647 0.74543170
0.90050961 0.58566647 0.74543170
0.06256172 0.74543170 0.74543170
0.41196124 0.74543170 0.74543170
0.58566647 0.74543170 0.74543170
0.74543170 0.74543170 0.74543170
0.90050961 0.74543170 0.74543170
0.06256172 0.90050961 0.74543170
0.41196124 0.90050961 0.74543170
0.58566647 0.90050961 0.74543170
0.74543170 0.90050961 0.74543170
0.90050961 0.90050961 0.74543170
0.06256172 0.06256172 0.90050961
0.41196124 0.06256172 0.90050961
0.58566647 0.06256172 0.90050961
0.74543170 0.06256172 0.90050961
0.90050961 0.06256172 0.90050961
0.06256172 0.41196124 0.90050961
0.41196124 0.41196124 0.90050961
0.58566647 0.41196124 0.90050961
0.74543170 0.41196124 0.90050961
0.90050961 0.41196124 0.90050961
0.06256172 0.58566647 0.90050961
0.41196124 0.58566647 0.90050961
0.58566647 0.58566647 0.90050961
0.74543170 0.58566647 0.90050961
0.90050961 0.58566647 0.90050961
0.06256172 0.74543170 0.90050961
0.41196124 0.74543170 0.90050961
0.58566647 0.74543170 0.90050961
0.74543170 0.74543170 0.90050961
0.90050961 0.74543170 0.90050961
0.06256172 0.90050961 0.90050961
0.41196124 0.90050961 0.90050961
0.58566647 0.90050961 0.90050961
0.74543170 0.90050961 0.90050961
0.90050961 0.90050961 0.90050961
