src/ffmpeg_scripts/luts/flog-experimental_-2p33.cube
TITLE "flog-experimental_-2p33"
LUT_3D_SIZE 33
# Fujifilm F-Log/Rec2020 -> PQ (EOTF Only)/Rec2020, CineEI Shift -2.33, Black Level 0.00% IRE, Input 109% -> Output 100% - Created with LUTCalc v4.01 by Ben Turley October 2020
0.00000073 0.00000073 0.00000073
0.00000073 0.00000073 0.00000073
0.00000073 0.00000073 0.00000073
0.01285525 0.00000073 0.00000073
0.08252148 0.00000073 0.00000073
0.11429407 0.00000073 0.00000073
0.13960665 0.00000073 0.00000073
0.16217398 0.00000073 0.00000073
0.18337710 0.00000073 0.00000073
0.20390203 0.00000073 0.00000073
0.22414619 0.00000073 0.00000073
0.24436302 0.00000073 0.00000073
0.26472480 0.00000073 0.00000073
0.28535372 0.00000073 0.00000073
0.30633879 0.00000073 0.00000073
0.32774573 0.00000073 0.00000073
0.34962308 0.00000073 0.00000073
0.37200617 0.00000073 0.00000073
0.39491981 0.00000073 0.00000073
0.41838023 0.00000073 0.00000073
0.44239645 0.00000073 0.00000073
0.46697137 0.00000073 0.00000073
0.49210258 0.00000073 0.00000073
0.51778307 0.00000073 0.00000073
0.54400181 0.00000073 0.00000073
0.57074418 0.00000073 0.00000073
0.59799249 0.00000073 0.00000073
0.62572627 0.00000073 0.00000073
0.65392268 0.00000073 0.00000073
0.68255679 0.00000073 0.00000073
0.71160191 0.00000073 0.00000073
0.74102983 0.00000073 0.00000073
0.77081105 0.00000073 0.00000073
0.00000073 0.00000073 0.00000073
0.00000073 0.00000073 0.00000073
0.00000073 0.00000073 0.00000073
0.01285525 0.00000073 0.00000073
0.08252148 0.00000073 0.00000073
0.11429407 0.00000073 0.00000073
0.13960665 0.00000073 0.00000073
0.16217398 0.00000073 0.00000073
0.18337710 0.00000073 0.00000073
0.20390203 0.00000073 0.00000073
0.22414619 0.00000073 0.00000073
0.24436302 0.00000073 0.00000073
0.26472480 0.00000073 0.00000073
0.28535372 0.00000073 0.00000073
0.30633879 0.00000073 0.00000073
0.32774573 0.00000073 0.00000073
0.34962308 0.00000073 0.00000073
0.37200617 0.00000073 0.00000073
0.39491981 0.00000073 0.00000073
0.41838023 0.00000073 0.00000073
0.44239645 0.00000073 0.00000073
0.46697137 0.00000073 0.00000073
0.49210258 0.00000073 0.00000073
0.51778307 0.00000073 0.00000073
0.54400181 0.00000073 0.00000073
0.57074418 0.00000073 0.00000073
0.59799249 0.00000073 0.00000073
0.62572627 0.00000073 0.00000073
0.65392268 0.00000073 0.00000073
0.68255679 0.00000073 0.00000073
0.71160191 0.00000073 0.00000073
0.74102983 0.00000073 0.00000073
0.77081105 0.00000073 0.00000073
0.00000073 0.00000073 0.00000073
0.00000073 0.00000073 0.00000073
0.00000073 0.00000073 0.00000073
0.01285525 0.00000073 0.00000073
0.08252148 0.00000073 0.00000073
0.11429407 0.00000073 0.00000073
0.13960665 0.00000073 0.00000073
0.16217398 0.00000073 0.00000073
0.18337710 0.00000073 0.00000073
0.20390203 0.00000073 0.00000073
0.22414619 0.00000073 0.00000073
0.24436302 0.00000073 0.00000073
0.26472480 0.00000073 0.00000073
0.28535372 0.00000073 0.00000073
0.30633879 0.00000073 0.00000073
0.32774573 0.00000073 0.00000073
0.34962308 0.00000073 0.00000073
0.37200617 0.00000073 0.00000073
0.39491981 0.00000073 0.00000073
0.41838023 0.00000073 0.00000073
0.44239645 0.00000073 0.00000073
0.46697137 0.00000073 0.00000073
0.49210258 0.00000073 0.00000073
0.51778307 0.00000073 0.00000073
0.54400181 0.00000073 0.00000073
0.57074418 0.00000073 0.00000073
0.59799249 0.00000073 0.00000073
0.62572627 0.00000073 0.00000073
0.65392268 0.00000073 0.00000073
0.68255679 0.00000073 0.00000073
0.71160191 0.00000073 0.00000073
0.74102983 0.00000073 0.00000073
0.77081105 0.00000073 0.00000073
0.00000073 0.01285525 0.00000073
0.00000073 0.01285525 0.00000073
0.00000073 0.01285525 0.00000073
0.01285525 0.01285525 0.00000073
0.08252148 0.01285525 0.00000073
0.11429407 0.01285525 0.00000073
0.13960665 0.01285525 0.00000073
0.16217398 0.01285525 0.00000073
0.18337710 0.01285525 0.00000073
0.20390203 0.01285525 0.00000073
0.22414619 0.01285525 0.00000073
0.24436302 0.01285525 0.00000073
0.26472480 0.01285525 0.00000073
0.28535372 0.01285525 0.00000073
0.30633879 0.01285525 0.00000073
0.32774573 0.01285525 0.00000073
0.34962308 0.01285525 0.00000073
0.37200617 0.01285525 0.00000073
0.39491981 0.01285525 0.00000073
0.41838023 0.01285525 0.00000073
0.44239645 0.01285525 0.00000073
0.46697137 0.01285525 0.00000073
0.49210258 0.01285525 0.00000073
0.51778307 0.01285525 0.00000073
0.54400181 0.01285525 0.00000073
0.57074418 0.01285525 0.00000073
0.59799249 0.01285525 0.00000073
0.62572627 0.01285525 0.00000073
0.65392268 0.01285525 0.00000073
0.68255679 0.01285525 0.00000073
0.71160191 0.01285525 0.00000073
0.74102983 0.01285525 0.00000073
0.77081105 0.01285525 0.00000073
0.00000073 0.08252148 0.00000073
0.00000073 0.08252148 0.00000073
0.00000073 0.08252148 0.00000073
0.01285525 0.08252148 0.00000073
0.08252148 0.08252148 0.00000073
0.11429407 0.08252148 0.00000073
0.13960665 0.08252148 0.00000073
0.16217398 0.08252148 0.00000073
0.18337710 0.08252148 0.00000073
0.20390203 0.08252148 0.00000073
0.22414619 0.08252148 0.00000073
0.24436302 0.08252148 0.00000073
0.26472480 0.08252148 0.00000073
0.28535372 0.08252148 0.00000073
0.30633879 0.08252148 0.00000073
0.32774573 0.08252148 0.00000073
0.34962308 0.08252148 0.00000073
0.37200617 0.08252148 0.00000073
0.39491981 0.08252148 0.00000073
0.41838023 0.08252148 0.00000073
0.44239645 0.08252148 0.00000073
0.46697137 0.08252148 0.00000073
0.49210258 0.08252148 0.00000073
0.51778307 0.08252148 0.00000073
0.54400181 0.08252148 0.00000073
0.57074418 0.08252148 0.00000073
0.59799249 0.08252148 0.00000073
0.62572627 0.08252148 0.00000073
0.65392268 0.08252148 0.00000073
0.68255679 0.08252148 0.00000073
0.71160191 0.08252148 0.00000073
0.74102983 0.08252148 0.00000073
0.77081105 0.08252148 0.00000073
0.00000073 0.11429407 0.00000073
0.00000073 0.11429407 0.00000073
0.00000073 0.11429407 0.00000073
0.01285525 0.11429407 0.00000073
0.08252148 0.11429407 0.00000073
0.11429407 0.11429407 0.00000073
0.13960665 0.11429407 0.00000073
0.16217398 0.11429407 0.00000073
0.18337710 0.11429407 0.00000073
0.20390203 0.11429407 0.00000073
0.22414619 0.11429407 0.00000073
0.24436302 0.11429407 0.00000073
0.26472480 0.11429407 0.00000073
0.28535372 0.11429407 0.00000073
0.30633879 0.11429407 0.00000073
0.32774573 0.11429407 0.00000073
0.34962308 0.11429407 0.00000073
0.37200617 0.11429407 0.00000073
0.39491981 0.11429407 0.00000073
0.41838023 0.11429407 0.00000073
0.44239645 0.11429407 0.00000073
0.46697137 0.11429407 0.00000073
0.49210258 0.11429407 0.00000073
0.51778307 0.11429407 0.00000073
0.54400181 0.11429407 0.00000073
0.57074418 0.11429407 0.00000073
0.59799249 0.11429407 0.00000073
0.62572627 0.11429407 0.00000073
0.65392268 0.11429407 0.00000073
0.68255679 0.11429407 0.00000073
0.71160191 0.11429407 0.00000073
0.74102983 0.11429407 0.00000073
0.77081105 0.11429407 0.00000073
0.00000073 0.13960665 0.00000073
0.00000073 0.13960665 0.00000073
0.00000073 0.13960665 0.00000073
0.01285525 0.13960665 0.00000073
0.08252148 0.13960665 0.00000073
0.11429407 0.13960665 0.00000073
0.13960665 0.13960665 0.00000073
0.16217398 0.13960665 0.00000073
0.18337710 0.13960665 0.00000073
0.20390203 0.13960665 0.00000073
0.22414619 0.13960665 0.00000073
0.24436302 0.13960665 0.00000073
0.26472480 0.13960665 0.00000073
0.28535372 0.13960665 0.00000073
0.30633879 0.13960665 0.00000073
0.32774573 0.13960665 0.00000073
0.34962308 0.13960665 0.00000073
0.37200617 0.13960665 0.00000073
0.39491981 0.13960665 0.00000073
0.41838023 0.13960665 0.00000073
0.44239645 0.13960665 0.00000073
0.46697137 0.13960665 0.00000073
0.49210258 0.13960665 0.00000073
0.51778307 0.13960665 0.00000073
0.54400181 0.13960665 0.00000073
0.57074418 0.13960665 0.00000073
0.59799249 0.13960665 0.00000073
0.62572627 0.13960665 0.00000073
0.65392268 0.13960665 0.00000073
0.68255679 0.13960665 0.00000073
0.71160191 0.13960665 0.00000073
0.74102983 0.13960665 0.00000073
0.77081105 0.13960665 0.00000073
0.00000073 0.16217398 0.00000073
0.00000073 0.16217398 0.00000073
0.00000073 0.16217398 0.00000073
0.01285525 0.16217398 0.00000073
0.08252148 0.16217398 0.00000073
0.11429407 0.16217398 0.00000073
0.13960665 0.16217398 0.00000073
0.16217398 0.16217398 0.00000073
0.18337710 0.16217398 0.00000073
0.20390203 0.16217398 0.00000073
0.22414619 0.16217398 0.00000073
0.24436302 0.16217398 0.00000073
0.26472480 0.16217398 0.00000073
0.28535372 0.16217398 0.00000073
0.30633879 0.16217398 0.00000073
0.32774573 0.16217398 0.00000073
0.34962308 0.16217398 0.00000073
0.37200617 0.16217398 0.00000073
0.39491981 0.16217398 0.00000073
0.41838023 0.16217398 0.00000073
0.44239645 0.16217398 0.00000073
0.46697137 0.16217398 0.00000073
0.49210258 0.16217398 0.00000073
0.51778307 0.16217398 0.00000073
0.54400181 0.16217398 0.00000073
0.57074418 0.16217398 0.00000073
0.59799249 0.16217398 0.00000073
0.62572627 0.16217398 0.00000073
0.65392268 0.16217398 0.00000073
0.68255679 0.16217398 0.00000073
0.71160191 0.16217398 0.00000073
0.74102983 0.16217398 0.00000073
0.77081105 0.16217398 0.00000073
0.00000073 0.18337710 0.00000073
0.00000073 0.18337710 0.00000073
0.00000073 0.18337710 0.00000073
0.01285525 0.18337710 0.00000073
0.08252148 0.18337710 0.00000073
0.11429407 0.18337710 0.00000073
0.13960665 0.18337710 0.00000073
0.16217398 0.18337710 0.00000073
0.18337710 0.18337710 0.00000073
0.20390203 0.18337710 0.00000073
0.22414619 0.18337710 0.00000073
0.24436302 0.18337710 0.00000073
0.26472480 0.18337710 0.00000073
0.28535372 0.18337710 0.00000073
0.30633879 0.18337710 0.00000073
0.32774573 0.18337710 0.00000073
0.34962308 0.18337710 0.00000073
0.37200617 0.18337710 0.00000073
0.39491981 0.18337710 0.00000073
0.41838023 0.18337710 0.00000073
0.44239645 0.18337710 0.00000073
0.46697137 0.18337710 0.00000073
0.49210258 0.18337710 0.00000073
0.51778307 0.18337710 0.00000073
0.54400181 0.18337710 0.00000073
0.57074418 0.18337710 0.00000073
0.59799249 0.18337710 0.00000073
0.62572627 0.18337710 0.00000073
0.65392268 0.18337710 0.00000073
0.68255679 0.18337710 0.00000073
0.71160191 0.18337710 0.00000073
0.74102983 0.18337710 0.00000073
0.77081105 0.18337710 0.00000073
0.00000073 0.20390203 0.00000073
0.00000073 0.20390203 0.00000073
0.00000073 0.20390203 0.00000073
0.01285525 0.20390203 0.00000073
0.08252148 0.20390203 0.00000073
0.11429407 0.20390203 0.00000073
0.13960665 0.20390203 0.00000073
0.16217398 0.20390203 0.00000073
0.18337710 0.20390203 0.00000073
0.20390203 0.20390203 0.00000073
0.22414619 0.20390203 0.00000073
0.24436302 0.20390203 0.00000073
0.26472480 0.20390203 0.00000073
0.28535372 0.20390203 0.00000073
0.30633879 0.20390203 0.00000073
0.32774573 0.20390203 0.00000073
0.34962308 0.20390203 0.00000073
0.37200617 0.20390203 0.00000073
0.39491981 0.20390203 0.00000073
0.41838023 0.20390203 0.00000073
0.44239645 0.20390203 0.00000073
0.46697137 0.20390203 0.00000073
0.49210258 0.20390203 0.00000073
0.51778307 0.20390203 0.00000073
0.54400181 0.20390203 0.00000073
0.57074418 0.20390203 0.00000073
0.59799249 0.20390203 0.00000073
0.62572627 0.20390203 0.00000073
0.65392268 0.20390203 0.00000073
0.68255679 0.20390203 0.00000073
0.71160191 0.20390203 0.00000073
0.74102983 0.20390203 0.00000073
0.77081105 0.20390203 0.00000073
0.00000073 0.22414619 0.00000073
0.00000073 0.22414619 0.00000073
0.00000073 0.22414619 0.00000073
0.01285525 0.22414619 0.00000073
0.08252148 0.22414619 0.00000073
0.11429407 0.22414619 0.00000073
0.13960665 0.22414619 0.00000073
0.16217398 0.22414619 0.00000073
0.18337710 0.22414619 0.00000073
0.20390203 0.22414619 0.00000073
0.22414619 0.22414619 0.00000073
0.24436302 0.22414619 0.00000073
0.26472480 0.22414619 0.00000073
0.28535372 0.22414619 0.00000073
0.30633879 0.22414619 0.00000073
0.32774573 0.22414619 0.00000073
0.34962308 0.22414619 0.00000073
0.37200617 0.22414619 0.00000073
0.39491981 0.22414619 0.00000073
0.41838023 0.22414619 0.00000073
0.44239645 0.22414619 0.00000073
0.46697137 0.22414619 0.00000073
0.49210258 0.22414619 0.00000073
0.51778307 0.22414619 0.00000073
0.54400181 0.22414619 0.00000073
0.57074418 0.22414619 0.00000073
0.59799249 0.22414619 0.00000073
0.62572627 0.22414619 0.00000073
0.65392268 0.22414619 0.00000073
0.68255679 0.22414619 0.00000073
0.71160191 0.22414619 0.00000073
0.74102983 0.22414619 0.00000073
0.77081105 0.22414619 0.00000073
0.00000073 0.24436302 0.00000073
0.00000073 0.24436302 0.00000073
0.00000073 0.24436302 0.00000073
0.01285525 0.24436302 0.00000073
0.08252148 0.24436302 0.00000073
0.11429407 0.24436302 0.00000073
0.13960665 0.24436302 0.00000073
0.16217398 0.24436302 0.00000073
0.18337710 0.24436302 0.00000073
0.20390203 0.24436302 0.00000073
0.22414619 0.24436302 0.00000073
0.24436302 0.24436302 0.00000073
0.26472480 0.24436302 0.00000073
0.28535372 0.24436302 0.00000073
0.30633879 0.24436302 0.00000073
0.32774573 0.24436302 0.00000073
0.34962308 0.24436302 0.00000073
0.37200617 0.24436302 0.00000073
0.39491981 0.24436302 0.00000073
0.41838023 0.24436302 0.00000073
0.44239645 0.24436302 0.00000073
0.46697137 0.24436302 0.00000073
0.49210258 0.24436302 0.00000073
0.51778307 0.24436302 0.00000073
0.54400181 0.24436302 0.00000073
0.57074418 0.24436302 0.00000073
0.59799249 0.24436302 0.00000073
0.62572627 0.24436302 0.00000073
0.65392268 0.24436302 0.00000073
0.68255679 0.24436302 0.00000073
0.71160191 0.24436302 0.00000073
0.74102983 0.24436302 0.00000073
0.77081105 0.24436302 0.00000073
0.00000073 0.26472480 0.00000073
0.00000073 0.26472480 0.00000073
0.00000073 0.26472480 0.00000073
0.01285525 0.26472480 0.00000073
0.08252148 0.26472480 0.00000073
0.11429407 0.26472480 0.00000073
0.13960665 0.26472480 0.00000073
0.16217398 0.26472480 0.00000073
0.18337710 0.26472480 0.00000073
0.20390203 0.26472480 0.00000073
0.22414619 0.26472480 0.00000073
0.24436302 0.26472480 0.00000073
0.26472480 0.26472480 0.00000073
0.28535372 0.26472480 0.00000073
0.30633879 0.26472480 0.00000073
0.32774573 0.26472480 0.00000073
0.34962308 0.26472480 0.00000073
0.37200617 0.26472480 0.00000073
0.39491981 0.26472480 0.00000073
0.41838023 0.26472480 0.00000073
0.44239645 0.26472480 0.00000073
0.46697137 0.26472480 0.00000073
0.49210258 0.26472480 0.00000073
0.51778307 0.26472480 0.00000073
0.54400181 0.26472480 0.00000073
0.57074418 0.26472480 0.00000073
0.59799249 0.26472480 0.00000073
0.62572627 0.26472480 0.00000073
0.65392268 0.26472480 0.00000073
0.68255679 0.26472480 0.00000073
0.71160191 0.26472480 0.00000073
0.74102983 0.26472480 0.00000073
0.77081105 0.26472480 0.00000073
0.00000073 0.28535372 0.00000073
0.00000073 0.28535372 0.00000073
0.00000073 0.28535372 0.00000073
0.01285525 0.28535372 0.00000073
0.08252148 0.28535372 0.00000073
0.11429407 0.28535372 0.00000073
0.13960665 0.28535372 0.00000073
0.16217398 0.28535372 0.00000073
0.18337710 0.28535372 0.00000073
0.20390203 0.28535372 0.00000073
0.22414619 0.28535372 0.00000073
0.24436302 0.28535372 0.00000073
0.26472480 0.28535372 0.00000073
0.28535372 0.28535372 0.00000073
0.30633879 0.28535372 0.00000073
0.32774573 0.28535372 0.00000073
0.34962308 0.28535372 0.00000073
0.37200617 0.28535372 0.00000073
0.39491981 0.28535372 0.00000073
0.41838023 0.28535372 0.00000073
0.44239645 0.28535372 0.00000073
0.46697137 0.28535372 0.00000073
0.49210258 0.28535372 0.00000073
0.51778307 0.28535372 0.00000073
0.54400181 0.28535372 0.00000073
0.57074418 0.28535372 0.00000073
0.59799249 0.28535372 0.00000073
0.62572627 0.28535372 0.00000073
0.65392268 0.28535372 0.00000073
0.68255679 0.28535372 0.00000073
0.71160191 0.28535372 0.00000073
0.74102983 0.28535372 0.00000073
0.77081105 0.28535372 0.00000073
0.00000073 0.30633879 0.00000073
0.00000073 0.30633879 0.00000073
0.00000073 0.30633879 0.00000073
0.01285525 0.30633879 0.00000073
0.08252148 0.30633879 0.00000073
0.11429407 0.30633879 0.00000073
0.13960665 0.30633879 0.00000073
0.16217398 0.30633879 0.00000073
0.18337710 0.30633879 0.00000073
0.20390203 0.30633879 0.00000073
0.22414619 0.30633879 0.00000073
0.24436302 0.30633879 0.00000073
0.26472480 0.30633879 0.00000073
0.28535372 0.30633879 0.00000073
0.30633879 0.30633879 0.00000073
0.32774573 0.30633879 0.00000073
0.34962308 0.30633879 0.00000073
0.37200617 0.30633879 0.00000073
0.39491981 0.30633879 0.00000073
0.41838023 0.30633879 0.00000073
0.44239645 0.30633879 0.00000073
0.46697137 0.30633879 0.00000073
0.49210258 0.30633879 0.00000073
0.51778307 0.30633879 0.00000073
0.54400181 0.30633879 0.00000073
0.57074418 0.30633879 0.00000073
0.59799249 0.30633879 0.00000073
0.62572627 0.30633879 0.00000073
0.65392268 0.30633879 0.00000073
0.68255679 0.30633879 0.00000073
0.71160191 0.30633879 0.00000073
0.74102983 0.30633879 0.00000073
0.77081105 0.30633879 0.00000073
0.00000073 0.32774573 0.00000073
0.00000073 0.32774573 0.00000073
0.00000073 0.32774573 0.00000073
0.01285525 0.32774573 0.00000073
0.08252148 0.32774573 0.00000073
0.11429407 0.32774573 0.00000073
0.13960665 0.32774573 0.00000073
0.16217398 0.32774573 0.00000073
0.18337710 0.32774573 0.00000073
0.20390203 0.32774573 0.00000073
0.22414619 0.32774573 0.00000073
0.24436302 0.32774573 0.00000073
0.26472480 0.32774573 0.00000073
0.28535372 0.32774573 0.00000073
0.30633879 0.32774573 0.00000073
0.32774573 0.32774573 0.00000073
0.34962308 0.32774573 0.00000073
0.37200617 0.32774573 0.00000073
0.39491981 0.32774573 0.00000073
0.41838023 0.32774573 0.00000073
0.44239645 0.32774573 0.00000073
0.46697137 0.32774573 0.00000073
0.49210258 0.32774573 0.00000073
0.51778307 0.32774573 0.00000073
0.54400181 0.32774573 0.00000073
0.57074418 0.32774573 0.00000073
0.59799249 0.32774573 0.00000073
0.62572627 0.32774573 0.00000073
0.65392268 0.32774573 0.00000073
0.68255679 0.32774573 0.00000073
0.71160191 0.32774573 0.00000073
0.74102983 0.32774573 0.00000073
0.77081105 0.32774573 0.00000073
0.00000073 0.34962308 0.00000073
0.00000073 0.34962308 0.00000073
0.00000073 0.34962308 0.00000073
0.01285525 0.34962308 0.00000073
0.08252148 0.34962308 0.00000073
0.11429407 0.34962308 0.00000073
0.13960665 0.34962308 0.00000073
0.16217398 0.34962308 0.00000073
0.18337710 0.34962308 0.00000073
0.20390203 0.34962308 0.00000073
0.22414619 0.34962308 0.00000073
0.24436302 0.34962308 0.00000073
0.26472480 0.34962308 0.00000073
0.28535372 0.34962308 0.00000073
0.30633879 0.34962308 0.00000073
0.32774573 0.34962308 0.00000073
0.34962308 0.34962308 0.00000073
0.37200617 0.34962308 0.00000073
0.39491981 0.34962308 0.00000073
0.41838023 0.34962308 0.00000073
0.44239645 0.34962308 0.00000073
0.46697137 0.34962308 0.00000073
0.49210258 0.34962308 0.00000073
0.51778307 0.34962308 0.00000073
0.54400181 0.34962308 0.00000073
0.57074418 0.34962308 0.00000073
0.59799249 0.34962308 0.00000073
0.62572627 0.34962308 0.00000073
0.65392268 0.34962308 0.00000073
0.68255679 0.34962308 0.00000073
0.71160191 0.34962308 0.00000073
0.74102983 0.34962308 0.00000073
0.77081105 0.34962308 0.00000073
0.00000073 0.37200617 0.00000073
0.00000073 0.37200617 0.00000073
0.00000073 0.37200617 0.00000073
0.01285525 0.37200617 0.00000073
0.08252148 0.37200617 0.00000073
0.11429407 0.37200617 0.00000073
0.13960665 0.37200617 0.00000073
0.16217398 0.37200617 0.00000073
0.18337710 0.37200617 0.00000073
0.20390203 0.37200617 0.00000073
0.22414619 0.37200617 0.00000073
0.24436302 0.37200617 0.00000073
0.26472480 0.37200617 0.00000073
0.28535372 0.37200617 0.00000073
0.30633879 0.37200617 0.00000073
0.32774573 0.37200617 0.00000073
0.34962308 0.37200617 0.00000073
0.37200617 0.37200617 0.00000073
0.39491981 0.37200617 0.00000073
0.41838023 0.37200617 0.00000073
0.44239645 0.37200617 0.00000073
0.46697137 0.37200617 0.00000073
0.49210258 0.37200617 0.00000073
0.51778307 0.37200617 0.00000073
0.54400181 0.37200617 0.00000073
0.57074418 0.37200617 0.00000073
0.59799249 0.37200617 0.00000073
0.62572627 0.37200617 0.00000073
0.65392268 0.37200617 0.00000073
0.68255679 0.37200617 0.00000073
0.71160191 0.37200617 0.00000073
0.74102983 0.37200617 0.00000073
0.77081105 0.37200617 0.00000073
0.00000073 0.39491981 0.00000073
0.00000073 0.39491981 0.00000073
0.00000073 0.39491981 0.00000073
0.01285525 0.39491981 0.00000073
0.08252148 0.39491981 0.00000073
0.11429407 0.39491981 0.00000073
0.13960665 0.39491981 0.00000073
0.16217398 0.39491981 0.00000073
0.18337710 0.39491981 0.00000073
0.20390203 0.39491981 0.00000073
0.22414619 0.39491981 0.00000073
0.24436302 0.39491981 0.00000073
0.26472480 0.39491981 0.00000073
0.28535372 0.39491981 0.00000073
0.30633879 0.39491981 0.00000073
0.32774573 0.39491981 0.00000073
0.34962308 0.39491981 0.00000073
0.37200617 0.39491981 0.00000073
0.39491981 0.39491981 0.00000073
0.41838023 0.39491981 0.00000073
0.44239645 0.39491981 0.00000073
0.46697137 0.39491981 0.00000073
0.49210258 0.39491981 0.00000073
0.51778307 0.39491981 0.00000073
0.54400181 0.39491981 0.00000073
0.57074418 0.39491981 0.00000073
0.59799249 0.39491981 0.00000073
0.62572627 0.39491981 0.00000073
0.65392268 0.39491981 0.00000073
0.68255679 0.39491981 0.00000073
0.71160191 0.39491981 0.00000073
0.74102983 0.39491981 0.00000073
0.77081105 0.39491981 0.00000073
0.00000073 0.41838023 0.00000073
0.00000073 0.41838023 0.00000073
0.00000073 0.41838023 0.00000073
0.01285525 0.41838023 0.00000073
0.08252148 0.41838023 0.00000073
0.11429407 0.41838023 0.00000073
0.13960665 0.41838023 0.00000073
0.16217398 0.41838023 0.00000073
0.18337710 0.41838023 0.00000073
0.20390203 0.41838023 0.00000073
0.22414619 0.41838023 0.00000073
0.24436302 0.41838023 0.00000073
0.26472480 0.41838023 0.00000073
0.28535372 0.41838023 0.00000073
0.30633879 0.41838023 0.00000073
0.32774573 0.41838023 0.00000073
0.34962308 0.41838023 0.00000073
0.37200617 0.41838023 0.00000073
0.39491981 0.41838023 0.00000073
0.41838023 0.41838023 0.00000073
0.44239645 0.41838023 0.00000073
0.46697137 0.41838023 0.00000073
0.49210258 0.41838023 0.00000073
0.51778307 0.41838023 0.00000073
0.54400181 0.41838023 0.00000073
0.57074418 0.41838023 0.00000073
0.59799249 0.41838023 0.00000073
0.62572627 0.41838023 0.00000073
0.65392268 0.41838023 0.00000073
0.68255679 0.41838023 0.00000073
0.71160191 0.41838023 0.00000073
0.74102983 0.41838023 0.00000073
0.77081105 0.41838023 0.00000073
0.00000073 0.44239645 0.00000073
0.00000073 0.44239645 0.00000073
0.00000073 0.44239645 0.00000073
0.01285525 0.44239645 0.00000073
0.08252148 0.44239645 0.00000073
0.11429407 0.44239645 0.00000073
0.13960665 0.44239645 0.00000073
0.16217398 0.44239645 0.00000073
0.18337710 0.44239645 0.00000073
0.20390203 0.44239645 0.00000073
0.22414619 0.44239645 0.00000073
0.24436302 0.44239645 0.00000073
0.26472480 0.44239645 0.00000073
0.28535372 0.44239645 0.00000073
0.30633879 0.44239645 0.00000073
0.32774573 0.44239645 0.00000073
0.34962308 0.44239645 0.00000073
0.37200617 0.44239645 0.00000073
0.39491981 0.44239645 0.00000073
0.41838023 0.44239645 0.00000073
0.44239645 0.44239645 0.00000073
0.46697137 0.44239645 0.00000073
0.49210258 0.44239645 0.00000073
0.51778307 0.44239645 0.00000073
0.54400181 0.44239645 0.00000073
0.57074418 0.44239645 0.00000073
0.59799249 0.44239645 0.00000073
0.62572627 0.44239645 0.00000073
0.65392268 0.44239645 0.00000073
0.68255679 0.44239645 0.00000073
0.71160191 0.44239645 0.00000073
0.74102983 0.44239645 0.00000073
0.77081105 0.44239645 0.00000073
0.00000073 0.46697137 0.00000073
0.00000073 0.46697137 0.00000073
0.00000073 0.46697137 0.00000073
0.01285525 0.46697137 0.00000073
0.08252148 0.46697137 0.00000073
0.11429407 0.46697137 0.00000073
0.13960665 0.46697137 0.00000073
0.16217398 0.46697137 0.00000073
0.18337710 0.46697137 0.00000073
0.20390203 0.46697137 0.00000073
0.22414619 0.46697137 0.00000073
0.24436302 0.46697137 0.00000073
0.26472480 0.46697137 0.00000073
0.28535372 0.46697137 0.00000073
0.30633879 0.46697137 0.00000073
0.32774573 0.46697137 0.00000073
0.34962308 0.46697137 0.00000073
0.37200617 0.46697137 0.00000073
0.39491981 0.46697137 0.00000073
0.41838023 0.46697137 0.00000073
0.44239645 0.46697137 0.00000073
0.46697137 0.46697137 0.00000073
0.49210258 0.46697137 0.00000073
0.51778307 0.46697137 0.00000073
0.54400181 0.46697137 0.00000073
0.57074418 0.46697137 0.00000073
0.59799249 0.46697137 0.00000073
