src/ffmpeg_scripts/luts/flog-smpte2084_0-Native.cube
TITLE "flog-smpte2084_0-Native"
LUT_3D_SIZE 9
# Fujifilm F-Log/Rec2020 -> PQ (EOTF Only)/Rec2020, CineEI Shift 0.00, Black Level 0.00% IRE, Input 109% -> Output 109% - Created with LUTCalc v4.01 by Ben Turley October 2020
0.06256172 0.06256172 0.06256172
0.15953878 0.06256172 0.06256172
0.25409756 0.06256172 0.06256172
0.32296051 0.06256172 0.06256172
0.39040527 0.06256172 0.06256172
0.46031366 0.06256172 0.06256172
0.53336780 0.06256172 0.06256172
0.60910958 0.06256172 0.06256172
0.68659086 0.06256172 0.06256172
0.06256172 0.15953878 0.06256172
0.15953878 0.15953878 0.06256172
0.25409756 0.15953878 0.06256172
0.32296051 0.15953878 0.06256172
0.39040527 0.15953878 0.06256172
0.46031366 0.15953878 0.06256172
0.53336780 0.15953878 0.06256172
0.60910958 0.15953878 0.06256172
0.68659086 0.15953878 0.06256172
0.06256172 0.25409756 0.06256172
0.15953878 0.25409756 0.06256172
0.25409756 0.25409756 0.06256172
0.32296051 0.25409756 0.06256172
0.39040527 0.25409756 0.06256172
0.46031366 0.25409756 0.06256172
0.53336780 0.25409756 0.06256172
0.60910958 0.25409756 0.06256172
0.68659086 0.25409756 0.06256172
0.06256172 0.32296051 0.06256172
0.15953878 0.32296051 0.06256172
0.25409756 0.32296051 0.06256172
0.32296051 0.32296051 0.06256172
0.39040527 0.32296051 0.06256172
0.46031366 0.32296051 0.06256172
0.53336780 0.32296051 0.06256172
0.60910958 0.32296051 0.06256172
0.68659086 0.32296051 0.06256172
0.06256172 0.39040527 0.06256172
0.15953878 0.39040527 0.06256172
0.25409756 0.39040527 0.06256172
0.32296051 0.39040527 0.06256172
0.39040527 0.39040527 0.06256172
0.46031366 0.39040527 0.06256172
0.53336780 0.39040527 0.06256172
0.60910958 0.39040527 0.06256172
0.68659086 0.39040527 0.06256172
0.06256172 0.46031366 0.06256172
0.15953878 0.46031366 0.06256172
0.25409756 0.46031366 0.06256172
0.32296051 0.46031366 0.06256172
0.39040527 0.46031366 0.06256172
0.46031366 0.46031366 0.06256172
0.53336780 0.46031366 0.06256172
0.60910958 0.46031366 0.06256172
0.68659086 0.46031366 0.06256172
0.06256172 0.53336780 0.06256172
0.15953878 0.53336780 0.06256172
0.25409756 0.53336780 0.06256172
0.32296051 0.53336780 0.06256172
0.39040527 0.53336780 0.06256172
0.46031366 0.53336780 0.06256172
0.53336780 0.53336780 0.06256172
0.60910958 0.53336780 0.06256172
0.68659086 0.53336780 0.06256172
0.06256172 0.60910958 0.06256172
0.15953878 0.60910958 0.06256172
0.25409756 0.60910958 0.06256172
0.32296051 0.60910958 0.06256172
0.39040527 0.60910958 0.06256172
0.46031366 0.60910958 0.06256172
0.53336780 0.60910958 0.06256172
0.60910958 0.60910958 0.06256172
0.68659086 0.60910958 0.06256172
0.06256172 0.68659086 0.06256172
0.15953878 0.68659086 0.06256172
0.25409756 0.68659086 0.06256172
0.32296051 0.68659086 0.06256172
0.39040527 0.68659086 0.06256172
0.46031366 0.68659086 0.06256172
0.53336780 0.68659086 0.06256172
0.60910958 0.68659086 0.06256172
0.68659086 0.68659086 0.06256172
0.06256172 0.06256172 0.15953878
0.15953878 0.06256172 0.15953878
0.25409756 0.06256172 0.15953878
0.32296051 0.06256172 0.15953878
0.39040527 0.06256172 0.15953878
0.46031366 0.06256172 0.15953878
0.53336780 0.06256172 0.15953878
0.60910958 0.06256172 0.15953878
0.68659086 0.06256172 0.15953878
0.06256172 0.15953878 0.15953878
0.15953878 0.15953878 0.15953878
0.25409756 0.15953878 0.15953878
0.32296051 0.15953878 0.15953878
0.39040527 0.15953878 0.15953878
0.46031366 0.15953878 0.15953878
0.53336780 0.15953878 0.15953878
0.60910958 0.15953878 0.15953878
0.68659086 0.15953878 0.15953878
0.06256172 0.25409756 0.15953878
0.15953878 0.25409756 0.15953878
0.25409756 0.25409756 0.15953878
0.32296051 0.25409756 0.15953878
0.39040527 0.25409756 0.15953878
0.46031366 0.25409756 0.15953878
0.53336780 0.25409756 0.15953878
0.60910958 0.25409756 0.15953878
0.68659086 0.25409756 0.15953878
0.06256172 0.32296051 0.15953878
0.15953878 0.32296051 0.15953878
0.25409756 0.32296051 0.15953878
0.32296051 0.32296051 0.15953878
0.39040527 0.32296051 0.15953878
0.46031366 0.32296051 0.15953878
0.53336780 0.32296051 0.15953878
0.60910958 0.32296051 0.15953878
0.68659086 0.32296051 0.15953878
0.06256172 0.39040527 0.15953878
0.15953878 0.39040527 0.15953878
0.25409756 0.39040527 0.15953878
0.32296051 0.39040527 0.15953878
0.39040527 0.39040527 0.15953878
0.46031366 0.39040527 0.15953878
0.53336780 0.39040527 0.15953878
0.60910958 0.39040527 0.15953878
0.68659086 0.39040527 0.15953878
0.06256172 0.46031366 0.15953878
0.15953878 0.46031366 0.15953878
0.25409756 0.46031366 0.15953878
0.32296051 0.46031366 0.15953878
0.39040527 0.46031366 0.15953878
0.46031366 0.46031366 0.15953878
0.53336780 0.46031366 0.15953878
0.60910958 0.46031366 0.15953878
0.68659086 0.46031366 0.15953878
0.06256172 0.53336780 0.15953878
0.15953878 0.53336780 0.15953878
0.25409756 0.53336780 0.15953878
0.32296051 0.53336780 0.15953878
0.39040527 0.53336780 0.15953878
0.46031366 0.53336780 0.15953878
0.53336780 0.53336780 0.15953878
0.60910958 0.53336780 0.15953878
0.68659086 0.53336780 0.15953878
0.06256172 0.60910958 0.15953878
0.15953878 0.60910958 0.15953878
0.25409756 0.60910958 0.15953878
0.32296051 0.60910958 0.15953878
0.39040527 0.60910958 0.15953878
0.46031366 0.60910958 0.15953878
0.53336780 0.60910958 0.15953878
0.60910958 0.60910958 0.15953878
0.68659086 0.60910958 0.15953878
0.06256172 0.68659086 0.15953878
0.15953878 0.68659086 0.15953878
0.25409756 0.68659086 0.15953878
0.32296051 0.68659086 0.15953878
0.39040527 0.68659086 0.15953878
0.46031366 0.68659086 0.15953878
0.53336780 0.68659086 0.15953878
0.60910958 0.68659086 0.15953878
0.68659086 0.68659086 0.15953878
0.06256172 0.06256172 0.25409756
0.15953878 0.06256172 0.25409756
0.25409756 0.06256172 0.25409756
0.32296051 0.06256172 0.25409756
0.39040527 0.06256172 0.25409756
0.46031366 0.06256172 0.25409756
0.53336780 0.06256172 0.25409756
0.60910958 0.06256172 0.25409756
0.68659086 0.06256172 0.25409756
0.06256172 0.15953878 0.25409756
0.15953878 0.15953878 0.25409756
0.25409756 0.15953878 0.25409756
0.32296051 0.15953878 0.25409756
0.39040527 0.15953878 0.25409756
0.46031366 0.15953878 0.25409756
0.53336780 0.15953878 0.25409756
0.60910958 0.15953878 0.25409756
0.68659086 0.15953878 0.25409756
0.06256172 0.25409756 0.25409756
0.15953878 0.25409756 0.25409756
0.25409756 0.25409756 0.25409756
0.32296051 0.25409756 0.25409756
0.39040527 0.25409756 0.25409756
0.46031366 0.25409756 0.25409756
0.53336780 0.25409756 0.25409756
0.60910958 0.25409756 0.25409756
0.68659086 0.25409756 0.25409756
0.06256172 0.32296051 0.25409756
0.15953878 0.32296051 0.25409756
0.25409756 0.32296051 0.25409756
0.32296051 0.32296051 0.25409756
0.39040527 0.32296051 0.25409756
0.46031366 0.32296051 0.25409756
0.53336780 0.32296051 0.25409756
0.60910958 0.32296051 0.25409756
0.68659086 0.32296051 0.25409756
0.06256172 0.39040527 0.25409756
0.15953878 0.39040527 0.25409756
0.25409756 0.39040527 0.25409756
0.32296051 0.39040527 0.25409756
0.39040527 0.39040527 0.25409756
0.46031366 0.39040527 0.25409756
0.53336780 0.39040527 0.25409756
0.60910958 0.39040527 0.25409756
0.68659086 0.39040527 0.25409756
0.06256172 0.46031366 0.25409756
0.15953878 0.46031366 0.25409756
0.25409756 0.46031366 0.25409756
0.32296051 0.46031366 0.25409756
0.39040527 0.46031366 0.25409756
0.46031366 0.46031366 0.25409756
0.53336780 0.46031366 0.25409756
0.60910958 0.46031366 0.25409756
0.68659086 0.46031366 0.25409756
0.06256172 0.53336780 0.25409756
0.15953878 0.53336780 0.25409756
0.25409756 0.53336780 0.25409756
0.32296051 0.53336780 0.25409756
0.39040527 0.53336780 0.25409756
0.46031366 0.53336780 0.25409756
0.53336780 0.53336780 0.25409756
0.60910958 0.53336780 0.25409756
0.68659086 0.53336780 0.25409756
0.06256172 0.60910958 0.25409756
0.15953878 0.60910958 0.25409756
0.25409756 0.60910958 0.25409756
0.32296051 0.60910958 0.25409756
0.39040527 0.60910958 0.25409756
0.46031366 0.60910958 0.25409756
0.53336780 0.60910958 0.25409756
0.60910958 0.60910958 0.25409756
0.68659086 0.60910958 0.25409756
0.06256172 0.68659086 0.25409756
0.15953878 0.68659086 0.25409756
0.25409756 0.68659086 0.25409756
0.32296051 0.68659086 0.25409756
0.39040527 0.68659086 0.25409756
0.46031366 0.68659086 0.25409756
0.53336780 0.68659086 0.25409756
0.60910958 0.68659086 0.25409756
0.68659086 0.68659086 0.25409756
0.06256172 0.06256172 0.32296051
0.15953878 0.06256172 0.32296051
0.25409756 0.06256172 0.32296051
0.32296051 0.06256172 0.32296051
0.39040527 0.06256172 0.32296051
0.46031366 0.06256172 0.32296051
0.53336780 0.06256172 0.32296051
0.60910958 0.06256172 0.32296051
0.68659086 0.06256172 0.32296051
0.06256172 0.15953878 0.32296051
0.15953878 0.15953878 0.32296051
0.25409756 0.15953878 0.32296051
0.32296051 0.15953878 0.32296051
0.39040527 0.15953878 0.32296051
0.46031366 0.15953878 0.32296051
0.53336780 0.15953878 0.32296051
0.60910958 0.15953878 0.32296051
0.68659086 0.15953878 0.32296051
0.06256172 0.25409756 0.32296051
0.15953878 0.25409756 0.32296051
0.25409756 0.25409756 0.32296051
0.32296051 0.25409756 0.32296051
0.39040527 0.25409756 0.32296051
0.46031366 0.25409756 0.32296051
0.53336780 0.25409756 0.32296051
0.60910958 0.25409756 0.32296051
0.68659086 0.25409756 0.32296051
0.06256172 0.32296051 0.32296051
0.15953878 0.32296051 0.32296051
0.25409756 0.32296051 0.32296051
0.32296051 0.32296051 0.32296051
0.39040527 0.32296051 0.32296051
0.46031366 0.32296051 0.32296051
0.53336780 0.32296051 0.32296051
0.60910958 0.32296051 0.32296051
0.68659086 0.32296051 0.32296051
0.06256172 0.39040527 0.32296051
0.15953878 0.39040527 0.32296051
0.25409756 0.39040527 0.32296051
0.32296051 0.39040527 0.32296051
0.39040527 0.39040527 0.32296051
0.46031366 0.39040527 0.32296051
0.53336780 0.39040527 0.32296051
0.60910958 0.39040527 0.32296051
0.68659086 0.39040527 0.32296051
0.06256172 0.46031366 0.32296051
0.15953878 0.46031366 0.32296051
0.25409756 0.46031366 0.32296051
0.32296051 0.46031366 0.32296051
0.39040527 0.46031366 0.32296051
0.46031366 0.46031366 0.32296051
0.53336780 0.46031366 0.32296051
0.60910958 0.46031366 0.32296051
0.68659086 0.46031366 0.32296051
0.06256172 0.53336780 0.32296051
0.15953878 0.53336780 0.32296051
0.25409756 0.53336780 0.32296051
0.32296051 0.53336780 0.32296051
0.39040527 0.53336780 0.32296051
0.46031366 0.53336780 0.32296051
0.53336780 0.53336780 0.32296051
0.60910958 0.53336780 0.32296051
0.68659086 0.53336780 0.32296051
0.06256172 0.60910958 0.32296051
0.15953878 0.60910958 0.32296051
0.25409756 0.60910958 0.32296051
0.32296051 0.60910958 0.32296051
0.39040527 0.60910958 0.32296051
0.46031366 0.60910958 0.32296051
0.53336780 0.60910958 0.32296051
0.60910958 0.60910958 0.32296051
0.68659086 0.60910958 0.32296051
0.06256172 0.68659086 0.32296051
0.15953878 0.68659086 0.32296051
0.25409756 0.68659086 0.32296051
0.32296051 0.68659086 0.32296051
0.39040527 0.68659086 0.32296051
0.46031366 0.68659086 0.32296051
0.53336780 0.68659086 0.32296051
0.60910958 0.68659086 0.32296051
0.68659086 0.68659086 0.32296051
0.06256172 0.06256172 0.39040527
0.15953878 0.06256172 0.39040527
0.25409756 0.06256172 0.39040527
0.32296051 0.06256172 0.39040527
0.39040527 0.06256172 0.39040527
0.46031366 0.06256172 0.39040527
0.53336780 0.06256172 0.39040527
0.60910958 0.06256172 0.39040527
0.68659086 0.06256172 0.39040527
0.06256172 0.15953878 0.39040527
0.15953878 0.15953878 0.39040527
0.25409756 0.15953878 0.39040527
0.32296051 0.15953878 0.39040527
0.39040527 0.15953878 0.39040527
0.46031366 0.15953878 0.39040527
0.53336780 0.15953878 0.39040527
0.60910958 0.15953878 0.39040527
0.68659086 0.15953878 0.39040527
0.06256172 0.25409756 0.39040527
0.15953878 0.25409756 0.39040527
0.25409756 0.25409756 0.39040527
0.32296051 0.25409756 0.39040527
0.39040527 0.25409756 0.39040527
0.46031366 0.25409756 0.39040527
0.53336780 0.25409756 0.39040527
0.60910958 0.25409756 0.39040527
0.68659086 0.25409756 0.39040527
0.06256172 0.32296051 0.39040527
0.15953878 0.32296051 0.39040527
0.25409756 0.32296051 0.39040527
0.32296051 0.32296051 0.39040527
0.39040527 0.32296051 0.39040527
0.46031366 0.32296051 0.39040527
0.53336780 0.32296051 0.39040527
0.60910958 0.32296051 0.39040527
0.68659086 0.32296051 0.39040527
0.06256172 0.39040527 0.39040527
0.15953878 0.39040527 0.39040527
0.25409756 0.39040527 0.39040527
0.32296051 0.39040527 0.39040527
0.39040527 0.39040527 0.39040527
0.46031366 0.39040527 0.39040527
0.53336780 0.39040527 0.39040527
0.60910958 0.39040527 0.39040527
0.68659086 0.39040527 0.39040527
0.06256172 0.46031366 0.39040527
0.15953878 0.46031366 0.39040527
0.25409756 0.46031366 0.39040527
0.32296051 0.46031366 0.39040527
0.39040527 0.46031366 0.39040527
0.46031366 0.46031366 0.39040527
0.53336780 0.46031366 0.39040527
0.60910958 0.46031366 0.39040527
0.68659086 0.46031366 0.39040527
0.06256172 0.53336780 0.39040527
0.15953878 0.53336780 0.39040527
0.25409756 0.53336780 0.39040527
0.32296051 0.53336780 0.39040527
0.39040527 0.53336780 0.39040527
0.46031366 0.53336780 0.39040527
0.53336780 0.53336780 0.39040527
0.60910958 0.53336780 0.39040527
0.68659086 0.53336780 0.39040527
0.06256172 0.60910958 0.39040527
0.15953878 0.60910958 0.39040527
0.25409756 0.60910958 0.39040527
0.32296051 0.60910958 0.39040527
0.39040527 0.60910958 0.39040527
0.46031366 0.60910958 0.39040527
0.53336780 0.60910958 0.39040527
0.60910958 0.60910958 0.39040527
0.68659086 0.60910958 0.39040527
0.06256172 0.68659086 0.39040527
0.15953878 0.68659086 0.39040527
0.25409756 0.68659086 0.39040527
0.32296051 0.68659086 0.39040527
0.39040527 0.68659086 0.39040527
0.46031366 0.68659086 0.39040527
0.53336780 0.68659086 0.39040527
0.60910958 0.68659086 0.39040527
0.68659086 0.68659086 0.39040527
0.06256172 0.06256172 0.46031366
0.15953878 0.06256172 0.46031366
0.25409756 0.06256172 0.46031366
0.32296051 0.06256172 0.46031366
0.39040527 0.06256172 0.46031366
0.46031366 0.06256172 0.46031366
0.53336780 0.06256172 0.46031366
0.60910958 0.06256172 0.46031366
0.68659086 0.06256172 0.46031366
0.06256172 0.15953878 0.46031366
0.15953878 0.15953878 0.46031366
0.25409756 0.15953878 0.46031366
0.32296051 0.15953878 0.46031366
0.39040527 0.15953878 0.46031366
0.46031366 0.15953878 0.46031366
0.53336780 0.15953878 0.46031366
0.60910958 0.15953878 0.46031366
0.68659086 0.15953878 0.46031366
0.06256172 0.25409756 0.46031366
0.15953878 0.25409756 0.46031366
0.25409756 0.25409756 0.46031366
0.32296051 0.25409756 0.46031366
0.39040527 0.25409756 0.46031366
0.46031366 0.25409756 0.46031366
0.53336780 0.25409756 0.46031366
0.60910958 0.25409756 0.46031366
0.68659086 0.25409756 0.46031366
0.06256172 0.32296051 0.46031366
0.15953878 0.32296051 0.46031366
0.25409756 0.32296051 0.46031366
0.32296051 0.32296051 0.46031366
0.39040527 0.32296051 0.46031366
0.46031366 0.32296051 0.46031366
0.53336780 0.32296051 0.46031366
0.60910958 0.32296051 0.46031366
0.68659086 0.32296051 0.46031366
0.06256172 0.39040527 0.46031366
0.15953878 0.39040527 0.46031366
0.25409756 0.39040527 0.46031366
0.32296051 0.39040527 0.46031366
0.39040527 0.39040527 0.46031366
0.46031366 0.39040527 0.46031366
0.53336780 0.39040527 0.46031366
0.60910958 0.39040527 0.46031366
0.68659086 0.39040527 0.46031366
0.06256172 0.46031366 0.46031366
0.15953878 0.46031366 0.46031366
0.25409756 0.46031366 0.46031366
0.32296051 0.46031366 0.46031366
0.39040527 0.46031366 0.46031366
0.46031366 0.46031366 0.46031366
0.53336780 0.46031366 0.46031366
0.60910958 0.46031366 0.46031366
0.68659086 0.46031366 0.46031366
0.06256172 0.53336780 0.46031366
0.15953878 0.53336780 0.46031366
0.25409756 0.53336780 0.46031366
0.32296051 0.53336780 0.46031366
0.39040527 0.53336780 0.46031366
0.46031366 0.53336780 0.46031366
0.53336780 0.53336780 0.46031366
0.60910958 0.53336780 0.46031366
0.68659086 0.53336780 0.46031366
0.06256172 0.60910958 0.46031366
0.15953878 0.60910958 0.46031366
0.25409756 0.60910958 0.46031366
0.32296051 0.60910958 0.46031366
0.39040527 0.60910958 0.46031366
0.46031366 0.60910958 0.46031366
0.53336780 0.60910958 0.46031366
0.60910958 0.60910958 0.46031366
0.68659086 0.60910958 0.46031366
0.06256172 0.68659086 0.46031366
0.15953878 0.68659086 0.46031366
0.25409756 0.68659086 0.46031366
0.32296051 0.68659086 0.46031366
0.39040527 0.68659086 0.46031366
0.46031366 0.68659086 0.46031366
0.53336780 0.68659086 0.46031366
0.60910958 0.68659086 0.46031366
0.68659086 0.68659086 0.46031366
0.06256172 0.06256172 0.53336780
0.15953878 0.06256172 0.53336780
0.25409756 0.06256172 0.53336780
0.32296051 0.06256172 0.53336780
0.39040527 0.06256172 0.53336780
0.46031366 0.06256172 0.53336780
0.53336780 0.06256172 0.53336780
0.60910958 0.06256172 0.53336780
0.68659086 0.06256172 0.53336780
0.06256172 0.15953878 0.53336780
0.15953878 0.15953878 0.53336780
0.25409756 0.15953878 0.53336780
0.32296051 0.15953878 0.53336780
0.39040527 0.15953878 0.53336780
0.46031366 0.15953878 0.53336780
0.53336780 0.15953878 0.53336780
0.60910958 0.15953878 0.53336780
0.68659086 0.15953878 0.53336780
0.06256172 0.25409756 0.53336780
0.15953878 0.25409756 0.53336780
0.25409756 0.25409756 0.53336780
0.32296051 0.25409756 0.53336780
0.39040527 0.25409756 0.53336780
0.46031366 0.25409756 0.53336780
0.53336780 0.25409756 0.53336780
0.60910958 0.25409756 0.53336780
0.68659086 0.25409756 0.53336780
0.06256172 0.32296051 0.53336780
0.15953878 0.32296051 0.53336780
0.25409756 0.32296051 0.53336780
0.32296051 0.32296051 0.53336780
0.39040527 0.32296051 0.53336780
0.46031366 0.32296051 0.53336780
0.53336780 0.32296051 0.53336780
0.60910958 0.32296051 0.53336780
0.68659086 0.32296051 0.53336780
0.06256172 0.39040527 0.53336780
0.15953878 0.39040527 0.53336780
0.25409756 0.39040527 0.53336780
0.32296051 0.39040527 0.53336780
0.39040527 0.39040527 0.53336780
0.46031366 0.39040527 0.53336780
0.53336780 0.39040527 0.53336780
0.60910958 0.39040527 0.53336780
0.68659086 0.39040527 0.53336780
0.06256172 0.46031366 0.53336780
0.15953878 0.46031366 0.53336780
0.25409756 0.46031366 0.53336780
0.32296051 0.46031366 0.53336780
0.39040527 0.46031366 0.53336780
0.46031366 0.46031366 0.53336780
0.53336780 0.46031366 0.53336780
0.60910958 0.46031366 0.53336780
0.68659086 0.46031366 0.53336780
0.06256172 0.53336780 0.53336780
0.15953878 0.53336780 0.53336780
0.25409756 0.53336780 0.53336780
0.32296051 0.53336780 0.53336780
0.39040527 0.53336780 0.53336780
0.46031366 0.53336780 0.53336780
0.53336780 0.53336780 0.53336780
0.60910958 0.53336780 0.53336780
0.68659086 0.53336780 0.53336780
0.06256172 0.60910958 0.53336780
0.15953878 0.60910958 0.53336780
0.25409756 0.60910958 0.53336780
0.32296051 0.60910958 0.53336780
0.39040527 0.60910958 0.53336780
0.46031366 0.60910958 0.53336780
0.53336780 0.60910958 0.53336780
0.60910958 0.60910958 0.53336780
0.68659086 0.60910958 0.53336780
0.06256172 0.68659086 0.53336780
0.15953878 0.68659086 0.53336780
0.25409756 0.68659086 0.53336780
0.32296051 0.68659086 0.53336780
0.39040527 0.68659086 0.53336780
0.46031366 0.68659086 0.53336780
0.53336780 0.68659086 0.53336780
0.60910958 0.68659086 0.53336780
0.68659086 0.68659086 0.53336780
0.06256172 0.06256172 0.60910958
0.15953878 0.06256172 0.60910958
0.25409756 0.06256172 0.60910958
0.32296051 0.06256172 0.60910958
0.39040527 0.06256172 0.60910958
0.46031366 0.06256172 0.60910958
0.53336780 0.06256172 0.60910958
0.60910958 0.06256172 0.60910958
0.68659086 0.06256172 0.60910958
0.06256172 0.15953878 0.60910958
0.15953878 0.15953878 0.60910958
0.25409756 0.15953878 0.60910958
0.32296051 0.15953878 0.60910958
0.39040527 0.15953878 0.60910958
0.46031366 0.15953878 0.60910958
0.53336780 0.15953878 0.60910958
0.60910958 0.15953878 0.60910958
0.68659086 0.15953878 0.60910958
0.06256172 0.25409756 0.60910958
0.15953878 0.25409756 0.60910958
0.25409756 0.25409756 0.60910958
0.32296051 0.25409756 0.60910958
0.39040527 0.25409756 0.60910958
0.46031366 0.25409756 0.60910958
0.53336780 0.25409756 0.60910958
0.60910958 0.25409756 0.60910958
0.68659086 0.25409756 0.60910958
0.06256172 0.32296051 0.60910958
0.15953878 0.32296051 0.60910958
0.25409756 0.32296051 0.60910958
0.32296051 0.32296051 0.60910958
0.39040527 0.32296051 0.60910958
0.46031366 0.32296051 0.60910958
0.53336780 0.32296051 0.60910958
0.60910958 0.32296051 0.60910958
0.68659086 0.32296051 0.60910958
0.06256172 0.39040527 0.60910958
0.15953878 0.39040527 0.60910958
0.25409756 0.39040527 0.60910958
0.32296051 0.39040527 0.60910958
0.39040527 0.39040527 0.60910958
0.46031366 0.39040527 0.60910958
0.53336780 0.39040527 0.60910958
0.60910958 0.39040527 0.60910958
0.68659086 0.39040527 0.60910958
0.06256172 0.46031366 0.60910958
0.15953878 0.46031366 0.60910958
0.25409756 0.46031366 0.60910958
0.32296051 0.46031366 0.60910958
0.39040527 0.46031366 0.60910958
0.46031366 0.46031366 0.60910958
0.53336780 0.46031366 0.60910958
0.60910958 0.46031366 0.60910958
0.68659086 0.46031366 0.60910958
0.06256172 0.53336780 0.60910958
0.15953878 0.53336780 0.60910958
0.25409756 0.53336780 0.60910958
0.32296051 0.53336780 0.60910958
0.39040527 0.53336780 0.60910958
0.46031366 0.53336780 0.60910958
0.53336780 0.53336780 0.60910958
0.60910958 0.53336780 0.60910958
0.68659086 0.53336780 0.60910958
0.06256172 0.60910958 0.60910958
0.15953878 0.60910958 0.60910958
0.25409756 0.60910958 0.60910958
0.32296051 0.60910958 0.60910958
0.39040527 0.60910958 0.60910958
0.46031366 0.60910958 0.60910958
0.53336780 0.60910958 0.60910958
0.60910958 0.60910958 0.60910958
0.68659086 0.60910958 0.60910958
0.06256172 0.68659086 0.60910958
0.15953878 0.68659086 0.60910958
0.25409756 0.68659086 0.60910958
0.32296051 0.68659086 0.60910958
0.39040527 0.68659086 0.60910958
0.46031366 0.68659086 0.60910958
0.53336780 0.68659086 0.60910958
0.60910958 0.68659086 0.60910958
0.68659086 0.68659086 0.60910958
0.06256172 0.06256172 0.68659086
0.15953878 0.06256172 0.68659086
0.25409756 0.06256172 0.68659086
0.32296051 0.06256172 0.68659086
0.39040527 0.06256172 0.68659086
0.46031366 0.06256172 0.68659086
0.53336780 0.06256172 0.68659086
0.60910958 0.06256172 0.68659086
0.68659086 0.06256172 0.68659086
0.06256172 0.15953878 0.68659086
0.15953878 0.15953878 0.68659086
0.25409756 0.15953878 0.68659086
0.32296051 0.15953878 0.68659086
0.39040527 0.15953878 0.68659086
0.46031366 0.15953878 0.68659086
0.53336780 0.15953878 0.68659086
0.60910958 0.15953878 0.68659086
0.68659086 0.15953878 0.68659086
0.06256172 0.25409756 0.68659086
0.15953878 0.25409756 0.68659086
0.25409756 0.25409756 0.68659086
0.32296051 0.25409756 0.68659086
0.39040527 0.25409756 0.68659086
0.46031366 0.25409756 0.68659086
0.53336780 0.25409756 0.68659086
0.60910958 0.25409756 0.68659086
0.68659086 0.25409756 0.68659086
0.06256172 0.32296051 0.68659086
0.15953878 0.32296051 0.68659086
0.25409756 0.32296051 0.68659086
0.32296051 0.32296051 0.68659086
0.39040527 0.32296051 0.68659086
0.46031366 0.32296051 0.68659086
0.53336780 0.32296051 0.68659086
0.60910958 0.32296051 0.68659086
0.68659086 0.32296051 0.68659086
0.06256172 0.39040527 0.68659086
0.15953878 0.39040527 0.68659086
0.25409756 0.39040527 0.68659086
0.32296051 0.39040527 0.68659086
0.39040527 0.39040527 0.68659086
0.46031366 0.39040527 0.68659086
0.53336780 0.39040527 0.68659086
0.60910958 0.39040527 0.68659086
0.68659086 0.39040527 0.68659086
0.06256172 0.46031366 0.68659086
0.15953878 0.46031366 0.68659086
0.25409756 0.46031366 0.68659086
0.32296051 0.46031366 0.68659086
0.39040527 0.46031366 0.68659086
0.46031366 0.46031366 0.68659086
0.53336780 0.46031366 0.68659086
0.60910958 0.46031366 0.68659086
0.68659086 0.46031366 0.68659086
0.06256172 0.53336780 0.68659086
0.15953878 0.53336780 0.68659086
0.25409756 0.53336780 0.68659086
0.32296051 0.53336780 0.68659086
0.39040527 0.53336780 0.68659086
0.46031366 0.53336780 0.68659086
0.53336780 0.53336780 0.68659086
0.60910958 0.53336780 0.68659086
0.68659086 0.53336780 0.68659086
0.06256172 0.60910958 0.68659086
0.15953878 0.60910958 0.68659086
0.25409756 0.60910958 0.68659086
0.32296051 0.60910958 0.68659086
0.39040527 0.60910958 0.68659086
0.46031366 0.60910958 0.68659086
0.53336780 0.60910958 0.68659086
0.60910958 0.60910958 0.68659086
0.68659086 0.60910958 0.68659086
0.06256172 0.68659086 0.68659086
0.15953878 0.68659086 0.68659086
0.25409756 0.68659086 0.68659086
0.32296051 0.68659086 0.68659086
0.39040527 0.68659086 0.68659086
0.46031366 0.68659086 0.68659086
0.53336780 0.68659086 0.68659086
0.60910958 0.68659086 0.68659086
0.68659086 0.68659086 0.68659086
