src/ffmpeg_scripts/luts/flog-smpte2084_2p00.cube
TITLE "flog-smpte2084_2p00"
LUT_3D_SIZE 33
# Fujifilm F-Log/Rec2020 -> PQ (EOTF Only)/Rec2020, CineEI Shift 2.00, Black Level 0.00% IRE, Input 109% -> Output 109% - Created with LUTCalc v4.01 by Ben Turley October 2020
0.06256172 0.06256172 0.06256172
0.06256172 0.06256172 0.06256172
0.06256172 0.06256172 0.06256172
0.09849569 0.06256172 0.06256172
0.21870702 0.06256172 0.06256172
0.26138814 0.06256172 0.06256172
0.29270005 0.06256172 0.06256172
0.31906960 0.06256172 0.06256172
0.34274569 0.06256172 0.06256172
0.36479415 0.06256172 0.06256172
0.38580610 0.06256172 0.06256172
0.40614235 0.06256172 0.06256172
0.42603731 0.06256172 0.06256172
0.44564970 0.06256172 0.06256172
0.46508970 0.06256172 0.06256172
0.48443483 0.06256172 0.06256172
0.50373960 0.06256172 0.06256172
0.52304185 0.06256172 0.06256172
0.54236697 0.06256172 0.06256172
0.56173093 0.06256172 0.06256172
0.58114236 0.06256172 0.06256172
0.60060424 0.06256172 0.06256172
0.62011505 0.06256172 0.06256172
0.63966979 0.06256172 0.06256172
0.65926068 0.06256172 0.06256172
0.67887782 0.06256172 0.06256172
0.69850965 0.06256172 0.06256172
0.71814339 0.06256172 0.06256172
0.73776535 0.06256172 0.06256172
0.75736122 0.06256172 0.06256172
0.77691633 0.06256172 0.06256172
0.79641582 0.06256172 0.06256172
0.81584482 0.06256172 0.06256172
0.06256172 0.06256172 0.06256172
0.06256172 0.06256172 0.06256172
0.06256172 0.06256172 0.06256172
0.09849569 0.06256172 0.06256172
0.21870702 0.06256172 0.06256172
0.26138814 0.06256172 0.06256172
0.29270005 0.06256172 0.06256172
0.31906960 0.06256172 0.06256172
0.34274569 0.06256172 0.06256172
0.36479415 0.06256172 0.06256172
0.38580610 0.06256172 0.06256172
0.40614235 0.06256172 0.06256172
0.42603731 0.06256172 0.06256172
0.44564970 0.06256172 0.06256172
0.46508970 0.06256172 0.06256172
0.48443483 0.06256172 0.06256172
0.50373960 0.06256172 0.06256172
0.52304185 0.06256172 0.06256172
0.54236697 0.06256172 0.06256172
0.56173093 0.06256172 0.06256172
0.58114236 0.06256172 0.06256172
0.60060424 0.06256172 0.06256172
0.62011505 0.06256172 0.06256172
0.63966979 0.06256172 0.06256172
0.65926068 0.06256172 0.06256172
0.67887782 0.06256172 0.06256172
0.69850965 0.06256172 0.06256172
0.71814339 0.06256172 0.06256172
0.73776535 0.06256172 0.06256172
0.75736122 0.06256172 0.06256172
0.77691633 0.06256172 0.06256172
0.79641582 0.06256172 0.06256172
0.81584482 0.06256172 0.06256172
0.06256172 0.06256172 0.06256172
0.06256172 0.06256172 0.06256172
0.06256172 0.06256172 0.06256172
0.09849569 0.06256172 0.06256172
0.21870702 0.06256172 0.06256172
0.26138814 0.06256172 0.06256172
0.29270005 0.06256172 0.06256172
0.31906960 0.06256172 0.06256172
0.34274569 0.06256172 0.06256172
0.36479415 0.06256172 0.06256172
0.38580610 0.06256172 0.06256172
0.40614235 0.06256172 0.06256172
0.42603731 0.06256172 0.06256172
0.44564970 0.06256172 0.06256172
0.46508970 0.06256172 0.06256172
0.48443483 0.06256172 0.06256172
0.50373960 0.06256172 0.06256172
0.52304185 0.06256172 0.06256172
0.54236697 0.06256172 0.06256172
0.56173093 0.06256172 0.06256172
0.58114236 0.06256172 0.06256172
0.60060424 0.06256172 0.06256172
0.62011505 0.06256172 0.06256172
0.63966979 0.06256172 0.06256172
0.65926068 0.06256172 0.06256172
0.67887782 0.06256172 0.06256172
0.69850965 0.06256172 0.06256172
0.71814339 0.06256172 0.06256172
0.73776535 0.06256172 0.06256172
0.75736122 0.06256172 0.06256172
0.77691633 0.06256172 0.06256172
0.79641582 0.06256172 0.06256172
0.81584482 0.06256172 0.06256172
0.06256172 0.09849569 0.06256172
0.06256172 0.09849569 0.06256172
0.06256172 0.09849569 0.06256172
0.09849569 0.09849569 0.06256172
0.21870702 0.09849569 0.06256172
0.26138814 0.09849569 0.06256172
0.29270005 0.09849569 0.06256172
0.31906960 0.09849569 0.06256172
0.34274569 0.09849569 0.06256172
0.36479415 0.09849569 0.06256172
0.38580610 0.09849569 0.06256172
0.40614235 0.09849569 0.06256172
0.42603731 0.09849569 0.06256172
0.44564970 0.09849569 0.06256172
0.46508970 0.09849569 0.06256172
0.48443483 0.09849569 0.06256172
0.50373960 0.09849569 0.06256172
0.52304185 0.09849569 0.06256172
0.54236697 0.09849569 0.06256172
0.56173093 0.09849569 0.06256172
0.58114236 0.09849569 0.06256172
0.60060424 0.09849569 0.06256172
0.62011505 0.09849569 0.06256172
0.63966979 0.09849569 0.06256172
0.65926068 0.09849569 0.06256172
0.67887782 0.09849569 0.06256172
0.69850965 0.09849569 0.06256172
0.71814339 0.09849569 0.06256172
0.73776535 0.09849569 0.06256172
0.75736122 0.09849569 0.06256172
0.77691633 0.09849569 0.06256172
0.79641582 0.09849569 0.06256172
0.81584482 0.09849569 0.06256172
0.06256172 0.21870702 0.06256172
0.06256172 0.21870702 0.06256172
0.06256172 0.21870702 0.06256172
0.09849569 0.21870702 0.06256172
0.21870702 0.21870702 0.06256172
0.26138814 0.21870702 0.06256172
0.29270005 0.21870702 0.06256172
0.31906960 0.21870702 0.06256172
0.34274569 0.21870702 0.06256172
0.36479415 0.21870702 0.06256172
0.38580610 0.21870702 0.06256172
0.40614235 0.21870702 0.06256172
0.42603731 0.21870702 0.06256172
0.44564970 0.21870702 0.06256172
0.46508970 0.21870702 0.06256172
0.48443483 0.21870702 0.06256172
0.50373960 0.21870702 0.06256172
0.52304185 0.21870702 0.06256172
0.54236697 0.21870702 0.06256172
0.56173093 0.21870702 0.06256172
0.58114236 0.21870702 0.06256172
0.60060424 0.21870702 0.06256172
0.62011505 0.21870702 0.06256172
0.63966979 0.21870702 0.06256172
0.65926068 0.21870702 0.06256172
0.67887782 0.21870702 0.06256172
0.69850965 0.21870702 0.06256172
0.71814339 0.21870702 0.06256172
0.73776535 0.21870702 0.06256172
0.75736122 0.21870702 0.06256172
0.77691633 0.21870702 0.06256172
0.79641582 0.21870702 0.06256172
0.81584482 0.21870702 0.06256172
0.06256172 0.26138814 0.06256172
0.06256172 0.26138814 0.06256172
0.06256172 0.26138814 0.06256172
0.09849569 0.26138814 0.06256172
0.21870702 0.26138814 0.06256172
0.26138814 0.26138814 0.06256172
0.29270005 0.26138814 0.06256172
0.31906960 0.26138814 0.06256172
0.34274569 0.26138814 0.06256172
0.36479415 0.26138814 0.06256172
0.38580610 0.26138814 0.06256172
0.40614235 0.26138814 0.06256172
0.42603731 0.26138814 0.06256172
0.44564970 0.26138814 0.06256172
0.46508970 0.26138814 0.06256172
0.48443483 0.26138814 0.06256172
0.50373960 0.26138814 0.06256172
0.52304185 0.26138814 0.06256172
0.54236697 0.26138814 0.06256172
0.56173093 0.26138814 0.06256172
0.58114236 0.26138814 0.06256172
0.60060424 0.26138814 0.06256172
0.62011505 0.26138814 0.06256172
0.63966979 0.26138814 0.06256172
0.65926068 0.26138814 0.06256172
0.67887782 0.26138814 0.06256172
0.69850965 0.26138814 0.06256172
0.71814339 0.26138814 0.06256172
0.73776535 0.26138814 0.06256172
0.75736122 0.26138814 0.06256172
0.77691633 0.26138814 0.06256172
0.79641582 0.26138814 0.06256172
0.81584482 0.26138814 0.06256172
0.06256172 0.29270005 0.06256172
0.06256172 0.29270005 0.06256172
0.06256172 0.29270005 0.06256172
0.09849569 0.29270005 0.06256172
0.21870702 0.29270005 0.06256172
0.26138814 0.29270005 0.06256172
0.29270005 0.29270005 0.06256172
0.31906960 0.29270005 0.06256172
0.34274569 0.29270005 0.06256172
0.36479415 0.29270005 0.06256172
0.38580610 0.29270005 0.06256172
0.40614235 0.29270005 0.06256172
0.42603731 0.29270005 0.06256172
0.44564970 0.29270005 0.06256172
0.46508970 0.29270005 0.06256172
0.48443483 0.29270005 0.06256172
0.50373960 0.29270005 0.06256172
0.52304185 0.29270005 0.06256172
0.54236697 0.29270005 0.06256172
0.56173093 0.29270005 0.06256172
0.58114236 0.29270005 0.06256172
0.60060424 0.29270005 0.06256172
0.62011505 0.29270005 0.06256172
0.63966979 0.29270005 0.06256172
0.65926068 0.29270005 0.06256172
0.67887782 0.29270005 0.06256172
0.69850965 0.29270005 0.06256172
0.71814339 0.29270005 0.06256172
0.73776535 0.29270005 0.06256172
0.75736122 0.29270005 0.06256172
0.77691633 0.29270005 0.06256172
0.79641582 0.29270005 0.06256172
0.81584482 0.29270005 0.06256172
0.06256172 0.31906960 0.06256172
0.06256172 0.31906960 0.06256172
0.06256172 0.31906960 0.06256172
0.09849569 0.31906960 0.06256172
0.21870702 0.31906960 0.06256172
0.26138814 0.31906960 0.06256172
0.29270005 0.31906960 0.06256172
0.31906960 0.31906960 0.06256172
0.34274569 0.31906960 0.06256172
0.36479415 0.31906960 0.06256172
0.38580610 0.31906960 0.06256172
0.40614235 0.31906960 0.06256172
0.42603731 0.31906960 0.06256172
0.44564970 0.31906960 0.06256172
0.46508970 0.31906960 0.06256172
0.48443483 0.31906960 0.06256172
0.50373960 0.31906960 0.06256172
0.52304185 0.31906960 0.06256172
0.54236697 0.31906960 0.06256172
0.56173093 0.31906960 0.06256172
0.58114236 0.31906960 0.06256172
0.60060424 0.31906960 0.06256172
0.62011505 0.31906960 0.06256172
0.63966979 0.31906960 0.06256172
0.65926068 0.31906960 0.06256172
0.67887782 0.31906960 0.06256172
0.69850965 0.31906960 0.06256172
0.71814339 0.31906960 0.06256172
0.73776535 0.31906960 0.06256172
0.75736122 0.31906960 0.06256172
0.77691633 0.31906960 0.06256172
0.79641582 0.31906960 0.06256172
0.81584482 0.31906960 0.06256172
0.06256172 0.34274569 0.06256172
0.06256172 0.34274569 0.06256172
0.06256172 0.34274569 0.06256172
0.09849569 0.34274569 0.06256172
0.21870702 0.34274569 0.06256172
0.26138814 0.34274569 0.06256172
0.29270005 0.34274569 0.06256172
0.31906960 0.34274569 0.06256172
0.34274569 0.34274569 0.06256172
0.36479415 0.34274569 0.06256172
0.38580610 0.34274569 0.06256172
0.40614235 0.34274569 0.06256172
0.42603731 0.34274569 0.06256172
0.44564970 0.34274569 0.06256172
0.46508970 0.34274569 0.06256172
0.48443483 0.34274569 0.06256172
0.50373960 0.34274569 0.06256172
0.52304185 0.34274569 0.06256172
0.54236697 0.34274569 0.06256172
0.56173093 0.34274569 0.06256172
0.58114236 0.34274569 0.06256172
0.60060424 0.34274569 0.06256172
0.62011505 0.34274569 0.06256172
0.63966979 0.34274569 0.06256172
0.65926068 0.34274569 0.06256172
0.67887782 0.34274569 0.06256172
0.69850965 0.34274569 0.06256172
0.71814339 0.34274569 0.06256172
0.73776535 0.34274569 0.06256172
0.75736122 0.34274569 0.06256172
0.77691633 0.34274569 0.06256172
0.79641582 0.34274569 0.06256172
0.81584482 0.34274569 0.06256172
0.06256172 0.36479415 0.06256172
0.06256172 0.36479415 0.06256172
0.06256172 0.36479415 0.06256172
0.09849569 0.36479415 0.06256172
0.21870702 0.36479415 0.06256172
0.26138814 0.36479415 0.06256172
0.29270005 0.36479415 0.06256172
0.31906960 0.36479415 0.06256172
0.34274569 0.36479415 0.06256172
0.36479415 0.36479415 0.06256172
0.38580610 0.36479415 0.06256172
0.40614235 0.36479415 0.06256172
0.42603731 0.36479415 0.06256172
0.44564970 0.36479415 0.06256172
0.46508970 0.36479415 0.06256172
0.48443483 0.36479415 0.06256172
0.50373960 0.36479415 0.06256172
0.52304185 0.36479415 0.06256172
0.54236697 0.36479415 0.06256172
0.56173093 0.36479415 0.06256172
0.58114236 0.36479415 0.06256172
0.60060424 0.36479415 0.06256172
0.62011505 0.36479415 0.06256172
0.63966979 0.36479415 0.06256172
0.65926068 0.36479415 0.06256172
0.67887782 0.36479415 0.06256172
0.69850965 0.36479415 0.06256172
0.71814339 0.36479415 0.06256172
0.73776535 0.36479415 0.06256172
0.75736122 0.36479415 0.06256172
0.77691633 0.36479415 0.06256172
0.79641582 0.36479415 0.06256172
0.81584482 0.36479415 0.06256172
0.06256172 0.38580610 0.06256172
0.06256172 0.38580610 0.06256172
0.06256172 0.38580610 0.06256172
0.09849569 0.38580610 0.06256172
0.21870702 0.38580610 0.06256172
0.26138814 0.38580610 0.06256172
0.29270005 0.38580610 0.06256172
0.31906960 0.38580610 0.06256172
0.34274569 0.38580610 0.06256172
0.36479415 0.38580610 0.06256172
0.38580610 0.38580610 0.06256172
0.40614235 0.38580610 0.06256172
0.42603731 0.38580610 0.06256172
0.44564970 0.38580610 0.06256172
0.46508970 0.38580610 0.06256172
0.48443483 0.38580610 0.06256172
0.50373960 0.38580610 0.06256172
0.52304185 0.38580610 0.06256172
0.54236697 0.38580610 0.06256172
0.56173093 0.38580610 0.06256172
0.58114236 0.38580610 0.06256172
0.60060424 0.38580610 0.06256172
0.62011505 0.38580610 0.06256172
0.63966979 0.38580610 0.06256172
0.65926068 0.38580610 0.06256172
0.67887782 0.38580610 0.06256172
0.69850965 0.38580610 0.06256172
0.71814339 0.38580610 0.06256172
0.73776535 0.38580610 0.06256172
0.75736122 0.38580610 0.06256172
0.77691633 0.38580610 0.06256172
0.79641582 0.38580610 0.06256172
0.81584482 0.38580610 0.06256172
0.06256172 0.40614235 0.06256172
0.06256172 0.40614235 0.06256172
0.06256172 0.40614235 0.06256172
0.09849569 0.40614235 0.06256172
0.21870702 0.40614235 0.06256172
0.26138814 0.40614235 0.06256172
0.29270005 0.40614235 0.06256172
0.31906960 0.40614235 0.06256172
0.34274569 0.40614235 0.06256172
0.36479415 0.40614235 0.06256172
0.38580610 0.40614235 0.06256172
0.40614235 0.40614235 0.06256172
0.42603731 0.40614235 0.06256172
0.44564970 0.40614235 0.06256172
0.46508970 0.40614235 0.06256172
0.48443483 0.40614235 0.06256172
0.50373960 0.40614235 0.06256172
0.52304185 0.40614235 0.06256172
0.54236697 0.40614235 0.06256172
0.56173093 0.40614235 0.06256172
0.58114236 0.40614235 0.06256172
0.60060424 0.40614235 0.06256172
0.62011505 0.40614235 0.06256172
0.63966979 0.40614235 0.06256172
0.65926068 0.40614235 0.06256172
0.67887782 0.40614235 0.06256172
0.69850965 0.40614235 0.06256172
0.71814339 0.40614235 0.06256172
0.73776535 0.40614235 0.06256172
0.75736122 0.40614235 0.06256172
0.77691633 0.40614235 0.06256172
0.79641582 0.40614235 0.06256172
0.81584482 0.40614235 0.06256172
0.06256172 0.42603731 0.06256172
0.06256172 0.42603731 0.06256172
0.06256172 0.42603731 0.06256172
0.09849569 0.42603731 0.06256172
0.21870702 0.42603731 0.06256172
0.26138814 0.42603731 0.06256172
0.29270005 0.42603731 0.06256172
0.31906960 0.42603731 0.06256172
0.34274569 0.42603731 0.06256172
0.36479415 0.42603731 0.06256172
0.38580610 0.42603731 0.06256172
0.40614235 0.42603731 0.06256172
0.42603731 0.42603731 0.06256172
0.44564970 0.42603731 0.06256172
0.46508970 0.42603731 0.06256172
0.48443483 0.42603731 0.06256172
0.50373960 0.42603731 0.06256172
0.52304185 0.42603731 0.06256172
0.54236697 0.42603731 0.06256172
0.56173093 0.42603731 0.06256172
0.58114236 0.42603731 0.06256172
0.60060424 0.42603731 0.06256172
0.62011505 0.42603731 0.06256172
0.63966979 0.42603731 0.06256172
0.65926068 0.42603731 0.06256172
0.67887782 0.42603731 0.06256172
0.69850965 0.42603731 0.06256172
0.71814339 0.42603731 0.06256172
0.73776535 0.42603731 0.06256172
0.75736122 0.42603731 0.06256172
0.77691633 0.42603731 0.06256172
0.79641582 0.42603731 0.06256172
0.81584482 0.42603731 0.06256172
0.06256172 0.44564970 0.06256172
0.06256172 0.44564970 0.06256172
0.06256172 0.44564970 0.06256172
0.09849569 0.44564970 0.06256172
0.21870702 0.44564970 0.06256172
0.26138814 0.44564970 0.06256172
0.29270005 0.44564970 0.06256172
0.31906960 0.44564970 0.06256172
0.34274569 0.44564970 0.06256172
0.36479415 0.44564970 0.06256172
0.38580610 0.44564970 0.06256172
0.40614235 0.44564970 0.06256172
0.42603731 0.44564970 0.06256172
0.44564970 0.44564970 0.06256172
0.46508970 0.44564970 0.06256172
0.48443483 0.44564970 0.06256172
0.50373960 0.44564970 0.06256172
0.52304185 0.44564970 0.06256172
0.54236697 0.44564970 0.06256172
0.56173093 0.44564970 0.06256172
0.58114236 0.44564970 0.06256172
0.60060424 0.44564970 0.06256172
0.62011505 0.44564970 0.06256172
0.63966979 0.44564970 0.06256172
0.65926068 0.44564970 0.06256172
0.67887782 0.44564970 0.06256172
0.69850965 0.44564970 0.06256172
0.71814339 0.44564970 0.06256172
0.73776535 0.44564970 0.06256172
0.75736122 0.44564970 0.06256172
0.77691633 0.44564970 0.06256172
0.79641582 0.44564970 0.06256172
0.81584482 0.44564970 0.06256172
0.06256172 0.46508970 0.06256172
0.06256172 0.46508970 0.06256172
0.06256172 0.46508970 0.06256172
0.09849569 0.46508970 0.06256172
0.21870702 0.46508970 0.06256172
0.26138814 0.46508970 0.06256172
0.29270005 0.46508970 0.06256172
0.31906960 0.46508970 0.06256172
0.34274569 0.46508970 0.06256172
0.36479415 0.46508970 0.06256172
0.38580610 0.46508970 0.06256172
0.40614235 0.46508970 0.06256172
0.42603731 0.46508970 0.06256172
0.44564970 0.46508970 0.06256172
0.46508970 0.46508970 0.06256172
0.48443483 0.46508970 0.06256172
0.50373960 0.46508970 0.06256172
0.52304185 0.46508970 0.06256172
0.54236697 0.46508970 0.06256172
0.56173093 0.46508970 0.06256172
0.58114236 0.46508970 0.06256172
0.60060424 0.46508970 0.06256172
0.62011505 0.46508970 0.06256172
0.63966979 0.46508970 0.06256172
0.65926068 0.46508970 0.06256172
0.67887782 0.46508970 0.06256172
0.69850965 0.46508970 0.06256172
0.71814339 0.46508970 0.06256172
0.73776535 0.46508970 0.06256172
0.75736122 0.46508970 0.06256172
0.77691633 0.46508970 0.06256172
0.79641582 0.46508970 0.06256172
0.81584482 0.46508970 0.06256172
0.06256172 0.48443483 0.06256172
0.06256172 0.48443483 0.06256172
0.06256172 0.48443483 0.06256172
0.09849569 0.48443483 0.06256172
0.21870702 0.48443483 0.06256172
0.26138814 0.48443483 0.06256172
0.29270005 0.48443483 0.06256172
0.31906960 0.48443483 0.06256172
0.34274569 0.48443483 0.06256172
0.36479415 0.48443483 0.06256172
0.38580610 0.48443483 0.06256172
0.40614235 0.48443483 0.06256172
0.42603731 0.48443483 0.06256172
0.44564970 0.48443483 0.06256172
0.46508970 0.48443483 0.06256172
0.48443483 0.48443483 0.06256172
0.50373960 0.48443483 0.06256172
0.52304185 0.48443483 0.06256172
0.54236697 0.48443483 0.06256172
0.56173093 0.48443483 0.06256172
0.58114236 0.48443483 0.06256172
0.60060424 0.48443483 0.06256172
0.62011505 0.48443483 0.06256172
0.63966979 0.48443483 0.06256172
0.65926068 0.48443483 0.06256172
0.67887782 0.48443483 0.06256172
0.69850965 0.48443483 0.06256172
0.71814339 0.48443483 0.06256172
0.73776535 0.48443483 0.06256172
0.75736122 0.48443483 0.06256172
0.77691633 0.48443483 0.06256172
0.79641582 0.48443483 0.06256172
0.81584482 0.48443483 0.06256172
0.06256172 0.50373960 0.06256172
0.06256172 0.50373960 0.06256172
0.06256172 0.50373960 0.06256172
0.09849569 0.50373960 0.06256172
0.21870702 0.50373960 0.06256172
0.26138814 0.50373960 0.06256172
0.29270005 0.50373960 0.06256172
0.31906960 0.50373960 0.06256172
0.34274569 0.50373960 0.06256172
0.36479415 0.50373960 0.06256172
0.38580610 0.50373960 0.06256172
0.40614235 0.50373960 0.06256172
0.42603731 0.50373960 0.06256172
0.44564970 0.50373960 0.06256172
0.46508970 0.50373960 0.06256172
0.48443483 0.50373960 0.06256172
0.50373960 0.50373960 0.06256172
0.52304185 0.50373960 0.06256172
0.54236697 0.50373960 0.06256172
0.56173093 0.50373960 0.06256172
0.58114236 0.50373960 0.06256172
0.60060424 0.50373960 0.06256172
0.62011505 0.50373960 0.06256172
0.63966979 0.50373960 0.06256172
0.65926068 0.50373960 0.06256172
0.67887782 0.50373960 0.06256172
0.69850965 0.50373960 0.06256172
0.71814339 0.50373960 0.06256172
0.73776535 0.50373960 0.06256172
0.75736122 0.50373960 0.06256172
0.77691633 0.50373960 0.06256172
0.79641582 0.50373960 0.06256172
0.81584482 0.50373960 0.06256172
0.06256172 0.52304185 0.06256172
0.06256172 0.52304185 0.06256172
0.06256172 0.52304185 0.06256172
0.09849569 0.52304185 0.06256172
0.21870702 0.52304185 0.06256172
0.26138814 0.52304185 0.06256172
0.29270005 0.52304185 0.06256172
0.31906960 0.52304185 0.06256172
0.34274569 0.52304185 0.06256172
0.36479415 0.52304185 0.06256172
0.38580610 0.52304185 0.06256172
0.40614235 0.52304185 0.06256172
0.42603731 0.52304185 0.06256172
0.44564970 0.52304185 0.06256172
0.46508970 0.52304185 0.06256172
0.48443483 0.52304185 0.06256172
0.50373960 0.52304185 0.06256172
0.52304185 0.52304185 0.06256172
0.54236697 0.52304185 0.06256172
0.56173093 0.52304185 0.06256172
0.58114236 0.52304185 0.06256172
0.60060424 0.52304185 0.06256172
0.62011505 0.52304185 0.06256172
0.63966979 0.52304185 0.06256172
0.65926068 0.52304185 0.06256172
0.67887782 0.52304185 0.06256172
0.69850965 0.52304185 0.06256172
0.71814339 0.52304185 0.06256172
0.73776535 0.52304185 0.06256172
0.75736122 0.52304185 0.06256172
0.77691633 0.52304185 0.06256172
0.79641582 0.52304185 0.06256172
0.81584482 0.52304185 0.06256172
0.06256172 0.54236697 0.06256172
0.06256172 0.54236697 0.06256172
0.06256172 0.54236697 0.06256172
0.09849569 0.54236697 0.06256172
0.21870702 0.54236697 0.06256172
0.26138814 0.54236697 0.06256172
0.29270005 0.54236697 0.06256172
0.31906960 0.54236697 0.06256172
0.34274569 0.54236697 0.06256172
0.36479415 0.54236697 0.06256172
0.38580610 0.54236697 0.06256172
0.40614235 0.54236697 0.06256172
0.42603731 0.54236697 0.06256172
0.44564970 0.54236697 0.06256172
0.46508970 0.54236697 0.06256172
0.48443483 0.54236697 0.06256172
0.50373960 0.54236697 0.06256172
0.52304185 0.54236697 0.06256172
0.54236697 0.54236697 0.06256172
0.56173093 0.54236697 0.06256172
0.58114236 0.54236697 0.06256172
0.60060424 0.54236697 0.06256172
0.62011505 0.54236697 0.06256172
0.63966979 0.54236697 0.06256172
0.65926068 0.54236697 0.06256172
0.67887782 0.54236697 0.06256172
0.69850965 0.54236697 0.06256172
0.71814339 0.54236697 0.06256172
0.73776535 0.54236697 0.06256172
0.75736122 0.54236697 0.06256172
0.77691633 0.54236697 0.06256172
0.79641582 0.54236697 0.06256172
0.81584482 0.54236697 0.06256172
0.06256172 0.56173093 0.06256172
0.06256172 0.56173093 0.06256172
0.06256172 0.56173093 0.06256172
0.09849569 0.56173093 0.06256172
0.21870702 0.56173093 0.06256172
0.26138814 0.56173093 0.06256172
0.29270005 0.56173093 0.06256172
0.31906960 0.56173093 0.06256172
0.34274569 0.56173093 0.06256172
0.36479415 0.56173093 0.06256172
0.38580610 0.56173093 0.06256172
0.40614235 0.56173093 0.06256172
0.42603731 0.56173093 0.06256172
0.44564970 0.56173093 0.06256172
0.46508970 0.56173093 0.06256172
0.48443483 0.56173093 0.06256172
0.50373960 0.56173093 0.06256172
0.52304185 0.56173093 0.06256172
0.54236697 0.56173093 0.06256172
0.56173093 0.56173093 0.06256172
0.58114236 0.56173093 0.06256172
0.60060424 0.56173093 0.06256172
0.62011505 0.56173093 0.06256172
0.63966979 0.56173093 0.06256172
0.65926068 0.56173093 0.06256172
0.67887782 0.56173093 0.06256172
0.69850965 0.56173093 0.06256172
0.71814339 0.56173093 0.06256172
0.73776535 0.56173093 0.06256172
0.75736122 0.56173093 0.06256172
0.77691633 0.56173093 0.06256172
0.79641582 0.56173093 0.06256172
0.81584482 0.56173093 0.06256172
0.06256172 0.58114236 0.06256172
0.06256172 0.58114236 0.06256172
0.06256172 0.58114236 0.06256172
0.09849569 0.58114236 0.06256172
0.21870702 0.58114236 0.06256172
0.26138814 0.58114236 0.06256172
0.29270005 0.58114236 0.06256172
0.31906960 0.58114236 0.06256172
0.34274569 0.58114236 0.06256172
0.36479415 0.58114236 0.06256172
0.38580610 0.58114236 0.06256172
0.40614235 0.58114236 0.06256172
0.42603731 0.58114236 0.06256172
0.44564970 0.58114236 0.06256172
0.46508970 0.58114236 0.06256172
0.48443483 0.58114236 0.06256172
0.50373960 0.58114236 0.06256172
0.52304185 0.58114236 0.06256172
0.54236697 0.58114236 0.06256172
0.56173093 0.58114236 0.06256172
0.58114236 0.58114236 0.06256172
0.60060424 0.58114236 0.06256172
0.62011505 0.58114236 0.06256172
0.63966979 0.58114236 0.06256172
0.65926068 0.58114236 0.06256172
0.67887782 0.58114236 0.06256172
0.69850965 0.58114236 0.06256172
0.71814339 0.58114236 0.06256172
0.73776535 0.58114236 0.06256172
0.75736122 0.58114236 0.06256172
0.77691633 0.58114236 0.06256172
0.79641582 0.58114236 0.06256172
0.81584482 0.58114236 0.06256172
0.06256172 0.60060424 0.06256172
0.06256172 0.60060424 0.06256172
0.06256172 0.60060424 0.06256172
0.09849569 0.60060424 0.06256172
0.21870702 0.60060424 0.06256172
0.26138814 0.60060424 0.06256172
0.29270005 0.60060424 0.06256172
0.31906960 0.60060424 0.06256172
0.34274569 0.60060424 0.06256172
0.36479415 0.60060424 0.06256172
0.38580610 0.60060424 0.06256172
0.40614235 0.60060424 0.06256172
0.42603731 0.60060424 0.06256172
0.44564970 0.60060424 0.06256172
0.46508970 0.60060424 0.06256172
0.48443483 0.60060424 0.06256172
0.50373960 0.60060424 0.06256172
0.52304185 0.60060424 0.06256172
0.54236697 0.60060424 0.06256172
0.56173093 0.60060424 0.06256172
0.58114236 0.60060424 0.06256172
0.60060424 0.60060424 0.06256172
0.62011505 0.60060424 0.06256172
0.63966979 0.60060424 0.06256172
0.65926068 0.60060424 0.06256172
0.67887782 0.60060424 0.06256172
0.69850965 0.60060424 0.06256172
