src/ffmpeg_scripts/luts/flog-smpte2084_2p67.cube
TITLE "flog-smpte2084_2p67"
LUT_3D_SIZE 33
# Fujifilm F-Log/Rec2020 -> PQ (EOTF Only)/Rec2020, CineEI Shift 2.67, Black Level 0.00% IRE, Input 109% -> Output 109% - Created with LUTCalc v4.01 by Ben Turley October 2020
0.06256172 0.06256172 0.06256172
0.06256172 0.06256172 0.06256172
0.06256172 0.06256172 0.06256172
0.10672851 0.06256172 0.06256172
0.24287364 0.06256172 0.06256172
0.28938145 0.06256172 0.06256172
0.32310602 0.06256172 0.06256172
0.35128388 0.06256172 0.06256172
0.37642659 0.06256172 0.06256172
0.39971797 0.06256172 0.06256172
0.42181167 0.06256172 0.06256172
0.44310521 0.06256172 0.06256172
0.46385607 0.06256172 0.06256172
0.48423814 0.06256172 0.06256172
0.50437199 0.06256172 0.06256172
0.52434238 0.06256172 0.06256172
0.54420908 0.06256172 0.06256172
0.56401377 0.06256172 0.06256172
0.58378476 0.06256172 0.06256172
0.60354027 0.06256172 0.06256172
0.62329077 0.06256172 0.06256172
0.64304077 0.06256172 0.06256172
0.66279012 0.06256172 0.06256172
0.68253505 0.06256172 0.06256172
0.70226899 0.06256172 0.06256172
0.72198321 0.06256172 0.06256172
0.74166736 0.06256172 0.06256172
0.76130985 0.06256172 0.06256172
0.78089826 0.06256172 0.06256172
0.80041961 0.06256172 0.06256172
0.81986056 0.06256172 0.06256172
0.83920768 0.06256172 0.06256172
0.85844755 0.06256172 0.06256172
0.06256172 0.06256172 0.06256172
0.06256172 0.06256172 0.06256172
0.06256172 0.06256172 0.06256172
0.10672851 0.06256172 0.06256172
0.24287364 0.06256172 0.06256172
0.28938145 0.06256172 0.06256172
0.32310602 0.06256172 0.06256172
0.35128388 0.06256172 0.06256172
0.37642659 0.06256172 0.06256172
0.39971797 0.06256172 0.06256172
0.42181167 0.06256172 0.06256172
0.44310521 0.06256172 0.06256172
0.46385607 0.06256172 0.06256172
0.48423814 0.06256172 0.06256172
0.50437199 0.06256172 0.06256172
0.52434238 0.06256172 0.06256172
0.54420908 0.06256172 0.06256172
0.56401377 0.06256172 0.06256172
0.58378476 0.06256172 0.06256172
0.60354027 0.06256172 0.06256172
0.62329077 0.06256172 0.06256172
0.64304077 0.06256172 0.06256172
0.66279012 0.06256172 0.06256172
0.68253505 0.06256172 0.06256172
0.70226899 0.06256172 0.06256172
0.72198321 0.06256172 0.06256172
0.74166736 0.06256172 0.06256172
0.76130985 0.06256172 0.06256172
0.78089826 0.06256172 0.06256172
0.80041961 0.06256172 0.06256172
0.81986056 0.06256172 0.06256172
0.83920768 0.06256172 0.06256172
0.85844755 0.06256172 0.06256172
0.06256172 0.06256172 0.06256172
0.06256172 0.06256172 0.06256172
0.06256172 0.06256172 0.06256172
0.10672851 0.06256172 0.06256172
0.24287364 0.06256172 0.06256172
0.28938145 0.06256172 0.06256172
0.32310602 0.06256172 0.06256172
0.35128388 0.06256172 0.06256172
0.37642659 0.06256172 0.06256172
0.39971797 0.06256172 0.06256172
0.42181167 0.06256172 0.06256172
0.44310521 0.06256172 0.06256172
0.46385607 0.06256172 0.06256172
0.48423814 0.06256172 0.06256172
0.50437199 0.06256172 0.06256172
0.52434238 0.06256172 0.06256172
0.54420908 0.06256172 0.06256172
0.56401377 0.06256172 0.06256172
0.58378476 0.06256172 0.06256172
0.60354027 0.06256172 0.06256172
0.62329077 0.06256172 0.06256172
0.64304077 0.06256172 0.06256172
0.66279012 0.06256172 0.06256172
0.68253505 0.06256172 0.06256172
0.70226899 0.06256172 0.06256172
0.72198321 0.06256172 0.06256172
0.74166736 0.06256172 0.06256172
0.76130985 0.06256172 0.06256172
0.78089826 0.06256172 0.06256172
0.80041961 0.06256172 0.06256172
0.81986056 0.06256172 0.06256172
0.83920768 0.06256172 0.06256172
0.85844755 0.06256172 0.06256172
0.06256172 0.10672851 0.06256172
0.06256172 0.10672851 0.06256172
0.06256172 0.10672851 0.06256172
0.10672851 0.10672851 0.06256172
0.24287364 0.10672851 0.06256172
0.28938145 0.10672851 0.06256172
0.32310602 0.10672851 0.06256172
0.35128388 0.10672851 0.06256172
0.37642659 0.10672851 0.06256172
0.39971797 0.10672851 0.06256172
0.42181167 0.10672851 0.06256172
0.44310521 0.10672851 0.06256172
0.46385607 0.10672851 0.06256172
0.48423814 0.10672851 0.06256172
0.50437199 0.10672851 0.06256172
0.52434238 0.10672851 0.06256172
0.54420908 0.10672851 0.06256172
0.56401377 0.10672851 0.06256172
0.58378476 0.10672851 0.06256172
0.60354027 0.10672851 0.06256172
0.62329077 0.10672851 0.06256172
0.64304077 0.10672851 0.06256172
0.66279012 0.10672851 0.06256172
0.68253505 0.10672851 0.06256172
0.70226899 0.10672851 0.06256172
0.72198321 0.10672851 0.06256172
0.74166736 0.10672851 0.06256172
0.76130985 0.10672851 0.06256172
0.78089826 0.10672851 0.06256172
0.80041961 0.10672851 0.06256172
0.81986056 0.10672851 0.06256172
0.83920768 0.10672851 0.06256172
0.85844755 0.10672851 0.06256172
0.06256172 0.24287364 0.06256172
0.06256172 0.24287364 0.06256172
0.06256172 0.24287364 0.06256172
0.10672851 0.24287364 0.06256172
0.24287364 0.24287364 0.06256172
0.28938145 0.24287364 0.06256172
0.32310602 0.24287364 0.06256172
0.35128388 0.24287364 0.06256172
0.37642659 0.24287364 0.06256172
0.39971797 0.24287364 0.06256172
0.42181167 0.24287364 0.06256172
0.44310521 0.24287364 0.06256172
0.46385607 0.24287364 0.06256172
0.48423814 0.24287364 0.06256172
0.50437199 0.24287364 0.06256172
0.52434238 0.24287364 0.06256172
0.54420908 0.24287364 0.06256172
0.56401377 0.24287364 0.06256172
0.58378476 0.24287364 0.06256172
0.60354027 0.24287364 0.06256172
0.62329077 0.24287364 0.06256172
0.64304077 0.24287364 0.06256172
0.66279012 0.24287364 0.06256172
0.68253505 0.24287364 0.06256172
0.70226899 0.24287364 0.06256172
0.72198321 0.24287364 0.06256172
0.74166736 0.24287364 0.06256172
0.76130985 0.24287364 0.06256172
0.78089826 0.24287364 0.06256172
0.80041961 0.24287364 0.06256172
0.81986056 0.24287364 0.06256172
0.83920768 0.24287364 0.06256172
0.85844755 0.24287364 0.06256172
0.06256172 0.28938145 0.06256172
0.06256172 0.28938145 0.06256172
0.06256172 0.28938145 0.06256172
0.10672851 0.28938145 0.06256172
0.24287364 0.28938145 0.06256172
0.28938145 0.28938145 0.06256172
0.32310602 0.28938145 0.06256172
0.35128388 0.28938145 0.06256172
0.37642659 0.28938145 0.06256172
0.39971797 0.28938145 0.06256172
0.42181167 0.28938145 0.06256172
0.44310521 0.28938145 0.06256172
0.46385607 0.28938145 0.06256172
0.48423814 0.28938145 0.06256172
0.50437199 0.28938145 0.06256172
0.52434238 0.28938145 0.06256172
0.54420908 0.28938145 0.06256172
0.56401377 0.28938145 0.06256172
0.58378476 0.28938145 0.06256172
0.60354027 0.28938145 0.06256172
0.62329077 0.28938145 0.06256172
0.64304077 0.28938145 0.06256172
0.66279012 0.28938145 0.06256172
0.68253505 0.28938145 0.06256172
0.70226899 0.28938145 0.06256172
0.72198321 0.28938145 0.06256172
0.74166736 0.28938145 0.06256172
0.76130985 0.28938145 0.06256172
0.78089826 0.28938145 0.06256172
0.80041961 0.28938145 0.06256172
0.81986056 0.28938145 0.06256172
0.83920768 0.28938145 0.06256172
0.85844755 0.28938145 0.06256172
0.06256172 0.32310602 0.06256172
0.06256172 0.32310602 0.06256172
0.06256172 0.32310602 0.06256172
0.10672851 0.32310602 0.06256172
0.24287364 0.32310602 0.06256172
0.28938145 0.32310602 0.06256172
0.32310602 0.32310602 0.06256172
0.35128388 0.32310602 0.06256172
0.37642659 0.32310602 0.06256172
0.39971797 0.32310602 0.06256172
0.42181167 0.32310602 0.06256172
0.44310521 0.32310602 0.06256172
0.46385607 0.32310602 0.06256172
0.48423814 0.32310602 0.06256172
0.50437199 0.32310602 0.06256172
0.52434238 0.32310602 0.06256172
0.54420908 0.32310602 0.06256172
0.56401377 0.32310602 0.06256172
0.58378476 0.32310602 0.06256172
0.60354027 0.32310602 0.06256172
0.62329077 0.32310602 0.06256172
0.64304077 0.32310602 0.06256172
0.66279012 0.32310602 0.06256172
0.68253505 0.32310602 0.06256172
0.70226899 0.32310602 0.06256172
0.72198321 0.32310602 0.06256172
0.74166736 0.32310602 0.06256172
0.76130985 0.32310602 0.06256172
0.78089826 0.32310602 0.06256172
0.80041961 0.32310602 0.06256172
0.81986056 0.32310602 0.06256172
0.83920768 0.32310602 0.06256172
0.85844755 0.32310602 0.06256172
0.06256172 0.35128388 0.06256172
0.06256172 0.35128388 0.06256172
0.06256172 0.35128388 0.06256172
0.10672851 0.35128388 0.06256172
0.24287364 0.35128388 0.06256172
0.28938145 0.35128388 0.06256172
0.32310602 0.35128388 0.06256172
0.35128388 0.35128388 0.06256172
0.37642659 0.35128388 0.06256172
0.39971797 0.35128388 0.06256172
0.42181167 0.35128388 0.06256172
0.44310521 0.35128388 0.06256172
0.46385607 0.35128388 0.06256172
0.48423814 0.35128388 0.06256172
0.50437199 0.35128388 0.06256172
0.52434238 0.35128388 0.06256172
0.54420908 0.35128388 0.06256172
0.56401377 0.35128388 0.06256172
0.58378476 0.35128388 0.06256172
0.60354027 0.35128388 0.06256172
0.62329077 0.35128388 0.06256172
0.64304077 0.35128388 0.06256172
0.66279012 0.35128388 0.06256172
0.68253505 0.35128388 0.06256172
0.70226899 0.35128388 0.06256172
0.72198321 0.35128388 0.06256172
0.74166736 0.35128388 0.06256172
0.76130985 0.35128388 0.06256172
0.78089826 0.35128388 0.06256172
0.80041961 0.35128388 0.06256172
0.81986056 0.35128388 0.06256172
0.83920768 0.35128388 0.06256172
0.85844755 0.35128388 0.06256172
0.06256172 0.37642659 0.06256172
0.06256172 0.37642659 0.06256172
0.06256172 0.37642659 0.06256172
0.10672851 0.37642659 0.06256172
0.24287364 0.37642659 0.06256172
0.28938145 0.37642659 0.06256172
0.32310602 0.37642659 0.06256172
0.35128388 0.37642659 0.06256172
0.37642659 0.37642659 0.06256172
0.39971797 0.37642659 0.06256172
0.42181167 0.37642659 0.06256172
0.44310521 0.37642659 0.06256172
0.46385607 0.37642659 0.06256172
0.48423814 0.37642659 0.06256172
0.50437199 0.37642659 0.06256172
0.52434238 0.37642659 0.06256172
0.54420908 0.37642659 0.06256172
0.56401377 0.37642659 0.06256172
0.58378476 0.37642659 0.06256172
0.60354027 0.37642659 0.06256172
0.62329077 0.37642659 0.06256172
0.64304077 0.37642659 0.06256172
0.66279012 0.37642659 0.06256172
0.68253505 0.37642659 0.06256172
0.70226899 0.37642659 0.06256172
0.72198321 0.37642659 0.06256172
0.74166736 0.37642659 0.06256172
0.76130985 0.37642659 0.06256172
0.78089826 0.37642659 0.06256172
0.80041961 0.37642659 0.06256172
0.81986056 0.37642659 0.06256172
0.83920768 0.37642659 0.06256172
0.85844755 0.37642659 0.06256172
0.06256172 0.39971797 0.06256172
0.06256172 0.39971797 0.06256172
0.06256172 0.39971797 0.06256172
0.10672851 0.39971797 0.06256172
0.24287364 0.39971797 0.06256172
0.28938145 0.39971797 0.06256172
0.32310602 0.39971797 0.06256172
0.35128388 0.39971797 0.06256172
0.37642659 0.39971797 0.06256172
0.39971797 0.39971797 0.06256172
0.42181167 0.39971797 0.06256172
0.44310521 0.39971797 0.06256172
0.46385607 0.39971797 0.06256172
0.48423814 0.39971797 0.06256172
0.50437199 0.39971797 0.06256172
0.52434238 0.39971797 0.06256172
0.54420908 0.39971797 0.06256172
0.56401377 0.39971797 0.06256172
0.58378476 0.39971797 0.06256172
0.60354027 0.39971797 0.06256172
0.62329077 0.39971797 0.06256172
0.64304077 0.39971797 0.06256172
0.66279012 0.39971797 0.06256172
0.68253505 0.39971797 0.06256172
0.70226899 0.39971797 0.06256172
0.72198321 0.39971797 0.06256172
0.74166736 0.39971797 0.06256172
0.76130985 0.39971797 0.06256172
0.78089826 0.39971797 0.06256172
0.80041961 0.39971797 0.06256172
0.81986056 0.39971797 0.06256172
0.83920768 0.39971797 0.06256172
0.85844755 0.39971797 0.06256172
0.06256172 0.42181167 0.06256172
0.06256172 0.42181167 0.06256172
0.06256172 0.42181167 0.06256172
0.10672851 0.42181167 0.06256172
0.24287364 0.42181167 0.06256172
0.28938145 0.42181167 0.06256172
0.32310602 0.42181167 0.06256172
0.35128388 0.42181167 0.06256172
0.37642659 0.42181167 0.06256172
0.39971797 0.42181167 0.06256172
0.42181167 0.42181167 0.06256172
0.44310521 0.42181167 0.06256172
0.46385607 0.42181167 0.06256172
0.48423814 0.42181167 0.06256172
0.50437199 0.42181167 0.06256172
0.52434238 0.42181167 0.06256172
0.54420908 0.42181167 0.06256172
0.56401377 0.42181167 0.06256172
0.58378476 0.42181167 0.06256172
0.60354027 0.42181167 0.06256172
0.62329077 0.42181167 0.06256172
0.64304077 0.42181167 0.06256172
0.66279012 0.42181167 0.06256172
0.68253505 0.42181167 0.06256172
0.70226899 0.42181167 0.06256172
0.72198321 0.42181167 0.06256172
0.74166736 0.42181167 0.06256172
0.76130985 0.42181167 0.06256172
0.78089826 0.42181167 0.06256172
0.80041961 0.42181167 0.06256172
0.81986056 0.42181167 0.06256172
0.83920768 0.42181167 0.06256172
0.85844755 0.42181167 0.06256172
0.06256172 0.44310521 0.06256172
0.06256172 0.44310521 0.06256172
0.06256172 0.44310521 0.06256172
0.10672851 0.44310521 0.06256172
0.24287364 0.44310521 0.06256172
0.28938145 0.44310521 0.06256172
0.32310602 0.44310521 0.06256172
0.35128388 0.44310521 0.06256172
0.37642659 0.44310521 0.06256172
0.39971797 0.44310521 0.06256172
0.42181167 0.44310521 0.06256172
0.44310521 0.44310521 0.06256172
0.46385607 0.44310521 0.06256172
0.48423814 0.44310521 0.06256172
0.50437199 0.44310521 0.06256172
0.52434238 0.44310521 0.06256172
0.54420908 0.44310521 0.06256172
0.56401377 0.44310521 0.06256172
0.58378476 0.44310521 0.06256172
0.60354027 0.44310521 0.06256172
0.62329077 0.44310521 0.06256172
0.64304077 0.44310521 0.06256172
0.66279012 0.44310521 0.06256172
0.68253505 0.44310521 0.06256172
0.70226899 0.44310521 0.06256172
0.72198321 0.44310521 0.06256172
0.74166736 0.44310521 0.06256172
0.76130985 0.44310521 0.06256172
0.78089826 0.44310521 0.06256172
0.80041961 0.44310521 0.06256172
0.81986056 0.44310521 0.06256172
0.83920768 0.44310521 0.06256172
0.85844755 0.44310521 0.06256172
0.06256172 0.46385607 0.06256172
0.06256172 0.46385607 0.06256172
0.06256172 0.46385607 0.06256172
0.10672851 0.46385607 0.06256172
0.24287364 0.46385607 0.06256172
0.28938145 0.46385607 0.06256172
0.32310602 0.46385607 0.06256172
0.35128388 0.46385607 0.06256172
0.37642659 0.46385607 0.06256172
0.39971797 0.46385607 0.06256172
0.42181167 0.46385607 0.06256172
0.44310521 0.46385607 0.06256172
0.46385607 0.46385607 0.06256172
0.48423814 0.46385607 0.06256172
0.50437199 0.46385607 0.06256172
0.52434238 0.46385607 0.06256172
0.54420908 0.46385607 0.06256172
0.56401377 0.46385607 0.06256172
0.58378476 0.46385607 0.06256172
0.60354027 0.46385607 0.06256172
0.62329077 0.46385607 0.06256172
0.64304077 0.46385607 0.06256172
0.66279012 0.46385607 0.06256172
0.68253505 0.46385607 0.06256172
0.70226899 0.46385607 0.06256172
0.72198321 0.46385607 0.06256172
0.74166736 0.46385607 0.06256172
0.76130985 0.46385607 0.06256172
0.78089826 0.46385607 0.06256172
0.80041961 0.46385607 0.06256172
0.81986056 0.46385607 0.06256172
0.83920768 0.46385607 0.06256172
0.85844755 0.46385607 0.06256172
0.06256172 0.48423814 0.06256172
0.06256172 0.48423814 0.06256172
0.06256172 0.48423814 0.06256172
0.10672851 0.48423814 0.06256172
0.24287364 0.48423814 0.06256172
0.28938145 0.48423814 0.06256172
0.32310602 0.48423814 0.06256172
0.35128388 0.48423814 0.06256172
0.37642659 0.48423814 0.06256172
0.39971797 0.48423814 0.06256172
0.42181167 0.48423814 0.06256172
0.44310521 0.48423814 0.06256172
0.46385607 0.48423814 0.06256172
0.48423814 0.48423814 0.06256172
0.50437199 0.48423814 0.06256172
0.52434238 0.48423814 0.06256172
0.54420908 0.48423814 0.06256172
0.56401377 0.48423814 0.06256172
0.58378476 0.48423814 0.06256172
0.60354027 0.48423814 0.06256172
0.62329077 0.48423814 0.06256172
0.64304077 0.48423814 0.06256172
0.66279012 0.48423814 0.06256172
0.68253505 0.48423814 0.06256172
0.70226899 0.48423814 0.06256172
0.72198321 0.48423814 0.06256172
0.74166736 0.48423814 0.06256172
0.76130985 0.48423814 0.06256172
0.78089826 0.48423814 0.06256172
0.80041961 0.48423814 0.06256172
0.81986056 0.48423814 0.06256172
0.83920768 0.48423814 0.06256172
0.85844755 0.48423814 0.06256172
0.06256172 0.50437199 0.06256172
0.06256172 0.50437199 0.06256172
0.06256172 0.50437199 0.06256172
0.10672851 0.50437199 0.06256172
0.24287364 0.50437199 0.06256172
0.28938145 0.50437199 0.06256172
0.32310602 0.50437199 0.06256172
0.35128388 0.50437199 0.06256172
0.37642659 0.50437199 0.06256172
0.39971797 0.50437199 0.06256172
0.42181167 0.50437199 0.06256172
0.44310521 0.50437199 0.06256172
0.46385607 0.50437199 0.06256172
0.48423814 0.50437199 0.06256172
0.50437199 0.50437199 0.06256172
0.52434238 0.50437199 0.06256172
0.54420908 0.50437199 0.06256172
0.56401377 0.50437199 0.06256172
0.58378476 0.50437199 0.06256172
0.60354027 0.50437199 0.06256172
0.62329077 0.50437199 0.06256172
0.64304077 0.50437199 0.06256172
0.66279012 0.50437199 0.06256172
0.68253505 0.50437199 0.06256172
0.70226899 0.50437199 0.06256172
0.72198321 0.50437199 0.06256172
0.74166736 0.50437199 0.06256172
0.76130985 0.50437199 0.06256172
0.78089826 0.50437199 0.06256172
0.80041961 0.50437199 0.06256172
0.81986056 0.50437199 0.06256172
0.83920768 0.50437199 0.06256172
0.85844755 0.50437199 0.06256172
0.06256172 0.52434238 0.06256172
0.06256172 0.52434238 0.06256172
0.06256172 0.52434238 0.06256172
0.10672851 0.52434238 0.06256172
0.24287364 0.52434238 0.06256172
0.28938145 0.52434238 0.06256172
0.32310602 0.52434238 0.06256172
0.35128388 0.52434238 0.06256172
0.37642659 0.52434238 0.06256172
0.39971797 0.52434238 0.06256172
0.42181167 0.52434238 0.06256172
0.44310521 0.52434238 0.06256172
0.46385607 0.52434238 0.06256172
0.48423814 0.52434238 0.06256172
0.50437199 0.52434238 0.06256172
0.52434238 0.52434238 0.06256172
0.54420908 0.52434238 0.06256172
0.56401377 0.52434238 0.06256172
0.58378476 0.52434238 0.06256172
0.60354027 0.52434238 0.06256172
0.62329077 0.52434238 0.06256172
0.64304077 0.52434238 0.06256172
0.66279012 0.52434238 0.06256172
0.68253505 0.52434238 0.06256172
0.70226899 0.52434238 0.06256172
0.72198321 0.52434238 0.06256172
0.74166736 0.52434238 0.06256172
0.76130985 0.52434238 0.06256172
0.78089826 0.52434238 0.06256172
0.80041961 0.52434238 0.06256172
0.81986056 0.52434238 0.06256172
0.83920768 0.52434238 0.06256172
0.85844755 0.52434238 0.06256172
0.06256172 0.54420908 0.06256172
0.06256172 0.54420908 0.06256172
0.06256172 0.54420908 0.06256172
0.10672851 0.54420908 0.06256172
0.24287364 0.54420908 0.06256172
0.28938145 0.54420908 0.06256172
0.32310602 0.54420908 0.06256172
0.35128388 0.54420908 0.06256172
0.37642659 0.54420908 0.06256172
0.39971797 0.54420908 0.06256172
0.42181167 0.54420908 0.06256172
0.44310521 0.54420908 0.06256172
0.46385607 0.54420908 0.06256172
0.48423814 0.54420908 0.06256172
0.50437199 0.54420908 0.06256172
0.52434238 0.54420908 0.06256172
0.54420908 0.54420908 0.06256172
0.56401377 0.54420908 0.06256172
0.58378476 0.54420908 0.06256172
0.60354027 0.54420908 0.06256172
0.62329077 0.54420908 0.06256172
0.64304077 0.54420908 0.06256172
0.66279012 0.54420908 0.06256172
0.68253505 0.54420908 0.06256172
0.70226899 0.54420908 0.06256172
0.72198321 0.54420908 0.06256172
0.74166736 0.54420908 0.06256172
0.76130985 0.54420908 0.06256172
0.78089826 0.54420908 0.06256172
0.80041961 0.54420908 0.06256172
0.81986056 0.54420908 0.06256172
0.83920768 0.54420908 0.06256172
0.85844755 0.54420908 0.06256172
0.06256172 0.56401377 0.06256172
0.06256172 0.56401377 0.06256172
0.06256172 0.56401377 0.06256172
0.10672851 0.56401377 0.06256172
0.24287364 0.56401377 0.06256172
0.28938145 0.56401377 0.06256172
0.32310602 0.56401377 0.06256172
0.35128388 0.56401377 0.06256172
0.37642659 0.56401377 0.06256172
0.39971797 0.56401377 0.06256172
0.42181167 0.56401377 0.06256172
0.44310521 0.56401377 0.06256172
0.46385607 0.56401377 0.06256172
0.48423814 0.56401377 0.06256172
0.50437199 0.56401377 0.06256172
0.52434238 0.56401377 0.06256172
0.54420908 0.56401377 0.06256172
0.56401377 0.56401377 0.06256172
0.58378476 0.56401377 0.06256172
0.60354027 0.56401377 0.06256172
0.62329077 0.56401377 0.06256172
0.64304077 0.56401377 0.06256172
0.66279012 0.56401377 0.06256172
0.68253505 0.56401377 0.06256172
0.70226899 0.56401377 0.06256172
0.72198321 0.56401377 0.06256172
0.74166736 0.56401377 0.06256172
0.76130985 0.56401377 0.06256172
0.78089826 0.56401377 0.06256172
0.80041961 0.56401377 0.06256172
0.81986056 0.56401377 0.06256172
0.83920768 0.56401377 0.06256172
0.85844755 0.56401377 0.06256172
0.06256172 0.58378476 0.06256172
0.06256172 0.58378476 0.06256172
0.06256172 0.58378476 0.06256172
0.10672851 0.58378476 0.06256172
0.24287364 0.58378476 0.06256172
0.28938145 0.58378476 0.06256172
0.32310602 0.58378476 0.06256172
0.35128388 0.58378476 0.06256172
0.37642659 0.58378476 0.06256172
0.39971797 0.58378476 0.06256172
0.42181167 0.58378476 0.06256172
0.44310521 0.58378476 0.06256172
0.46385607 0.58378476 0.06256172
0.48423814 0.58378476 0.06256172
0.50437199 0.58378476 0.06256172
0.52434238 0.58378476 0.06256172
0.54420908 0.58378476 0.06256172
0.56401377 0.58378476 0.06256172
0.58378476 0.58378476 0.06256172
0.60354027 0.58378476 0.06256172
0.62329077 0.58378476 0.06256172
0.64304077 0.58378476 0.06256172
0.66279012 0.58378476 0.06256172
0.68253505 0.58378476 0.06256172
0.70226899 0.58378476 0.06256172
0.72198321 0.58378476 0.06256172
0.74166736 0.58378476 0.06256172
0.76130985 0.58378476 0.06256172
0.78089826 0.58378476 0.06256172
0.80041961 0.58378476 0.06256172
0.81986056 0.58378476 0.06256172
0.83920768 0.58378476 0.06256172
0.85844755 0.58378476 0.06256172
0.06256172 0.60354027 0.06256172
0.06256172 0.60354027 0.06256172
0.06256172 0.60354027 0.06256172
0.10672851 0.60354027 0.06256172
0.24287364 0.60354027 0.06256172
0.28938145 0.60354027 0.06256172
0.32310602 0.60354027 0.06256172
0.35128388 0.60354027 0.06256172
0.37642659 0.60354027 0.06256172
0.39971797 0.60354027 0.06256172
0.42181167 0.60354027 0.06256172
0.44310521 0.60354027 0.06256172
0.46385607 0.60354027 0.06256172
0.48423814 0.60354027 0.06256172
0.50437199 0.60354027 0.06256172
0.52434238 0.60354027 0.06256172
0.54420908 0.60354027 0.06256172
0.56401377 0.60354027 0.06256172
0.58378476 0.60354027 0.06256172
0.60354027 0.60354027 0.06256172
0.62329077 0.60354027 0.06256172
0.64304077 0.60354027 0.06256172
0.66279012 0.60354027 0.06256172
0.68253505 0.60354027 0.06256172
0.70226899 0.60354027 0.06256172
0.72198321 0.60354027 0.06256172
0.74166736 0.60354027 0.06256172
0.76130985 0.60354027 0.06256172
0.78089826 0.60354027 0.06256172
0.80041961 0.60354027 0.06256172
0.81986056 0.60354027 0.06256172
0.83920768 0.60354027 0.06256172
0.85844755 0.60354027 0.06256172
0.06256172 0.62329077 0.06256172
0.06256172 0.62329077 0.06256172
0.06256172 0.62329077 0.06256172
0.10672851 0.62329077 0.06256172
0.24287364 0.62329077 0.06256172
0.28938145 0.62329077 0.06256172
0.32310602 0.62329077 0.06256172
0.35128388 0.62329077 0.06256172
0.37642659 0.62329077 0.06256172
0.39971797 0.62329077 0.06256172
0.42181167 0.62329077 0.06256172
0.44310521 0.62329077 0.06256172
0.46385607 0.62329077 0.06256172
0.48423814 0.62329077 0.06256172
0.50437199 0.62329077 0.06256172
0.52434238 0.62329077 0.06256172
0.54420908 0.62329077 0.06256172
0.56401377 0.62329077 0.06256172
0.58378476 0.62329077 0.06256172
0.60354027 0.62329077 0.06256172
0.62329077 0.62329077 0.06256172
0.64304077 0.62329077 0.06256172
0.66279012 0.62329077 0.06256172
0.68253505 0.62329077 0.06256172
0.70226899 0.62329077 0.06256172
0.72198321 0.62329077 0.06256172
0.74166736 0.62329077 0.06256172
0.76130985 0.62329077 0.06256172
0.78089826 0.62329077 0.06256172
0.80041961 0.62329077 0.06256172
0.81986056 0.62329077 0.06256172
0.83920768 0.62329077 0.06256172
0.85844755 0.62329077 0.06256172
0.06256172 0.64304077 0.06256172
0.06256172 0.64304077 0.06256172
0.06256172 0.64304077 0.06256172
0.10672851 0.64304077 0.06256172
0.24287364 0.64304077 0.06256172
0.28938145 0.64304077 0.06256172
0.32310602 0.64304077 0.06256172
0.35128388 0.64304077 0.06256172
0.37642659 0.64304077 0.06256172
0.39971797 0.64304077 0.06256172
0.42181167 0.64304077 0.06256172
0.44310521 0.64304077 0.06256172
0.46385607 0.64304077 0.06256172
0.48423814 0.64304077 0.06256172
0.50437199 0.64304077 0.06256172
0.52434238 0.64304077 0.06256172
0.54420908 0.64304077 0.06256172
0.56401377 0.64304077 0.06256172
0.58378476 0.64304077 0.06256172
0.60354027 0.64304077 0.06256172
0.62329077 0.64304077 0.06256172
0.64304077 0.64304077 0.06256172
0.66279012 0.64304077 0.06256172
0.68253505 0.64304077 0.06256172
0.70226899 0.64304077 0.06256172
0.72198321 0.64304077 0.06256172
0.74166736 0.64304077 0.06256172
