src/ffmpeg_scripts/luts/flog-experimental_-1p33.cube
TITLE "flog-experimental_-1p33"
LUT_3D_SIZE 9
# Fujifilm F-Log/Rec2020 -> PQ (EOTF Only)/Rec2020, CineEI Shift -1.33, Black Level 0.00% IRE, Input 109% -> Output 100% - Created with LUTCalc v4.01 by Ben Turley October 2020
0.00000073 0.00000073 0.00000073
0.10995254 0.00000073 0.00000073
0.23219113 0.00000073 0.00000073
0.32648831 0.00000073 0.00000073
0.42217904 0.00000073 0.00000073
0.52432095 0.00000073 0.00000073
0.63386917 0.00000073 0.00000073
0.75014664 0.00000073 0.00000073
0.87166008 0.00000073 0.00000073
0.00000073 0.10995254 0.00000073
0.10995254 0.10995254 0.00000073
0.23219113 0.10995254 0.00000073
0.32648831 0.10995254 0.00000073
0.42217904 0.10995254 0.00000073
0.52432095 0.10995254 0.00000073
0.63386917 0.10995254 0.00000073
0.75014664 0.10995254 0.00000073
0.87166008 0.10995254 0.00000073
0.00000073 0.23219113 0.00000073
0.10995254 0.23219113 0.00000073
0.23219113 0.23219113 0.00000073
0.32648831 0.23219113 0.00000073
0.42217904 0.23219113 0.00000073
0.52432095 0.23219113 0.00000073
0.63386917 0.23219113 0.00000073
0.75014664 0.23219113 0.00000073
0.87166008 0.23219113 0.00000073
0.00000073 0.32648831 0.00000073
0.10995254 0.32648831 0.00000073
0.23219113 0.32648831 0.00000073
0.32648831 0.32648831 0.00000073
0.42217904 0.32648831 0.00000073
0.52432095 0.32648831 0.00000073
0.63386917 0.32648831 0.00000073
0.75014664 0.32648831 0.00000073
0.87166008 0.32648831 0.00000073
0.00000073 0.42217904 0.00000073
0.10995254 0.42217904 0.00000073
0.23219113 0.42217904 0.00000073
0.32648831 0.42217904 0.00000073
0.42217904 0.42217904 0.00000073
0.52432095 0.42217904 0.00000073
0.63386917 0.42217904 0.00000073
0.75014664 0.42217904 0.00000073
0.87166008 0.42217904 0.00000073
0.00000073 0.52432095 0.00000073
0.10995254 0.52432095 0.00000073
0.23219113 0.52432095 0.00000073
0.32648831 0.52432095 0.00000073
0.42217904 0.52432095 0.00000073
0.52432095 0.52432095 0.00000073
0.63386917 0.52432095 0.00000073
0.75014664 0.52432095 0.00000073
0.87166008 0.52432095 0.00000073
0.00000073 0.63386917 0.00000073
0.10995254 0.63386917 0.00000073
0.23219113 0.63386917 0.00000073
0.32648831 0.63386917 0.00000073
0.42217904 0.63386917 0.00000073
0.52432095 0.63386917 0.00000073
0.63386917 0.63386917 0.00000073
0.75014664 0.63386917 0.00000073
0.87166008 0.63386917 0.00000073
0.00000073 0.75014664 0.00000073
0.10995254 0.75014664 0.00000073
0.23219113 0.75014664 0.00000073
0.32648831 0.75014664 0.00000073
0.42217904 0.75014664 0.00000073
0.52432095 0.75014664 0.00000073
0.63386917 0.75014664 0.00000073
0.75014664 0.75014664 0.00000073
0.87166008 0.75014664 0.00000073
0.00000073 0.87166008 0.00000073
0.10995254 0.87166008 0.00000073
0.23219113 0.87166008 0.00000073
0.32648831 0.87166008 0.00000073
0.42217904 0.87166008 0.00000073
0.52432095 0.87166008 0.00000073
0.63386917 0.87166008 0.00000073
0.75014664 0.87166008 0.00000073
0.87166008 0.87166008 0.00000073
0.00000073 0.00000073 0.10995254
0.10995254 0.00000073 0.10995254
0.23219113 0.00000073 0.10995254
0.32648831 0.00000073 0.10995254
0.42217904 0.00000073 0.10995254
0.52432095 0.00000073 0.10995254
0.63386917 0.00000073 0.10995254
0.75014664 0.00000073 0.10995254
0.87166008 0.00000073 0.10995254
0.00000073 0.10995254 0.10995254
0.10995254 0.10995254 0.10995254
0.23219113 0.10995254 0.10995254
0.32648831 0.10995254 0.10995254
0.42217904 0.10995254 0.10995254
0.52432095 0.10995254 0.10995254
0.63386917 0.10995254 0.10995254
0.75014664 0.10995254 0.10995254
0.87166008 0.10995254 0.10995254
0.00000073 0.23219113 0.10995254
0.10995254 0.23219113 0.10995254
0.23219113 0.23219113 0.10995254
0.32648831 0.23219113 0.10995254
0.42217904 0.23219113 0.10995254
0.52432095 0.23219113 0.10995254
0.63386917 0.23219113 0.10995254
0.75014664 0.23219113 0.10995254
0.87166008 0.23219113 0.10995254
0.00000073 0.32648831 0.10995254
0.10995254 0.32648831 0.10995254
0.23219113 0.32648831 0.10995254
0.32648831 0.32648831 0.10995254
0.42217904 0.32648831 0.10995254
0.52432095 0.32648831 0.10995254
0.63386917 0.32648831 0.10995254
0.75014664 0.32648831 0.10995254
0.87166008 0.32648831 0.10995254
0.00000073 0.42217904 0.10995254
0.10995254 0.42217904 0.10995254
0.23219113 0.42217904 0.10995254
0.32648831 0.42217904 0.10995254
0.42217904 0.42217904 0.10995254
0.52432095 0.42217904 0.10995254
0.63386917 0.42217904 0.10995254
0.75014664 0.42217904 0.10995254
0.87166008 0.42217904 0.10995254
0.00000073 0.52432095 0.10995254
0.10995254 0.52432095 0.10995254
0.23219113 0.52432095 0.10995254
0.32648831 0.52432095 0.10995254
0.42217904 0.52432095 0.10995254
0.52432095 0.52432095 0.10995254
0.63386917 0.52432095 0.10995254
0.75014664 0.52432095 0.10995254
0.87166008 0.52432095 0.10995254
0.00000073 0.63386917 0.10995254
0.10995254 0.63386917 0.10995254
0.23219113 0.63386917 0.10995254
0.32648831 0.63386917 0.10995254
0.42217904 0.63386917 0.10995254
0.52432095 0.63386917 0.10995254
0.63386917 0.63386917 0.10995254
0.75014664 0.63386917 0.10995254
0.87166008 0.63386917 0.10995254
0.00000073 0.75014664 0.10995254
0.10995254 0.75014664 0.10995254
0.23219113 0.75014664 0.10995254
0.32648831 0.75014664 0.10995254
0.42217904 0.75014664 0.10995254
0.52432095 0.75014664 0.10995254
0.63386917 0.75014664 0.10995254
0.75014664 0.75014664 0.10995254
0.87166008 0.75014664 0.10995254
0.00000073 0.87166008 0.10995254
0.10995254 0.87166008 0.10995254
0.23219113 0.87166008 0.10995254
0.32648831 0.87166008 0.10995254
0.42217904 0.87166008 0.10995254
0.52432095 0.87166008 0.10995254
0.63386917 0.87166008 0.10995254
0.75014664 0.87166008 0.10995254
0.87166008 0.87166008 0.10995254
0.00000073 0.00000073 0.23219113
0.10995254 0.00000073 0.23219113
0.23219113 0.00000073 0.23219113
0.32648831 0.00000073 0.23219113
0.42217904 0.00000073 0.23219113
0.52432095 0.00000073 0.23219113
0.63386917 0.00000073 0.23219113
0.75014664 0.00000073 0.23219113
0.87166008 0.00000073 0.23219113
0.00000073 0.10995254 0.23219113
0.10995254 0.10995254 0.23219113
0.23219113 0.10995254 0.23219113
0.32648831 0.10995254 0.23219113
0.42217904 0.10995254 0.23219113
0.52432095 0.10995254 0.23219113
0.63386917 0.10995254 0.23219113
0.75014664 0.10995254 0.23219113
0.87166008 0.10995254 0.23219113
0.00000073 0.23219113 0.23219113
0.10995254 0.23219113 0.23219113
0.23219113 0.23219113 0.23219113
0.32648831 0.23219113 0.23219113
0.42217904 0.23219113 0.23219113
0.52432095 0.23219113 0.23219113
0.63386917 0.23219113 0.23219113
0.75014664 0.23219113 0.23219113
0.87166008 0.23219113 0.23219113
0.00000073 0.32648831 0.23219113
0.10995254 0.32648831 0.23219113
0.23219113 0.32648831 0.23219113
0.32648831 0.32648831 0.23219113
0.42217904 0.32648831 0.23219113
0.52432095 0.32648831 0.23219113
0.63386917 0.32648831 0.23219113
0.75014664 0.32648831 0.23219113
0.87166008 0.32648831 0.23219113
0.00000073 0.42217904 0.23219113
0.10995254 0.42217904 0.23219113
0.23219113 0.42217904 0.23219113
0.32648831 0.42217904 0.23219113
0.42217904 0.42217904 0.23219113
0.52432095 0.42217904 0.23219113
0.63386917 0.42217904 0.23219113
0.75014664 0.42217904 0.23219113
0.87166008 0.42217904 0.23219113
0.00000073 0.52432095 0.23219113
0.10995254 0.52432095 0.23219113
0.23219113 0.52432095 0.23219113
0.32648831 0.52432095 0.23219113
0.42217904 0.52432095 0.23219113
0.52432095 0.52432095 0.23219113
0.63386917 0.52432095 0.23219113
0.75014664 0.52432095 0.23219113
0.87166008 0.52432095 0.23219113
0.00000073 0.63386917 0.23219113
0.10995254 0.63386917 0.23219113
0.23219113 0.63386917 0.23219113
0.32648831 0.63386917 0.23219113
0.42217904 0.63386917 0.23219113
0.52432095 0.63386917 0.23219113
0.63386917 0.63386917 0.23219113
0.75014664 0.63386917 0.23219113
0.87166008 0.63386917 0.23219113
0.00000073 0.75014664 0.23219113
0.10995254 0.75014664 0.23219113
0.23219113 0.75014664 0.23219113
0.32648831 0.75014664 0.23219113
0.42217904 0.75014664 0.23219113
0.52432095 0.75014664 0.23219113
0.63386917 0.75014664 0.23219113
0.75014664 0.75014664 0.23219113
0.87166008 0.75014664 0.23219113
0.00000073 0.87166008 0.23219113
0.10995254 0.87166008 0.23219113
0.23219113 0.87166008 0.23219113
0.32648831 0.87166008 0.23219113
0.42217904 0.87166008 0.23219113
0.52432095 0.87166008 0.23219113
0.63386917 0.87166008 0.23219113
0.75014664 0.87166008 0.23219113
0.87166008 0.87166008 0.23219113
0.00000073 0.00000073 0.32648831
0.10995254 0.00000073 0.32648831
0.23219113 0.00000073 0.32648831
0.32648831 0.00000073 0.32648831
0.42217904 0.00000073 0.32648831
0.52432095 0.00000073 0.32648831
0.63386917 0.00000073 0.32648831
0.75014664 0.00000073 0.32648831
0.87166008 0.00000073 0.32648831
0.00000073 0.10995254 0.32648831
0.10995254 0.10995254 0.32648831
0.23219113 0.10995254 0.32648831
0.32648831 0.10995254 0.32648831
0.42217904 0.10995254 0.32648831
0.52432095 0.10995254 0.32648831
0.63386917 0.10995254 0.32648831
0.75014664 0.10995254 0.32648831
0.87166008 0.10995254 0.32648831
0.00000073 0.23219113 0.32648831
0.10995254 0.23219113 0.32648831
0.23219113 0.23219113 0.32648831
0.32648831 0.23219113 0.32648831
0.42217904 0.23219113 0.32648831
0.52432095 0.23219113 0.32648831
0.63386917 0.23219113 0.32648831
0.75014664 0.23219113 0.32648831
0.87166008 0.23219113 0.32648831
0.00000073 0.32648831 0.32648831
0.10995254 0.32648831 0.32648831
0.23219113 0.32648831 0.32648831
0.32648831 0.32648831 0.32648831
0.42217904 0.32648831 0.32648831
0.52432095 0.32648831 0.32648831
0.63386917 0.32648831 0.32648831
0.75014664 0.32648831 0.32648831
0.87166008 0.32648831 0.32648831
0.00000073 0.42217904 0.32648831
0.10995254 0.42217904 0.32648831
0.23219113 0.42217904 0.32648831
0.32648831 0.42217904 0.32648831
0.42217904 0.42217904 0.32648831
0.52432095 0.42217904 0.32648831
0.63386917 0.42217904 0.32648831
0.75014664 0.42217904 0.32648831
0.87166008 0.42217904 0.32648831
0.00000073 0.52432095 0.32648831
0.10995254 0.52432095 0.32648831
0.23219113 0.52432095 0.32648831
0.32648831 0.52432095 0.32648831
0.42217904 0.52432095 0.32648831
0.52432095 0.52432095 0.32648831
0.63386917 0.52432095 0.32648831
0.75014664 0.52432095 0.32648831
0.87166008 0.52432095 0.32648831
0.00000073 0.63386917 0.32648831
0.10995254 0.63386917 0.32648831
0.23219113 0.63386917 0.32648831
0.32648831 0.63386917 0.32648831
0.42217904 0.63386917 0.32648831
0.52432095 0.63386917 0.32648831
0.63386917 0.63386917 0.32648831
0.75014664 0.63386917 0.32648831
0.87166008 0.63386917 0.32648831
0.00000073 0.75014664 0.32648831
0.10995254 0.75014664 0.32648831
0.23219113 0.75014664 0.32648831
0.32648831 0.75014664 0.32648831
0.42217904 0.75014664 0.32648831
0.52432095 0.75014664 0.32648831
0.63386917 0.75014664 0.32648831
0.75014664 0.75014664 0.32648831
0.87166008 0.75014664 0.32648831
0.00000073 0.87166008 0.32648831
0.10995254 0.87166008 0.32648831
0.23219113 0.87166008 0.32648831
0.32648831 0.87166008 0.32648831
0.42217904 0.87166008 0.32648831
0.52432095 0.87166008 0.32648831
0.63386917 0.87166008 0.32648831
0.75014664 0.87166008 0.32648831
0.87166008 0.87166008 0.32648831
0.00000073 0.00000073 0.42217904
0.10995254 0.00000073 0.42217904
0.23219113 0.00000073 0.42217904
0.32648831 0.00000073 0.42217904
0.42217904 0.00000073 0.42217904
0.52432095 0.00000073 0.42217904
0.63386917 0.00000073 0.42217904
0.75014664 0.00000073 0.42217904
0.87166008 0.00000073 0.42217904
0.00000073 0.10995254 0.42217904
0.10995254 0.10995254 0.42217904
0.23219113 0.10995254 0.42217904
0.32648831 0.10995254 0.42217904
0.42217904 0.10995254 0.42217904
0.52432095 0.10995254 0.42217904
0.63386917 0.10995254 0.42217904
0.75014664 0.10995254 0.42217904
0.87166008 0.10995254 0.42217904
0.00000073 0.23219113 0.42217904
0.10995254 0.23219113 0.42217904
0.23219113 0.23219113 0.42217904
0.32648831 0.23219113 0.42217904
0.42217904 0.23219113 0.42217904
0.52432095 0.23219113 0.42217904
0.63386917 0.23219113 0.42217904
0.75014664 0.23219113 0.42217904
0.87166008 0.23219113 0.42217904
0.00000073 0.32648831 0.42217904
0.10995254 0.32648831 0.42217904
0.23219113 0.32648831 0.42217904
0.32648831 0.32648831 0.42217904
0.42217904 0.32648831 0.42217904
0.52432095 0.32648831 0.42217904
0.63386917 0.32648831 0.42217904
0.75014664 0.32648831 0.42217904
0.87166008 0.32648831 0.42217904
0.00000073 0.42217904 0.42217904
0.10995254 0.42217904 0.42217904
0.23219113 0.42217904 0.42217904
0.32648831 0.42217904 0.42217904
0.42217904 0.42217904 0.42217904
0.52432095 0.42217904 0.42217904
0.63386917 0.42217904 0.42217904
0.75014664 0.42217904 0.42217904
0.87166008 0.42217904 0.42217904
0.00000073 0.52432095 0.42217904
0.10995254 0.52432095 0.42217904
0.23219113 0.52432095 0.42217904
0.32648831 0.52432095 0.42217904
0.42217904 0.52432095 0.42217904
0.52432095 0.52432095 0.42217904
0.63386917 0.52432095 0.42217904
0.75014664 0.52432095 0.42217904
0.87166008 0.52432095 0.42217904
0.00000073 0.63386917 0.42217904
0.10995254 0.63386917 0.42217904
0.23219113 0.63386917 0.42217904
0.32648831 0.63386917 0.42217904
0.42217904 0.63386917 0.42217904
0.52432095 0.63386917 0.42217904
0.63386917 0.63386917 0.42217904
0.75014664 0.63386917 0.42217904
0.87166008 0.63386917 0.42217904
0.00000073 0.75014664 0.42217904
0.10995254 0.75014664 0.42217904
0.23219113 0.75014664 0.42217904
0.32648831 0.75014664 0.42217904
0.42217904 0.75014664 0.42217904
0.52432095 0.75014664 0.42217904
0.63386917 0.75014664 0.42217904
0.75014664 0.75014664 0.42217904
0.87166008 0.75014664 0.42217904
0.00000073 0.87166008 0.42217904
0.10995254 0.87166008 0.42217904
0.23219113 0.87166008 0.42217904
0.32648831 0.87166008 0.42217904
0.42217904 0.87166008 0.42217904
0.52432095 0.87166008 0.42217904
0.63386917 0.87166008 0.42217904
0.75014664 0.87166008 0.42217904
0.87166008 0.87166008 0.42217904
0.00000073 0.00000073 0.52432095
0.10995254 0.00000073 0.52432095
0.23219113 0.00000073 0.52432095
0.32648831 0.00000073 0.52432095
0.42217904 0.00000073 0.52432095
0.52432095 0.00000073 0.52432095
0.63386917 0.00000073 0.52432095
0.75014664 0.00000073 0.52432095
0.87166008 0.00000073 0.52432095
0.00000073 0.10995254 0.52432095
0.10995254 0.10995254 0.52432095
0.23219113 0.10995254 0.52432095
0.32648831 0.10995254 0.52432095
0.42217904 0.10995254 0.52432095
0.52432095 0.10995254 0.52432095
0.63386917 0.10995254 0.52432095
0.75014664 0.10995254 0.52432095
0.87166008 0.10995254 0.52432095
0.00000073 0.23219113 0.52432095
0.10995254 0.23219113 0.52432095
0.23219113 0.23219113 0.52432095
0.32648831 0.23219113 0.52432095
0.42217904 0.23219113 0.52432095
0.52432095 0.23219113 0.52432095
0.63386917 0.23219113 0.52432095
0.75014664 0.23219113 0.52432095
0.87166008 0.23219113 0.52432095
0.00000073 0.32648831 0.52432095
0.10995254 0.32648831 0.52432095
0.23219113 0.32648831 0.52432095
0.32648831 0.32648831 0.52432095
0.42217904 0.32648831 0.52432095
0.52432095 0.32648831 0.52432095
0.63386917 0.32648831 0.52432095
0.75014664 0.32648831 0.52432095
0.87166008 0.32648831 0.52432095
0.00000073 0.42217904 0.52432095
0.10995254 0.42217904 0.52432095
0.23219113 0.42217904 0.52432095
0.32648831 0.42217904 0.52432095
0.42217904 0.42217904 0.52432095
0.52432095 0.42217904 0.52432095
0.63386917 0.42217904 0.52432095
0.75014664 0.42217904 0.52432095
0.87166008 0.42217904 0.52432095
0.00000073 0.52432095 0.52432095
0.10995254 0.52432095 0.52432095
0.23219113 0.52432095 0.52432095
0.32648831 0.52432095 0.52432095
0.42217904 0.52432095 0.52432095
0.52432095 0.52432095 0.52432095
0.63386917 0.52432095 0.52432095
0.75014664 0.52432095 0.52432095
0.87166008 0.52432095 0.52432095
0.00000073 0.63386917 0.52432095
0.10995254 0.63386917 0.52432095
0.23219113 0.63386917 0.52432095
0.32648831 0.63386917 0.52432095
0.42217904 0.63386917 0.52432095
0.52432095 0.63386917 0.52432095
0.63386917 0.63386917 0.52432095
0.75014664 0.63386917 0.52432095
0.87166008 0.63386917 0.52432095
0.00000073 0.75014664 0.52432095
0.10995254 0.75014664 0.52432095
0.23219113 0.75014664 0.52432095
0.32648831 0.75014664 0.52432095
0.42217904 0.75014664 0.52432095
0.52432095 0.75014664 0.52432095
0.63386917 0.75014664 0.52432095
0.75014664 0.75014664 0.52432095
0.87166008 0.75014664 0.52432095
0.00000073 0.87166008 0.52432095
0.10995254 0.87166008 0.52432095
0.23219113 0.87166008 0.52432095
0.32648831 0.87166008 0.52432095
0.42217904 0.87166008 0.52432095
0.52432095 0.87166008 0.52432095
0.63386917 0.87166008 0.52432095
0.75014664 0.87166008 0.52432095
0.87166008 0.87166008 0.52432095
0.00000073 0.00000073 0.63386917
0.10995254 0.00000073 0.63386917
0.23219113 0.00000073 0.63386917
0.32648831 0.00000073 0.63386917
0.42217904 0.00000073 0.63386917
0.52432095 0.00000073 0.63386917
0.63386917 0.00000073 0.63386917
0.75014664 0.00000073 0.63386917
0.87166008 0.00000073 0.63386917
0.00000073 0.10995254 0.63386917
0.10995254 0.10995254 0.63386917
0.23219113 0.10995254 0.63386917
0.32648831 0.10995254 0.63386917
0.42217904 0.10995254 0.63386917
0.52432095 0.10995254 0.63386917
0.63386917 0.10995254 0.63386917
0.75014664 0.10995254 0.63386917
0.87166008 0.10995254 0.63386917
0.00000073 0.23219113 0.63386917
0.10995254 0.23219113 0.63386917
0.23219113 0.23219113 0.63386917
0.32648831 0.23219113 0.63386917
0.42217904 0.23219113 0.63386917
0.52432095 0.23219113 0.63386917
0.63386917 0.23219113 0.63386917
0.75014664 0.23219113 0.63386917
0.87166008 0.23219113 0.63386917
0.00000073 0.32648831 0.63386917
0.10995254 0.32648831 0.63386917
0.23219113 0.32648831 0.63386917
0.32648831 0.32648831 0.63386917
0.42217904 0.32648831 0.63386917
0.52432095 0.32648831 0.63386917
0.63386917 0.32648831 0.63386917
0.75014664 0.32648831 0.63386917
0.87166008 0.32648831 0.63386917
0.00000073 0.42217904 0.63386917
0.10995254 0.42217904 0.63386917
0.23219113 0.42217904 0.63386917
0.32648831 0.42217904 0.63386917
0.42217904 0.42217904 0.63386917
0.52432095 0.42217904 0.63386917
0.63386917 0.42217904 0.63386917
0.75014664 0.42217904 0.63386917
0.87166008 0.42217904 0.63386917
0.00000073 0.52432095 0.63386917
0.10995254 0.52432095 0.63386917
0.23219113 0.52432095 0.63386917
0.32648831 0.52432095 0.63386917
0.42217904 0.52432095 0.63386917
0.52432095 0.52432095 0.63386917
0.63386917 0.52432095 0.63386917
0.75014664 0.52432095 0.63386917
0.87166008 0.52432095 0.63386917
0.00000073 0.63386917 0.63386917
0.10995254 0.63386917 0.63386917
0.23219113 0.63386917 0.63386917
0.32648831 0.63386917 0.63386917
0.42217904 0.63386917 0.63386917
0.52432095 0.63386917 0.63386917
0.63386917 0.63386917 0.63386917
0.75014664 0.63386917 0.63386917
0.87166008 0.63386917 0.63386917
0.00000073 0.75014664 0.63386917
0.10995254 0.75014664 0.63386917
0.23219113 0.75014664 0.63386917
0.32648831 0.75014664 0.63386917
0.42217904 0.75014664 0.63386917
0.52432095 0.75014664 0.63386917
0.63386917 0.75014664 0.63386917
0.75014664 0.75014664 0.63386917
0.87166008 0.75014664 0.63386917
0.00000073 0.87166008 0.63386917
0.10995254 0.87166008 0.63386917
0.23219113 0.87166008 0.63386917
0.32648831 0.87166008 0.63386917
0.42217904 0.87166008 0.63386917
0.52432095 0.87166008 0.63386917
0.63386917 0.87166008 0.63386917
0.75014664 0.87166008 0.63386917
0.87166008 0.87166008 0.63386917
0.00000073 0.00000073 0.75014664
0.10995254 0.00000073 0.75014664
0.23219113 0.00000073 0.75014664
0.32648831 0.00000073 0.75014664
0.42217904 0.00000073 0.75014664
0.52432095 0.00000073 0.75014664
0.63386917 0.00000073 0.75014664
0.75014664 0.00000073 0.75014664
0.87166008 0.00000073 0.75014664
0.00000073 0.10995254 0.75014664
0.10995254 0.10995254 0.75014664
0.23219113 0.10995254 0.75014664
0.32648831 0.10995254 0.75014664
0.42217904 0.10995254 0.75014664
0.52432095 0.10995254 0.75014664
0.63386917 0.10995254 0.75014664
0.75014664 0.10995254 0.75014664
0.87166008 0.10995254 0.75014664
0.00000073 0.23219113 0.75014664
0.10995254 0.23219113 0.75014664
0.23219113 0.23219113 0.75014664
0.32648831 0.23219113 0.75014664
0.42217904 0.23219113 0.75014664
0.52432095 0.23219113 0.75014664
0.63386917 0.23219113 0.75014664
0.75014664 0.23219113 0.75014664
0.87166008 0.23219113 0.75014664
0.00000073 0.32648831 0.75014664
0.10995254 0.32648831 0.75014664
0.23219113 0.32648831 0.75014664
0.32648831 0.32648831 0.75014664
0.42217904 0.32648831 0.75014664
0.52432095 0.32648831 0.75014664
0.63386917 0.32648831 0.75014664
0.75014664 0.32648831 0.75014664
0.87166008 0.32648831 0.75014664
0.00000073 0.42217904 0.75014664
0.10995254 0.42217904 0.75014664
0.23219113 0.42217904 0.75014664
0.32648831 0.42217904 0.75014664
0.42217904 0.42217904 0.75014664
0.52432095 0.42217904 0.75014664
0.63386917 0.42217904 0.75014664
0.75014664 0.42217904 0.75014664
0.87166008 0.42217904 0.75014664
0.00000073 0.52432095 0.75014664
0.10995254 0.52432095 0.75014664
0.23219113 0.52432095 0.75014664
0.32648831 0.52432095 0.75014664
0.42217904 0.52432095 0.75014664
0.52432095 0.52432095 0.75014664
0.63386917 0.52432095 0.75014664
0.75014664 0.52432095 0.75014664
0.87166008 0.52432095 0.75014664
0.00000073 0.63386917 0.75014664
0.10995254 0.63386917 0.75014664
0.23219113 0.63386917 0.75014664
0.32648831 0.63386917 0.75014664
0.42217904 0.63386917 0.75014664
0.52432095 0.63386917 0.75014664
0.63386917 0.63386917 0.75014664
0.75014664 0.63386917 0.75014664
0.87166008 0.63386917 0.75014664
0.00000073 0.75014664 0.75014664
0.10995254 0.75014664 0.75014664
0.23219113 0.75014664 0.75014664
0.32648831 0.75014664 0.75014664
0.42217904 0.75014664 0.75014664
0.52432095 0.75014664 0.75014664
0.63386917 0.75014664 0.75014664
0.75014664 0.75014664 0.75014664
0.87166008 0.75014664 0.75014664
0.00000073 0.87166008 0.75014664
0.10995254 0.87166008 0.75014664
0.23219113 0.87166008 0.75014664
0.32648831 0.87166008 0.75014664
0.42217904 0.87166008 0.75014664
0.52432095 0.87166008 0.75014664
0.63386917 0.87166008 0.75014664
0.75014664 0.87166008 0.75014664
0.87166008 0.87166008 0.75014664
0.00000073 0.00000073 0.87166008
0.10995254 0.00000073 0.87166008
0.23219113 0.00000073 0.87166008
0.32648831 0.00000073 0.87166008
0.42217904 0.00000073 0.87166008
0.52432095 0.00000073 0.87166008
0.63386917 0.00000073 0.87166008
0.75014664 0.00000073 0.87166008
0.87166008 0.00000073 0.87166008
0.00000073 0.10995254 0.87166008
0.10995254 0.10995254 0.87166008
0.23219113 0.10995254 0.87166008
0.32648831 0.10995254 0.87166008
0.42217904 0.10995254 0.87166008
0.52432095 0.10995254 0.87166008
0.63386917 0.10995254 0.87166008
0.75014664 0.10995254 0.87166008
0.87166008 0.10995254 0.87166008
0.00000073 0.23219113 0.87166008
0.10995254 0.23219113 0.87166008
0.23219113 0.23219113 0.87166008
0.32648831 0.23219113 0.87166008
0.42217904 0.23219113 0.87166008
0.52432095 0.23219113 0.87166008
0.63386917 0.23219113 0.87166008
0.75014664 0.23219113 0.87166008
0.87166008 0.23219113 0.87166008
0.00000073 0.32648831 0.87166008
0.10995254 0.32648831 0.87166008
0.23219113 0.32648831 0.87166008
0.32648831 0.32648831 0.87166008
0.42217904 0.32648831 0.87166008
0.52432095 0.32648831 0.87166008
0.63386917 0.32648831 0.87166008
0.75014664 0.32648831 0.87166008
0.87166008 0.32648831 0.87166008
0.00000073 0.42217904 0.87166008
0.10995254 0.42217904 0.87166008
0.23219113 0.42217904 0.87166008
0.32648831 0.42217904 0.87166008
0.42217904 0.42217904 0.87166008
0.52432095 0.42217904 0.87166008
0.63386917 0.42217904 0.87166008
0.75014664 0.42217904 0.87166008
0.87166008 0.42217904 0.87166008
0.00000073 0.52432095 0.87166008
0.10995254 0.52432095 0.87166008
0.23219113 0.52432095 0.87166008
0.32648831 0.52432095 0.87166008
0.42217904 0.52432095 0.87166008
0.52432095 0.52432095 0.87166008
0.63386917 0.52432095 0.87166008
0.75014664 0.52432095 0.87166008
0.87166008 0.52432095 0.87166008
0.00000073 0.63386917 0.87166008
0.10995254 0.63386917 0.87166008
0.23219113 0.63386917 0.87166008
0.32648831 0.63386917 0.87166008
0.42217904 0.63386917 0.87166008
0.52432095 0.63386917 0.87166008
0.63386917 0.63386917 0.87166008
0.75014664 0.63386917 0.87166008
0.87166008 0.63386917 0.87166008
0.00000073 0.75014664 0.87166008
0.10995254 0.75014664 0.87166008
0.23219113 0.75014664 0.87166008
0.32648831 0.75014664 0.87166008
0.42217904 0.75014664 0.87166008
0.52432095 0.75014664 0.87166008
0.63386917 0.75014664 0.87166008
0.75014664 0.75014664 0.87166008
0.87166008 0.75014664 0.87166008
0.00000073 0.87166008 0.87166008
0.10995254 0.87166008 0.87166008
0.23219113 0.87166008 0.87166008
0.32648831 0.87166008 0.87166008
0.42217904 0.87166008 0.87166008
0.52432095 0.87166008 0.87166008
0.63386917 0.87166008 0.87166008
0.75014664 0.87166008 0.87166008
0.87166008 0.87166008 0.87166008
