src/ffmpeg_scripts/luts/flog-experimental_-2p00.cube
TITLE "flog-experimental_-2p00"
LUT_3D_SIZE 33
# Fujifilm F-Log/Rec2020 -> PQ (EOTF Only)/Rec2020, CineEI Shift -2.00, Black Level 0.00% IRE, Input 109% -> Output 100% - Created with LUTCalc v4.01 by Ben Turley October 2020
0.00000073 0.00000073 0.00000073
0.00000073 0.00000073 0.00000073
0.00000073 0.00000073 0.00000073
0.01457106 0.00000073 0.00000073
0.09098008 0.00000073 0.00000073
0.12518361 0.00000073 0.00000073
0.15225308 0.00000073 0.00000073
0.17627488 0.00000073 0.00000073
0.19876036 0.00000073 0.00000073
0.22045684 0.00000073 0.00000073
0.24179518 0.00000073 0.00000073
0.26304875 0.00000073 0.00000073
0.28440223 0.00000073 0.00000073
0.30598581 0.00000073 0.00000073
0.32789359 0.00000073 0.00000073
0.35019451 0.00000073 0.00000073
0.37293897 0.00000073 0.00000073
0.39616324 0.00000073 0.00000073
0.41989240 0.00000073 0.00000073
0.44414246 0.00000073 0.00000073
0.46892185 0.00000073 0.00000073
0.49423267 0.00000073 0.00000073
0.52007155 0.00000073 0.00000073
0.54643042 0.00000073 0.00000073
0.57329713 0.00000073 0.00000073
0.60065597 0.00000073 0.00000073
0.62848818 0.00000073 0.00000073
0.65677228 0.00000073 0.00000073
0.68548452 0.00000073 0.00000073
0.71459915 0.00000073 0.00000073
0.74408876 0.00000073 0.00000073
0.77392454 0.00000073 0.00000073
0.80407657 0.00000073 0.00000073
0.00000073 0.00000073 0.00000073
0.00000073 0.00000073 0.00000073
0.00000073 0.00000073 0.00000073
0.01457106 0.00000073 0.00000073
0.09098008 0.00000073 0.00000073
0.12518361 0.00000073 0.00000073
0.15225308 0.00000073 0.00000073
0.17627488 0.00000073 0.00000073
0.19876036 0.00000073 0.00000073
0.22045684 0.00000073 0.00000073
0.24179518 0.00000073 0.00000073
0.26304875 0.00000073 0.00000073
0.28440223 0.00000073 0.00000073
0.30598581 0.00000073 0.00000073
0.32789359 0.00000073 0.00000073
0.35019451 0.00000073 0.00000073
0.37293897 0.00000073 0.00000073
0.39616324 0.00000073 0.00000073
0.41989240 0.00000073 0.00000073
0.44414246 0.00000073 0.00000073
0.46892185 0.00000073 0.00000073
0.49423267 0.00000073 0.00000073
0.52007155 0.00000073 0.00000073
0.54643042 0.00000073 0.00000073
0.57329713 0.00000073 0.00000073
0.60065597 0.00000073 0.00000073
0.62848818 0.00000073 0.00000073
0.65677228 0.00000073 0.00000073
0.68548452 0.00000073 0.00000073
0.71459915 0.00000073 0.00000073
0.74408876 0.00000073 0.00000073
0.77392454 0.00000073 0.00000073
0.80407657 0.00000073 0.00000073
0.00000073 0.00000073 0.00000073
0.00000073 0.00000073 0.00000073
0.00000073 0.00000073 0.00000073
0.01457106 0.00000073 0.00000073
0.09098008 0.00000073 0.00000073
0.12518361 0.00000073 0.00000073
0.15225308 0.00000073 0.00000073
0.17627488 0.00000073 0.00000073
0.19876036 0.00000073 0.00000073
0.22045684 0.00000073 0.00000073
0.24179518 0.00000073 0.00000073
0.26304875 0.00000073 0.00000073
0.28440223 0.00000073 0.00000073
0.30598581 0.00000073 0.00000073
0.32789359 0.00000073 0.00000073
0.35019451 0.00000073 0.00000073
0.37293897 0.00000073 0.00000073
0.39616324 0.00000073 0.00000073
0.41989240 0.00000073 0.00000073
0.44414246 0.00000073 0.00000073
0.46892185 0.00000073 0.00000073
0.49423267 0.00000073 0.00000073
0.52007155 0.00000073 0.00000073
0.54643042 0.00000073 0.00000073
0.57329713 0.00000073 0.00000073
0.60065597 0.00000073 0.00000073
0.62848818 0.00000073 0.00000073
0.65677228 0.00000073 0.00000073
0.68548452 0.00000073 0.00000073
0.71459915 0.00000073 0.00000073
0.74408876 0.00000073 0.00000073
0.77392454 0.00000073 0.00000073
0.80407657 0.00000073 0.00000073
0.00000073 0.01457106 0.00000073
0.00000073 0.01457106 0.00000073
0.00000073 0.01457106 0.00000073
0.01457106 0.01457106 0.00000073
0.09098008 0.01457106 0.00000073
0.12518361 0.01457106 0.00000073
0.15225308 0.01457106 0.00000073
0.17627488 0.01457106 0.00000073
0.19876036 0.01457106 0.00000073
0.22045684 0.01457106 0.00000073
0.24179518 0.01457106 0.00000073
0.26304875 0.01457106 0.00000073
0.28440223 0.01457106 0.00000073
0.30598581 0.01457106 0.00000073
0.32789359 0.01457106 0.00000073
0.35019451 0.01457106 0.00000073
0.37293897 0.01457106 0.00000073
0.39616324 0.01457106 0.00000073
0.41989240 0.01457106 0.00000073
0.44414246 0.01457106 0.00000073
0.46892185 0.01457106 0.00000073
0.49423267 0.01457106 0.00000073
0.52007155 0.01457106 0.00000073
0.54643042 0.01457106 0.00000073
0.57329713 0.01457106 0.00000073
0.60065597 0.01457106 0.00000073
0.62848818 0.01457106 0.00000073
0.65677228 0.01457106 0.00000073
0.68548452 0.01457106 0.00000073
0.71459915 0.01457106 0.00000073
0.74408876 0.01457106 0.00000073
0.77392454 0.01457106 0.00000073
0.80407657 0.01457106 0.00000073
0.00000073 0.09098008 0.00000073
0.00000073 0.09098008 0.00000073
0.00000073 0.09098008 0.00000073
0.01457106 0.09098008 0.00000073
0.09098008 0.09098008 0.00000073
0.12518361 0.09098008 0.00000073
0.15225308 0.09098008 0.00000073
0.17627488 0.09098008 0.00000073
0.19876036 0.09098008 0.00000073
0.22045684 0.09098008 0.00000073
0.24179518 0.09098008 0.00000073
0.26304875 0.09098008 0.00000073
0.28440223 0.09098008 0.00000073
0.30598581 0.09098008 0.00000073
0.32789359 0.09098008 0.00000073
0.35019451 0.09098008 0.00000073
0.37293897 0.09098008 0.00000073
0.39616324 0.09098008 0.00000073
0.41989240 0.09098008 0.00000073
0.44414246 0.09098008 0.00000073
0.46892185 0.09098008 0.00000073
0.49423267 0.09098008 0.00000073
0.52007155 0.09098008 0.00000073
0.54643042 0.09098008 0.00000073
0.57329713 0.09098008 0.00000073
0.60065597 0.09098008 0.00000073
0.62848818 0.09098008 0.00000073
0.65677228 0.09098008 0.00000073
0.68548452 0.09098008 0.00000073
0.71459915 0.09098008 0.00000073
0.74408876 0.09098008 0.00000073
0.77392454 0.09098008 0.00000073
0.80407657 0.09098008 0.00000073
0.00000073 0.12518361 0.00000073
0.00000073 0.12518361 0.00000073
0.00000073 0.12518361 0.00000073
0.01457106 0.12518361 0.00000073
0.09098008 0.12518361 0.00000073
0.12518361 0.12518361 0.00000073
0.15225308 0.12518361 0.00000073
0.17627488 0.12518361 0.00000073
0.19876036 0.12518361 0.00000073
0.22045684 0.12518361 0.00000073
0.24179518 0.12518361 0.00000073
0.26304875 0.12518361 0.00000073
0.28440223 0.12518361 0.00000073
0.30598581 0.12518361 0.00000073
0.32789359 0.12518361 0.00000073
0.35019451 0.12518361 0.00000073
0.37293897 0.12518361 0.00000073
0.39616324 0.12518361 0.00000073
0.41989240 0.12518361 0.00000073
0.44414246 0.12518361 0.00000073
0.46892185 0.12518361 0.00000073
0.49423267 0.12518361 0.00000073
0.52007155 0.12518361 0.00000073
0.54643042 0.12518361 0.00000073
0.57329713 0.12518361 0.00000073
0.60065597 0.12518361 0.00000073
0.62848818 0.12518361 0.00000073
0.65677228 0.12518361 0.00000073
0.68548452 0.12518361 0.00000073
0.71459915 0.12518361 0.00000073
0.74408876 0.12518361 0.00000073
0.77392454 0.12518361 0.00000073
0.80407657 0.12518361 0.00000073
0.00000073 0.15225308 0.00000073
0.00000073 0.15225308 0.00000073
0.00000073 0.15225308 0.00000073
0.01457106 0.15225308 0.00000073
0.09098008 0.15225308 0.00000073
0.12518361 0.15225308 0.00000073
0.15225308 0.15225308 0.00000073
0.17627488 0.15225308 0.00000073
0.19876036 0.15225308 0.00000073
0.22045684 0.15225308 0.00000073
0.24179518 0.15225308 0.00000073
0.26304875 0.15225308 0.00000073
0.28440223 0.15225308 0.00000073
0.30598581 0.15225308 0.00000073
0.32789359 0.15225308 0.00000073
0.35019451 0.15225308 0.00000073
0.37293897 0.15225308 0.00000073
0.39616324 0.15225308 0.00000073
0.41989240 0.15225308 0.00000073
0.44414246 0.15225308 0.00000073
0.46892185 0.15225308 0.00000073
0.49423267 0.15225308 0.00000073
0.52007155 0.15225308 0.00000073
0.54643042 0.15225308 0.00000073
0.57329713 0.15225308 0.00000073
0.60065597 0.15225308 0.00000073
0.62848818 0.15225308 0.00000073
0.65677228 0.15225308 0.00000073
0.68548452 0.15225308 0.00000073
0.71459915 0.15225308 0.00000073
0.74408876 0.15225308 0.00000073
0.77392454 0.15225308 0.00000073
0.80407657 0.15225308 0.00000073
0.00000073 0.17627488 0.00000073
0.00000073 0.17627488 0.00000073
0.00000073 0.17627488 0.00000073
0.01457106 0.17627488 0.00000073
0.09098008 0.17627488 0.00000073
0.12518361 0.17627488 0.00000073
0.15225308 0.17627488 0.00000073
0.17627488 0.17627488 0.00000073
0.19876036 0.17627488 0.00000073
0.22045684 0.17627488 0.00000073
0.24179518 0.17627488 0.00000073
0.26304875 0.17627488 0.00000073
0.28440223 0.17627488 0.00000073
0.30598581 0.17627488 0.00000073
0.32789359 0.17627488 0.00000073
0.35019451 0.17627488 0.00000073
0.37293897 0.17627488 0.00000073
0.39616324 0.17627488 0.00000073
0.41989240 0.17627488 0.00000073
0.44414246 0.17627488 0.00000073
0.46892185 0.17627488 0.00000073
0.49423267 0.17627488 0.00000073
0.52007155 0.17627488 0.00000073
0.54643042 0.17627488 0.00000073
0.57329713 0.17627488 0.00000073
0.60065597 0.17627488 0.00000073
0.62848818 0.17627488 0.00000073
0.65677228 0.17627488 0.00000073
0.68548452 0.17627488 0.00000073
0.71459915 0.17627488 0.00000073
0.74408876 0.17627488 0.00000073
0.77392454 0.17627488 0.00000073
0.80407657 0.17627488 0.00000073
0.00000073 0.19876036 0.00000073
0.00000073 0.19876036 0.00000073
0.00000073 0.19876036 0.00000073
0.01457106 0.19876036 0.00000073
0.09098008 0.19876036 0.00000073
0.12518361 0.19876036 0.00000073
0.15225308 0.19876036 0.00000073
0.17627488 0.19876036 0.00000073
0.19876036 0.19876036 0.00000073
0.22045684 0.19876036 0.00000073
0.24179518 0.19876036 0.00000073
0.26304875 0.19876036 0.00000073
0.28440223 0.19876036 0.00000073
0.30598581 0.19876036 0.00000073
0.32789359 0.19876036 0.00000073
0.35019451 0.19876036 0.00000073
0.37293897 0.19876036 0.00000073
0.39616324 0.19876036 0.00000073
0.41989240 0.19876036 0.00000073
0.44414246 0.19876036 0.00000073
0.46892185 0.19876036 0.00000073
0.49423267 0.19876036 0.00000073
0.52007155 0.19876036 0.00000073
0.54643042 0.19876036 0.00000073
0.57329713 0.19876036 0.00000073
0.60065597 0.19876036 0.00000073
0.62848818 0.19876036 0.00000073
0.65677228 0.19876036 0.00000073
0.68548452 0.19876036 0.00000073
0.71459915 0.19876036 0.00000073
0.74408876 0.19876036 0.00000073
0.77392454 0.19876036 0.00000073
0.80407657 0.19876036 0.00000073
0.00000073 0.22045684 0.00000073
0.00000073 0.22045684 0.00000073
0.00000073 0.22045684 0.00000073
0.01457106 0.22045684 0.00000073
0.09098008 0.22045684 0.00000073
0.12518361 0.22045684 0.00000073
0.15225308 0.22045684 0.00000073
0.17627488 0.22045684 0.00000073
0.19876036 0.22045684 0.00000073
0.22045684 0.22045684 0.00000073
0.24179518 0.22045684 0.00000073
0.26304875 0.22045684 0.00000073
0.28440223 0.22045684 0.00000073
0.30598581 0.22045684 0.00000073
0.32789359 0.22045684 0.00000073
0.35019451 0.22045684 0.00000073
0.37293897 0.22045684 0.00000073
0.39616324 0.22045684 0.00000073
0.41989240 0.22045684 0.00000073
0.44414246 0.22045684 0.00000073
0.46892185 0.22045684 0.00000073
0.49423267 0.22045684 0.00000073
0.52007155 0.22045684 0.00000073
0.54643042 0.22045684 0.00000073
0.57329713 0.22045684 0.00000073
0.60065597 0.22045684 0.00000073
0.62848818 0.22045684 0.00000073
0.65677228 0.22045684 0.00000073
0.68548452 0.22045684 0.00000073
0.71459915 0.22045684 0.00000073
0.74408876 0.22045684 0.00000073
0.77392454 0.22045684 0.00000073
0.80407657 0.22045684 0.00000073
0.00000073 0.24179518 0.00000073
0.00000073 0.24179518 0.00000073
0.00000073 0.24179518 0.00000073
0.01457106 0.24179518 0.00000073
0.09098008 0.24179518 0.00000073
0.12518361 0.24179518 0.00000073
0.15225308 0.24179518 0.00000073
0.17627488 0.24179518 0.00000073
0.19876036 0.24179518 0.00000073
0.22045684 0.24179518 0.00000073
0.24179518 0.24179518 0.00000073
0.26304875 0.24179518 0.00000073
0.28440223 0.24179518 0.00000073
0.30598581 0.24179518 0.00000073
0.32789359 0.24179518 0.00000073
0.35019451 0.24179518 0.00000073
0.37293897 0.24179518 0.00000073
0.39616324 0.24179518 0.00000073
0.41989240 0.24179518 0.00000073
0.44414246 0.24179518 0.00000073
0.46892185 0.24179518 0.00000073
0.49423267 0.24179518 0.00000073
0.52007155 0.24179518 0.00000073
0.54643042 0.24179518 0.00000073
0.57329713 0.24179518 0.00000073
0.60065597 0.24179518 0.00000073
0.62848818 0.24179518 0.00000073
0.65677228 0.24179518 0.00000073
0.68548452 0.24179518 0.00000073
0.71459915 0.24179518 0.00000073
0.74408876 0.24179518 0.00000073
0.77392454 0.24179518 0.00000073
0.80407657 0.24179518 0.00000073
0.00000073 0.26304875 0.00000073
0.00000073 0.26304875 0.00000073
0.00000073 0.26304875 0.00000073
0.01457106 0.26304875 0.00000073
0.09098008 0.26304875 0.00000073
0.12518361 0.26304875 0.00000073
0.15225308 0.26304875 0.00000073
0.17627488 0.26304875 0.00000073
0.19876036 0.26304875 0.00000073
0.22045684 0.26304875 0.00000073
0.24179518 0.26304875 0.00000073
0.26304875 0.26304875 0.00000073
0.28440223 0.26304875 0.00000073
0.30598581 0.26304875 0.00000073
0.32789359 0.26304875 0.00000073
0.35019451 0.26304875 0.00000073
0.37293897 0.26304875 0.00000073
0.39616324 0.26304875 0.00000073
0.41989240 0.26304875 0.00000073
0.44414246 0.26304875 0.00000073
0.46892185 0.26304875 0.00000073
0.49423267 0.26304875 0.00000073
0.52007155 0.26304875 0.00000073
0.54643042 0.26304875 0.00000073
0.57329713 0.26304875 0.00000073
0.60065597 0.26304875 0.00000073
0.62848818 0.26304875 0.00000073
0.65677228 0.26304875 0.00000073
0.68548452 0.26304875 0.00000073
0.71459915 0.26304875 0.00000073
0.74408876 0.26304875 0.00000073
0.77392454 0.26304875 0.00000073
0.80407657 0.26304875 0.00000073
0.00000073 0.28440223 0.00000073
0.00000073 0.28440223 0.00000073
0.00000073 0.28440223 0.00000073
0.01457106 0.28440223 0.00000073
0.09098008 0.28440223 0.00000073
0.12518361 0.28440223 0.00000073
0.15225308 0.28440223 0.00000073
0.17627488 0.28440223 0.00000073
0.19876036 0.28440223 0.00000073
0.22045684 0.28440223 0.00000073
0.24179518 0.28440223 0.00000073
0.26304875 0.28440223 0.00000073
0.28440223 0.28440223 0.00000073
0.30598581 0.28440223 0.00000073
0.32789359 0.28440223 0.00000073
0.35019451 0.28440223 0.00000073
0.37293897 0.28440223 0.00000073
0.39616324 0.28440223 0.00000073
0.41989240 0.28440223 0.00000073
0.44414246 0.28440223 0.00000073
0.46892185 0.28440223 0.00000073
0.49423267 0.28440223 0.00000073
0.52007155 0.28440223 0.00000073
0.54643042 0.28440223 0.00000073
0.57329713 0.28440223 0.00000073
0.60065597 0.28440223 0.00000073
0.62848818 0.28440223 0.00000073
0.65677228 0.28440223 0.00000073
0.68548452 0.28440223 0.00000073
0.71459915 0.28440223 0.00000073
0.74408876 0.28440223 0.00000073
0.77392454 0.28440223 0.00000073
0.80407657 0.28440223 0.00000073
0.00000073 0.30598581 0.00000073
0.00000073 0.30598581 0.00000073
0.00000073 0.30598581 0.00000073
0.01457106 0.30598581 0.00000073
0.09098008 0.30598581 0.00000073
0.12518361 0.30598581 0.00000073
0.15225308 0.30598581 0.00000073
0.17627488 0.30598581 0.00000073
0.19876036 0.30598581 0.00000073
0.22045684 0.30598581 0.00000073
0.24179518 0.30598581 0.00000073
0.26304875 0.30598581 0.00000073
0.28440223 0.30598581 0.00000073
0.30598581 0.30598581 0.00000073
0.32789359 0.30598581 0.00000073
0.35019451 0.30598581 0.00000073
0.37293897 0.30598581 0.00000073
0.39616324 0.30598581 0.00000073
0.41989240 0.30598581 0.00000073
0.44414246 0.30598581 0.00000073
0.46892185 0.30598581 0.00000073
0.49423267 0.30598581 0.00000073
0.52007155 0.30598581 0.00000073
0.54643042 0.30598581 0.00000073
0.57329713 0.30598581 0.00000073
0.60065597 0.30598581 0.00000073
0.62848818 0.30598581 0.00000073
0.65677228 0.30598581 0.00000073
0.68548452 0.30598581 0.00000073
0.71459915 0.30598581 0.00000073
0.74408876 0.30598581 0.00000073
0.77392454 0.30598581 0.00000073
0.80407657 0.30598581 0.00000073
0.00000073 0.32789359 0.00000073
0.00000073 0.32789359 0.00000073
0.00000073 0.32789359 0.00000073
0.01457106 0.32789359 0.00000073
0.09098008 0.32789359 0.00000073
0.12518361 0.32789359 0.00000073
0.15225308 0.32789359 0.00000073
0.17627488 0.32789359 0.00000073
0.19876036 0.32789359 0.00000073
0.22045684 0.32789359 0.00000073
0.24179518 0.32789359 0.00000073
0.26304875 0.32789359 0.00000073
0.28440223 0.32789359 0.00000073
0.30598581 0.32789359 0.00000073
0.32789359 0.32789359 0.00000073
0.35019451 0.32789359 0.00000073
0.37293897 0.32789359 0.00000073
0.39616324 0.32789359 0.00000073
0.41989240 0.32789359 0.00000073
0.44414246 0.32789359 0.00000073
0.46892185 0.32789359 0.00000073
0.49423267 0.32789359 0.00000073
0.52007155 0.32789359 0.00000073
0.54643042 0.32789359 0.00000073
0.57329713 0.32789359 0.00000073
0.60065597 0.32789359 0.00000073
0.62848818 0.32789359 0.00000073
0.65677228 0.32789359 0.00000073
0.68548452 0.32789359 0.00000073
0.71459915 0.32789359 0.00000073
0.74408876 0.32789359 0.00000073
0.77392454 0.32789359 0.00000073
0.80407657 0.32789359 0.00000073
0.00000073 0.35019451 0.00000073
0.00000073 0.35019451 0.00000073
0.00000073 0.35019451 0.00000073
0.01457106 0.35019451 0.00000073
0.09098008 0.35019451 0.00000073
0.12518361 0.35019451 0.00000073
0.15225308 0.35019451 0.00000073
0.17627488 0.35019451 0.00000073
0.19876036 0.35019451 0.00000073
0.22045684 0.35019451 0.00000073
0.24179518 0.35019451 0.00000073
0.26304875 0.35019451 0.00000073
0.28440223 0.35019451 0.00000073
0.30598581 0.35019451 0.00000073
0.32789359 0.35019451 0.00000073
0.35019451 0.35019451 0.00000073
0.37293897 0.35019451 0.00000073
0.39616324 0.35019451 0.00000073
0.41989240 0.35019451 0.00000073
0.44414246 0.35019451 0.00000073
0.46892185 0.35019451 0.00000073
0.49423267 0.35019451 0.00000073
0.52007155 0.35019451 0.00000073
0.54643042 0.35019451 0.00000073
0.57329713 0.35019451 0.00000073
0.60065597 0.35019451 0.00000073
0.62848818 0.35019451 0.00000073
0.65677228 0.35019451 0.00000073
0.68548452 0.35019451 0.00000073
0.71459915 0.35019451 0.00000073
0.74408876 0.35019451 0.00000073
0.77392454 0.35019451 0.00000073
0.80407657 0.35019451 0.00000073
0.00000073 0.37293897 0.00000073
0.00000073 0.37293897 0.00000073
0.00000073 0.37293897 0.00000073
0.01457106 0.37293897 0.00000073
0.09098008 0.37293897 0.00000073
0.12518361 0.37293897 0.00000073
0.15225308 0.37293897 0.00000073
0.17627488 0.37293897 0.00000073
0.19876036 0.37293897 0.00000073
0.22045684 0.37293897 0.00000073
0.24179518 0.37293897 0.00000073
0.26304875 0.37293897 0.00000073
0.28440223 0.37293897 0.00000073
0.30598581 0.37293897 0.00000073
0.32789359 0.37293897 0.00000073
0.35019451 0.37293897 0.00000073
0.37293897 0.37293897 0.00000073
0.39616324 0.37293897 0.00000073
0.41989240 0.37293897 0.00000073
0.44414246 0.37293897 0.00000073
0.46892185 0.37293897 0.00000073
0.49423267 0.37293897 0.00000073
0.52007155 0.37293897 0.00000073
0.54643042 0.37293897 0.00000073
0.57329713 0.37293897 0.00000073
0.60065597 0.37293897 0.00000073
0.62848818 0.37293897 0.00000073
0.65677228 0.37293897 0.00000073
0.68548452 0.37293897 0.00000073
0.71459915 0.37293897 0.00000073
0.74408876 0.37293897 0.00000073
0.77392454 0.37293897 0.00000073
0.80407657 0.37293897 0.00000073
0.00000073 0.39616324 0.00000073
0.00000073 0.39616324 0.00000073
0.00000073 0.39616324 0.00000073
0.01457106 0.39616324 0.00000073
0.09098008 0.39616324 0.00000073
0.12518361 0.39616324 0.00000073
0.15225308 0.39616324 0.00000073
0.17627488 0.39616324 0.00000073
0.19876036 0.39616324 0.00000073
0.22045684 0.39616324 0.00000073
0.24179518 0.39616324 0.00000073
0.26304875 0.39616324 0.00000073
0.28440223 0.39616324 0.00000073
0.30598581 0.39616324 0.00000073
0.32789359 0.39616324 0.00000073
0.35019451 0.39616324 0.00000073
0.37293897 0.39616324 0.00000073
0.39616324 0.39616324 0.00000073
0.41989240 0.39616324 0.00000073
0.44414246 0.39616324 0.00000073
0.46892185 0.39616324 0.00000073
0.49423267 0.39616324 0.00000073
0.52007155 0.39616324 0.00000073
0.54643042 0.39616324 0.00000073
0.57329713 0.39616324 0.00000073
0.60065597 0.39616324 0.00000073
0.62848818 0.39616324 0.00000073
0.65677228 0.39616324 0.00000073
0.68548452 0.39616324 0.00000073
0.71459915 0.39616324 0.00000073
0.74408876 0.39616324 0.00000073
0.77392454 0.39616324 0.00000073
0.80407657 0.39616324 0.00000073
0.00000073 0.41989240 0.00000073
0.00000073 0.41989240 0.00000073
0.00000073 0.41989240 0.00000073
0.01457106 0.41989240 0.00000073
0.09098008 0.41989240 0.00000073
0.12518361 0.41989240 0.00000073
0.15225308 0.41989240 0.00000073
0.17627488 0.41989240 0.00000073
0.19876036 0.41989240 0.00000073
0.22045684 0.41989240 0.00000073
0.24179518 0.41989240 0.00000073
0.26304875 0.41989240 0.00000073
0.28440223 0.41989240 0.00000073
0.30598581 0.41989240 0.00000073
0.32789359 0.41989240 0.00000073
0.35019451 0.41989240 0.00000073
0.37293897 0.41989240 0.00000073
0.39616324 0.41989240 0.00000073
0.41989240 0.41989240 0.00000073
0.44414246 0.41989240 0.00000073
0.46892185 0.41989240 0.00000073
0.49423267 0.41989240 0.00000073
0.52007155 0.41989240 0.00000073
0.54643042 0.41989240 0.00000073
0.57329713 0.41989240 0.00000073
0.60065597 0.41989240 0.00000073
0.62848818 0.41989240 0.00000073
0.65677228 0.41989240 0.00000073
0.68548452 0.41989240 0.00000073
0.71459915 0.41989240 0.00000073
0.74408876 0.41989240 0.00000073
0.77392454 0.41989240 0.00000073
0.80407657 0.41989240 0.00000073
0.00000073 0.44414246 0.00000073
0.00000073 0.44414246 0.00000073
0.00000073 0.44414246 0.00000073
0.01457106 0.44414246 0.00000073
0.09098008 0.44414246 0.00000073
0.12518361 0.44414246 0.00000073
0.15225308 0.44414246 0.00000073
0.17627488 0.44414246 0.00000073
0.19876036 0.44414246 0.00000073
0.22045684 0.44414246 0.00000073
0.24179518 0.44414246 0.00000073
0.26304875 0.44414246 0.00000073
0.28440223 0.44414246 0.00000073
0.30598581 0.44414246 0.00000073
0.32789359 0.44414246 0.00000073
0.35019451 0.44414246 0.00000073
0.37293897 0.44414246 0.00000073
0.39616324 0.44414246 0.00000073
0.41989240 0.44414246 0.00000073
0.44414246 0.44414246 0.00000073
0.46892185 0.44414246 0.00000073
0.49423267 0.44414246 0.00000073
0.52007155 0.44414246 0.00000073
0.54643042 0.44414246 0.00000073
0.57329713 0.44414246 0.00000073
0.60065597 0.44414246 0.00000073
0.62848818 0.44414246 0.00000073
0.65677228 0.44414246 0.00000073
0.68548452 0.44414246 0.00000073
0.71459915 0.44414246 0.00000073
0.74408876 0.44414246 0.00000073
0.77392454 0.44414246 0.00000073
0.80407657 0.44414246 0.00000073
0.00000073 0.46892185 0.00000073
0.00000073 0.46892185 0.00000073
0.00000073 0.46892185 0.00000073
0.01457106 0.46892185 0.00000073
0.09098008 0.46892185 0.00000073
0.12518361 0.46892185 0.00000073
0.15225308 0.46892185 0.00000073
0.17627488 0.46892185 0.00000073
0.19876036 0.46892185 0.00000073
0.22045684 0.46892185 0.00000073
0.24179518 0.46892185 0.00000073
0.26304875 0.46892185 0.00000073
0.28440223 0.46892185 0.00000073
0.30598581 0.46892185 0.00000073
0.32789359 0.46892185 0.00000073
0.35019451 0.46892185 0.00000073
0.37293897 0.46892185 0.00000073
0.39616324 0.46892185 0.00000073
0.41989240 0.46892185 0.00000073
0.44414246 0.46892185 0.00000073
0.46892185 0.46892185 0.00000073
0.49423267 0.46892185 0.00000073
0.52007155 0.46892185 0.00000073
0.54643042 0.46892185 0.00000073
0.57329713 0.46892185 0.00000073
0.60065597 0.46892185 0.00000073
0.62848818 0.46892185 0.00000073
0.65677228 0.46892185 0.00000073
0.68548452 0.46892185 0.00000073
0.71459915 0.46892185 0.00000073
0.74408876 0.46892185 0.00000073
0.77392454 0.46892185 0.00000073
0.80407657 0.46892185 0.00000073
0.00000073 0.49423267 0.00000073
0.00000073 0.49423267 0.00000073
0.00000073 0.49423267 0.00000073
0.01457106 0.49423267 0.00000073
0.09098008 0.49423267 0.00000073
0.12518361 0.49423267 0.00000073
0.15225308 0.49423267 0.00000073
0.17627488 0.49423267 0.00000073
0.19876036 0.49423267 0.00000073
0.22045684 0.49423267 0.00000073
0.24179518 0.49423267 0.00000073
0.26304875 0.49423267 0.00000073
0.28440223 0.49423267 0.00000073
0.30598581 0.49423267 0.00000073
0.32789359 0.49423267 0.00000073
0.35019451 0.49423267 0.00000073
0.37293897 0.49423267 0.00000073
0.39616324 0.49423267 0.00000073
0.41989240 0.49423267 0.00000073
0.44414246 0.49423267 0.00000073
0.46892185 0.49423267 0.00000073
0.49423267 0.49423267 0.00000073
0.52007155 0.49423267 0.00000073
0.54643042 0.49423267 0.00000073
0.57329713 0.49423267 0.00000073
0.60065597 0.49423267 0.00000073
0.62848818 0.49423267 0.00000073
