src/ffmpeg_scripts/luts/flog-experimental_0p67.cube
TITLE "flog-experimental_0p67"
LUT_3D_SIZE 33
# Fujifilm F-Log/Rec2020 -> PQ (EOTF Only)/Rec2020, CineEI Shift 0.67, Black Level 0.00% IRE, Input 109% -> Output 100% - Created with LUTCalc v4.01 by Ben Turley October 2020
0.00000073 0.00000073 0.00000073
0.00000073 0.00000073 0.00000073
0.00000073 0.00000073 0.00000073
0.03765301 0.00000073 0.00000073
0.18531793 0.00000073 0.00000073
0.24199068 0.00000073 0.00000073
0.28458856 0.00000073 0.00000073
0.32106271 0.00000073 0.00000073
0.35424363 0.00000073 0.00000073
0.38548918 0.00000073 0.00000073
0.41556007 0.00000073 0.00000073
0.44492486 0.00000073 0.00000073
0.47389055 0.00000073 0.00000073
0.50266647 0.00000073 0.00000073
0.53139890 0.00000073 0.00000073
0.56019111 0.00000073 0.00000073
0.58911581 0.00000073 0.00000073
0.61822320 0.00000073 0.00000073
0.64754644 0.00000073 0.00000073
0.67710551 0.00000073 0.00000073
0.70691001 0.00000073 0.00000073
0.73696129 0.00000073 0.00000073
0.76725407 0.00000073 0.00000073
0.79777770 0.00000073 0.00000073
0.82851722 0.00000073 0.00000073
0.85945423 0.00000073 0.00000073
0.89056753 0.00000073 0.00000073
0.92183379 0.00000073 0.00000073
0.95322798 0.00000073 0.00000073
0.98472388 0.00000073 0.00000073
1.00000000 0.00000073 0.00000073
1.00000000 0.00000073 0.00000073
1.00000000 0.00000073 0.00000073
0.00000073 0.00000073 0.00000073
0.00000073 0.00000073 0.00000073
0.00000073 0.00000073 0.00000073
0.03765301 0.00000073 0.00000073
0.18531793 0.00000073 0.00000073
0.24199068 0.00000073 0.00000073
0.28458856 0.00000073 0.00000073
0.32106271 0.00000073 0.00000073
0.35424363 0.00000073 0.00000073
0.38548918 0.00000073 0.00000073
0.41556007 0.00000073 0.00000073
0.44492486 0.00000073 0.00000073
0.47389055 0.00000073 0.00000073
0.50266647 0.00000073 0.00000073
0.53139890 0.00000073 0.00000073
0.56019111 0.00000073 0.00000073
0.58911581 0.00000073 0.00000073
0.61822320 0.00000073 0.00000073
0.64754644 0.00000073 0.00000073
0.67710551 0.00000073 0.00000073
0.70691001 0.00000073 0.00000073
0.73696129 0.00000073 0.00000073
0.76725407 0.00000073 0.00000073
0.79777770 0.00000073 0.00000073
0.82851722 0.00000073 0.00000073
0.85945423 0.00000073 0.00000073
0.89056753 0.00000073 0.00000073
0.92183379 0.00000073 0.00000073
0.95322798 0.00000073 0.00000073
0.98472388 0.00000073 0.00000073
1.00000000 0.00000073 0.00000073
1.00000000 0.00000073 0.00000073
1.00000000 0.00000073 0.00000073
0.00000073 0.00000073 0.00000073
0.00000073 0.00000073 0.00000073
0.00000073 0.00000073 0.00000073
0.03765301 0.00000073 0.00000073
0.18531793 0.00000073 0.00000073
0.24199068 0.00000073 0.00000073
0.28458856 0.00000073 0.00000073
0.32106271 0.00000073 0.00000073
0.35424363 0.00000073 0.00000073
0.38548918 0.00000073 0.00000073
0.41556007 0.00000073 0.00000073
0.44492486 0.00000073 0.00000073
0.47389055 0.00000073 0.00000073
0.50266647 0.00000073 0.00000073
0.53139890 0.00000073 0.00000073
0.56019111 0.00000073 0.00000073
0.58911581 0.00000073 0.00000073
0.61822320 0.00000073 0.00000073
0.64754644 0.00000073 0.00000073
0.67710551 0.00000073 0.00000073
0.70691001 0.00000073 0.00000073
0.73696129 0.00000073 0.00000073
0.76725407 0.00000073 0.00000073
0.79777770 0.00000073 0.00000073
0.82851722 0.00000073 0.00000073
0.85945423 0.00000073 0.00000073
0.89056753 0.00000073 0.00000073
0.92183379 0.00000073 0.00000073
0.95322798 0.00000073 0.00000073
0.98472388 0.00000073 0.00000073
1.00000000 0.00000073 0.00000073
1.00000000 0.00000073 0.00000073
1.00000000 0.00000073 0.00000073
0.00000073 0.03765301 0.00000073
0.00000073 0.03765301 0.00000073
0.00000073 0.03765301 0.00000073
0.03765301 0.03765301 0.00000073
0.18531793 0.03765301 0.00000073
0.24199068 0.03765301 0.00000073
0.28458856 0.03765301 0.00000073
0.32106271 0.03765301 0.00000073
0.35424363 0.03765301 0.00000073
0.38548918 0.03765301 0.00000073
0.41556007 0.03765301 0.00000073
0.44492486 0.03765301 0.00000073
0.47389055 0.03765301 0.00000073
0.50266647 0.03765301 0.00000073
0.53139890 0.03765301 0.00000073
0.56019111 0.03765301 0.00000073
0.58911581 0.03765301 0.00000073
0.61822320 0.03765301 0.00000073
0.64754644 0.03765301 0.00000073
0.67710551 0.03765301 0.00000073
0.70691001 0.03765301 0.00000073
0.73696129 0.03765301 0.00000073
0.76725407 0.03765301 0.00000073
0.79777770 0.03765301 0.00000073
0.82851722 0.03765301 0.00000073
0.85945423 0.03765301 0.00000073
0.89056753 0.03765301 0.00000073
0.92183379 0.03765301 0.00000073
0.95322798 0.03765301 0.00000073
0.98472388 0.03765301 0.00000073
1.00000000 0.03765301 0.00000073
1.00000000 0.03765301 0.00000073
1.00000000 0.03765301 0.00000073
0.00000073 0.18531793 0.00000073
0.00000073 0.18531793 0.00000073
0.00000073 0.18531793 0.00000073
0.03765301 0.18531793 0.00000073
0.18531793 0.18531793 0.00000073
0.24199068 0.18531793 0.00000073
0.28458856 0.18531793 0.00000073
0.32106271 0.18531793 0.00000073
0.35424363 0.18531793 0.00000073
0.38548918 0.18531793 0.00000073
0.41556007 0.18531793 0.00000073
0.44492486 0.18531793 0.00000073
0.47389055 0.18531793 0.00000073
0.50266647 0.18531793 0.00000073
0.53139890 0.18531793 0.00000073
0.56019111 0.18531793 0.00000073
0.58911581 0.18531793 0.00000073
0.61822320 0.18531793 0.00000073
0.64754644 0.18531793 0.00000073
0.67710551 0.18531793 0.00000073
0.70691001 0.18531793 0.00000073
0.73696129 0.18531793 0.00000073
0.76725407 0.18531793 0.00000073
0.79777770 0.18531793 0.00000073
0.82851722 0.18531793 0.00000073
0.85945423 0.18531793 0.00000073
0.89056753 0.18531793 0.00000073
0.92183379 0.18531793 0.00000073
0.95322798 0.18531793 0.00000073
0.98472388 0.18531793 0.00000073
1.00000000 0.18531793 0.00000073
1.00000000 0.18531793 0.00000073
1.00000000 0.18531793 0.00000073
0.00000073 0.24199068 0.00000073
0.00000073 0.24199068 0.00000073
0.00000073 0.24199068 0.00000073
0.03765301 0.24199068 0.00000073
0.18531793 0.24199068 0.00000073
0.24199068 0.24199068 0.00000073
0.28458856 0.24199068 0.00000073
0.32106271 0.24199068 0.00000073
0.35424363 0.24199068 0.00000073
0.38548918 0.24199068 0.00000073
0.41556007 0.24199068 0.00000073
0.44492486 0.24199068 0.00000073
0.47389055 0.24199068 0.00000073
0.50266647 0.24199068 0.00000073
0.53139890 0.24199068 0.00000073
0.56019111 0.24199068 0.00000073
0.58911581 0.24199068 0.00000073
0.61822320 0.24199068 0.00000073
0.64754644 0.24199068 0.00000073
0.67710551 0.24199068 0.00000073
0.70691001 0.24199068 0.00000073
0.73696129 0.24199068 0.00000073
0.76725407 0.24199068 0.00000073
0.79777770 0.24199068 0.00000073
0.82851722 0.24199068 0.00000073
0.85945423 0.24199068 0.00000073
0.89056753 0.24199068 0.00000073
0.92183379 0.24199068 0.00000073
0.95322798 0.24199068 0.00000073
0.98472388 0.24199068 0.00000073
1.00000000 0.24199068 0.00000073
1.00000000 0.24199068 0.00000073
1.00000000 0.24199068 0.00000073
0.00000073 0.28458856 0.00000073
0.00000073 0.28458856 0.00000073
0.00000073 0.28458856 0.00000073
0.03765301 0.28458856 0.00000073
0.18531793 0.28458856 0.00000073
0.24199068 0.28458856 0.00000073
0.28458856 0.28458856 0.00000073
0.32106271 0.28458856 0.00000073
0.35424363 0.28458856 0.00000073
0.38548918 0.28458856 0.00000073
0.41556007 0.28458856 0.00000073
0.44492486 0.28458856 0.00000073
0.47389055 0.28458856 0.00000073
0.50266647 0.28458856 0.00000073
0.53139890 0.28458856 0.00000073
0.56019111 0.28458856 0.00000073
0.58911581 0.28458856 0.00000073
0.61822320 0.28458856 0.00000073
0.64754644 0.28458856 0.00000073
0.67710551 0.28458856 0.00000073
0.70691001 0.28458856 0.00000073
0.73696129 0.28458856 0.00000073
0.76725407 0.28458856 0.00000073
0.79777770 0.28458856 0.00000073
0.82851722 0.28458856 0.00000073
0.85945423 0.28458856 0.00000073
0.89056753 0.28458856 0.00000073
0.92183379 0.28458856 0.00000073
0.95322798 0.28458856 0.00000073
0.98472388 0.28458856 0.00000073
1.00000000 0.28458856 0.00000073
1.00000000 0.28458856 0.00000073
1.00000000 0.28458856 0.00000073
0.00000073 0.32106271 0.00000073
0.00000073 0.32106271 0.00000073
0.00000073 0.32106271 0.00000073
0.03765301 0.32106271 0.00000073
0.18531793 0.32106271 0.00000073
0.24199068 0.32106271 0.00000073
0.28458856 0.32106271 0.00000073
0.32106271 0.32106271 0.00000073
0.35424363 0.32106271 0.00000073
0.38548918 0.32106271 0.00000073
0.41556007 0.32106271 0.00000073
0.44492486 0.32106271 0.00000073
0.47389055 0.32106271 0.00000073
0.50266647 0.32106271 0.00000073
0.53139890 0.32106271 0.00000073
0.56019111 0.32106271 0.00000073
0.58911581 0.32106271 0.00000073
0.61822320 0.32106271 0.00000073
0.64754644 0.32106271 0.00000073
0.67710551 0.32106271 0.00000073
0.70691001 0.32106271 0.00000073
0.73696129 0.32106271 0.00000073
0.76725407 0.32106271 0.00000073
0.79777770 0.32106271 0.00000073
0.82851722 0.32106271 0.00000073
0.85945423 0.32106271 0.00000073
0.89056753 0.32106271 0.00000073
0.92183379 0.32106271 0.00000073
0.95322798 0.32106271 0.00000073
0.98472388 0.32106271 0.00000073
1.00000000 0.32106271 0.00000073
1.00000000 0.32106271 0.00000073
1.00000000 0.32106271 0.00000073
0.00000073 0.35424363 0.00000073
0.00000073 0.35424363 0.00000073
0.00000073 0.35424363 0.00000073
0.03765301 0.35424363 0.00000073
0.18531793 0.35424363 0.00000073
0.24199068 0.35424363 0.00000073
0.28458856 0.35424363 0.00000073
0.32106271 0.35424363 0.00000073
0.35424363 0.35424363 0.00000073
0.38548918 0.35424363 0.00000073
0.41556007 0.35424363 0.00000073
0.44492486 0.35424363 0.00000073
0.47389055 0.35424363 0.00000073
0.50266647 0.35424363 0.00000073
0.53139890 0.35424363 0.00000073
0.56019111 0.35424363 0.00000073
0.58911581 0.35424363 0.00000073
0.61822320 0.35424363 0.00000073
0.64754644 0.35424363 0.00000073
0.67710551 0.35424363 0.00000073
0.70691001 0.35424363 0.00000073
0.73696129 0.35424363 0.00000073
0.76725407 0.35424363 0.00000073
0.79777770 0.35424363 0.00000073
0.82851722 0.35424363 0.00000073
0.85945423 0.35424363 0.00000073
0.89056753 0.35424363 0.00000073
0.92183379 0.35424363 0.00000073
0.95322798 0.35424363 0.00000073
0.98472388 0.35424363 0.00000073
1.00000000 0.35424363 0.00000073
1.00000000 0.35424363 0.00000073
1.00000000 0.35424363 0.00000073
0.00000073 0.38548918 0.00000073
0.00000073 0.38548918 0.00000073
0.00000073 0.38548918 0.00000073
0.03765301 0.38548918 0.00000073
0.18531793 0.38548918 0.00000073
0.24199068 0.38548918 0.00000073
0.28458856 0.38548918 0.00000073
0.32106271 0.38548918 0.00000073
0.35424363 0.38548918 0.00000073
0.38548918 0.38548918 0.00000073
0.41556007 0.38548918 0.00000073
0.44492486 0.38548918 0.00000073
0.47389055 0.38548918 0.00000073
0.50266647 0.38548918 0.00000073
0.53139890 0.38548918 0.00000073
0.56019111 0.38548918 0.00000073
0.58911581 0.38548918 0.00000073
0.61822320 0.38548918 0.00000073
0.64754644 0.38548918 0.00000073
0.67710551 0.38548918 0.00000073
0.70691001 0.38548918 0.00000073
0.73696129 0.38548918 0.00000073
0.76725407 0.38548918 0.00000073
0.79777770 0.38548918 0.00000073
0.82851722 0.38548918 0.00000073
0.85945423 0.38548918 0.00000073
0.89056753 0.38548918 0.00000073
0.92183379 0.38548918 0.00000073
0.95322798 0.38548918 0.00000073
0.98472388 0.38548918 0.00000073
1.00000000 0.38548918 0.00000073
1.00000000 0.38548918 0.00000073
1.00000000 0.38548918 0.00000073
0.00000073 0.41556007 0.00000073
0.00000073 0.41556007 0.00000073
0.00000073 0.41556007 0.00000073
0.03765301 0.41556007 0.00000073
0.18531793 0.41556007 0.00000073
0.24199068 0.41556007 0.00000073
0.28458856 0.41556007 0.00000073
0.32106271 0.41556007 0.00000073
0.35424363 0.41556007 0.00000073
0.38548918 0.41556007 0.00000073
0.41556007 0.41556007 0.00000073
0.44492486 0.41556007 0.00000073
0.47389055 0.41556007 0.00000073
0.50266647 0.41556007 0.00000073
0.53139890 0.41556007 0.00000073
0.56019111 0.41556007 0.00000073
0.58911581 0.41556007 0.00000073
0.61822320 0.41556007 0.00000073
0.64754644 0.41556007 0.00000073
0.67710551 0.41556007 0.00000073
0.70691001 0.41556007 0.00000073
0.73696129 0.41556007 0.00000073
0.76725407 0.41556007 0.00000073
0.79777770 0.41556007 0.00000073
0.82851722 0.41556007 0.00000073
0.85945423 0.41556007 0.00000073
0.89056753 0.41556007 0.00000073
0.92183379 0.41556007 0.00000073
0.95322798 0.41556007 0.00000073
0.98472388 0.41556007 0.00000073
1.00000000 0.41556007 0.00000073
1.00000000 0.41556007 0.00000073
1.00000000 0.41556007 0.00000073
0.00000073 0.44492486 0.00000073
0.00000073 0.44492486 0.00000073
0.00000073 0.44492486 0.00000073
0.03765301 0.44492486 0.00000073
0.18531793 0.44492486 0.00000073
0.24199068 0.44492486 0.00000073
0.28458856 0.44492486 0.00000073
0.32106271 0.44492486 0.00000073
0.35424363 0.44492486 0.00000073
0.38548918 0.44492486 0.00000073
0.41556007 0.44492486 0.00000073
0.44492486 0.44492486 0.00000073
0.47389055 0.44492486 0.00000073
0.50266647 0.44492486 0.00000073
0.53139890 0.44492486 0.00000073
0.56019111 0.44492486 0.00000073
0.58911581 0.44492486 0.00000073
0.61822320 0.44492486 0.00000073
0.64754644 0.44492486 0.00000073
0.67710551 0.44492486 0.00000073
0.70691001 0.44492486 0.00000073
0.73696129 0.44492486 0.00000073
0.76725407 0.44492486 0.00000073
0.79777770 0.44492486 0.00000073
0.82851722 0.44492486 0.00000073
0.85945423 0.44492486 0.00000073
0.89056753 0.44492486 0.00000073
0.92183379 0.44492486 0.00000073
0.95322798 0.44492486 0.00000073
0.98472388 0.44492486 0.00000073
1.00000000 0.44492486 0.00000073
1.00000000 0.44492486 0.00000073
1.00000000 0.44492486 0.00000073
0.00000073 0.47389055 0.00000073
0.00000073 0.47389055 0.00000073
0.00000073 0.47389055 0.00000073
0.03765301 0.47389055 0.00000073
0.18531793 0.47389055 0.00000073
0.24199068 0.47389055 0.00000073
0.28458856 0.47389055 0.00000073
0.32106271 0.47389055 0.00000073
0.35424363 0.47389055 0.00000073
0.38548918 0.47389055 0.00000073
0.41556007 0.47389055 0.00000073
0.44492486 0.47389055 0.00000073
0.47389055 0.47389055 0.00000073
0.50266647 0.47389055 0.00000073
0.53139890 0.47389055 0.00000073
0.56019111 0.47389055 0.00000073
0.58911581 0.47389055 0.00000073
0.61822320 0.47389055 0.00000073
0.64754644 0.47389055 0.00000073
0.67710551 0.47389055 0.00000073
0.70691001 0.47389055 0.00000073
0.73696129 0.47389055 0.00000073
0.76725407 0.47389055 0.00000073
0.79777770 0.47389055 0.00000073
0.82851722 0.47389055 0.00000073
0.85945423 0.47389055 0.00000073
0.89056753 0.47389055 0.00000073
0.92183379 0.47389055 0.00000073
0.95322798 0.47389055 0.00000073
0.98472388 0.47389055 0.00000073
1.00000000 0.47389055 0.00000073
1.00000000 0.47389055 0.00000073
1.00000000 0.47389055 0.00000073
0.00000073 0.50266647 0.00000073
0.00000073 0.50266647 0.00000073
0.00000073 0.50266647 0.00000073
0.03765301 0.50266647 0.00000073
0.18531793 0.50266647 0.00000073
0.24199068 0.50266647 0.00000073
0.28458856 0.50266647 0.00000073
0.32106271 0.50266647 0.00000073
0.35424363 0.50266647 0.00000073
0.38548918 0.50266647 0.00000073
0.41556007 0.50266647 0.00000073
0.44492486 0.50266647 0.00000073
0.47389055 0.50266647 0.00000073
0.50266647 0.50266647 0.00000073
0.53139890 0.50266647 0.00000073
0.56019111 0.50266647 0.00000073
0.58911581 0.50266647 0.00000073
0.61822320 0.50266647 0.00000073
0.64754644 0.50266647 0.00000073
0.67710551 0.50266647 0.00000073
0.70691001 0.50266647 0.00000073
0.73696129 0.50266647 0.00000073
0.76725407 0.50266647 0.00000073
0.79777770 0.50266647 0.00000073
0.82851722 0.50266647 0.00000073
0.85945423 0.50266647 0.00000073
0.89056753 0.50266647 0.00000073
0.92183379 0.50266647 0.00000073
0.95322798 0.50266647 0.00000073
0.98472388 0.50266647 0.00000073
1.00000000 0.50266647 0.00000073
1.00000000 0.50266647 0.00000073
1.00000000 0.50266647 0.00000073
0.00000073 0.53139890 0.00000073
0.00000073 0.53139890 0.00000073
0.00000073 0.53139890 0.00000073
0.03765301 0.53139890 0.00000073
0.18531793 0.53139890 0.00000073
0.24199068 0.53139890 0.00000073
0.28458856 0.53139890 0.00000073
0.32106271 0.53139890 0.00000073
0.35424363 0.53139890 0.00000073
0.38548918 0.53139890 0.00000073
0.41556007 0.53139890 0.00000073
0.44492486 0.53139890 0.00000073
0.47389055 0.53139890 0.00000073
0.50266647 0.53139890 0.00000073
0.53139890 0.53139890 0.00000073
0.56019111 0.53139890 0.00000073
0.58911581 0.53139890 0.00000073
0.61822320 0.53139890 0.00000073
0.64754644 0.53139890 0.00000073
0.67710551 0.53139890 0.00000073
0.70691001 0.53139890 0.00000073
0.73696129 0.53139890 0.00000073
0.76725407 0.53139890 0.00000073
0.79777770 0.53139890 0.00000073
0.82851722 0.53139890 0.00000073
0.85945423 0.53139890 0.00000073
0.89056753 0.53139890 0.00000073
0.92183379 0.53139890 0.00000073
0.95322798 0.53139890 0.00000073
0.98472388 0.53139890 0.00000073
1.00000000 0.53139890 0.00000073
1.00000000 0.53139890 0.00000073
1.00000000 0.53139890 0.00000073
0.00000073 0.56019111 0.00000073
0.00000073 0.56019111 0.00000073
0.00000073 0.56019111 0.00000073
0.03765301 0.56019111 0.00000073
0.18531793 0.56019111 0.00000073
0.24199068 0.56019111 0.00000073
0.28458856 0.56019111 0.00000073
0.32106271 0.56019111 0.00000073
0.35424363 0.56019111 0.00000073
0.38548918 0.56019111 0.00000073
0.41556007 0.56019111 0.00000073
0.44492486 0.56019111 0.00000073
0.47389055 0.56019111 0.00000073
0.50266647 0.56019111 0.00000073
0.53139890 0.56019111 0.00000073
0.56019111 0.56019111 0.00000073
0.58911581 0.56019111 0.00000073
0.61822320 0.56019111 0.00000073
0.64754644 0.56019111 0.00000073
0.67710551 0.56019111 0.00000073
0.70691001 0.56019111 0.00000073
0.73696129 0.56019111 0.00000073
0.76725407 0.56019111 0.00000073
0.79777770 0.56019111 0.00000073
0.82851722 0.56019111 0.00000073
0.85945423 0.56019111 0.00000073
0.89056753 0.56019111 0.00000073
0.92183379 0.56019111 0.00000073
0.95322798 0.56019111 0.00000073
0.98472388 0.56019111 0.00000073
1.00000000 0.56019111 0.00000073
1.00000000 0.56019111 0.00000073
1.00000000 0.56019111 0.00000073
0.00000073 0.58911581 0.00000073
0.00000073 0.58911581 0.00000073
0.00000073 0.58911581 0.00000073
0.03765301 0.58911581 0.00000073
0.18531793 0.58911581 0.00000073
0.24199068 0.58911581 0.00000073
0.28458856 0.58911581 0.00000073
0.32106271 0.58911581 0.00000073
0.35424363 0.58911581 0.00000073
0.38548918 0.58911581 0.00000073
0.41556007 0.58911581 0.00000073
0.44492486 0.58911581 0.00000073
0.47389055 0.58911581 0.00000073
0.50266647 0.58911581 0.00000073
0.53139890 0.58911581 0.00000073
0.56019111 0.58911581 0.00000073
0.58911581 0.58911581 0.00000073
0.61822320 0.58911581 0.00000073
0.64754644 0.58911581 0.00000073
0.67710551 0.58911581 0.00000073
0.70691001 0.58911581 0.00000073
0.73696129 0.58911581 0.00000073
0.76725407 0.58911581 0.00000073
0.79777770 0.58911581 0.00000073
0.82851722 0.58911581 0.00000073
0.85945423 0.58911581 0.00000073
0.89056753 0.58911581 0.00000073
0.92183379 0.58911581 0.00000073
0.95322798 0.58911581 0.00000073
0.98472388 0.58911581 0.00000073
1.00000000 0.58911581 0.00000073
1.00000000 0.58911581 0.00000073
1.00000000 0.58911581 0.00000073
0.00000073 0.61822320 0.00000073
0.00000073 0.61822320 0.00000073
0.00000073 0.61822320 0.00000073
0.03765301 0.61822320 0.00000073
0.18531793 0.61822320 0.00000073
0.24199068 0.61822320 0.00000073
0.28458856 0.61822320 0.00000073
0.32106271 0.61822320 0.00000073
0.35424363 0.61822320 0.00000073
0.38548918 0.61822320 0.00000073
0.41556007 0.61822320 0.00000073
0.44492486 0.61822320 0.00000073
0.47389055 0.61822320 0.00000073
0.50266647 0.61822320 0.00000073
0.53139890 0.61822320 0.00000073
0.56019111 0.61822320 0.00000073
0.58911581 0.61822320 0.00000073
0.61822320 0.61822320 0.00000073
0.64754644 0.61822320 0.00000073
0.67710551 0.61822320 0.00000073
0.70691001 0.61822320 0.00000073
0.73696129 0.61822320 0.00000073
0.76725407 0.61822320 0.00000073
0.79777770 0.61822320 0.00000073
0.82851722 0.61822320 0.00000073
0.85945423 0.61822320 0.00000073
0.89056753 0.61822320 0.00000073
0.92183379 0.61822320 0.00000073
0.95322798 0.61822320 0.00000073
0.98472388 0.61822320 0.00000073
1.00000000 0.61822320 0.00000073
1.00000000 0.61822320 0.00000073
1.00000000 0.61822320 0.00000073
0.00000073 0.64754644 0.00000073
0.00000073 0.64754644 0.00000073
0.00000073 0.64754644 0.00000073
0.03765301 0.64754644 0.00000073
0.18531793 0.64754644 0.00000073
0.24199068 0.64754644 0.00000073
0.28458856 0.64754644 0.00000073
0.32106271 0.64754644 0.00000073
0.35424363 0.64754644 0.00000073
0.38548918 0.64754644 0.00000073
0.41556007 0.64754644 0.00000073
0.44492486 0.64754644 0.00000073
0.47389055 0.64754644 0.00000073
0.50266647 0.64754644 0.00000073
0.53139890 0.64754644 0.00000073
0.56019111 0.64754644 0.00000073
0.58911581 0.64754644 0.00000073
0.61822320 0.64754644 0.00000073
0.64754644 0.64754644 0.00000073
0.67710551 0.64754644 0.00000073
0.70691001 0.64754644 0.00000073
0.73696129 0.64754644 0.00000073
0.76725407 0.64754644 0.00000073
0.79777770 0.64754644 0.00000073
0.82851722 0.64754644 0.00000073
0.85945423 0.64754644 0.00000073
0.89056753 0.64754644 0.00000073
0.92183379 0.64754644 0.00000073
0.95322798 0.64754644 0.00000073
0.98472388 0.64754644 0.00000073
1.00000000 0.64754644 0.00000073
1.00000000 0.64754644 0.00000073
1.00000000 0.64754644 0.00000073
0.00000073 0.67710551 0.00000073
0.00000073 0.67710551 0.00000073
0.00000073 0.67710551 0.00000073
0.03765301 0.67710551 0.00000073
0.18531793 0.67710551 0.00000073
0.24199068 0.67710551 0.00000073
0.28458856 0.67710551 0.00000073
0.32106271 0.67710551 0.00000073
0.35424363 0.67710551 0.00000073
0.38548918 0.67710551 0.00000073
0.41556007 0.67710551 0.00000073
0.44492486 0.67710551 0.00000073
0.47389055 0.67710551 0.00000073
0.50266647 0.67710551 0.00000073
0.53139890 0.67710551 0.00000073
0.56019111 0.67710551 0.00000073
0.58911581 0.67710551 0.00000073
0.61822320 0.67710551 0.00000073
0.64754644 0.67710551 0.00000073
0.67710551 0.67710551 0.00000073
0.70691001 0.67710551 0.00000073
0.73696129 0.67710551 0.00000073
0.76725407 0.67710551 0.00000073
0.79777770 0.67710551 0.00000073
0.82851722 0.67710551 0.00000073
0.85945423 0.67710551 0.00000073
0.89056753 0.67710551 0.00000073
0.92183379 0.67710551 0.00000073
0.95322798 0.67710551 0.00000073
0.98472388 0.67710551 0.00000073
1.00000000 0.67710551 0.00000073
1.00000000 0.67710551 0.00000073
1.00000000 0.67710551 0.00000073
0.00000073 0.70691001 0.00000073
0.00000073 0.70691001 0.00000073
0.00000073 0.70691001 0.00000073
0.03765301 0.70691001 0.00000073
0.18531793 0.70691001 0.00000073
0.24199068 0.70691001 0.00000073
0.28458856 0.70691001 0.00000073
0.32106271 0.70691001 0.00000073
0.35424363 0.70691001 0.00000073
0.38548918 0.70691001 0.00000073
0.41556007 0.70691001 0.00000073
0.44492486 0.70691001 0.00000073
0.47389055 0.70691001 0.00000073
0.50266647 0.70691001 0.00000073
0.53139890 0.70691001 0.00000073
0.56019111 0.70691001 0.00000073
0.58911581 0.70691001 0.00000073
0.61822320 0.70691001 0.00000073
0.64754644 0.70691001 0.00000073
0.67710551 0.70691001 0.00000073
0.70691001 0.70691001 0.00000073
0.73696129 0.70691001 0.00000073
0.76725407 0.70691001 0.00000073
0.79777770 0.70691001 0.00000073
0.82851722 0.70691001 0.00000073
0.85945423 0.70691001 0.00000073
0.89056753 0.70691001 0.00000073
0.92183379 0.70691001 0.00000073
0.95322798 0.70691001 0.00000073
0.98472388 0.70691001 0.00000073
1.00000000 0.70691001 0.00000073
1.00000000 0.70691001 0.00000073
1.00000000 0.70691001 0.00000073
0.00000073 0.73696129 0.00000073
0.00000073 0.73696129 0.00000073
0.00000073 0.73696129 0.00000073
0.03765301 0.73696129 0.00000073
0.18531793 0.73696129 0.00000073
0.24199068 0.73696129 0.00000073
0.28458856 0.73696129 0.00000073
0.32106271 0.73696129 0.00000073
0.35424363 0.73696129 0.00000073
0.38548918 0.73696129 0.00000073
0.41556007 0.73696129 0.00000073
0.44492486 0.73696129 0.00000073
0.47389055 0.73696129 0.00000073
0.50266647 0.73696129 0.00000073
0.53139890 0.73696129 0.00000073
0.56019111 0.73696129 0.00000073
0.58911581 0.73696129 0.00000073
0.61822320 0.73696129 0.00000073
0.64754644 0.73696129 0.00000073
0.67710551 0.73696129 0.00000073
0.70691001 0.73696129 0.00000073
0.73696129 0.73696129 0.00000073
0.76725407 0.73696129 0.00000073
0.79777770 0.73696129 0.00000073
0.82851722 0.73696129 0.00000073
0.85945423 0.73696129 0.00000073
0.89056753 0.73696129 0.00000073
