src/ffmpeg_scripts/luts/flog-smpte2084_-0p33.cube
TITLE "flog-smpte2084_-0p33"
LUT_3D_SIZE 5
# Fujifilm F-Log/Rec2020 -> PQ (EOTF Only)/Rec2020, CineEI Shift -0.33, Black Level 0.00% IRE, Input 109% -> Output 109% - Created with LUTCalc v4.01 by Ben Turley October 2020
0.06256172 0.06256172 0.06256172
0.24124221 0.06256172 0.06256172
0.37295152 0.06256172 0.06256172
0.51313802 0.06256172 0.06256172
0.66509891 0.06256172 0.06256172
0.06256172 0.24124221 0.06256172
0.24124221 0.24124221 0.06256172
0.37295152 0.24124221 0.06256172
0.51313802 0.24124221 0.06256172
0.66509891 0.24124221 0.06256172
0.06256172 0.37295152 0.06256172
0.24124221 0.37295152 0.06256172
0.37295152 0.37295152 0.06256172
0.51313802 0.37295152 0.06256172
0.66509891 0.37295152 0.06256172
0.06256172 0.51313802 0.06256172
0.24124221 0.51313802 0.06256172
0.37295152 0.51313802 0.06256172
0.51313802 0.51313802 0.06256172
0.66509891 0.51313802 0.06256172
0.06256172 0.66509891 0.06256172
0.24124221 0.66509891 0.06256172
0.37295152 0.66509891 0.06256172
0.51313802 0.66509891 0.06256172
0.66509891 0.66509891 0.06256172
0.06256172 0.06256172 0.24124221
0.24124221 0.06256172 0.24124221
0.37295152 0.06256172 0.24124221
0.51313802 0.06256172 0.24124221
0.66509891 0.06256172 0.24124221
0.06256172 0.24124221 0.24124221
0.24124221 0.24124221 0.24124221
0.37295152 0.24124221 0.24124221
0.51313802 0.24124221 0.24124221
0.66509891 0.24124221 0.24124221
0.06256172 0.37295152 0.24124221
0.24124221 0.37295152 0.24124221
0.37295152 0.37295152 0.24124221
0.51313802 0.37295152 0.24124221
0.66509891 0.37295152 0.24124221
0.06256172 0.51313802 0.24124221
0.24124221 0.51313802 0.24124221
0.37295152 0.51313802 0.24124221
0.51313802 0.51313802 0.24124221
0.66509891 0.51313802 0.24124221
0.06256172 0.66509891 0.24124221
0.24124221 0.66509891 0.24124221
0.37295152 0.66509891 0.24124221
0.51313802 0.66509891 0.24124221
0.66509891 0.66509891 0.24124221
0.06256172 0.06256172 0.37295152
0.24124221 0.06256172 0.37295152
0.37295152 0.06256172 0.37295152
0.51313802 0.06256172 0.37295152
0.66509891 0.06256172 0.37295152
0.06256172 0.24124221 0.37295152
0.24124221 0.24124221 0.37295152
0.37295152 0.24124221 0.37295152
0.51313802 0.24124221 0.37295152
0.66509891 0.24124221 0.37295152
0.06256172 0.37295152 0.37295152
0.24124221 0.37295152 0.37295152
0.37295152 0.37295152 0.37295152
0.51313802 0.37295152 0.37295152
0.66509891 0.37295152 0.37295152
0.06256172 0.51313802 0.37295152
0.24124221 0.51313802 0.37295152
0.37295152 0.51313802 0.37295152
0.51313802 0.51313802 0.37295152
0.66509891 0.51313802 0.37295152
0.06256172 0.66509891 0.37295152
0.24124221 0.66509891 0.37295152
0.37295152 0.66509891 0.37295152
0.51313802 0.66509891 0.37295152
0.66509891 0.66509891 0.37295152
0.06256172 0.06256172 0.51313802
0.24124221 0.06256172 0.51313802
0.37295152 0.06256172 0.51313802
0.51313802 0.06256172 0.51313802
0.66509891 0.06256172 0.51313802
0.06256172 0.24124221 0.51313802
0.24124221 0.24124221 0.51313802
0.37295152 0.24124221 0.51313802
0.51313802 0.24124221 0.51313802
0.66509891 0.24124221 0.51313802
0.06256172 0.37295152 0.51313802
0.24124221 0.37295152 0.51313802
0.37295152 0.37295152 0.51313802
0.51313802 0.37295152 0.51313802
0.66509891 0.37295152 0.51313802
0.06256172 0.51313802 0.51313802
0.24124221 0.51313802 0.51313802
0.37295152 0.51313802 0.51313802
0.51313802 0.51313802 0.51313802
0.66509891 0.51313802 0.51313802
0.06256172 0.66509891 0.51313802
0.24124221 0.66509891 0.51313802
0.37295152 0.66509891 0.51313802
0.51313802 0.66509891 0.51313802
0.66509891 0.66509891 0.51313802
0.06256172 0.06256172 0.66509891
0.24124221 0.06256172 0.66509891
0.37295152 0.06256172 0.66509891
0.51313802 0.06256172 0.66509891
0.66509891 0.06256172 0.66509891
0.06256172 0.24124221 0.66509891
0.24124221 0.24124221 0.66509891
0.37295152 0.24124221 0.66509891
0.51313802 0.24124221 0.66509891
0.66509891 0.24124221 0.66509891
0.06256172 0.37295152 0.66509891
0.24124221 0.37295152 0.66509891
0.37295152 0.37295152 0.66509891
0.51313802 0.37295152 0.66509891
0.66509891 0.37295152 0.66509891
0.06256172 0.51313802 0.66509891
0.24124221 0.51313802 0.66509891
0.37295152 0.51313802 0.66509891
0.51313802 0.51313802 0.66509891
0.66509891 0.51313802 0.66509891
0.06256172 0.66509891 0.66509891
0.24124221 0.66509891 0.66509891
0.37295152 0.66509891 0.66509891
0.51313802 0.66509891 0.66509891
0.66509891 0.66509891 0.66509891
