src/ffmpeg_scripts/luts/flog-smpte2084_-2p67.cube
TITLE "flog-smpte2084_-2p67"
LUT_3D_SIZE 5
# Fujifilm F-Log/Rec2020 -> PQ (EOTF Only)/Rec2020, CineEI Shift -2.67, Black Level 0.00% IRE, Input 109% -> Output 109% - Created with LUTCalc v4.01 by Ben Turley October 2020
0.06256172 0.06256172 0.06256172
0.16691878 0.06256172 0.06256172
0.26476882 0.06256172 0.06256172
0.38108786 0.06256172 0.06256172
0.51861870 0.06256172 0.06256172
0.06256172 0.16691878 0.06256172
0.16691878 0.16691878 0.06256172
0.26476882 0.16691878 0.06256172
0.38108786 0.16691878 0.06256172
0.51861870 0.16691878 0.06256172
0.06256172 0.26476882 0.06256172
0.16691878 0.26476882 0.06256172
0.26476882 0.26476882 0.06256172
0.38108786 0.26476882 0.06256172
0.51861870 0.26476882 0.06256172
0.06256172 0.38108786 0.06256172
0.16691878 0.38108786 0.06256172
0.26476882 0.38108786 0.06256172
0.38108786 0.38108786 0.06256172
0.51861870 0.38108786 0.06256172
0.06256172 0.51861870 0.06256172
0.16691878 0.51861870 0.06256172
0.26476882 0.51861870 0.06256172
0.38108786 0.51861870 0.06256172
0.51861870 0.51861870 0.06256172
0.06256172 0.06256172 0.16691878
0.16691878 0.06256172 0.16691878
0.26476882 0.06256172 0.16691878
0.38108786 0.06256172 0.16691878
0.51861870 0.06256172 0.16691878
0.06256172 0.16691878 0.16691878
0.16691878 0.16691878 0.16691878
0.26476882 0.16691878 0.16691878
0.38108786 0.16691878 0.16691878
0.51861870 0.16691878 0.16691878
0.06256172 0.26476882 0.16691878
0.16691878 0.26476882 0.16691878
0.26476882 0.26476882 0.16691878
0.38108786 0.26476882 0.16691878
0.51861870 0.26476882 0.16691878
0.06256172 0.38108786 0.16691878
0.16691878 0.38108786 0.16691878
0.26476882 0.38108786 0.16691878
0.38108786 0.38108786 0.16691878
0.51861870 0.38108786 0.16691878
0.06256172 0.51861870 0.16691878
0.16691878 0.51861870 0.16691878
0.26476882 0.51861870 0.16691878
0.38108786 0.51861870 0.16691878
0.51861870 0.51861870 0.16691878
0.06256172 0.06256172 0.26476882
0.16691878 0.06256172 0.26476882
0.26476882 0.06256172 0.26476882
0.38108786 0.06256172 0.26476882
0.51861870 0.06256172 0.26476882
0.06256172 0.16691878 0.26476882
0.16691878 0.16691878 0.26476882
0.26476882 0.16691878 0.26476882
0.38108786 0.16691878 0.26476882
0.51861870 0.16691878 0.26476882
0.06256172 0.26476882 0.26476882
0.16691878 0.26476882 0.26476882
0.26476882 0.26476882 0.26476882
0.38108786 0.26476882 0.26476882
0.51861870 0.26476882 0.26476882
0.06256172 0.38108786 0.26476882
0.16691878 0.38108786 0.26476882
0.26476882 0.38108786 0.26476882
0.38108786 0.38108786 0.26476882
0.51861870 0.38108786 0.26476882
0.06256172 0.51861870 0.26476882
0.16691878 0.51861870 0.26476882
0.26476882 0.51861870 0.26476882
0.38108786 0.51861870 0.26476882
0.51861870 0.51861870 0.26476882
0.06256172 0.06256172 0.38108786
0.16691878 0.06256172 0.38108786
0.26476882 0.06256172 0.38108786
0.38108786 0.06256172 0.38108786
0.51861870 0.06256172 0.38108786
0.06256172 0.16691878 0.38108786
0.16691878 0.16691878 0.38108786
0.26476882 0.16691878 0.38108786
0.38108786 0.16691878 0.38108786
0.51861870 0.16691878 0.38108786
0.06256172 0.26476882 0.38108786
0.16691878 0.26476882 0.38108786
0.26476882 0.26476882 0.38108786
0.38108786 0.26476882 0.38108786
0.51861870 0.26476882 0.38108786
0.06256172 0.38108786 0.38108786
0.16691878 0.38108786 0.38108786
0.26476882 0.38108786 0.38108786
0.38108786 0.38108786 0.38108786
0.51861870 0.38108786 0.38108786
0.06256172 0.51861870 0.38108786
0.16691878 0.51861870 0.38108786
0.26476882 0.51861870 0.38108786
0.38108786 0.51861870 0.38108786
0.51861870 0.51861870 0.38108786
0.06256172 0.06256172 0.51861870
0.16691878 0.06256172 0.51861870
0.26476882 0.06256172 0.51861870
0.38108786 0.06256172 0.51861870
0.51861870 0.06256172 0.51861870
0.06256172 0.16691878 0.51861870
0.16691878 0.16691878 0.51861870
0.26476882 0.16691878 0.51861870
0.38108786 0.16691878 0.51861870
0.51861870 0.16691878 0.51861870
0.06256172 0.26476882 0.51861870
0.16691878 0.26476882 0.51861870
0.26476882 0.26476882 0.51861870
0.38108786 0.26476882 0.51861870
0.51861870 0.26476882 0.51861870
0.06256172 0.38108786 0.51861870
0.16691878 0.38108786 0.51861870
0.26476882 0.38108786 0.51861870
0.38108786 0.38108786 0.51861870
0.51861870 0.38108786 0.51861870
0.06256172 0.51861870 0.51861870
0.16691878 0.51861870 0.51861870
0.26476882 0.51861870 0.51861870
0.38108786 0.51861870 0.51861870
0.51861870 0.51861870 0.51861870
