src/ffmpeg_scripts/luts/flog-experimental_-1p00.cube
TITLE "flog-experimental_-1p00"
LUT_3D_SIZE 9
# Fujifilm F-Log/Rec2020 -> PQ (EOTF Only)/Rec2020, CineEI Shift -1.00, Black Level 0.00% IRE, Input 109% -> Output 100% - Created with LUTCalc v4.01 by Ben Turley October 2020
0.00000073 0.00000073 0.00000073
0.12052584 0.00000073 0.00000073
0.25025914 0.00000073 0.00000073
0.34888584 0.00000073 0.00000073
0.44806496 0.00000073 0.00000073
0.55313401 0.00000073 0.00000073
0.66506860 0.00000073 0.00000073
0.78315928 0.00000073 0.00000073
0.90588648 0.00000073 0.00000073
0.00000073 0.12052584 0.00000073
0.12052584 0.12052584 0.00000073
0.25025914 0.12052584 0.00000073
0.34888584 0.12052584 0.00000073
0.44806496 0.12052584 0.00000073
0.55313401 0.12052584 0.00000073
0.66506860 0.12052584 0.00000073
0.78315928 0.12052584 0.00000073
0.90588648 0.12052584 0.00000073
0.00000073 0.25025914 0.00000073
0.12052584 0.25025914 0.00000073
0.25025914 0.25025914 0.00000073
0.34888584 0.25025914 0.00000073
0.44806496 0.25025914 0.00000073
0.55313401 0.25025914 0.00000073
0.66506860 0.25025914 0.00000073
0.78315928 0.25025914 0.00000073
0.90588648 0.25025914 0.00000073
0.00000073 0.34888584 0.00000073
0.12052584 0.34888584 0.00000073
0.25025914 0.34888584 0.00000073
0.34888584 0.34888584 0.00000073
0.44806496 0.34888584 0.00000073
0.55313401 0.34888584 0.00000073
0.66506860 0.34888584 0.00000073
0.78315928 0.34888584 0.00000073
0.90588648 0.34888584 0.00000073
0.00000073 0.44806496 0.00000073
0.12052584 0.44806496 0.00000073
0.25025914 0.44806496 0.00000073
0.34888584 0.44806496 0.00000073
0.44806496 0.44806496 0.00000073
0.55313401 0.44806496 0.00000073
0.66506860 0.44806496 0.00000073
0.78315928 0.44806496 0.00000073
0.90588648 0.44806496 0.00000073
0.00000073 0.55313401 0.00000073
0.12052584 0.55313401 0.00000073
0.25025914 0.55313401 0.00000073
0.34888584 0.55313401 0.00000073
0.44806496 0.55313401 0.00000073
0.55313401 0.55313401 0.00000073
0.66506860 0.55313401 0.00000073
0.78315928 0.55313401 0.00000073
0.90588648 0.55313401 0.00000073
0.00000073 0.66506860 0.00000073
0.12052584 0.66506860 0.00000073
0.25025914 0.66506860 0.00000073
0.34888584 0.66506860 0.00000073
0.44806496 0.66506860 0.00000073
0.55313401 0.66506860 0.00000073
0.66506860 0.66506860 0.00000073
0.78315928 0.66506860 0.00000073
0.90588648 0.66506860 0.00000073
0.00000073 0.78315928 0.00000073
0.12052584 0.78315928 0.00000073
0.25025914 0.78315928 0.00000073
0.34888584 0.78315928 0.00000073
0.44806496 0.78315928 0.00000073
0.55313401 0.78315928 0.00000073
0.66506860 0.78315928 0.00000073
0.78315928 0.78315928 0.00000073
0.90588648 0.78315928 0.00000073
0.00000073 0.90588648 0.00000073
0.12052584 0.90588648 0.00000073
0.25025914 0.90588648 0.00000073
0.34888584 0.90588648 0.00000073
0.44806496 0.90588648 0.00000073
0.55313401 0.90588648 0.00000073
0.66506860 0.90588648 0.00000073
0.78315928 0.90588648 0.00000073
0.90588648 0.90588648 0.00000073
0.00000073 0.00000073 0.12052584
0.12052584 0.00000073 0.12052584
0.25025914 0.00000073 0.12052584
0.34888584 0.00000073 0.12052584
0.44806496 0.00000073 0.12052584
0.55313401 0.00000073 0.12052584
0.66506860 0.00000073 0.12052584
0.78315928 0.00000073 0.12052584
0.90588648 0.00000073 0.12052584
0.00000073 0.12052584 0.12052584
0.12052584 0.12052584 0.12052584
0.25025914 0.12052584 0.12052584
0.34888584 0.12052584 0.12052584
0.44806496 0.12052584 0.12052584
0.55313401 0.12052584 0.12052584
0.66506860 0.12052584 0.12052584
0.78315928 0.12052584 0.12052584
0.90588648 0.12052584 0.12052584
0.00000073 0.25025914 0.12052584
0.12052584 0.25025914 0.12052584
0.25025914 0.25025914 0.12052584
0.34888584 0.25025914 0.12052584
0.44806496 0.25025914 0.12052584
0.55313401 0.25025914 0.12052584
0.66506860 0.25025914 0.12052584
0.78315928 0.25025914 0.12052584
0.90588648 0.25025914 0.12052584
0.00000073 0.34888584 0.12052584
0.12052584 0.34888584 0.12052584
0.25025914 0.34888584 0.12052584
0.34888584 0.34888584 0.12052584
0.44806496 0.34888584 0.12052584
0.55313401 0.34888584 0.12052584
0.66506860 0.34888584 0.12052584
0.78315928 0.34888584 0.12052584
0.90588648 0.34888584 0.12052584
0.00000073 0.44806496 0.12052584
0.12052584 0.44806496 0.12052584
0.25025914 0.44806496 0.12052584
0.34888584 0.44806496 0.12052584
0.44806496 0.44806496 0.12052584
0.55313401 0.44806496 0.12052584
0.66506860 0.44806496 0.12052584
0.78315928 0.44806496 0.12052584
0.90588648 0.44806496 0.12052584
0.00000073 0.55313401 0.12052584
0.12052584 0.55313401 0.12052584
0.25025914 0.55313401 0.12052584
0.34888584 0.55313401 0.12052584
0.44806496 0.55313401 0.12052584
0.55313401 0.55313401 0.12052584
0.66506860 0.55313401 0.12052584
0.78315928 0.55313401 0.12052584
0.90588648 0.55313401 0.12052584
0.00000073 0.66506860 0.12052584
0.12052584 0.66506860 0.12052584
0.25025914 0.66506860 0.12052584
0.34888584 0.66506860 0.12052584
0.44806496 0.66506860 0.12052584
0.55313401 0.66506860 0.12052584
0.66506860 0.66506860 0.12052584
0.78315928 0.66506860 0.12052584
0.90588648 0.66506860 0.12052584
0.00000073 0.78315928 0.12052584
0.12052584 0.78315928 0.12052584
0.25025914 0.78315928 0.12052584
0.34888584 0.78315928 0.12052584
0.44806496 0.78315928 0.12052584
0.55313401 0.78315928 0.12052584
0.66506860 0.78315928 0.12052584
0.78315928 0.78315928 0.12052584
0.90588648 0.78315928 0.12052584
0.00000073 0.90588648 0.12052584
0.12052584 0.90588648 0.12052584
0.25025914 0.90588648 0.12052584
0.34888584 0.90588648 0.12052584
0.44806496 0.90588648 0.12052584
0.55313401 0.90588648 0.12052584
0.66506860 0.90588648 0.12052584
0.78315928 0.90588648 0.12052584
0.90588648 0.90588648 0.12052584
0.00000073 0.00000073 0.25025914
0.12052584 0.00000073 0.25025914
0.25025914 0.00000073 0.25025914
0.34888584 0.00000073 0.25025914
0.44806496 0.00000073 0.25025914
0.55313401 0.00000073 0.25025914
0.66506860 0.00000073 0.25025914
0.78315928 0.00000073 0.25025914
0.90588648 0.00000073 0.25025914
0.00000073 0.12052584 0.25025914
0.12052584 0.12052584 0.25025914
0.25025914 0.12052584 0.25025914
0.34888584 0.12052584 0.25025914
0.44806496 0.12052584 0.25025914
0.55313401 0.12052584 0.25025914
0.66506860 0.12052584 0.25025914
0.78315928 0.12052584 0.25025914
0.90588648 0.12052584 0.25025914
0.00000073 0.25025914 0.25025914
0.12052584 0.25025914 0.25025914
0.25025914 0.25025914 0.25025914
0.34888584 0.25025914 0.25025914
0.44806496 0.25025914 0.25025914
0.55313401 0.25025914 0.25025914
0.66506860 0.25025914 0.25025914
0.78315928 0.25025914 0.25025914
0.90588648 0.25025914 0.25025914
0.00000073 0.34888584 0.25025914
0.12052584 0.34888584 0.25025914
0.25025914 0.34888584 0.25025914
0.34888584 0.34888584 0.25025914
0.44806496 0.34888584 0.25025914
0.55313401 0.34888584 0.25025914
0.66506860 0.34888584 0.25025914
0.78315928 0.34888584 0.25025914
0.90588648 0.34888584 0.25025914
0.00000073 0.44806496 0.25025914
0.12052584 0.44806496 0.25025914
0.25025914 0.44806496 0.25025914
0.34888584 0.44806496 0.25025914
0.44806496 0.44806496 0.25025914
0.55313401 0.44806496 0.25025914
0.66506860 0.44806496 0.25025914
0.78315928 0.44806496 0.25025914
0.90588648 0.44806496 0.25025914
0.00000073 0.55313401 0.25025914
0.12052584 0.55313401 0.25025914
0.25025914 0.55313401 0.25025914
0.34888584 0.55313401 0.25025914
0.44806496 0.55313401 0.25025914
0.55313401 0.55313401 0.25025914
0.66506860 0.55313401 0.25025914
0.78315928 0.55313401 0.25025914
0.90588648 0.55313401 0.25025914
0.00000073 0.66506860 0.25025914
0.12052584 0.66506860 0.25025914
0.25025914 0.66506860 0.25025914
0.34888584 0.66506860 0.25025914
0.44806496 0.66506860 0.25025914
0.55313401 0.66506860 0.25025914
0.66506860 0.66506860 0.25025914
0.78315928 0.66506860 0.25025914
0.90588648 0.66506860 0.25025914
0.00000073 0.78315928 0.25025914
0.12052584 0.78315928 0.25025914
0.25025914 0.78315928 0.25025914
0.34888584 0.78315928 0.25025914
0.44806496 0.78315928 0.25025914
0.55313401 0.78315928 0.25025914
0.66506860 0.78315928 0.25025914
0.78315928 0.78315928 0.25025914
0.90588648 0.78315928 0.25025914
0.00000073 0.90588648 0.25025914
0.12052584 0.90588648 0.25025914
0.25025914 0.90588648 0.25025914
0.34888584 0.90588648 0.25025914
0.44806496 0.90588648 0.25025914
0.55313401 0.90588648 0.25025914
0.66506860 0.90588648 0.25025914
0.78315928 0.90588648 0.25025914
0.90588648 0.90588648 0.25025914
0.00000073 0.00000073 0.34888584
0.12052584 0.00000073 0.34888584
0.25025914 0.00000073 0.34888584
0.34888584 0.00000073 0.34888584
0.44806496 0.00000073 0.34888584
0.55313401 0.00000073 0.34888584
0.66506860 0.00000073 0.34888584
0.78315928 0.00000073 0.34888584
0.90588648 0.00000073 0.34888584
0.00000073 0.12052584 0.34888584
0.12052584 0.12052584 0.34888584
0.25025914 0.12052584 0.34888584
0.34888584 0.12052584 0.34888584
0.44806496 0.12052584 0.34888584
0.55313401 0.12052584 0.34888584
0.66506860 0.12052584 0.34888584
0.78315928 0.12052584 0.34888584
0.90588648 0.12052584 0.34888584
0.00000073 0.25025914 0.34888584
0.12052584 0.25025914 0.34888584
0.25025914 0.25025914 0.34888584
0.34888584 0.25025914 0.34888584
0.44806496 0.25025914 0.34888584
0.55313401 0.25025914 0.34888584
0.66506860 0.25025914 0.34888584
0.78315928 0.25025914 0.34888584
0.90588648 0.25025914 0.34888584
0.00000073 0.34888584 0.34888584
0.12052584 0.34888584 0.34888584
0.25025914 0.34888584 0.34888584
0.34888584 0.34888584 0.34888584
0.44806496 0.34888584 0.34888584
0.55313401 0.34888584 0.34888584
0.66506860 0.34888584 0.34888584
0.78315928 0.34888584 0.34888584
0.90588648 0.34888584 0.34888584
0.00000073 0.44806496 0.34888584
0.12052584 0.44806496 0.34888584
0.25025914 0.44806496 0.34888584
0.34888584 0.44806496 0.34888584
0.44806496 0.44806496 0.34888584
0.55313401 0.44806496 0.34888584
0.66506860 0.44806496 0.34888584
0.78315928 0.44806496 0.34888584
0.90588648 0.44806496 0.34888584
0.00000073 0.55313401 0.34888584
0.12052584 0.55313401 0.34888584
0.25025914 0.55313401 0.34888584
0.34888584 0.55313401 0.34888584
0.44806496 0.55313401 0.34888584
0.55313401 0.55313401 0.34888584
0.66506860 0.55313401 0.34888584
0.78315928 0.55313401 0.34888584
0.90588648 0.55313401 0.34888584
0.00000073 0.66506860 0.34888584
0.12052584 0.66506860 0.34888584
0.25025914 0.66506860 0.34888584
0.34888584 0.66506860 0.34888584
0.44806496 0.66506860 0.34888584
0.55313401 0.66506860 0.34888584
0.66506860 0.66506860 0.34888584
0.78315928 0.66506860 0.34888584
0.90588648 0.66506860 0.34888584
0.00000073 0.78315928 0.34888584
0.12052584 0.78315928 0.34888584
0.25025914 0.78315928 0.34888584
0.34888584 0.78315928 0.34888584
0.44806496 0.78315928 0.34888584
0.55313401 0.78315928 0.34888584
0.66506860 0.78315928 0.34888584
0.78315928 0.78315928 0.34888584
0.90588648 0.78315928 0.34888584
0.00000073 0.90588648 0.34888584
0.12052584 0.90588648 0.34888584
0.25025914 0.90588648 0.34888584
0.34888584 0.90588648 0.34888584
0.44806496 0.90588648 0.34888584
0.55313401 0.90588648 0.34888584
0.66506860 0.90588648 0.34888584
0.78315928 0.90588648 0.34888584
0.90588648 0.90588648 0.34888584
0.00000073 0.00000073 0.44806496
0.12052584 0.00000073 0.44806496
0.25025914 0.00000073 0.44806496
0.34888584 0.00000073 0.44806496
0.44806496 0.00000073 0.44806496
0.55313401 0.00000073 0.44806496
0.66506860 0.00000073 0.44806496
0.78315928 0.00000073 0.44806496
0.90588648 0.00000073 0.44806496
0.00000073 0.12052584 0.44806496
0.12052584 0.12052584 0.44806496
0.25025914 0.12052584 0.44806496
0.34888584 0.12052584 0.44806496
0.44806496 0.12052584 0.44806496
0.55313401 0.12052584 0.44806496
0.66506860 0.12052584 0.44806496
0.78315928 0.12052584 0.44806496
0.90588648 0.12052584 0.44806496
0.00000073 0.25025914 0.44806496
0.12052584 0.25025914 0.44806496
0.25025914 0.25025914 0.44806496
0.34888584 0.25025914 0.44806496
0.44806496 0.25025914 0.44806496
0.55313401 0.25025914 0.44806496
0.66506860 0.25025914 0.44806496
0.78315928 0.25025914 0.44806496
0.90588648 0.25025914 0.44806496
0.00000073 0.34888584 0.44806496
0.12052584 0.34888584 0.44806496
0.25025914 0.34888584 0.44806496
0.34888584 0.34888584 0.44806496
0.44806496 0.34888584 0.44806496
0.55313401 0.34888584 0.44806496
0.66506860 0.34888584 0.44806496
0.78315928 0.34888584 0.44806496
0.90588648 0.34888584 0.44806496
0.00000073 0.44806496 0.44806496
0.12052584 0.44806496 0.44806496
0.25025914 0.44806496 0.44806496
0.34888584 0.44806496 0.44806496
0.44806496 0.44806496 0.44806496
0.55313401 0.44806496 0.44806496
0.66506860 0.44806496 0.44806496
0.78315928 0.44806496 0.44806496
0.90588648 0.44806496 0.44806496
0.00000073 0.55313401 0.44806496
0.12052584 0.55313401 0.44806496
0.25025914 0.55313401 0.44806496
0.34888584 0.55313401 0.44806496
0.44806496 0.55313401 0.44806496
0.55313401 0.55313401 0.44806496
0.66506860 0.55313401 0.44806496
0.78315928 0.55313401 0.44806496
0.90588648 0.55313401 0.44806496
0.00000073 0.66506860 0.44806496
0.12052584 0.66506860 0.44806496
0.25025914 0.66506860 0.44806496
0.34888584 0.66506860 0.44806496
0.44806496 0.66506860 0.44806496
0.55313401 0.66506860 0.44806496
0.66506860 0.66506860 0.44806496
0.78315928 0.66506860 0.44806496
0.90588648 0.66506860 0.44806496
0.00000073 0.78315928 0.44806496
0.12052584 0.78315928 0.44806496
0.25025914 0.78315928 0.44806496
0.34888584 0.78315928 0.44806496
0.44806496 0.78315928 0.44806496
0.55313401 0.78315928 0.44806496
0.66506860 0.78315928 0.44806496
0.78315928 0.78315928 0.44806496
0.90588648 0.78315928 0.44806496
0.00000073 0.90588648 0.44806496
0.12052584 0.90588648 0.44806496
0.25025914 0.90588648 0.44806496
0.34888584 0.90588648 0.44806496
0.44806496 0.90588648 0.44806496
0.55313401 0.90588648 0.44806496
0.66506860 0.90588648 0.44806496
0.78315928 0.90588648 0.44806496
0.90588648 0.90588648 0.44806496
0.00000073 0.00000073 0.55313401
0.12052584 0.00000073 0.55313401
0.25025914 0.00000073 0.55313401
0.34888584 0.00000073 0.55313401
0.44806496 0.00000073 0.55313401
0.55313401 0.00000073 0.55313401
0.66506860 0.00000073 0.55313401
0.78315928 0.00000073 0.55313401
0.90588648 0.00000073 0.55313401
0.00000073 0.12052584 0.55313401
0.12052584 0.12052584 0.55313401
0.25025914 0.12052584 0.55313401
0.34888584 0.12052584 0.55313401
0.44806496 0.12052584 0.55313401
0.55313401 0.12052584 0.55313401
0.66506860 0.12052584 0.55313401
0.78315928 0.12052584 0.55313401
0.90588648 0.12052584 0.55313401
0.00000073 0.25025914 0.55313401
0.12052584 0.25025914 0.55313401
0.25025914 0.25025914 0.55313401
0.34888584 0.25025914 0.55313401
0.44806496 0.25025914 0.55313401
0.55313401 0.25025914 0.55313401
0.66506860 0.25025914 0.55313401
0.78315928 0.25025914 0.55313401
0.90588648 0.25025914 0.55313401
0.00000073 0.34888584 0.55313401
0.12052584 0.34888584 0.55313401
0.25025914 0.34888584 0.55313401
0.34888584 0.34888584 0.55313401
0.44806496 0.34888584 0.55313401
0.55313401 0.34888584 0.55313401
0.66506860 0.34888584 0.55313401
0.78315928 0.34888584 0.55313401
0.90588648 0.34888584 0.55313401
0.00000073 0.44806496 0.55313401
0.12052584 0.44806496 0.55313401
0.25025914 0.44806496 0.55313401
0.34888584 0.44806496 0.55313401
0.44806496 0.44806496 0.55313401
0.55313401 0.44806496 0.55313401
0.66506860 0.44806496 0.55313401
0.78315928 0.44806496 0.55313401
0.90588648 0.44806496 0.55313401
0.00000073 0.55313401 0.55313401
0.12052584 0.55313401 0.55313401
0.25025914 0.55313401 0.55313401
0.34888584 0.55313401 0.55313401
0.44806496 0.55313401 0.55313401
0.55313401 0.55313401 0.55313401
0.66506860 0.55313401 0.55313401
0.78315928 0.55313401 0.55313401
0.90588648 0.55313401 0.55313401
0.00000073 0.66506860 0.55313401
0.12052584 0.66506860 0.55313401
0.25025914 0.66506860 0.55313401
0.34888584 0.66506860 0.55313401
0.44806496 0.66506860 0.55313401
0.55313401 0.66506860 0.55313401
0.66506860 0.66506860 0.55313401
0.78315928 0.66506860 0.55313401
0.90588648 0.66506860 0.55313401
0.00000073 0.78315928 0.55313401
0.12052584 0.78315928 0.55313401
0.25025914 0.78315928 0.55313401
0.34888584 0.78315928 0.55313401
0.44806496 0.78315928 0.55313401
0.55313401 0.78315928 0.55313401
0.66506860 0.78315928 0.55313401
0.78315928 0.78315928 0.55313401
0.90588648 0.78315928 0.55313401
0.00000073 0.90588648 0.55313401
0.12052584 0.90588648 0.55313401
0.25025914 0.90588648 0.55313401
0.34888584 0.90588648 0.55313401
0.44806496 0.90588648 0.55313401
0.55313401 0.90588648 0.55313401
0.66506860 0.90588648 0.55313401
0.78315928 0.90588648 0.55313401
0.90588648 0.90588648 0.55313401
0.00000073 0.00000073 0.66506860
0.12052584 0.00000073 0.66506860
0.25025914 0.00000073 0.66506860
0.34888584 0.00000073 0.66506860
0.44806496 0.00000073 0.66506860
0.55313401 0.00000073 0.66506860
0.66506860 0.00000073 0.66506860
0.78315928 0.00000073 0.66506860
0.90588648 0.00000073 0.66506860
0.00000073 0.12052584 0.66506860
0.12052584 0.12052584 0.66506860
0.25025914 0.12052584 0.66506860
0.34888584 0.12052584 0.66506860
0.44806496 0.12052584 0.66506860
0.55313401 0.12052584 0.66506860
0.66506860 0.12052584 0.66506860
0.78315928 0.12052584 0.66506860
0.90588648 0.12052584 0.66506860
0.00000073 0.25025914 0.66506860
0.12052584 0.25025914 0.66506860
0.25025914 0.25025914 0.66506860
0.34888584 0.25025914 0.66506860
0.44806496 0.25025914 0.66506860
0.55313401 0.25025914 0.66506860
0.66506860 0.25025914 0.66506860
0.78315928 0.25025914 0.66506860
0.90588648 0.25025914 0.66506860
0.00000073 0.34888584 0.66506860
0.12052584 0.34888584 0.66506860
0.25025914 0.34888584 0.66506860
0.34888584 0.34888584 0.66506860
0.44806496 0.34888584 0.66506860
0.55313401 0.34888584 0.66506860
0.66506860 0.34888584 0.66506860
0.78315928 0.34888584 0.66506860
0.90588648 0.34888584 0.66506860
0.00000073 0.44806496 0.66506860
0.12052584 0.44806496 0.66506860
0.25025914 0.44806496 0.66506860
0.34888584 0.44806496 0.66506860
0.44806496 0.44806496 0.66506860
0.55313401 0.44806496 0.66506860
0.66506860 0.44806496 0.66506860
0.78315928 0.44806496 0.66506860
0.90588648 0.44806496 0.66506860
0.00000073 0.55313401 0.66506860
0.12052584 0.55313401 0.66506860
0.25025914 0.55313401 0.66506860
0.34888584 0.55313401 0.66506860
0.44806496 0.55313401 0.66506860
0.55313401 0.55313401 0.66506860
0.66506860 0.55313401 0.66506860
0.78315928 0.55313401 0.66506860
0.90588648 0.55313401 0.66506860
0.00000073 0.66506860 0.66506860
0.12052584 0.66506860 0.66506860
0.25025914 0.66506860 0.66506860
0.34888584 0.66506860 0.66506860
0.44806496 0.66506860 0.66506860
0.55313401 0.66506860 0.66506860
0.66506860 0.66506860 0.66506860
0.78315928 0.66506860 0.66506860
0.90588648 0.66506860 0.66506860
0.00000073 0.78315928 0.66506860
0.12052584 0.78315928 0.66506860
0.25025914 0.78315928 0.66506860
0.34888584 0.78315928 0.66506860
0.44806496 0.78315928 0.66506860
0.55313401 0.78315928 0.66506860
0.66506860 0.78315928 0.66506860
0.78315928 0.78315928 0.66506860
0.90588648 0.78315928 0.66506860
0.00000073 0.90588648 0.66506860
0.12052584 0.90588648 0.66506860
0.25025914 0.90588648 0.66506860
0.34888584 0.90588648 0.66506860
0.44806496 0.90588648 0.66506860
0.55313401 0.90588648 0.66506860
0.66506860 0.90588648 0.66506860
0.78315928 0.90588648 0.66506860
0.90588648 0.90588648 0.66506860
0.00000073 0.00000073 0.78315928
0.12052584 0.00000073 0.78315928
0.25025914 0.00000073 0.78315928
0.34888584 0.00000073 0.78315928
0.44806496 0.00000073 0.78315928
0.55313401 0.00000073 0.78315928
0.66506860 0.00000073 0.78315928
0.78315928 0.00000073 0.78315928
0.90588648 0.00000073 0.78315928
0.00000073 0.12052584 0.78315928
0.12052584 0.12052584 0.78315928
0.25025914 0.12052584 0.78315928
0.34888584 0.12052584 0.78315928
0.44806496 0.12052584 0.78315928
0.55313401 0.12052584 0.78315928
0.66506860 0.12052584 0.78315928
0.78315928 0.12052584 0.78315928
0.90588648 0.12052584 0.78315928
0.00000073 0.25025914 0.78315928
0.12052584 0.25025914 0.78315928
0.25025914 0.25025914 0.78315928
0.34888584 0.25025914 0.78315928
0.44806496 0.25025914 0.78315928
0.55313401 0.25025914 0.78315928
0.66506860 0.25025914 0.78315928
0.78315928 0.25025914 0.78315928
0.90588648 0.25025914 0.78315928
0.00000073 0.34888584 0.78315928
0.12052584 0.34888584 0.78315928
0.25025914 0.34888584 0.78315928
0.34888584 0.34888584 0.78315928
0.44806496 0.34888584 0.78315928
0.55313401 0.34888584 0.78315928
0.66506860 0.34888584 0.78315928
0.78315928 0.34888584 0.78315928
0.90588648 0.34888584 0.78315928
0.00000073 0.44806496 0.78315928
0.12052584 0.44806496 0.78315928
0.25025914 0.44806496 0.78315928
0.34888584 0.44806496 0.78315928
0.44806496 0.44806496 0.78315928
0.55313401 0.44806496 0.78315928
0.66506860 0.44806496 0.78315928
0.78315928 0.44806496 0.78315928
0.90588648 0.44806496 0.78315928
0.00000073 0.55313401 0.78315928
0.12052584 0.55313401 0.78315928
0.25025914 0.55313401 0.78315928
0.34888584 0.55313401 0.78315928
0.44806496 0.55313401 0.78315928
0.55313401 0.55313401 0.78315928
0.66506860 0.55313401 0.78315928
0.78315928 0.55313401 0.78315928
0.90588648 0.55313401 0.78315928
0.00000073 0.66506860 0.78315928
0.12052584 0.66506860 0.78315928
0.25025914 0.66506860 0.78315928
0.34888584 0.66506860 0.78315928
0.44806496 0.66506860 0.78315928
0.55313401 0.66506860 0.78315928
0.66506860 0.66506860 0.78315928
0.78315928 0.66506860 0.78315928
0.90588648 0.66506860 0.78315928
0.00000073 0.78315928 0.78315928
0.12052584 0.78315928 0.78315928
0.25025914 0.78315928 0.78315928
0.34888584 0.78315928 0.78315928
0.44806496 0.78315928 0.78315928
0.55313401 0.78315928 0.78315928
0.66506860 0.78315928 0.78315928
0.78315928 0.78315928 0.78315928
0.90588648 0.78315928 0.78315928
0.00000073 0.90588648 0.78315928
0.12052584 0.90588648 0.78315928
0.25025914 0.90588648 0.78315928
0.34888584 0.90588648 0.78315928
0.44806496 0.90588648 0.78315928
0.55313401 0.90588648 0.78315928
0.66506860 0.90588648 0.78315928
0.78315928 0.90588648 0.78315928
0.90588648 0.90588648 0.78315928
0.00000073 0.00000073 0.90588648
0.12052584 0.00000073 0.90588648
0.25025914 0.00000073 0.90588648
0.34888584 0.00000073 0.90588648
0.44806496 0.00000073 0.90588648
0.55313401 0.00000073 0.90588648
0.66506860 0.00000073 0.90588648
0.78315928 0.00000073 0.90588648
0.90588648 0.00000073 0.90588648
0.00000073 0.12052584 0.90588648
0.12052584 0.12052584 0.90588648
0.25025914 0.12052584 0.90588648
0.34888584 0.12052584 0.90588648
0.44806496 0.12052584 0.90588648
0.55313401 0.12052584 0.90588648
0.66506860 0.12052584 0.90588648
0.78315928 0.12052584 0.90588648
0.90588648 0.12052584 0.90588648
0.00000073 0.25025914 0.90588648
0.12052584 0.25025914 0.90588648
0.25025914 0.25025914 0.90588648
0.34888584 0.25025914 0.90588648
0.44806496 0.25025914 0.90588648
0.55313401 0.25025914 0.90588648
0.66506860 0.25025914 0.90588648
0.78315928 0.25025914 0.90588648
0.90588648 0.25025914 0.90588648
0.00000073 0.34888584 0.90588648
0.12052584 0.34888584 0.90588648
0.25025914 0.34888584 0.90588648
0.34888584 0.34888584 0.90588648
0.44806496 0.34888584 0.90588648
0.55313401 0.34888584 0.90588648
0.66506860 0.34888584 0.90588648
0.78315928 0.34888584 0.90588648
0.90588648 0.34888584 0.90588648
0.00000073 0.44806496 0.90588648
0.12052584 0.44806496 0.90588648
0.25025914 0.44806496 0.90588648
0.34888584 0.44806496 0.90588648
0.44806496 0.44806496 0.90588648
0.55313401 0.44806496 0.90588648
0.66506860 0.44806496 0.90588648
0.78315928 0.44806496 0.90588648
0.90588648 0.44806496 0.90588648
0.00000073 0.55313401 0.90588648
0.12052584 0.55313401 0.90588648
0.25025914 0.55313401 0.90588648
0.34888584 0.55313401 0.90588648
0.44806496 0.55313401 0.90588648
0.55313401 0.55313401 0.90588648
0.66506860 0.55313401 0.90588648
0.78315928 0.55313401 0.90588648
0.90588648 0.55313401 0.90588648
0.00000073 0.66506860 0.90588648
0.12052584 0.66506860 0.90588648
0.25025914 0.66506860 0.90588648
0.34888584 0.66506860 0.90588648
0.44806496 0.66506860 0.90588648
0.55313401 0.66506860 0.90588648
0.66506860 0.66506860 0.90588648
0.78315928 0.66506860 0.90588648
0.90588648 0.66506860 0.90588648
0.00000073 0.78315928 0.90588648
0.12052584 0.78315928 0.90588648
0.25025914 0.78315928 0.90588648
0.34888584 0.78315928 0.90588648
0.44806496 0.78315928 0.90588648
0.55313401 0.78315928 0.90588648
0.66506860 0.78315928 0.90588648
0.78315928 0.78315928 0.90588648
0.90588648 0.78315928 0.90588648
0.00000073 0.90588648 0.90588648
0.12052584 0.90588648 0.90588648
0.25025914 0.90588648 0.90588648
0.34888584 0.90588648 0.90588648
0.44806496 0.90588648 0.90588648
0.55313401 0.90588648 0.90588648
0.66506860 0.90588648 0.90588648
0.78315928 0.90588648 0.90588648
0.90588648 0.90588648 0.90588648
