src/ffmpeg_scripts/luts/flog-experimental_0-Native.cube
TITLE "flog-experimental_0-Native"
LUT_3D_SIZE 5
# Fujifilm F-Log/Rec2020 -> PQ (EOTF Only)/Rec2020, CineEI Shift 0.00, Black Level 0.00% IRE, Input 109% -> Output 100% - Created with LUTCalc v4.01 by Ben Turley October 2020
0.00000073 0.00000073 0.00000073
0.30992926 0.00000073 0.00000073
0.53049188 0.00000073 0.00000073
0.76182282 0.00000073 0.00000073
1.00000000 0.00000073 0.00000073
0.00000073 0.30992926 0.00000073
0.30992926 0.30992926 0.00000073
0.53049188 0.30992926 0.00000073
0.76182282 0.30992926 0.00000073
1.00000000 0.30992926 0.00000073
0.00000073 0.53049188 0.00000073
0.30992926 0.53049188 0.00000073
0.53049188 0.53049188 0.00000073
0.76182282 0.53049188 0.00000073
1.00000000 0.53049188 0.00000073
0.00000073 0.76182282 0.00000073
0.30992926 0.76182282 0.00000073
0.53049188 0.76182282 0.00000073
0.76182282 0.76182282 0.00000073
1.00000000 0.76182282 0.00000073
0.00000073 1.00000000 0.00000073
0.30992926 1.00000000 0.00000073
0.53049188 1.00000000 0.00000073
0.76182282 1.00000000 0.00000073
1.00000000 1.00000000 0.00000073
0.00000073 0.00000073 0.30992926
0.30992926 0.00000073 0.30992926
0.53049188 0.00000073 0.30992926
0.76182282 0.00000073 0.30992926
1.00000000 0.00000073 0.30992926
0.00000073 0.30992926 0.30992926
0.30992926 0.30992926 0.30992926
0.53049188 0.30992926 0.30992926
0.76182282 0.30992926 0.30992926
1.00000000 0.30992926 0.30992926
0.00000073 0.53049188 0.30992926
0.30992926 0.53049188 0.30992926
0.53049188 0.53049188 0.30992926
0.76182282 0.53049188 0.30992926
1.00000000 0.53049188 0.30992926
0.00000073 0.76182282 0.30992926
0.30992926 0.76182282 0.30992926
0.53049188 0.76182282 0.30992926
0.76182282 0.76182282 0.30992926
1.00000000 0.76182282 0.30992926
0.00000073 1.00000000 0.30992926
0.30992926 1.00000000 0.30992926
0.53049188 1.00000000 0.30992926
0.76182282 1.00000000 0.30992926
1.00000000 1.00000000 0.30992926
0.00000073 0.00000073 0.53049188
0.30992926 0.00000073 0.53049188
0.53049188 0.00000073 0.53049188
0.76182282 0.00000073 0.53049188
1.00000000 0.00000073 0.53049188
0.00000073 0.30992926 0.53049188
0.30992926 0.30992926 0.53049188
0.53049188 0.30992926 0.53049188
0.76182282 0.30992926 0.53049188
1.00000000 0.30992926 0.53049188
0.00000073 0.53049188 0.53049188
0.30992926 0.53049188 0.53049188
0.53049188 0.53049188 0.53049188
0.76182282 0.53049188 0.53049188
1.00000000 0.53049188 0.53049188
0.00000073 0.76182282 0.53049188
0.30992926 0.76182282 0.53049188
0.53049188 0.76182282 0.53049188
0.76182282 0.76182282 0.53049188
1.00000000 0.76182282 0.53049188
0.00000073 1.00000000 0.53049188
0.30992926 1.00000000 0.53049188
0.53049188 1.00000000 0.53049188
0.76182282 1.00000000 0.53049188
1.00000000 1.00000000 0.53049188
0.00000073 0.00000073 0.76182282
0.30992926 0.00000073 0.76182282
0.53049188 0.00000073 0.76182282
0.76182282 0.00000073 0.76182282
1.00000000 0.00000073 0.76182282
0.00000073 0.30992926 0.76182282
0.30992926 0.30992926 0.76182282
0.53049188 0.30992926 0.76182282
0.76182282 0.30992926 0.76182282
1.00000000 0.30992926 0.76182282
0.00000073 0.53049188 0.76182282
0.30992926 0.53049188 0.76182282
0.53049188 0.53049188 0.76182282
0.76182282 0.53049188 0.76182282
1.00000000 0.53049188 0.76182282
0.00000073 0.76182282 0.76182282
0.30992926 0.76182282 0.76182282
0.53049188 0.76182282 0.76182282
0.76182282 0.76182282 0.76182282
1.00000000 0.76182282 0.76182282
0.00000073 1.00000000 0.76182282
0.30992926 1.00000000 0.76182282
0.53049188 1.00000000 0.76182282
0.76182282 1.00000000 0.76182282
1.00000000 1.00000000 0.76182282
0.00000073 0.00000073 1.00000000
0.30992926 0.00000073 1.00000000
0.53049188 0.00000073 1.00000000
0.76182282 0.00000073 1.00000000
1.00000000 0.00000073 1.00000000
0.00000073 0.30992926 1.00000000
0.30992926 0.30992926 1.00000000
0.53049188 0.30992926 1.00000000
0.76182282 0.30992926 1.00000000
1.00000000 0.30992926 1.00000000
0.00000073 0.53049188 1.00000000
0.30992926 0.53049188 1.00000000
0.53049188 0.53049188 1.00000000
0.76182282 0.53049188 1.00000000
1.00000000 0.53049188 1.00000000
0.00000073 0.76182282 1.00000000
0.30992926 0.76182282 1.00000000
0.53049188 0.76182282 1.00000000
0.76182282 0.76182282 1.00000000
1.00000000 0.76182282 1.00000000
0.00000073 1.00000000 1.00000000
0.30992926 1.00000000 1.00000000
0.53049188 1.00000000 1.00000000
0.76182282 1.00000000 1.00000000
1.00000000 1.00000000 1.00000000
