src/ffmpeg_scripts/luts/flog-smpte2084_-4p00.cube
TITLE "flog-smpte2084_-4p00"
LUT_3D_SIZE 5
# Fujifilm F-Log/Rec2020 -> PQ (EOTF Only)/Rec2020, CineEI Shift -4.00, Black Level 0.00% IRE, Input 109% -> Output 109% - Created with LUTCalc v4.01 by Ben Turley October 2020
0.06256172 0.06256172 0.06256172
0.13617473 0.06256172 0.06256172
0.21492947 0.06256172 0.06256172
0.31518939 0.06256172 0.06256172
0.44049116 0.06256172 0.06256172
0.06256172 0.13617473 0.06256172
0.13617473 0.13617473 0.06256172
0.21492947 0.13617473 0.06256172
0.31518939 0.13617473 0.06256172
0.44049116 0.13617473 0.06256172
0.06256172 0.21492947 0.06256172
0.13617473 0.21492947 0.06256172
0.21492947 0.21492947 0.06256172
0.31518939 0.21492947 0.06256172
0.44049116 0.21492947 0.06256172
0.06256172 0.31518939 0.06256172
0.13617473 0.31518939 0.06256172
0.21492947 0.31518939 0.06256172
0.31518939 0.31518939 0.06256172
0.44049116 0.31518939 0.06256172
0.06256172 0.44049116 0.06256172
0.13617473 0.44049116 0.06256172
0.21492947 0.44049116 0.06256172
0.31518939 0.44049116 0.06256172
0.44049116 0.44049116 0.06256172
0.06256172 0.06256172 0.13617473
0.13617473 0.06256172 0.13617473
0.21492947 0.06256172 0.13617473
0.31518939 0.06256172 0.13617473
0.44049116 0.06256172 0.13617473
0.06256172 0.13617473 0.13617473
0.13617473 0.13617473 0.13617473
0.21492947 0.13617473 0.13617473
0.31518939 0.13617473 0.13617473
0.44049116 0.13617473 0.13617473
0.06256172 0.21492947 0.13617473
0.13617473 0.21492947 0.13617473
0.21492947 0.21492947 0.13617473
0.31518939 0.21492947 0.13617473
0.44049116 0.21492947 0.13617473
0.06256172 0.31518939 0.13617473
0.13617473 0.31518939 0.13617473
0.21492947 0.31518939 0.13617473
0.31518939 0.31518939 0.13617473
0.44049116 0.31518939 0.13617473
0.06256172 0.44049116 0.13617473
0.13617473 0.44049116 0.13617473
0.21492947 0.44049116 0.13617473
0.31518939 0.44049116 0.13617473
0.44049116 0.44049116 0.13617473
0.06256172 0.06256172 0.21492947
0.13617473 0.06256172 0.21492947
0.21492947 0.06256172 0.21492947
0.31518939 0.06256172 0.21492947
0.44049116 0.06256172 0.21492947
0.06256172 0.13617473 0.21492947
0.13617473 0.13617473 0.21492947
0.21492947 0.13617473 0.21492947
0.31518939 0.13617473 0.21492947
0.44049116 0.13617473 0.21492947
0.06256172 0.21492947 0.21492947
0.13617473 0.21492947 0.21492947
0.21492947 0.21492947 0.21492947
0.31518939 0.21492947 0.21492947
0.44049116 0.21492947 0.21492947
0.06256172 0.31518939 0.21492947
0.13617473 0.31518939 0.21492947
0.21492947 0.31518939 0.21492947
0.31518939 0.31518939 0.21492947
0.44049116 0.31518939 0.21492947
0.06256172 0.44049116 0.21492947
0.13617473 0.44049116 0.21492947
0.21492947 0.44049116 0.21492947
0.31518939 0.44049116 0.21492947
0.44049116 0.44049116 0.21492947
0.06256172 0.06256172 0.31518939
0.13617473 0.06256172 0.31518939
0.21492947 0.06256172 0.31518939
0.31518939 0.06256172 0.31518939
0.44049116 0.06256172 0.31518939
0.06256172 0.13617473 0.31518939
0.13617473 0.13617473 0.31518939
0.21492947 0.13617473 0.31518939
0.31518939 0.13617473 0.31518939
0.44049116 0.13617473 0.31518939
0.06256172 0.21492947 0.31518939
0.13617473 0.21492947 0.31518939
0.21492947 0.21492947 0.31518939
0.31518939 0.21492947 0.31518939
0.44049116 0.21492947 0.31518939
0.06256172 0.31518939 0.31518939
0.13617473 0.31518939 0.31518939
0.21492947 0.31518939 0.31518939
0.31518939 0.31518939 0.31518939
0.44049116 0.31518939 0.31518939
0.06256172 0.44049116 0.31518939
0.13617473 0.44049116 0.31518939
0.21492947 0.44049116 0.31518939
0.31518939 0.44049116 0.31518939
0.44049116 0.44049116 0.31518939
0.06256172 0.06256172 0.44049116
0.13617473 0.06256172 0.44049116
0.21492947 0.06256172 0.44049116
0.31518939 0.06256172 0.44049116
0.44049116 0.06256172 0.44049116
0.06256172 0.13617473 0.44049116
0.13617473 0.13617473 0.44049116
0.21492947 0.13617473 0.44049116
0.31518939 0.13617473 0.44049116
0.44049116 0.13617473 0.44049116
0.06256172 0.21492947 0.44049116
0.13617473 0.21492947 0.44049116
0.21492947 0.21492947 0.44049116
0.31518939 0.21492947 0.44049116
0.44049116 0.21492947 0.44049116
0.06256172 0.31518939 0.44049116
0.13617473 0.31518939 0.44049116
0.21492947 0.31518939 0.44049116
0.31518939 0.31518939 0.44049116
0.44049116 0.31518939 0.44049116
0.06256172 0.44049116 0.44049116
0.13617473 0.44049116 0.44049116
0.21492947 0.44049116 0.44049116
0.31518939 0.44049116 0.44049116
0.44049116 0.44049116 0.44049116
