src/ffmpeg_scripts/luts/flog-smpte2084_-2p00.cube
TITLE "flog-smpte2084_-2p00"
LUT_3D_SIZE 33
# Fujifilm F-Log/Rec2020 -> PQ (EOTF Only)/Rec2020, CineEI Shift -2.00, Black Level 0.00% IRE, Input 109% -> Output 109% - Created with LUTCalc v4.01 by Ben Turley October 2020
0.06256172 0.06256172 0.06256172
0.06256172 0.06256172 0.06256172
0.06256172 0.06256172 0.06256172
0.07156618 0.06256172 0.06256172
0.11878696 0.06256172 0.06256172
0.13992475 0.06256172 0.06256172
0.15665368 0.06256172 0.06256172
0.17149915 0.06256172 0.06256172
0.18539518 0.06256172 0.06256172
0.19880360 0.06256172 0.06256172
0.21199070 0.06256172 0.06256172
0.22512540 0.06256172 0.06256172
0.23832186 0.06256172 0.06256172
0.25166051 0.06256172 0.06256172
0.26519952 0.06256172 0.06256172
0.27898149 0.06256172 0.06256172
0.29303756 0.06256172 0.06256172
0.30739016 0.06256172 0.06256172
0.32205479 0.06256172 0.06256172
0.33704132 0.06256172 0.06256172
0.35235499 0.06256172 0.06256172
0.36799708 0.06256172 0.06256172
0.38396550 0.06256172 0.06256172
0.40025528 0.06256172 0.06256172
0.41685891 0.06256172 0.06256172
0.43376668 0.06256172 0.06256172
0.45096698 0.06256172 0.06256172
0.46844656 0.06256172 0.06256172
0.48619072 0.06256172 0.06256172
0.50418356 0.06256172 0.06256172
0.52240814 0.06256172 0.06256172
0.54084666 0.06256172 0.06256172
0.55948061 0.06256172 0.06256172
0.06256172 0.06256172 0.06256172
0.06256172 0.06256172 0.06256172
0.06256172 0.06256172 0.06256172
0.07156618 0.06256172 0.06256172
0.11878696 0.06256172 0.06256172
0.13992475 0.06256172 0.06256172
0.15665368 0.06256172 0.06256172
0.17149915 0.06256172 0.06256172
0.18539518 0.06256172 0.06256172
0.19880360 0.06256172 0.06256172
0.21199070 0.06256172 0.06256172
0.22512540 0.06256172 0.06256172
0.23832186 0.06256172 0.06256172
0.25166051 0.06256172 0.06256172
0.26519952 0.06256172 0.06256172
0.27898149 0.06256172 0.06256172
0.29303756 0.06256172 0.06256172
0.30739016 0.06256172 0.06256172
0.32205479 0.06256172 0.06256172
0.33704132 0.06256172 0.06256172
0.35235499 0.06256172 0.06256172
0.36799708 0.06256172 0.06256172
0.38396550 0.06256172 0.06256172
0.40025528 0.06256172 0.06256172
0.41685891 0.06256172 0.06256172
0.43376668 0.06256172 0.06256172
0.45096698 0.06256172 0.06256172
0.46844656 0.06256172 0.06256172
0.48619072 0.06256172 0.06256172
0.50418356 0.06256172 0.06256172
0.52240814 0.06256172 0.06256172
0.54084666 0.06256172 0.06256172
0.55948061 0.06256172 0.06256172
0.06256172 0.06256172 0.06256172
0.06256172 0.06256172 0.06256172
0.06256172 0.06256172 0.06256172
0.07156618 0.06256172 0.06256172
0.11878696 0.06256172 0.06256172
0.13992475 0.06256172 0.06256172
0.15665368 0.06256172 0.06256172
0.17149915 0.06256172 0.06256172
0.18539518 0.06256172 0.06256172
0.19880360 0.06256172 0.06256172
0.21199070 0.06256172 0.06256172
0.22512540 0.06256172 0.06256172
0.23832186 0.06256172 0.06256172
0.25166051 0.06256172 0.06256172
0.26519952 0.06256172 0.06256172
0.27898149 0.06256172 0.06256172
0.29303756 0.06256172 0.06256172
0.30739016 0.06256172 0.06256172
0.32205479 0.06256172 0.06256172
0.33704132 0.06256172 0.06256172
0.35235499 0.06256172 0.06256172
0.36799708 0.06256172 0.06256172
0.38396550 0.06256172 0.06256172
0.40025528 0.06256172 0.06256172
0.41685891 0.06256172 0.06256172
0.43376668 0.06256172 0.06256172
0.45096698 0.06256172 0.06256172
0.46844656 0.06256172 0.06256172
0.48619072 0.06256172 0.06256172
0.50418356 0.06256172 0.06256172
0.52240814 0.06256172 0.06256172
0.54084666 0.06256172 0.06256172
0.55948061 0.06256172 0.06256172
0.06256172 0.07156618 0.06256172
0.06256172 0.07156618 0.06256172
0.06256172 0.07156618 0.06256172
0.07156618 0.07156618 0.06256172
0.11878696 0.07156618 0.06256172
0.13992475 0.07156618 0.06256172
0.15665368 0.07156618 0.06256172
0.17149915 0.07156618 0.06256172
0.18539518 0.07156618 0.06256172
0.19880360 0.07156618 0.06256172
0.21199070 0.07156618 0.06256172
0.22512540 0.07156618 0.06256172
0.23832186 0.07156618 0.06256172
0.25166051 0.07156618 0.06256172
0.26519952 0.07156618 0.06256172
0.27898149 0.07156618 0.06256172
0.29303756 0.07156618 0.06256172
0.30739016 0.07156618 0.06256172
0.32205479 0.07156618 0.06256172
0.33704132 0.07156618 0.06256172
0.35235499 0.07156618 0.06256172
0.36799708 0.07156618 0.06256172
0.38396550 0.07156618 0.06256172
0.40025528 0.07156618 0.06256172
0.41685891 0.07156618 0.06256172
0.43376668 0.07156618 0.06256172
0.45096698 0.07156618 0.06256172
0.46844656 0.07156618 0.06256172
0.48619072 0.07156618 0.06256172
0.50418356 0.07156618 0.06256172
0.52240814 0.07156618 0.06256172
0.54084666 0.07156618 0.06256172
0.55948061 0.07156618 0.06256172
0.06256172 0.11878696 0.06256172
0.06256172 0.11878696 0.06256172
0.06256172 0.11878696 0.06256172
0.07156618 0.11878696 0.06256172
0.11878696 0.11878696 0.06256172
0.13992475 0.11878696 0.06256172
0.15665368 0.11878696 0.06256172
0.17149915 0.11878696 0.06256172
0.18539518 0.11878696 0.06256172
0.19880360 0.11878696 0.06256172
0.21199070 0.11878696 0.06256172
0.22512540 0.11878696 0.06256172
0.23832186 0.11878696 0.06256172
0.25166051 0.11878696 0.06256172
0.26519952 0.11878696 0.06256172
0.27898149 0.11878696 0.06256172
0.29303756 0.11878696 0.06256172
0.30739016 0.11878696 0.06256172
0.32205479 0.11878696 0.06256172
0.33704132 0.11878696 0.06256172
0.35235499 0.11878696 0.06256172
0.36799708 0.11878696 0.06256172
0.38396550 0.11878696 0.06256172
0.40025528 0.11878696 0.06256172
0.41685891 0.11878696 0.06256172
0.43376668 0.11878696 0.06256172
0.45096698 0.11878696 0.06256172
0.46844656 0.11878696 0.06256172
0.48619072 0.11878696 0.06256172
0.50418356 0.11878696 0.06256172
0.52240814 0.11878696 0.06256172
0.54084666 0.11878696 0.06256172
0.55948061 0.11878696 0.06256172
0.06256172 0.13992475 0.06256172
0.06256172 0.13992475 0.06256172
0.06256172 0.13992475 0.06256172
0.07156618 0.13992475 0.06256172
0.11878696 0.13992475 0.06256172
0.13992475 0.13992475 0.06256172
0.15665368 0.13992475 0.06256172
0.17149915 0.13992475 0.06256172
0.18539518 0.13992475 0.06256172
0.19880360 0.13992475 0.06256172
0.21199070 0.13992475 0.06256172
0.22512540 0.13992475 0.06256172
0.23832186 0.13992475 0.06256172
0.25166051 0.13992475 0.06256172
0.26519952 0.13992475 0.06256172
0.27898149 0.13992475 0.06256172
0.29303756 0.13992475 0.06256172
0.30739016 0.13992475 0.06256172
0.32205479 0.13992475 0.06256172
0.33704132 0.13992475 0.06256172
0.35235499 0.13992475 0.06256172
0.36799708 0.13992475 0.06256172
0.38396550 0.13992475 0.06256172
0.40025528 0.13992475 0.06256172
0.41685891 0.13992475 0.06256172
0.43376668 0.13992475 0.06256172
0.45096698 0.13992475 0.06256172
0.46844656 0.13992475 0.06256172
0.48619072 0.13992475 0.06256172
0.50418356 0.13992475 0.06256172
0.52240814 0.13992475 0.06256172
0.54084666 0.13992475 0.06256172
0.55948061 0.13992475 0.06256172
0.06256172 0.15665368 0.06256172
0.06256172 0.15665368 0.06256172
0.06256172 0.15665368 0.06256172
0.07156618 0.15665368 0.06256172
0.11878696 0.15665368 0.06256172
0.13992475 0.15665368 0.06256172
0.15665368 0.15665368 0.06256172
0.17149915 0.15665368 0.06256172
0.18539518 0.15665368 0.06256172
0.19880360 0.15665368 0.06256172
0.21199070 0.15665368 0.06256172
0.22512540 0.15665368 0.06256172
0.23832186 0.15665368 0.06256172
0.25166051 0.15665368 0.06256172
0.26519952 0.15665368 0.06256172
0.27898149 0.15665368 0.06256172
0.29303756 0.15665368 0.06256172
0.30739016 0.15665368 0.06256172
0.32205479 0.15665368 0.06256172
0.33704132 0.15665368 0.06256172
0.35235499 0.15665368 0.06256172
0.36799708 0.15665368 0.06256172
0.38396550 0.15665368 0.06256172
0.40025528 0.15665368 0.06256172
0.41685891 0.15665368 0.06256172
0.43376668 0.15665368 0.06256172
0.45096698 0.15665368 0.06256172
0.46844656 0.15665368 0.06256172
0.48619072 0.15665368 0.06256172
0.50418356 0.15665368 0.06256172
0.52240814 0.15665368 0.06256172
0.54084666 0.15665368 0.06256172
0.55948061 0.15665368 0.06256172
0.06256172 0.17149915 0.06256172
0.06256172 0.17149915 0.06256172
0.06256172 0.17149915 0.06256172
0.07156618 0.17149915 0.06256172
0.11878696 0.17149915 0.06256172
0.13992475 0.17149915 0.06256172
0.15665368 0.17149915 0.06256172
0.17149915 0.17149915 0.06256172
0.18539518 0.17149915 0.06256172
0.19880360 0.17149915 0.06256172
0.21199070 0.17149915 0.06256172
0.22512540 0.17149915 0.06256172
0.23832186 0.17149915 0.06256172
0.25166051 0.17149915 0.06256172
0.26519952 0.17149915 0.06256172
0.27898149 0.17149915 0.06256172
0.29303756 0.17149915 0.06256172
0.30739016 0.17149915 0.06256172
0.32205479 0.17149915 0.06256172
0.33704132 0.17149915 0.06256172
0.35235499 0.17149915 0.06256172
0.36799708 0.17149915 0.06256172
0.38396550 0.17149915 0.06256172
0.40025528 0.17149915 0.06256172
0.41685891 0.17149915 0.06256172
0.43376668 0.17149915 0.06256172
0.45096698 0.17149915 0.06256172
0.46844656 0.17149915 0.06256172
0.48619072 0.17149915 0.06256172
0.50418356 0.17149915 0.06256172
0.52240814 0.17149915 0.06256172
0.54084666 0.17149915 0.06256172
0.55948061 0.17149915 0.06256172
0.06256172 0.18539518 0.06256172
0.06256172 0.18539518 0.06256172
0.06256172 0.18539518 0.06256172
0.07156618 0.18539518 0.06256172
0.11878696 0.18539518 0.06256172
0.13992475 0.18539518 0.06256172
0.15665368 0.18539518 0.06256172
0.17149915 0.18539518 0.06256172
0.18539518 0.18539518 0.06256172
0.19880360 0.18539518 0.06256172
0.21199070 0.18539518 0.06256172
0.22512540 0.18539518 0.06256172
0.23832186 0.18539518 0.06256172
0.25166051 0.18539518 0.06256172
0.26519952 0.18539518 0.06256172
0.27898149 0.18539518 0.06256172
0.29303756 0.18539518 0.06256172
0.30739016 0.18539518 0.06256172
0.32205479 0.18539518 0.06256172
0.33704132 0.18539518 0.06256172
0.35235499 0.18539518 0.06256172
0.36799708 0.18539518 0.06256172
0.38396550 0.18539518 0.06256172
0.40025528 0.18539518 0.06256172
0.41685891 0.18539518 0.06256172
0.43376668 0.18539518 0.06256172
0.45096698 0.18539518 0.06256172
0.46844656 0.18539518 0.06256172
0.48619072 0.18539518 0.06256172
0.50418356 0.18539518 0.06256172
0.52240814 0.18539518 0.06256172
0.54084666 0.18539518 0.06256172
0.55948061 0.18539518 0.06256172
0.06256172 0.19880360 0.06256172
0.06256172 0.19880360 0.06256172
0.06256172 0.19880360 0.06256172
0.07156618 0.19880360 0.06256172
0.11878696 0.19880360 0.06256172
0.13992475 0.19880360 0.06256172
0.15665368 0.19880360 0.06256172
0.17149915 0.19880360 0.06256172
0.18539518 0.19880360 0.06256172
0.19880360 0.19880360 0.06256172
0.21199070 0.19880360 0.06256172
0.22512540 0.19880360 0.06256172
0.23832186 0.19880360 0.06256172
0.25166051 0.19880360 0.06256172
0.26519952 0.19880360 0.06256172
0.27898149 0.19880360 0.06256172
0.29303756 0.19880360 0.06256172
0.30739016 0.19880360 0.06256172
0.32205479 0.19880360 0.06256172
0.33704132 0.19880360 0.06256172
0.35235499 0.19880360 0.06256172
0.36799708 0.19880360 0.06256172
0.38396550 0.19880360 0.06256172
0.40025528 0.19880360 0.06256172
0.41685891 0.19880360 0.06256172
0.43376668 0.19880360 0.06256172
0.45096698 0.19880360 0.06256172
0.46844656 0.19880360 0.06256172
0.48619072 0.19880360 0.06256172
0.50418356 0.19880360 0.06256172
0.52240814 0.19880360 0.06256172
0.54084666 0.19880360 0.06256172
0.55948061 0.19880360 0.06256172
0.06256172 0.21199070 0.06256172
0.06256172 0.21199070 0.06256172
0.06256172 0.21199070 0.06256172
0.07156618 0.21199070 0.06256172
0.11878696 0.21199070 0.06256172
0.13992475 0.21199070 0.06256172
0.15665368 0.21199070 0.06256172
0.17149915 0.21199070 0.06256172
0.18539518 0.21199070 0.06256172
0.19880360 0.21199070 0.06256172
0.21199070 0.21199070 0.06256172
0.22512540 0.21199070 0.06256172
0.23832186 0.21199070 0.06256172
0.25166051 0.21199070 0.06256172
0.26519952 0.21199070 0.06256172
0.27898149 0.21199070 0.06256172
0.29303756 0.21199070 0.06256172
0.30739016 0.21199070 0.06256172
0.32205479 0.21199070 0.06256172
0.33704132 0.21199070 0.06256172
0.35235499 0.21199070 0.06256172
0.36799708 0.21199070 0.06256172
0.38396550 0.21199070 0.06256172
0.40025528 0.21199070 0.06256172
0.41685891 0.21199070 0.06256172
0.43376668 0.21199070 0.06256172
0.45096698 0.21199070 0.06256172
0.46844656 0.21199070 0.06256172
0.48619072 0.21199070 0.06256172
0.50418356 0.21199070 0.06256172
0.52240814 0.21199070 0.06256172
0.54084666 0.21199070 0.06256172
0.55948061 0.21199070 0.06256172
0.06256172 0.22512540 0.06256172
0.06256172 0.22512540 0.06256172
0.06256172 0.22512540 0.06256172
0.07156618 0.22512540 0.06256172
0.11878696 0.22512540 0.06256172
0.13992475 0.22512540 0.06256172
0.15665368 0.22512540 0.06256172
0.17149915 0.22512540 0.06256172
0.18539518 0.22512540 0.06256172
0.19880360 0.22512540 0.06256172
0.21199070 0.22512540 0.06256172
0.22512540 0.22512540 0.06256172
0.23832186 0.22512540 0.06256172
0.25166051 0.22512540 0.06256172
0.26519952 0.22512540 0.06256172
0.27898149 0.22512540 0.06256172
0.29303756 0.22512540 0.06256172
0.30739016 0.22512540 0.06256172
0.32205479 0.22512540 0.06256172
0.33704132 0.22512540 0.06256172
0.35235499 0.22512540 0.06256172
0.36799708 0.22512540 0.06256172
0.38396550 0.22512540 0.06256172
0.40025528 0.22512540 0.06256172
0.41685891 0.22512540 0.06256172
0.43376668 0.22512540 0.06256172
0.45096698 0.22512540 0.06256172
0.46844656 0.22512540 0.06256172
0.48619072 0.22512540 0.06256172
0.50418356 0.22512540 0.06256172
0.52240814 0.22512540 0.06256172
0.54084666 0.22512540 0.06256172
0.55948061 0.22512540 0.06256172
0.06256172 0.23832186 0.06256172
0.06256172 0.23832186 0.06256172
0.06256172 0.23832186 0.06256172
0.07156618 0.23832186 0.06256172
0.11878696 0.23832186 0.06256172
0.13992475 0.23832186 0.06256172
0.15665368 0.23832186 0.06256172
0.17149915 0.23832186 0.06256172
0.18539518 0.23832186 0.06256172
0.19880360 0.23832186 0.06256172
0.21199070 0.23832186 0.06256172
0.22512540 0.23832186 0.06256172
0.23832186 0.23832186 0.06256172
0.25166051 0.23832186 0.06256172
0.26519952 0.23832186 0.06256172
0.27898149 0.23832186 0.06256172
0.29303756 0.23832186 0.06256172
0.30739016 0.23832186 0.06256172
0.32205479 0.23832186 0.06256172
0.33704132 0.23832186 0.06256172
0.35235499 0.23832186 0.06256172
0.36799708 0.23832186 0.06256172
0.38396550 0.23832186 0.06256172
0.40025528 0.23832186 0.06256172
0.41685891 0.23832186 0.06256172
0.43376668 0.23832186 0.06256172
0.45096698 0.23832186 0.06256172
0.46844656 0.23832186 0.06256172
0.48619072 0.23832186 0.06256172
0.50418356 0.23832186 0.06256172
0.52240814 0.23832186 0.06256172
0.54084666 0.23832186 0.06256172
0.55948061 0.23832186 0.06256172
0.06256172 0.25166051 0.06256172
0.06256172 0.25166051 0.06256172
0.06256172 0.25166051 0.06256172
0.07156618 0.25166051 0.06256172
0.11878696 0.25166051 0.06256172
0.13992475 0.25166051 0.06256172
0.15665368 0.25166051 0.06256172
0.17149915 0.25166051 0.06256172
0.18539518 0.25166051 0.06256172
0.19880360 0.25166051 0.06256172
0.21199070 0.25166051 0.06256172
0.22512540 0.25166051 0.06256172
0.23832186 0.25166051 0.06256172
0.25166051 0.25166051 0.06256172
0.26519952 0.25166051 0.06256172
0.27898149 0.25166051 0.06256172
0.29303756 0.25166051 0.06256172
0.30739016 0.25166051 0.06256172
0.32205479 0.25166051 0.06256172
0.33704132 0.25166051 0.06256172
0.35235499 0.25166051 0.06256172
0.36799708 0.25166051 0.06256172
0.38396550 0.25166051 0.06256172
0.40025528 0.25166051 0.06256172
0.41685891 0.25166051 0.06256172
0.43376668 0.25166051 0.06256172
0.45096698 0.25166051 0.06256172
0.46844656 0.25166051 0.06256172
0.48619072 0.25166051 0.06256172
0.50418356 0.25166051 0.06256172
0.52240814 0.25166051 0.06256172
0.54084666 0.25166051 0.06256172
0.55948061 0.25166051 0.06256172
0.06256172 0.26519952 0.06256172
0.06256172 0.26519952 0.06256172
0.06256172 0.26519952 0.06256172
0.07156618 0.26519952 0.06256172
0.11878696 0.26519952 0.06256172
0.13992475 0.26519952 0.06256172
0.15665368 0.26519952 0.06256172
0.17149915 0.26519952 0.06256172
0.18539518 0.26519952 0.06256172
0.19880360 0.26519952 0.06256172
0.21199070 0.26519952 0.06256172
0.22512540 0.26519952 0.06256172
0.23832186 0.26519952 0.06256172
0.25166051 0.26519952 0.06256172
0.26519952 0.26519952 0.06256172
0.27898149 0.26519952 0.06256172
0.29303756 0.26519952 0.06256172
0.30739016 0.26519952 0.06256172
0.32205479 0.26519952 0.06256172
0.33704132 0.26519952 0.06256172
0.35235499 0.26519952 0.06256172
0.36799708 0.26519952 0.06256172
0.38396550 0.26519952 0.06256172
0.40025528 0.26519952 0.06256172
0.41685891 0.26519952 0.06256172
0.43376668 0.26519952 0.06256172
0.45096698 0.26519952 0.06256172
0.46844656 0.26519952 0.06256172
0.48619072 0.26519952 0.06256172
0.50418356 0.26519952 0.06256172
0.52240814 0.26519952 0.06256172
0.54084666 0.26519952 0.06256172
0.55948061 0.26519952 0.06256172
0.06256172 0.27898149 0.06256172
0.06256172 0.27898149 0.06256172
0.06256172 0.27898149 0.06256172
0.07156618 0.27898149 0.06256172
0.11878696 0.27898149 0.06256172
0.13992475 0.27898149 0.06256172
0.15665368 0.27898149 0.06256172
0.17149915 0.27898149 0.06256172
0.18539518 0.27898149 0.06256172
0.19880360 0.27898149 0.06256172
0.21199070 0.27898149 0.06256172
0.22512540 0.27898149 0.06256172
0.23832186 0.27898149 0.06256172
0.25166051 0.27898149 0.06256172
0.26519952 0.27898149 0.06256172
0.27898149 0.27898149 0.06256172
0.29303756 0.27898149 0.06256172
0.30739016 0.27898149 0.06256172
0.32205479 0.27898149 0.06256172
0.33704132 0.27898149 0.06256172
0.35235499 0.27898149 0.06256172
0.36799708 0.27898149 0.06256172
0.38396550 0.27898149 0.06256172
0.40025528 0.27898149 0.06256172
0.41685891 0.27898149 0.06256172
0.43376668 0.27898149 0.06256172
0.45096698 0.27898149 0.06256172
0.46844656 0.27898149 0.06256172
0.48619072 0.27898149 0.06256172
0.50418356 0.27898149 0.06256172
0.52240814 0.27898149 0.06256172
0.54084666 0.27898149 0.06256172
0.55948061 0.27898149 0.06256172
0.06256172 0.29303756 0.06256172
0.06256172 0.29303756 0.06256172
0.06256172 0.29303756 0.06256172
0.07156618 0.29303756 0.06256172
0.11878696 0.29303756 0.06256172
0.13992475 0.29303756 0.06256172
0.15665368 0.29303756 0.06256172
0.17149915 0.29303756 0.06256172
0.18539518 0.29303756 0.06256172
0.19880360 0.29303756 0.06256172
0.21199070 0.29303756 0.06256172
0.22512540 0.29303756 0.06256172
0.23832186 0.29303756 0.06256172
0.25166051 0.29303756 0.06256172
0.26519952 0.29303756 0.06256172
0.27898149 0.29303756 0.06256172
0.29303756 0.29303756 0.06256172
0.30739016 0.29303756 0.06256172
0.32205479 0.29303756 0.06256172
0.33704132 0.29303756 0.06256172
0.35235499 0.29303756 0.06256172
0.36799708 0.29303756 0.06256172
0.38396550 0.29303756 0.06256172
0.40025528 0.29303756 0.06256172
0.41685891 0.29303756 0.06256172
0.43376668 0.29303756 0.06256172
0.45096698 0.29303756 0.06256172
0.46844656 0.29303756 0.06256172
0.48619072 0.29303756 0.06256172
0.50418356 0.29303756 0.06256172
0.52240814 0.29303756 0.06256172
0.54084666 0.29303756 0.06256172
0.55948061 0.29303756 0.06256172
0.06256172 0.30739016 0.06256172
0.06256172 0.30739016 0.06256172
0.06256172 0.30739016 0.06256172
0.07156618 0.30739016 0.06256172
0.11878696 0.30739016 0.06256172
0.13992475 0.30739016 0.06256172
0.15665368 0.30739016 0.06256172
0.17149915 0.30739016 0.06256172
0.18539518 0.30739016 0.06256172
0.19880360 0.30739016 0.06256172
0.21199070 0.30739016 0.06256172
0.22512540 0.30739016 0.06256172
0.23832186 0.30739016 0.06256172
0.25166051 0.30739016 0.06256172
0.26519952 0.30739016 0.06256172
0.27898149 0.30739016 0.06256172
0.29303756 0.30739016 0.06256172
0.30739016 0.30739016 0.06256172
0.32205479 0.30739016 0.06256172
0.33704132 0.30739016 0.06256172
0.35235499 0.30739016 0.06256172
0.36799708 0.30739016 0.06256172
0.38396550 0.30739016 0.06256172
0.40025528 0.30739016 0.06256172
0.41685891 0.30739016 0.06256172
0.43376668 0.30739016 0.06256172
0.45096698 0.30739016 0.06256172
0.46844656 0.30739016 0.06256172
0.48619072 0.30739016 0.06256172
0.50418356 0.30739016 0.06256172
0.52240814 0.30739016 0.06256172
0.54084666 0.30739016 0.06256172
0.55948061 0.30739016 0.06256172
0.06256172 0.32205479 0.06256172
0.06256172 0.32205479 0.06256172
0.06256172 0.32205479 0.06256172
0.07156618 0.32205479 0.06256172
0.11878696 0.32205479 0.06256172
0.13992475 0.32205479 0.06256172
0.15665368 0.32205479 0.06256172
0.17149915 0.32205479 0.06256172
0.18539518 0.32205479 0.06256172
0.19880360 0.32205479 0.06256172
0.21199070 0.32205479 0.06256172
0.22512540 0.32205479 0.06256172
0.23832186 0.32205479 0.06256172
0.25166051 0.32205479 0.06256172
0.26519952 0.32205479 0.06256172
0.27898149 0.32205479 0.06256172
0.29303756 0.32205479 0.06256172
0.30739016 0.32205479 0.06256172
0.32205479 0.32205479 0.06256172
0.33704132 0.32205479 0.06256172
0.35235499 0.32205479 0.06256172
0.36799708 0.32205479 0.06256172
0.38396550 0.32205479 0.06256172
0.40025528 0.32205479 0.06256172
0.41685891 0.32205479 0.06256172
0.43376668 0.32205479 0.06256172
0.45096698 0.32205479 0.06256172
0.46844656 0.32205479 0.06256172
0.48619072 0.32205479 0.06256172
0.50418356 0.32205479 0.06256172
0.52240814 0.32205479 0.06256172
0.54084666 0.32205479 0.06256172
0.55948061 0.32205479 0.06256172
0.06256172 0.33704132 0.06256172
0.06256172 0.33704132 0.06256172
0.06256172 0.33704132 0.06256172
0.07156618 0.33704132 0.06256172
0.11878696 0.33704132 0.06256172
0.13992475 0.33704132 0.06256172
0.15665368 0.33704132 0.06256172
0.17149915 0.33704132 0.06256172
0.18539518 0.33704132 0.06256172
0.19880360 0.33704132 0.06256172
0.21199070 0.33704132 0.06256172
0.22512540 0.33704132 0.06256172
0.23832186 0.33704132 0.06256172
0.25166051 0.33704132 0.06256172
0.26519952 0.33704132 0.06256172
0.27898149 0.33704132 0.06256172
0.29303756 0.33704132 0.06256172
0.30739016 0.33704132 0.06256172
0.32205479 0.33704132 0.06256172
0.33704132 0.33704132 0.06256172
0.35235499 0.33704132 0.06256172
0.36799708 0.33704132 0.06256172
0.38396550 0.33704132 0.06256172
0.40025528 0.33704132 0.06256172
0.41685891 0.33704132 0.06256172
0.43376668 0.33704132 0.06256172
0.45096698 0.33704132 0.06256172
0.46844656 0.33704132 0.06256172
0.48619072 0.33704132 0.06256172
0.50418356 0.33704132 0.06256172
0.52240814 0.33704132 0.06256172
0.54084666 0.33704132 0.06256172
0.55948061 0.33704132 0.06256172
0.06256172 0.35235499 0.06256172
0.06256172 0.35235499 0.06256172
0.06256172 0.35235499 0.06256172
0.07156618 0.35235499 0.06256172
0.11878696 0.35235499 0.06256172
0.13992475 0.35235499 0.06256172
0.15665368 0.35235499 0.06256172
0.17149915 0.35235499 0.06256172
0.18539518 0.35235499 0.06256172
0.19880360 0.35235499 0.06256172
0.21199070 0.35235499 0.06256172
0.22512540 0.35235499 0.06256172
0.23832186 0.35235499 0.06256172
0.25166051 0.35235499 0.06256172
0.26519952 0.35235499 0.06256172
0.27898149 0.35235499 0.06256172
0.29303756 0.35235499 0.06256172
0.30739016 0.35235499 0.06256172
0.32205479 0.35235499 0.06256172
0.33704132 0.35235499 0.06256172
0.35235499 0.35235499 0.06256172
0.36799708 0.35235499 0.06256172
0.38396550 0.35235499 0.06256172
0.40025528 0.35235499 0.06256172
0.41685891 0.35235499 0.06256172
0.43376668 0.35235499 0.06256172
0.45096698 0.35235499 0.06256172
0.46844656 0.35235499 0.06256172
0.48619072 0.35235499 0.06256172
0.50418356 0.35235499 0.06256172
0.52240814 0.35235499 0.06256172
0.54084666 0.35235499 0.06256172
0.55948061 0.35235499 0.06256172
0.06256172 0.36799708 0.06256172
0.06256172 0.36799708 0.06256172
0.06256172 0.36799708 0.06256172
0.07156618 0.36799708 0.06256172
0.11878696 0.36799708 0.06256172
0.13992475 0.36799708 0.06256172
0.15665368 0.36799708 0.06256172
0.17149915 0.36799708 0.06256172
0.18539518 0.36799708 0.06256172
0.19880360 0.36799708 0.06256172
0.21199070 0.36799708 0.06256172
0.22512540 0.36799708 0.06256172
0.23832186 0.36799708 0.06256172
0.25166051 0.36799708 0.06256172
0.26519952 0.36799708 0.06256172
0.27898149 0.36799708 0.06256172
0.29303756 0.36799708 0.06256172
0.30739016 0.36799708 0.06256172
0.32205479 0.36799708 0.06256172
0.33704132 0.36799708 0.06256172
0.35235499 0.36799708 0.06256172
0.36799708 0.36799708 0.06256172
0.38396550 0.36799708 0.06256172
0.40025528 0.36799708 0.06256172
0.41685891 0.36799708 0.06256172
0.43376668 0.36799708 0.06256172
0.45096698 0.36799708 0.06256172
