src/ffmpeg_scripts/luts/flog-smpte2084_-1p00.cube
TITLE "flog-smpte2084_-1p00"
LUT_3D_SIZE 33
# Fujifilm F-Log/Rec2020 -> PQ (EOTF Only)/Rec2020, CineEI Shift -1.00, Black Level 0.00% IRE, Input 109% -> Output 109% - Created with LUTCalc v4.01 by Ben Turley October 2020
0.06256172 0.06256172 0.06256172
0.06256172 0.06256172 0.06256172
0.06256172 0.06256172 0.06256172
0.07556651 0.06256172 0.06256172
0.13704624 0.06256172 0.06256172
0.16304305 0.06256172 0.06256172
0.18321633 0.06256172 0.06256172
0.20087404 0.06256172 0.06256172
0.21722142 0.06256172 0.06256172
0.23284701 0.06256172 0.06256172
0.24808592 0.06256172 0.06256172
0.26314793 0.06256172 0.06256172
0.27817273 0.06256172 0.06256172
0.29325720 0.06256172 0.06256172
0.30847019 0.06256172 0.06256172
0.32386114 0.06256172 0.06256172
0.33946543 0.06256172 0.06256172
0.35530784 0.06256172 0.06256172
0.37140494 0.06256172 0.06256172
0.38776679 0.06256172 0.06256172
0.40439811 0.06256172 0.06256172
0.42129923 0.06256172 0.06256172
0.43846688 0.06256172 0.06256172
0.45589468 0.06256172 0.06256172
0.47357368 0.06256172 0.06256172
0.49149278 0.06256172 0.06256172
0.50963902 0.06256172 0.06256172
0.52799792 0.06256172 0.06256172
0.54655373 0.06256172 0.06256172
0.56528966 0.06256172 0.06256172
0.58418812 0.06256172 0.06256172
0.60323085 0.06256172 0.06256172
0.62239914 0.06256172 0.06256172
0.06256172 0.06256172 0.06256172
0.06256172 0.06256172 0.06256172
0.06256172 0.06256172 0.06256172
0.07556651 0.06256172 0.06256172
0.13704624 0.06256172 0.06256172
0.16304305 0.06256172 0.06256172
0.18321633 0.06256172 0.06256172
0.20087404 0.06256172 0.06256172
0.21722142 0.06256172 0.06256172
0.23284701 0.06256172 0.06256172
0.24808592 0.06256172 0.06256172
0.26314793 0.06256172 0.06256172
0.27817273 0.06256172 0.06256172
0.29325720 0.06256172 0.06256172
0.30847019 0.06256172 0.06256172
0.32386114 0.06256172 0.06256172
0.33946543 0.06256172 0.06256172
0.35530784 0.06256172 0.06256172
0.37140494 0.06256172 0.06256172
0.38776679 0.06256172 0.06256172
0.40439811 0.06256172 0.06256172
0.42129923 0.06256172 0.06256172
0.43846688 0.06256172 0.06256172
0.45589468 0.06256172 0.06256172
0.47357368 0.06256172 0.06256172
0.49149278 0.06256172 0.06256172
0.50963902 0.06256172 0.06256172
0.52799792 0.06256172 0.06256172
0.54655373 0.06256172 0.06256172
0.56528966 0.06256172 0.06256172
0.58418812 0.06256172 0.06256172
0.60323085 0.06256172 0.06256172
0.62239914 0.06256172 0.06256172
0.06256172 0.06256172 0.06256172
0.06256172 0.06256172 0.06256172
0.06256172 0.06256172 0.06256172
0.07556651 0.06256172 0.06256172
0.13704624 0.06256172 0.06256172
0.16304305 0.06256172 0.06256172
0.18321633 0.06256172 0.06256172
0.20087404 0.06256172 0.06256172
0.21722142 0.06256172 0.06256172
0.23284701 0.06256172 0.06256172
0.24808592 0.06256172 0.06256172
0.26314793 0.06256172 0.06256172
0.27817273 0.06256172 0.06256172
0.29325720 0.06256172 0.06256172
0.30847019 0.06256172 0.06256172
0.32386114 0.06256172 0.06256172
0.33946543 0.06256172 0.06256172
0.35530784 0.06256172 0.06256172
0.37140494 0.06256172 0.06256172
0.38776679 0.06256172 0.06256172
0.40439811 0.06256172 0.06256172
0.42129923 0.06256172 0.06256172
0.43846688 0.06256172 0.06256172
0.45589468 0.06256172 0.06256172
0.47357368 0.06256172 0.06256172
0.49149278 0.06256172 0.06256172
0.50963902 0.06256172 0.06256172
0.52799792 0.06256172 0.06256172
0.54655373 0.06256172 0.06256172
0.56528966 0.06256172 0.06256172
0.58418812 0.06256172 0.06256172
0.60323085 0.06256172 0.06256172
0.62239914 0.06256172 0.06256172
0.06256172 0.07556651 0.06256172
0.06256172 0.07556651 0.06256172
0.06256172 0.07556651 0.06256172
0.07556651 0.07556651 0.06256172
0.13704624 0.07556651 0.06256172
0.16304305 0.07556651 0.06256172
0.18321633 0.07556651 0.06256172
0.20087404 0.07556651 0.06256172
0.21722142 0.07556651 0.06256172
0.23284701 0.07556651 0.06256172
0.24808592 0.07556651 0.06256172
0.26314793 0.07556651 0.06256172
0.27817273 0.07556651 0.06256172
0.29325720 0.07556651 0.06256172
0.30847019 0.07556651 0.06256172
0.32386114 0.07556651 0.06256172
0.33946543 0.07556651 0.06256172
0.35530784 0.07556651 0.06256172
0.37140494 0.07556651 0.06256172
0.38776679 0.07556651 0.06256172
0.40439811 0.07556651 0.06256172
0.42129923 0.07556651 0.06256172
0.43846688 0.07556651 0.06256172
0.45589468 0.07556651 0.06256172
0.47357368 0.07556651 0.06256172
0.49149278 0.07556651 0.06256172
0.50963902 0.07556651 0.06256172
0.52799792 0.07556651 0.06256172
0.54655373 0.07556651 0.06256172
0.56528966 0.07556651 0.06256172
0.58418812 0.07556651 0.06256172
0.60323085 0.07556651 0.06256172
0.62239914 0.07556651 0.06256172
0.06256172 0.13704624 0.06256172
0.06256172 0.13704624 0.06256172
0.06256172 0.13704624 0.06256172
0.07556651 0.13704624 0.06256172
0.13704624 0.13704624 0.06256172
0.16304305 0.13704624 0.06256172
0.18321633 0.13704624 0.06256172
0.20087404 0.13704624 0.06256172
0.21722142 0.13704624 0.06256172
0.23284701 0.13704624 0.06256172
0.24808592 0.13704624 0.06256172
0.26314793 0.13704624 0.06256172
0.27817273 0.13704624 0.06256172
0.29325720 0.13704624 0.06256172
0.30847019 0.13704624 0.06256172
0.32386114 0.13704624 0.06256172
0.33946543 0.13704624 0.06256172
0.35530784 0.13704624 0.06256172
0.37140494 0.13704624 0.06256172
0.38776679 0.13704624 0.06256172
0.40439811 0.13704624 0.06256172
0.42129923 0.13704624 0.06256172
0.43846688 0.13704624 0.06256172
0.45589468 0.13704624 0.06256172
0.47357368 0.13704624 0.06256172
0.49149278 0.13704624 0.06256172
0.50963902 0.13704624 0.06256172
0.52799792 0.13704624 0.06256172
0.54655373 0.13704624 0.06256172
0.56528966 0.13704624 0.06256172
0.58418812 0.13704624 0.06256172
0.60323085 0.13704624 0.06256172
0.62239914 0.13704624 0.06256172
0.06256172 0.16304305 0.06256172
0.06256172 0.16304305 0.06256172
0.06256172 0.16304305 0.06256172
0.07556651 0.16304305 0.06256172
0.13704624 0.16304305 0.06256172
0.16304305 0.16304305 0.06256172
0.18321633 0.16304305 0.06256172
0.20087404 0.16304305 0.06256172
0.21722142 0.16304305 0.06256172
0.23284701 0.16304305 0.06256172
0.24808592 0.16304305 0.06256172
0.26314793 0.16304305 0.06256172
0.27817273 0.16304305 0.06256172
0.29325720 0.16304305 0.06256172
0.30847019 0.16304305 0.06256172
0.32386114 0.16304305 0.06256172
0.33946543 0.16304305 0.06256172
0.35530784 0.16304305 0.06256172
0.37140494 0.16304305 0.06256172
0.38776679 0.16304305 0.06256172
0.40439811 0.16304305 0.06256172
0.42129923 0.16304305 0.06256172
0.43846688 0.16304305 0.06256172
0.45589468 0.16304305 0.06256172
0.47357368 0.16304305 0.06256172
0.49149278 0.16304305 0.06256172
0.50963902 0.16304305 0.06256172
0.52799792 0.16304305 0.06256172
0.54655373 0.16304305 0.06256172
0.56528966 0.16304305 0.06256172
0.58418812 0.16304305 0.06256172
0.60323085 0.16304305 0.06256172
0.62239914 0.16304305 0.06256172
0.06256172 0.18321633 0.06256172
0.06256172 0.18321633 0.06256172
0.06256172 0.18321633 0.06256172
0.07556651 0.18321633 0.06256172
0.13704624 0.18321633 0.06256172
0.16304305 0.18321633 0.06256172
0.18321633 0.18321633 0.06256172
0.20087404 0.18321633 0.06256172
0.21722142 0.18321633 0.06256172
0.23284701 0.18321633 0.06256172
0.24808592 0.18321633 0.06256172
0.26314793 0.18321633 0.06256172
0.27817273 0.18321633 0.06256172
0.29325720 0.18321633 0.06256172
0.30847019 0.18321633 0.06256172
0.32386114 0.18321633 0.06256172
0.33946543 0.18321633 0.06256172
0.35530784 0.18321633 0.06256172
0.37140494 0.18321633 0.06256172
0.38776679 0.18321633 0.06256172
0.40439811 0.18321633 0.06256172
0.42129923 0.18321633 0.06256172
0.43846688 0.18321633 0.06256172
0.45589468 0.18321633 0.06256172
0.47357368 0.18321633 0.06256172
0.49149278 0.18321633 0.06256172
0.50963902 0.18321633 0.06256172
0.52799792 0.18321633 0.06256172
0.54655373 0.18321633 0.06256172
0.56528966 0.18321633 0.06256172
0.58418812 0.18321633 0.06256172
0.60323085 0.18321633 0.06256172
0.62239914 0.18321633 0.06256172
0.06256172 0.20087404 0.06256172
0.06256172 0.20087404 0.06256172
0.06256172 0.20087404 0.06256172
0.07556651 0.20087404 0.06256172
0.13704624 0.20087404 0.06256172
0.16304305 0.20087404 0.06256172
0.18321633 0.20087404 0.06256172
0.20087404 0.20087404 0.06256172
0.21722142 0.20087404 0.06256172
0.23284701 0.20087404 0.06256172
0.24808592 0.20087404 0.06256172
0.26314793 0.20087404 0.06256172
0.27817273 0.20087404 0.06256172
0.29325720 0.20087404 0.06256172
0.30847019 0.20087404 0.06256172
0.32386114 0.20087404 0.06256172
0.33946543 0.20087404 0.06256172
0.35530784 0.20087404 0.06256172
0.37140494 0.20087404 0.06256172
0.38776679 0.20087404 0.06256172
0.40439811 0.20087404 0.06256172
0.42129923 0.20087404 0.06256172
0.43846688 0.20087404 0.06256172
0.45589468 0.20087404 0.06256172
0.47357368 0.20087404 0.06256172
0.49149278 0.20087404 0.06256172
0.50963902 0.20087404 0.06256172
0.52799792 0.20087404 0.06256172
0.54655373 0.20087404 0.06256172
0.56528966 0.20087404 0.06256172
0.58418812 0.20087404 0.06256172
0.60323085 0.20087404 0.06256172
0.62239914 0.20087404 0.06256172
0.06256172 0.21722142 0.06256172
0.06256172 0.21722142 0.06256172
0.06256172 0.21722142 0.06256172
0.07556651 0.21722142 0.06256172
0.13704624 0.21722142 0.06256172
0.16304305 0.21722142 0.06256172
0.18321633 0.21722142 0.06256172
0.20087404 0.21722142 0.06256172
0.21722142 0.21722142 0.06256172
0.23284701 0.21722142 0.06256172
0.24808592 0.21722142 0.06256172
0.26314793 0.21722142 0.06256172
0.27817273 0.21722142 0.06256172
0.29325720 0.21722142 0.06256172
0.30847019 0.21722142 0.06256172
0.32386114 0.21722142 0.06256172
0.33946543 0.21722142 0.06256172
0.35530784 0.21722142 0.06256172
0.37140494 0.21722142 0.06256172
0.38776679 0.21722142 0.06256172
0.40439811 0.21722142 0.06256172
0.42129923 0.21722142 0.06256172
0.43846688 0.21722142 0.06256172
0.45589468 0.21722142 0.06256172
0.47357368 0.21722142 0.06256172
0.49149278 0.21722142 0.06256172
0.50963902 0.21722142 0.06256172
0.52799792 0.21722142 0.06256172
0.54655373 0.21722142 0.06256172
0.56528966 0.21722142 0.06256172
0.58418812 0.21722142 0.06256172
0.60323085 0.21722142 0.06256172
0.62239914 0.21722142 0.06256172
0.06256172 0.23284701 0.06256172
0.06256172 0.23284701 0.06256172
0.06256172 0.23284701 0.06256172
0.07556651 0.23284701 0.06256172
0.13704624 0.23284701 0.06256172
0.16304305 0.23284701 0.06256172
0.18321633 0.23284701 0.06256172
0.20087404 0.23284701 0.06256172
0.21722142 0.23284701 0.06256172
0.23284701 0.23284701 0.06256172
0.24808592 0.23284701 0.06256172
0.26314793 0.23284701 0.06256172
0.27817273 0.23284701 0.06256172
0.29325720 0.23284701 0.06256172
0.30847019 0.23284701 0.06256172
0.32386114 0.23284701 0.06256172
0.33946543 0.23284701 0.06256172
0.35530784 0.23284701 0.06256172
0.37140494 0.23284701 0.06256172
0.38776679 0.23284701 0.06256172
0.40439811 0.23284701 0.06256172
0.42129923 0.23284701 0.06256172
0.43846688 0.23284701 0.06256172
0.45589468 0.23284701 0.06256172
0.47357368 0.23284701 0.06256172
0.49149278 0.23284701 0.06256172
0.50963902 0.23284701 0.06256172
0.52799792 0.23284701 0.06256172
0.54655373 0.23284701 0.06256172
0.56528966 0.23284701 0.06256172
0.58418812 0.23284701 0.06256172
0.60323085 0.23284701 0.06256172
0.62239914 0.23284701 0.06256172
0.06256172 0.24808592 0.06256172
0.06256172 0.24808592 0.06256172
0.06256172 0.24808592 0.06256172
0.07556651 0.24808592 0.06256172
0.13704624 0.24808592 0.06256172
0.16304305 0.24808592 0.06256172
0.18321633 0.24808592 0.06256172
0.20087404 0.24808592 0.06256172
0.21722142 0.24808592 0.06256172
0.23284701 0.24808592 0.06256172
0.24808592 0.24808592 0.06256172
0.26314793 0.24808592 0.06256172
0.27817273 0.24808592 0.06256172
0.29325720 0.24808592 0.06256172
0.30847019 0.24808592 0.06256172
0.32386114 0.24808592 0.06256172
0.33946543 0.24808592 0.06256172
0.35530784 0.24808592 0.06256172
0.37140494 0.24808592 0.06256172
0.38776679 0.24808592 0.06256172
0.40439811 0.24808592 0.06256172
0.42129923 0.24808592 0.06256172
0.43846688 0.24808592 0.06256172
0.45589468 0.24808592 0.06256172
0.47357368 0.24808592 0.06256172
0.49149278 0.24808592 0.06256172
0.50963902 0.24808592 0.06256172
0.52799792 0.24808592 0.06256172
0.54655373 0.24808592 0.06256172
0.56528966 0.24808592 0.06256172
0.58418812 0.24808592 0.06256172
0.60323085 0.24808592 0.06256172
0.62239914 0.24808592 0.06256172
0.06256172 0.26314793 0.06256172
0.06256172 0.26314793 0.06256172
0.06256172 0.26314793 0.06256172
0.07556651 0.26314793 0.06256172
0.13704624 0.26314793 0.06256172
0.16304305 0.26314793 0.06256172
0.18321633 0.26314793 0.06256172
0.20087404 0.26314793 0.06256172
0.21722142 0.26314793 0.06256172
0.23284701 0.26314793 0.06256172
0.24808592 0.26314793 0.06256172
0.26314793 0.26314793 0.06256172
0.27817273 0.26314793 0.06256172
0.29325720 0.26314793 0.06256172
0.30847019 0.26314793 0.06256172
0.32386114 0.26314793 0.06256172
0.33946543 0.26314793 0.06256172
0.35530784 0.26314793 0.06256172
0.37140494 0.26314793 0.06256172
0.38776679 0.26314793 0.06256172
0.40439811 0.26314793 0.06256172
0.42129923 0.26314793 0.06256172
0.43846688 0.26314793 0.06256172
0.45589468 0.26314793 0.06256172
0.47357368 0.26314793 0.06256172
0.49149278 0.26314793 0.06256172
0.50963902 0.26314793 0.06256172
0.52799792 0.26314793 0.06256172
0.54655373 0.26314793 0.06256172
0.56528966 0.26314793 0.06256172
0.58418812 0.26314793 0.06256172
0.60323085 0.26314793 0.06256172
0.62239914 0.26314793 0.06256172
0.06256172 0.27817273 0.06256172
0.06256172 0.27817273 0.06256172
0.06256172 0.27817273 0.06256172
0.07556651 0.27817273 0.06256172
0.13704624 0.27817273 0.06256172
0.16304305 0.27817273 0.06256172
0.18321633 0.27817273 0.06256172
0.20087404 0.27817273 0.06256172
0.21722142 0.27817273 0.06256172
0.23284701 0.27817273 0.06256172
0.24808592 0.27817273 0.06256172
0.26314793 0.27817273 0.06256172
0.27817273 0.27817273 0.06256172
0.29325720 0.27817273 0.06256172
0.30847019 0.27817273 0.06256172
0.32386114 0.27817273 0.06256172
0.33946543 0.27817273 0.06256172
0.35530784 0.27817273 0.06256172
0.37140494 0.27817273 0.06256172
0.38776679 0.27817273 0.06256172
0.40439811 0.27817273 0.06256172
0.42129923 0.27817273 0.06256172
0.43846688 0.27817273 0.06256172
0.45589468 0.27817273 0.06256172
0.47357368 0.27817273 0.06256172
0.49149278 0.27817273 0.06256172
0.50963902 0.27817273 0.06256172
0.52799792 0.27817273 0.06256172
0.54655373 0.27817273 0.06256172
0.56528966 0.27817273 0.06256172
0.58418812 0.27817273 0.06256172
0.60323085 0.27817273 0.06256172
0.62239914 0.27817273 0.06256172
0.06256172 0.29325720 0.06256172
0.06256172 0.29325720 0.06256172
0.06256172 0.29325720 0.06256172
0.07556651 0.29325720 0.06256172
0.13704624 0.29325720 0.06256172
0.16304305 0.29325720 0.06256172
0.18321633 0.29325720 0.06256172
0.20087404 0.29325720 0.06256172
0.21722142 0.29325720 0.06256172
0.23284701 0.29325720 0.06256172
0.24808592 0.29325720 0.06256172
0.26314793 0.29325720 0.06256172
0.27817273 0.29325720 0.06256172
0.29325720 0.29325720 0.06256172
0.30847019 0.29325720 0.06256172
0.32386114 0.29325720 0.06256172
0.33946543 0.29325720 0.06256172
0.35530784 0.29325720 0.06256172
0.37140494 0.29325720 0.06256172
0.38776679 0.29325720 0.06256172
0.40439811 0.29325720 0.06256172
0.42129923 0.29325720 0.06256172
0.43846688 0.29325720 0.06256172
0.45589468 0.29325720 0.06256172
0.47357368 0.29325720 0.06256172
0.49149278 0.29325720 0.06256172
0.50963902 0.29325720 0.06256172
0.52799792 0.29325720 0.06256172
0.54655373 0.29325720 0.06256172
0.56528966 0.29325720 0.06256172
0.58418812 0.29325720 0.06256172
0.60323085 0.29325720 0.06256172
0.62239914 0.29325720 0.06256172
0.06256172 0.30847019 0.06256172
0.06256172 0.30847019 0.06256172
0.06256172 0.30847019 0.06256172
0.07556651 0.30847019 0.06256172
0.13704624 0.30847019 0.06256172
0.16304305 0.30847019 0.06256172
0.18321633 0.30847019 0.06256172
0.20087404 0.30847019 0.06256172
0.21722142 0.30847019 0.06256172
0.23284701 0.30847019 0.06256172
0.24808592 0.30847019 0.06256172
0.26314793 0.30847019 0.06256172
0.27817273 0.30847019 0.06256172
0.29325720 0.30847019 0.06256172
0.30847019 0.30847019 0.06256172
0.32386114 0.30847019 0.06256172
0.33946543 0.30847019 0.06256172
0.35530784 0.30847019 0.06256172
0.37140494 0.30847019 0.06256172
0.38776679 0.30847019 0.06256172
0.40439811 0.30847019 0.06256172
0.42129923 0.30847019 0.06256172
0.43846688 0.30847019 0.06256172
0.45589468 0.30847019 0.06256172
0.47357368 0.30847019 0.06256172
0.49149278 0.30847019 0.06256172
0.50963902 0.30847019 0.06256172
0.52799792 0.30847019 0.06256172
0.54655373 0.30847019 0.06256172
0.56528966 0.30847019 0.06256172
0.58418812 0.30847019 0.06256172
0.60323085 0.30847019 0.06256172
0.62239914 0.30847019 0.06256172
0.06256172 0.32386114 0.06256172
0.06256172 0.32386114 0.06256172
0.06256172 0.32386114 0.06256172
0.07556651 0.32386114 0.06256172
0.13704624 0.32386114 0.06256172
0.16304305 0.32386114 0.06256172
0.18321633 0.32386114 0.06256172
0.20087404 0.32386114 0.06256172
0.21722142 0.32386114 0.06256172
0.23284701 0.32386114 0.06256172
0.24808592 0.32386114 0.06256172
0.26314793 0.32386114 0.06256172
0.27817273 0.32386114 0.06256172
0.29325720 0.32386114 0.06256172
0.30847019 0.32386114 0.06256172
0.32386114 0.32386114 0.06256172
0.33946543 0.32386114 0.06256172
0.35530784 0.32386114 0.06256172
0.37140494 0.32386114 0.06256172
0.38776679 0.32386114 0.06256172
0.40439811 0.32386114 0.06256172
0.42129923 0.32386114 0.06256172
0.43846688 0.32386114 0.06256172
0.45589468 0.32386114 0.06256172
0.47357368 0.32386114 0.06256172
0.49149278 0.32386114 0.06256172
0.50963902 0.32386114 0.06256172
0.52799792 0.32386114 0.06256172
0.54655373 0.32386114 0.06256172
0.56528966 0.32386114 0.06256172
0.58418812 0.32386114 0.06256172
0.60323085 0.32386114 0.06256172
0.62239914 0.32386114 0.06256172
0.06256172 0.33946543 0.06256172
0.06256172 0.33946543 0.06256172
0.06256172 0.33946543 0.06256172
0.07556651 0.33946543 0.06256172
0.13704624 0.33946543 0.06256172
0.16304305 0.33946543 0.06256172
0.18321633 0.33946543 0.06256172
0.20087404 0.33946543 0.06256172
0.21722142 0.33946543 0.06256172
0.23284701 0.33946543 0.06256172
0.24808592 0.33946543 0.06256172
0.26314793 0.33946543 0.06256172
0.27817273 0.33946543 0.06256172
0.29325720 0.33946543 0.06256172
0.30847019 0.33946543 0.06256172
0.32386114 0.33946543 0.06256172
0.33946543 0.33946543 0.06256172
0.35530784 0.33946543 0.06256172
0.37140494 0.33946543 0.06256172
0.38776679 0.33946543 0.06256172
0.40439811 0.33946543 0.06256172
0.42129923 0.33946543 0.06256172
0.43846688 0.33946543 0.06256172
0.45589468 0.33946543 0.06256172
0.47357368 0.33946543 0.06256172
0.49149278 0.33946543 0.06256172
0.50963902 0.33946543 0.06256172
0.52799792 0.33946543 0.06256172
0.54655373 0.33946543 0.06256172
0.56528966 0.33946543 0.06256172
0.58418812 0.33946543 0.06256172
0.60323085 0.33946543 0.06256172
0.62239914 0.33946543 0.06256172
0.06256172 0.35530784 0.06256172
0.06256172 0.35530784 0.06256172
0.06256172 0.35530784 0.06256172
0.07556651 0.35530784 0.06256172
0.13704624 0.35530784 0.06256172
0.16304305 0.35530784 0.06256172
0.18321633 0.35530784 0.06256172
0.20087404 0.35530784 0.06256172
0.21722142 0.35530784 0.06256172
0.23284701 0.35530784 0.06256172
0.24808592 0.35530784 0.06256172
0.26314793 0.35530784 0.06256172
0.27817273 0.35530784 0.06256172
0.29325720 0.35530784 0.06256172
0.30847019 0.35530784 0.06256172
0.32386114 0.35530784 0.06256172
0.33946543 0.35530784 0.06256172
0.35530784 0.35530784 0.06256172
0.37140494 0.35530784 0.06256172
0.38776679 0.35530784 0.06256172
0.40439811 0.35530784 0.06256172
0.42129923 0.35530784 0.06256172
0.43846688 0.35530784 0.06256172
0.45589468 0.35530784 0.06256172
0.47357368 0.35530784 0.06256172
0.49149278 0.35530784 0.06256172
0.50963902 0.35530784 0.06256172
0.52799792 0.35530784 0.06256172
0.54655373 0.35530784 0.06256172
0.56528966 0.35530784 0.06256172
0.58418812 0.35530784 0.06256172
0.60323085 0.35530784 0.06256172
0.62239914 0.35530784 0.06256172
0.06256172 0.37140494 0.06256172
0.06256172 0.37140494 0.06256172
0.06256172 0.37140494 0.06256172
0.07556651 0.37140494 0.06256172
0.13704624 0.37140494 0.06256172
0.16304305 0.37140494 0.06256172
0.18321633 0.37140494 0.06256172
0.20087404 0.37140494 0.06256172
0.21722142 0.37140494 0.06256172
0.23284701 0.37140494 0.06256172
0.24808592 0.37140494 0.06256172
0.26314793 0.37140494 0.06256172
0.27817273 0.37140494 0.06256172
0.29325720 0.37140494 0.06256172
0.30847019 0.37140494 0.06256172
0.32386114 0.37140494 0.06256172
0.33946543 0.37140494 0.06256172
0.35530784 0.37140494 0.06256172
0.37140494 0.37140494 0.06256172
0.38776679 0.37140494 0.06256172
0.40439811 0.37140494 0.06256172
0.42129923 0.37140494 0.06256172
0.43846688 0.37140494 0.06256172
0.45589468 0.37140494 0.06256172
0.47357368 0.37140494 0.06256172
0.49149278 0.37140494 0.06256172
0.50963902 0.37140494 0.06256172
0.52799792 0.37140494 0.06256172
0.54655373 0.37140494 0.06256172
0.56528966 0.37140494 0.06256172
0.58418812 0.37140494 0.06256172
0.60323085 0.37140494 0.06256172
0.62239914 0.37140494 0.06256172
0.06256172 0.38776679 0.06256172
0.06256172 0.38776679 0.06256172
0.06256172 0.38776679 0.06256172
0.07556651 0.38776679 0.06256172
0.13704624 0.38776679 0.06256172
0.16304305 0.38776679 0.06256172
0.18321633 0.38776679 0.06256172
0.20087404 0.38776679 0.06256172
0.21722142 0.38776679 0.06256172
0.23284701 0.38776679 0.06256172
0.24808592 0.38776679 0.06256172
0.26314793 0.38776679 0.06256172
0.27817273 0.38776679 0.06256172
0.29325720 0.38776679 0.06256172
0.30847019 0.38776679 0.06256172
0.32386114 0.38776679 0.06256172
0.33946543 0.38776679 0.06256172
0.35530784 0.38776679 0.06256172
0.37140494 0.38776679 0.06256172
0.38776679 0.38776679 0.06256172
0.40439811 0.38776679 0.06256172
0.42129923 0.38776679 0.06256172
0.43846688 0.38776679 0.06256172
0.45589468 0.38776679 0.06256172
0.47357368 0.38776679 0.06256172
0.49149278 0.38776679 0.06256172
0.50963902 0.38776679 0.06256172
0.52799792 0.38776679 0.06256172
0.54655373 0.38776679 0.06256172
0.56528966 0.38776679 0.06256172
0.58418812 0.38776679 0.06256172
0.60323085 0.38776679 0.06256172
0.62239914 0.38776679 0.06256172
0.06256172 0.40439811 0.06256172
0.06256172 0.40439811 0.06256172
0.06256172 0.40439811 0.06256172
0.07556651 0.40439811 0.06256172
0.13704624 0.40439811 0.06256172
0.16304305 0.40439811 0.06256172
0.18321633 0.40439811 0.06256172
0.20087404 0.40439811 0.06256172
0.21722142 0.40439811 0.06256172
0.23284701 0.40439811 0.06256172
0.24808592 0.40439811 0.06256172
0.26314793 0.40439811 0.06256172
0.27817273 0.40439811 0.06256172
0.29325720 0.40439811 0.06256172
0.30847019 0.40439811 0.06256172
0.32386114 0.40439811 0.06256172
0.33946543 0.40439811 0.06256172
0.35530784 0.40439811 0.06256172
0.37140494 0.40439811 0.06256172
0.38776679 0.40439811 0.06256172
0.40439811 0.40439811 0.06256172
0.42129923 0.40439811 0.06256172
0.43846688 0.40439811 0.06256172
0.45589468 0.40439811 0.06256172
0.47357368 0.40439811 0.06256172
0.49149278 0.40439811 0.06256172
0.50963902 0.40439811 0.06256172
0.52799792 0.40439811 0.06256172
0.54655373 0.40439811 0.06256172
0.56528966 0.40439811 0.06256172
0.58418812 0.40439811 0.06256172
0.60323085 0.40439811 0.06256172
0.62239914 0.40439811 0.06256172
0.06256172 0.42129923 0.06256172
0.06256172 0.42129923 0.06256172
0.06256172 0.42129923 0.06256172
0.07556651 0.42129923 0.06256172
0.13704624 0.42129923 0.06256172
0.16304305 0.42129923 0.06256172
0.18321633 0.42129923 0.06256172
0.20087404 0.42129923 0.06256172
0.21722142 0.42129923 0.06256172
0.23284701 0.42129923 0.06256172
0.24808592 0.42129923 0.06256172
0.26314793 0.42129923 0.06256172
0.27817273 0.42129923 0.06256172
0.29325720 0.42129923 0.06256172
0.30847019 0.42129923 0.06256172
0.32386114 0.42129923 0.06256172
0.33946543 0.42129923 0.06256172
0.35530784 0.42129923 0.06256172
0.37140494 0.42129923 0.06256172
0.38776679 0.42129923 0.06256172
0.40439811 0.42129923 0.06256172
0.42129923 0.42129923 0.06256172
0.43846688 0.42129923 0.06256172
0.45589468 0.42129923 0.06256172
0.47357368 0.42129923 0.06256172
0.49149278 0.42129923 0.06256172
0.50963902 0.42129923 0.06256172
