src/ffmpeg_scripts/luts/flog-smpte2084_1p33.cube
TITLE "flog-smpte2084_1p33"
LUT_3D_SIZE 33
# Fujifilm F-Log/Rec2020 -> PQ (EOTF Only)/Rec2020, CineEI Shift 1.33, Black Level 0.00% IRE, Input 109% -> Output 109% - Created with LUTCalc v4.01 by Ben Turley October 2020
0.06256172 0.06256172 0.06256172
0.06256172 0.06256172 0.06256172
0.06256172 0.06256172 0.06256172
0.09158214 0.06256172 0.06256172
0.19678935 0.06256172 0.06256172
0.23562357 0.06256172 0.06256172
0.26445658 0.06256172 0.06256172
0.28893767 0.06256172 0.06256172
0.31106041 0.06256172 0.06256172
0.33177520 0.06256172 0.06256172
0.35161167 0.06256172 0.06256172
0.37089444 0.06256172 0.06256172
0.38983525 0.06256172 0.06256172
0.40857787 0.06256172 0.06256172
0.42722239 0.06256172 0.06256172
0.44583929 0.06256172 0.06256172
0.46447813 0.06256172 0.06256172
0.48317315 0.06256172 0.06256172
0.50194712 0.06256172 0.06256172
0.52081404 0.06256172 0.06256172
0.53978100 0.06256172 0.06256172
0.55884974 0.06256172 0.06256172
0.57801769 0.06256172 0.06256172
0.59727889 0.06256172 0.06256172
0.61662467 0.06256172 0.06256172
0.63604420 0.06256172 0.06256172
0.65552502 0.06256172 0.06256172
0.67505337 0.06256172 0.06256172
0.69461452 0.06256172 0.06256172
0.71419309 0.06256172 0.06256172
0.73377323 0.06256172 0.06256172
0.75333885 0.06256172 0.06256172
0.77287378 0.06256172 0.06256172
0.06256172 0.06256172 0.06256172
0.06256172 0.06256172 0.06256172
0.06256172 0.06256172 0.06256172
0.09158214 0.06256172 0.06256172
0.19678935 0.06256172 0.06256172
0.23562357 0.06256172 0.06256172
0.26445658 0.06256172 0.06256172
0.28893767 0.06256172 0.06256172
0.31106041 0.06256172 0.06256172
0.33177520 0.06256172 0.06256172
0.35161167 0.06256172 0.06256172
0.37089444 0.06256172 0.06256172
0.38983525 0.06256172 0.06256172
0.40857787 0.06256172 0.06256172
0.42722239 0.06256172 0.06256172
0.44583929 0.06256172 0.06256172
0.46447813 0.06256172 0.06256172
0.48317315 0.06256172 0.06256172
0.50194712 0.06256172 0.06256172
0.52081404 0.06256172 0.06256172
0.53978100 0.06256172 0.06256172
0.55884974 0.06256172 0.06256172
0.57801769 0.06256172 0.06256172
0.59727889 0.06256172 0.06256172
0.61662467 0.06256172 0.06256172
0.63604420 0.06256172 0.06256172
0.65552502 0.06256172 0.06256172
0.67505337 0.06256172 0.06256172
0.69461452 0.06256172 0.06256172
0.71419309 0.06256172 0.06256172
0.73377323 0.06256172 0.06256172
0.75333885 0.06256172 0.06256172
0.77287378 0.06256172 0.06256172
0.06256172 0.06256172 0.06256172
0.06256172 0.06256172 0.06256172
0.06256172 0.06256172 0.06256172
0.09158214 0.06256172 0.06256172
0.19678935 0.06256172 0.06256172
0.23562357 0.06256172 0.06256172
0.26445658 0.06256172 0.06256172
0.28893767 0.06256172 0.06256172
0.31106041 0.06256172 0.06256172
0.33177520 0.06256172 0.06256172
0.35161167 0.06256172 0.06256172
0.37089444 0.06256172 0.06256172
0.38983525 0.06256172 0.06256172
0.40857787 0.06256172 0.06256172
0.42722239 0.06256172 0.06256172
0.44583929 0.06256172 0.06256172
0.46447813 0.06256172 0.06256172
0.48317315 0.06256172 0.06256172
0.50194712 0.06256172 0.06256172
0.52081404 0.06256172 0.06256172
0.53978100 0.06256172 0.06256172
0.55884974 0.06256172 0.06256172
0.57801769 0.06256172 0.06256172
0.59727889 0.06256172 0.06256172
0.61662467 0.06256172 0.06256172
0.63604420 0.06256172 0.06256172
0.65552502 0.06256172 0.06256172
0.67505337 0.06256172 0.06256172
0.69461452 0.06256172 0.06256172
0.71419309 0.06256172 0.06256172
0.73377323 0.06256172 0.06256172
0.75333885 0.06256172 0.06256172
0.77287378 0.06256172 0.06256172
0.06256172 0.09158214 0.06256172
0.06256172 0.09158214 0.06256172
0.06256172 0.09158214 0.06256172
0.09158214 0.09158214 0.06256172
0.19678935 0.09158214 0.06256172
0.23562357 0.09158214 0.06256172
0.26445658 0.09158214 0.06256172
0.28893767 0.09158214 0.06256172
0.31106041 0.09158214 0.06256172
0.33177520 0.09158214 0.06256172
0.35161167 0.09158214 0.06256172
0.37089444 0.09158214 0.06256172
0.38983525 0.09158214 0.06256172
0.40857787 0.09158214 0.06256172
0.42722239 0.09158214 0.06256172
0.44583929 0.09158214 0.06256172
0.46447813 0.09158214 0.06256172
0.48317315 0.09158214 0.06256172
0.50194712 0.09158214 0.06256172
0.52081404 0.09158214 0.06256172
0.53978100 0.09158214 0.06256172
0.55884974 0.09158214 0.06256172
0.57801769 0.09158214 0.06256172
0.59727889 0.09158214 0.06256172
0.61662467 0.09158214 0.06256172
0.63604420 0.09158214 0.06256172
0.65552502 0.09158214 0.06256172
0.67505337 0.09158214 0.06256172
0.69461452 0.09158214 0.06256172
0.71419309 0.09158214 0.06256172
0.73377323 0.09158214 0.06256172
0.75333885 0.09158214 0.06256172
0.77287378 0.09158214 0.06256172
0.06256172 0.19678935 0.06256172
0.06256172 0.19678935 0.06256172
0.06256172 0.19678935 0.06256172
0.09158214 0.19678935 0.06256172
0.19678935 0.19678935 0.06256172
0.23562357 0.19678935 0.06256172
0.26445658 0.19678935 0.06256172
0.28893767 0.19678935 0.06256172
0.31106041 0.19678935 0.06256172
0.33177520 0.19678935 0.06256172
0.35161167 0.19678935 0.06256172
0.37089444 0.19678935 0.06256172
0.38983525 0.19678935 0.06256172
0.40857787 0.19678935 0.06256172
0.42722239 0.19678935 0.06256172
0.44583929 0.19678935 0.06256172
0.46447813 0.19678935 0.06256172
0.48317315 0.19678935 0.06256172
0.50194712 0.19678935 0.06256172
0.52081404 0.19678935 0.06256172
0.53978100 0.19678935 0.06256172
0.55884974 0.19678935 0.06256172
0.57801769 0.19678935 0.06256172
0.59727889 0.19678935 0.06256172
0.61662467 0.19678935 0.06256172
0.63604420 0.19678935 0.06256172
0.65552502 0.19678935 0.06256172
0.67505337 0.19678935 0.06256172
0.69461452 0.19678935 0.06256172
0.71419309 0.19678935 0.06256172
0.73377323 0.19678935 0.06256172
0.75333885 0.19678935 0.06256172
0.77287378 0.19678935 0.06256172
0.06256172 0.23562357 0.06256172
0.06256172 0.23562357 0.06256172
0.06256172 0.23562357 0.06256172
0.09158214 0.23562357 0.06256172
0.19678935 0.23562357 0.06256172
0.23562357 0.23562357 0.06256172
0.26445658 0.23562357 0.06256172
0.28893767 0.23562357 0.06256172
0.31106041 0.23562357 0.06256172
0.33177520 0.23562357 0.06256172
0.35161167 0.23562357 0.06256172
0.37089444 0.23562357 0.06256172
0.38983525 0.23562357 0.06256172
0.40857787 0.23562357 0.06256172
0.42722239 0.23562357 0.06256172
0.44583929 0.23562357 0.06256172
0.46447813 0.23562357 0.06256172
0.48317315 0.23562357 0.06256172
0.50194712 0.23562357 0.06256172
0.52081404 0.23562357 0.06256172
0.53978100 0.23562357 0.06256172
0.55884974 0.23562357 0.06256172
0.57801769 0.23562357 0.06256172
0.59727889 0.23562357 0.06256172
0.61662467 0.23562357 0.06256172
0.63604420 0.23562357 0.06256172
0.65552502 0.23562357 0.06256172
0.67505337 0.23562357 0.06256172
0.69461452 0.23562357 0.06256172
0.71419309 0.23562357 0.06256172
0.73377323 0.23562357 0.06256172
0.75333885 0.23562357 0.06256172
0.77287378 0.23562357 0.06256172
0.06256172 0.26445658 0.06256172
0.06256172 0.26445658 0.06256172
0.06256172 0.26445658 0.06256172
0.09158214 0.26445658 0.06256172
0.19678935 0.26445658 0.06256172
0.23562357 0.26445658 0.06256172
0.26445658 0.26445658 0.06256172
0.28893767 0.26445658 0.06256172
0.31106041 0.26445658 0.06256172
0.33177520 0.26445658 0.06256172
0.35161167 0.26445658 0.06256172
0.37089444 0.26445658 0.06256172
0.38983525 0.26445658 0.06256172
0.40857787 0.26445658 0.06256172
0.42722239 0.26445658 0.06256172
0.44583929 0.26445658 0.06256172
0.46447813 0.26445658 0.06256172
0.48317315 0.26445658 0.06256172
0.50194712 0.26445658 0.06256172
0.52081404 0.26445658 0.06256172
0.53978100 0.26445658 0.06256172
0.55884974 0.26445658 0.06256172
0.57801769 0.26445658 0.06256172
0.59727889 0.26445658 0.06256172
0.61662467 0.26445658 0.06256172
0.63604420 0.26445658 0.06256172
0.65552502 0.26445658 0.06256172
0.67505337 0.26445658 0.06256172
0.69461452 0.26445658 0.06256172
0.71419309 0.26445658 0.06256172
0.73377323 0.26445658 0.06256172
0.75333885 0.26445658 0.06256172
0.77287378 0.26445658 0.06256172
0.06256172 0.28893767 0.06256172
0.06256172 0.28893767 0.06256172
0.06256172 0.28893767 0.06256172
0.09158214 0.28893767 0.06256172
0.19678935 0.28893767 0.06256172
0.23562357 0.28893767 0.06256172
0.26445658 0.28893767 0.06256172
0.28893767 0.28893767 0.06256172
0.31106041 0.28893767 0.06256172
0.33177520 0.28893767 0.06256172
0.35161167 0.28893767 0.06256172
0.37089444 0.28893767 0.06256172
0.38983525 0.28893767 0.06256172
0.40857787 0.28893767 0.06256172
0.42722239 0.28893767 0.06256172
0.44583929 0.28893767 0.06256172
0.46447813 0.28893767 0.06256172
0.48317315 0.28893767 0.06256172
0.50194712 0.28893767 0.06256172
0.52081404 0.28893767 0.06256172
0.53978100 0.28893767 0.06256172
0.55884974 0.28893767 0.06256172
0.57801769 0.28893767 0.06256172
0.59727889 0.28893767 0.06256172
0.61662467 0.28893767 0.06256172
0.63604420 0.28893767 0.06256172
0.65552502 0.28893767 0.06256172
0.67505337 0.28893767 0.06256172
0.69461452 0.28893767 0.06256172
0.71419309 0.28893767 0.06256172
0.73377323 0.28893767 0.06256172
0.75333885 0.28893767 0.06256172
0.77287378 0.28893767 0.06256172
0.06256172 0.31106041 0.06256172
0.06256172 0.31106041 0.06256172
0.06256172 0.31106041 0.06256172
0.09158214 0.31106041 0.06256172
0.19678935 0.31106041 0.06256172
0.23562357 0.31106041 0.06256172
0.26445658 0.31106041 0.06256172
0.28893767 0.31106041 0.06256172
0.31106041 0.31106041 0.06256172
0.33177520 0.31106041 0.06256172
0.35161167 0.31106041 0.06256172
0.37089444 0.31106041 0.06256172
0.38983525 0.31106041 0.06256172
0.40857787 0.31106041 0.06256172
0.42722239 0.31106041 0.06256172
0.44583929 0.31106041 0.06256172
0.46447813 0.31106041 0.06256172
0.48317315 0.31106041 0.06256172
0.50194712 0.31106041 0.06256172
0.52081404 0.31106041 0.06256172
0.53978100 0.31106041 0.06256172
0.55884974 0.31106041 0.06256172
0.57801769 0.31106041 0.06256172
0.59727889 0.31106041 0.06256172
0.61662467 0.31106041 0.06256172
0.63604420 0.31106041 0.06256172
0.65552502 0.31106041 0.06256172
0.67505337 0.31106041 0.06256172
0.69461452 0.31106041 0.06256172
0.71419309 0.31106041 0.06256172
0.73377323 0.31106041 0.06256172
0.75333885 0.31106041 0.06256172
0.77287378 0.31106041 0.06256172
0.06256172 0.33177520 0.06256172
0.06256172 0.33177520 0.06256172
0.06256172 0.33177520 0.06256172
0.09158214 0.33177520 0.06256172
0.19678935 0.33177520 0.06256172
0.23562357 0.33177520 0.06256172
0.26445658 0.33177520 0.06256172
0.28893767 0.33177520 0.06256172
0.31106041 0.33177520 0.06256172
0.33177520 0.33177520 0.06256172
0.35161167 0.33177520 0.06256172
0.37089444 0.33177520 0.06256172
0.38983525 0.33177520 0.06256172
0.40857787 0.33177520 0.06256172
0.42722239 0.33177520 0.06256172
0.44583929 0.33177520 0.06256172
0.46447813 0.33177520 0.06256172
0.48317315 0.33177520 0.06256172
0.50194712 0.33177520 0.06256172
0.52081404 0.33177520 0.06256172
0.53978100 0.33177520 0.06256172
0.55884974 0.33177520 0.06256172
0.57801769 0.33177520 0.06256172
0.59727889 0.33177520 0.06256172
0.61662467 0.33177520 0.06256172
0.63604420 0.33177520 0.06256172
0.65552502 0.33177520 0.06256172
0.67505337 0.33177520 0.06256172
0.69461452 0.33177520 0.06256172
0.71419309 0.33177520 0.06256172
0.73377323 0.33177520 0.06256172
0.75333885 0.33177520 0.06256172
0.77287378 0.33177520 0.06256172
0.06256172 0.35161167 0.06256172
0.06256172 0.35161167 0.06256172
0.06256172 0.35161167 0.06256172
0.09158214 0.35161167 0.06256172
0.19678935 0.35161167 0.06256172
0.23562357 0.35161167 0.06256172
0.26445658 0.35161167 0.06256172
0.28893767 0.35161167 0.06256172
0.31106041 0.35161167 0.06256172
0.33177520 0.35161167 0.06256172
0.35161167 0.35161167 0.06256172
0.37089444 0.35161167 0.06256172
0.38983525 0.35161167 0.06256172
0.40857787 0.35161167 0.06256172
0.42722239 0.35161167 0.06256172
0.44583929 0.35161167 0.06256172
0.46447813 0.35161167 0.06256172
0.48317315 0.35161167 0.06256172
0.50194712 0.35161167 0.06256172
0.52081404 0.35161167 0.06256172
0.53978100 0.35161167 0.06256172
0.55884974 0.35161167 0.06256172
0.57801769 0.35161167 0.06256172
0.59727889 0.35161167 0.06256172
0.61662467 0.35161167 0.06256172
0.63604420 0.35161167 0.06256172
0.65552502 0.35161167 0.06256172
0.67505337 0.35161167 0.06256172
0.69461452 0.35161167 0.06256172
0.71419309 0.35161167 0.06256172
0.73377323 0.35161167 0.06256172
0.75333885 0.35161167 0.06256172
0.77287378 0.35161167 0.06256172
0.06256172 0.37089444 0.06256172
0.06256172 0.37089444 0.06256172
0.06256172 0.37089444 0.06256172
0.09158214 0.37089444 0.06256172
0.19678935 0.37089444 0.06256172
0.23562357 0.37089444 0.06256172
0.26445658 0.37089444 0.06256172
0.28893767 0.37089444 0.06256172
0.31106041 0.37089444 0.06256172
0.33177520 0.37089444 0.06256172
0.35161167 0.37089444 0.06256172
0.37089444 0.37089444 0.06256172
0.38983525 0.37089444 0.06256172
0.40857787 0.37089444 0.06256172
0.42722239 0.37089444 0.06256172
0.44583929 0.37089444 0.06256172
0.46447813 0.37089444 0.06256172
0.48317315 0.37089444 0.06256172
0.50194712 0.37089444 0.06256172
0.52081404 0.37089444 0.06256172
0.53978100 0.37089444 0.06256172
0.55884974 0.37089444 0.06256172
0.57801769 0.37089444 0.06256172
0.59727889 0.37089444 0.06256172
0.61662467 0.37089444 0.06256172
0.63604420 0.37089444 0.06256172
0.65552502 0.37089444 0.06256172
0.67505337 0.37089444 0.06256172
0.69461452 0.37089444 0.06256172
0.71419309 0.37089444 0.06256172
0.73377323 0.37089444 0.06256172
0.75333885 0.37089444 0.06256172
0.77287378 0.37089444 0.06256172
0.06256172 0.38983525 0.06256172
0.06256172 0.38983525 0.06256172
0.06256172 0.38983525 0.06256172
0.09158214 0.38983525 0.06256172
0.19678935 0.38983525 0.06256172
0.23562357 0.38983525 0.06256172
0.26445658 0.38983525 0.06256172
0.28893767 0.38983525 0.06256172
0.31106041 0.38983525 0.06256172
0.33177520 0.38983525 0.06256172
0.35161167 0.38983525 0.06256172
0.37089444 0.38983525 0.06256172
0.38983525 0.38983525 0.06256172
0.40857787 0.38983525 0.06256172
0.42722239 0.38983525 0.06256172
0.44583929 0.38983525 0.06256172
0.46447813 0.38983525 0.06256172
0.48317315 0.38983525 0.06256172
0.50194712 0.38983525 0.06256172
0.52081404 0.38983525 0.06256172
0.53978100 0.38983525 0.06256172
0.55884974 0.38983525 0.06256172
0.57801769 0.38983525 0.06256172
0.59727889 0.38983525 0.06256172
0.61662467 0.38983525 0.06256172
0.63604420 0.38983525 0.06256172
0.65552502 0.38983525 0.06256172
0.67505337 0.38983525 0.06256172
0.69461452 0.38983525 0.06256172
0.71419309 0.38983525 0.06256172
0.73377323 0.38983525 0.06256172
0.75333885 0.38983525 0.06256172
0.77287378 0.38983525 0.06256172
0.06256172 0.40857787 0.06256172
0.06256172 0.40857787 0.06256172
0.06256172 0.40857787 0.06256172
0.09158214 0.40857787 0.06256172
0.19678935 0.40857787 0.06256172
0.23562357 0.40857787 0.06256172
0.26445658 0.40857787 0.06256172
0.28893767 0.40857787 0.06256172
0.31106041 0.40857787 0.06256172
0.33177520 0.40857787 0.06256172
0.35161167 0.40857787 0.06256172
0.37089444 0.40857787 0.06256172
0.38983525 0.40857787 0.06256172
0.40857787 0.40857787 0.06256172
0.42722239 0.40857787 0.06256172
0.44583929 0.40857787 0.06256172
0.46447813 0.40857787 0.06256172
0.48317315 0.40857787 0.06256172
0.50194712 0.40857787 0.06256172
0.52081404 0.40857787 0.06256172
0.53978100 0.40857787 0.06256172
0.55884974 0.40857787 0.06256172
0.57801769 0.40857787 0.06256172
0.59727889 0.40857787 0.06256172
0.61662467 0.40857787 0.06256172
0.63604420 0.40857787 0.06256172
0.65552502 0.40857787 0.06256172
0.67505337 0.40857787 0.06256172
0.69461452 0.40857787 0.06256172
0.71419309 0.40857787 0.06256172
0.73377323 0.40857787 0.06256172
0.75333885 0.40857787 0.06256172
0.77287378 0.40857787 0.06256172
0.06256172 0.42722239 0.06256172
0.06256172 0.42722239 0.06256172
0.06256172 0.42722239 0.06256172
0.09158214 0.42722239 0.06256172
0.19678935 0.42722239 0.06256172
0.23562357 0.42722239 0.06256172
0.26445658 0.42722239 0.06256172
0.28893767 0.42722239 0.06256172
0.31106041 0.42722239 0.06256172
0.33177520 0.42722239 0.06256172
0.35161167 0.42722239 0.06256172
0.37089444 0.42722239 0.06256172
0.38983525 0.42722239 0.06256172
0.40857787 0.42722239 0.06256172
0.42722239 0.42722239 0.06256172
0.44583929 0.42722239 0.06256172
0.46447813 0.42722239 0.06256172
0.48317315 0.42722239 0.06256172
0.50194712 0.42722239 0.06256172
0.52081404 0.42722239 0.06256172
0.53978100 0.42722239 0.06256172
0.55884974 0.42722239 0.06256172
0.57801769 0.42722239 0.06256172
0.59727889 0.42722239 0.06256172
0.61662467 0.42722239 0.06256172
0.63604420 0.42722239 0.06256172
0.65552502 0.42722239 0.06256172
0.67505337 0.42722239 0.06256172
0.69461452 0.42722239 0.06256172
0.71419309 0.42722239 0.06256172
0.73377323 0.42722239 0.06256172
0.75333885 0.42722239 0.06256172
0.77287378 0.42722239 0.06256172
0.06256172 0.44583929 0.06256172
0.06256172 0.44583929 0.06256172
0.06256172 0.44583929 0.06256172
0.09158214 0.44583929 0.06256172
0.19678935 0.44583929 0.06256172
0.23562357 0.44583929 0.06256172
0.26445658 0.44583929 0.06256172
0.28893767 0.44583929 0.06256172
0.31106041 0.44583929 0.06256172
0.33177520 0.44583929 0.06256172
0.35161167 0.44583929 0.06256172
0.37089444 0.44583929 0.06256172
0.38983525 0.44583929 0.06256172
0.40857787 0.44583929 0.06256172
0.42722239 0.44583929 0.06256172
0.44583929 0.44583929 0.06256172
0.46447813 0.44583929 0.06256172
0.48317315 0.44583929 0.06256172
0.50194712 0.44583929 0.06256172
0.52081404 0.44583929 0.06256172
0.53978100 0.44583929 0.06256172
0.55884974 0.44583929 0.06256172
0.57801769 0.44583929 0.06256172
0.59727889 0.44583929 0.06256172
0.61662467 0.44583929 0.06256172
0.63604420 0.44583929 0.06256172
0.65552502 0.44583929 0.06256172
0.67505337 0.44583929 0.06256172
0.69461452 0.44583929 0.06256172
0.71419309 0.44583929 0.06256172
0.73377323 0.44583929 0.06256172
0.75333885 0.44583929 0.06256172
0.77287378 0.44583929 0.06256172
0.06256172 0.46447813 0.06256172
0.06256172 0.46447813 0.06256172
0.06256172 0.46447813 0.06256172
0.09158214 0.46447813 0.06256172
0.19678935 0.46447813 0.06256172
0.23562357 0.46447813 0.06256172
0.26445658 0.46447813 0.06256172
0.28893767 0.46447813 0.06256172
0.31106041 0.46447813 0.06256172
0.33177520 0.46447813 0.06256172
0.35161167 0.46447813 0.06256172
0.37089444 0.46447813 0.06256172
0.38983525 0.46447813 0.06256172
0.40857787 0.46447813 0.06256172
0.42722239 0.46447813 0.06256172
0.44583929 0.46447813 0.06256172
0.46447813 0.46447813 0.06256172
0.48317315 0.46447813 0.06256172
0.50194712 0.46447813 0.06256172
0.52081404 0.46447813 0.06256172
0.53978100 0.46447813 0.06256172
0.55884974 0.46447813 0.06256172
0.57801769 0.46447813 0.06256172
0.59727889 0.46447813 0.06256172
0.61662467 0.46447813 0.06256172
0.63604420 0.46447813 0.06256172
0.65552502 0.46447813 0.06256172
0.67505337 0.46447813 0.06256172
0.69461452 0.46447813 0.06256172
0.71419309 0.46447813 0.06256172
0.73377323 0.46447813 0.06256172
0.75333885 0.46447813 0.06256172
0.77287378 0.46447813 0.06256172
0.06256172 0.48317315 0.06256172
0.06256172 0.48317315 0.06256172
0.06256172 0.48317315 0.06256172
0.09158214 0.48317315 0.06256172
0.19678935 0.48317315 0.06256172
0.23562357 0.48317315 0.06256172
0.26445658 0.48317315 0.06256172
0.28893767 0.48317315 0.06256172
0.31106041 0.48317315 0.06256172
0.33177520 0.48317315 0.06256172
0.35161167 0.48317315 0.06256172
0.37089444 0.48317315 0.06256172
0.38983525 0.48317315 0.06256172
0.40857787 0.48317315 0.06256172
0.42722239 0.48317315 0.06256172
0.44583929 0.48317315 0.06256172
0.46447813 0.48317315 0.06256172
0.48317315 0.48317315 0.06256172
0.50194712 0.48317315 0.06256172
0.52081404 0.48317315 0.06256172
0.53978100 0.48317315 0.06256172
0.55884974 0.48317315 0.06256172
0.57801769 0.48317315 0.06256172
0.59727889 0.48317315 0.06256172
0.61662467 0.48317315 0.06256172
0.63604420 0.48317315 0.06256172
0.65552502 0.48317315 0.06256172
0.67505337 0.48317315 0.06256172
0.69461452 0.48317315 0.06256172
0.71419309 0.48317315 0.06256172
0.73377323 0.48317315 0.06256172
0.75333885 0.48317315 0.06256172
0.77287378 0.48317315 0.06256172
0.06256172 0.50194712 0.06256172
0.06256172 0.50194712 0.06256172
0.06256172 0.50194712 0.06256172
0.09158214 0.50194712 0.06256172
0.19678935 0.50194712 0.06256172
0.23562357 0.50194712 0.06256172
0.26445658 0.50194712 0.06256172
0.28893767 0.50194712 0.06256172
0.31106041 0.50194712 0.06256172
0.33177520 0.50194712 0.06256172
0.35161167 0.50194712 0.06256172
0.37089444 0.50194712 0.06256172
0.38983525 0.50194712 0.06256172
0.40857787 0.50194712 0.06256172
0.42722239 0.50194712 0.06256172
0.44583929 0.50194712 0.06256172
0.46447813 0.50194712 0.06256172
0.48317315 0.50194712 0.06256172
0.50194712 0.50194712 0.06256172
0.52081404 0.50194712 0.06256172
0.53978100 0.50194712 0.06256172
0.55884974 0.50194712 0.06256172
0.57801769 0.50194712 0.06256172
0.59727889 0.50194712 0.06256172
0.61662467 0.50194712 0.06256172
0.63604420 0.50194712 0.06256172
0.65552502 0.50194712 0.06256172
0.67505337 0.50194712 0.06256172
0.69461452 0.50194712 0.06256172
0.71419309 0.50194712 0.06256172
0.73377323 0.50194712 0.06256172
0.75333885 0.50194712 0.06256172
0.77287378 0.50194712 0.06256172
0.06256172 0.52081404 0.06256172
0.06256172 0.52081404 0.06256172
0.06256172 0.52081404 0.06256172
0.09158214 0.52081404 0.06256172
0.19678935 0.52081404 0.06256172
0.23562357 0.52081404 0.06256172
0.26445658 0.52081404 0.06256172
0.28893767 0.52081404 0.06256172
0.31106041 0.52081404 0.06256172
0.33177520 0.52081404 0.06256172
0.35161167 0.52081404 0.06256172
0.37089444 0.52081404 0.06256172
0.38983525 0.52081404 0.06256172
0.40857787 0.52081404 0.06256172
0.42722239 0.52081404 0.06256172
0.44583929 0.52081404 0.06256172
0.46447813 0.52081404 0.06256172
0.48317315 0.52081404 0.06256172
0.50194712 0.52081404 0.06256172
0.52081404 0.52081404 0.06256172
0.53978100 0.52081404 0.06256172
0.55884974 0.52081404 0.06256172
0.57801769 0.52081404 0.06256172
0.59727889 0.52081404 0.06256172
0.61662467 0.52081404 0.06256172
0.63604420 0.52081404 0.06256172
0.65552502 0.52081404 0.06256172
0.67505337 0.52081404 0.06256172
0.69461452 0.52081404 0.06256172
0.71419309 0.52081404 0.06256172
0.73377323 0.52081404 0.06256172
0.75333885 0.52081404 0.06256172
0.77287378 0.52081404 0.06256172
0.06256172 0.53978100 0.06256172
0.06256172 0.53978100 0.06256172
0.06256172 0.53978100 0.06256172
0.09158214 0.53978100 0.06256172
0.19678935 0.53978100 0.06256172
0.23562357 0.53978100 0.06256172
0.26445658 0.53978100 0.06256172
0.28893767 0.53978100 0.06256172
0.31106041 0.53978100 0.06256172
0.33177520 0.53978100 0.06256172
0.35161167 0.53978100 0.06256172
0.37089444 0.53978100 0.06256172
0.38983525 0.53978100 0.06256172
0.40857787 0.53978100 0.06256172
0.42722239 0.53978100 0.06256172
0.44583929 0.53978100 0.06256172
0.46447813 0.53978100 0.06256172
0.48317315 0.53978100 0.06256172
0.50194712 0.53978100 0.06256172
0.52081404 0.53978100 0.06256172
0.53978100 0.53978100 0.06256172
0.55884974 0.53978100 0.06256172
0.57801769 0.53978100 0.06256172
0.59727889 0.53978100 0.06256172
0.61662467 0.53978100 0.06256172
0.63604420 0.53978100 0.06256172
0.65552502 0.53978100 0.06256172
0.67505337 0.53978100 0.06256172
0.69461452 0.53978100 0.06256172
0.71419309 0.53978100 0.06256172
0.73377323 0.53978100 0.06256172
0.75333885 0.53978100 0.06256172
0.77287378 0.53978100 0.06256172
0.06256172 0.55884974 0.06256172
0.06256172 0.55884974 0.06256172
0.06256172 0.55884974 0.06256172
0.09158214 0.55884974 0.06256172
0.19678935 0.55884974 0.06256172
0.23562357 0.55884974 0.06256172
0.26445658 0.55884974 0.06256172
0.28893767 0.55884974 0.06256172
0.31106041 0.55884974 0.06256172
0.33177520 0.55884974 0.06256172
0.35161167 0.55884974 0.06256172
0.37089444 0.55884974 0.06256172
0.38983525 0.55884974 0.06256172
0.40857787 0.55884974 0.06256172
0.42722239 0.55884974 0.06256172
0.44583929 0.55884974 0.06256172
0.46447813 0.55884974 0.06256172
0.48317315 0.55884974 0.06256172
0.50194712 0.55884974 0.06256172
0.52081404 0.55884974 0.06256172
0.53978100 0.55884974 0.06256172
0.55884974 0.55884974 0.06256172
0.57801769 0.55884974 0.06256172
0.59727889 0.55884974 0.06256172
0.61662467 0.55884974 0.06256172
0.63604420 0.55884974 0.06256172
0.65552502 0.55884974 0.06256172
