src/ffmpeg_scripts/luts/flog-smpte2084_-2p33.cube
TITLE "flog-smpte2084_-2p33"
LUT_3D_SIZE 33
# Fujifilm F-Log/Rec2020 -> PQ (EOTF Only)/Rec2020, CineEI Shift -2.33, Black Level 0.00% IRE, Input 109% -> Output 109% - Created with LUTCalc v4.01 by Ben Turley October 2020
0.06256172 0.06256172 0.06256172
0.06256172 0.06256172 0.06256172
0.06256172 0.06256172 0.06256172
0.07050581 0.06256172 0.06256172
0.11355954 0.06256172 0.06256172
0.13319501 0.06256172 0.06256172
0.14883818 0.06256172 0.06256172
0.16278479 0.06256172 0.06256172
0.17588832 0.06256172 0.06256172
0.18857273 0.06256172 0.06256172
0.20108362 0.06256172 0.06256172
0.21357762 0.06256172 0.06256172
0.22616121 0.06256172 0.06256172
0.23890988 0.06256172 0.06256172
0.25187865 0.06256172 0.06256172
0.26510814 0.06256172 0.06256172
0.27862835 0.06256172 0.06256172
0.29246109 0.06256172 0.06256172
0.30662172 0.06256172 0.06256172
0.32112026 0.06256172 0.06256172
0.33596229 0.06256172 0.06256172
0.35114959 0.06256172 0.06256172
0.36668067 0.06256172 0.06256172
0.38255122 0.06256172 0.06256172
0.39875440 0.06256172 0.06256172
0.41528119 0.06256172 0.06256172
0.43212064 0.06256172 0.06256172
0.44926012 0.06256172 0.06256172
0.46668550 0.06256172 0.06256172
0.48438139 0.06256172 0.06256172
0.50233127 0.06256172 0.06256172
0.52051772 0.06256172 0.06256172
0.53892252 0.06256172 0.06256172
0.06256172 0.06256172 0.06256172
0.06256172 0.06256172 0.06256172
0.06256172 0.06256172 0.06256172
0.07050581 0.06256172 0.06256172
0.11355954 0.06256172 0.06256172
0.13319501 0.06256172 0.06256172
0.14883818 0.06256172 0.06256172
0.16278479 0.06256172 0.06256172
0.17588832 0.06256172 0.06256172
0.18857273 0.06256172 0.06256172
0.20108362 0.06256172 0.06256172
0.21357762 0.06256172 0.06256172
0.22616121 0.06256172 0.06256172
0.23890988 0.06256172 0.06256172
0.25187865 0.06256172 0.06256172
0.26510814 0.06256172 0.06256172
0.27862835 0.06256172 0.06256172
0.29246109 0.06256172 0.06256172
0.30662172 0.06256172 0.06256172
0.32112026 0.06256172 0.06256172
0.33596229 0.06256172 0.06256172
0.35114959 0.06256172 0.06256172
0.36668067 0.06256172 0.06256172
0.38255122 0.06256172 0.06256172
0.39875440 0.06256172 0.06256172
0.41528119 0.06256172 0.06256172
0.43212064 0.06256172 0.06256172
0.44926012 0.06256172 0.06256172
0.46668550 0.06256172 0.06256172
0.48438139 0.06256172 0.06256172
0.50233127 0.06256172 0.06256172
0.52051772 0.06256172 0.06256172
0.53892252 0.06256172 0.06256172
0.06256172 0.06256172 0.06256172
0.06256172 0.06256172 0.06256172
0.06256172 0.06256172 0.06256172
0.07050581 0.06256172 0.06256172
0.11355954 0.06256172 0.06256172
0.13319501 0.06256172 0.06256172
0.14883818 0.06256172 0.06256172
0.16278479 0.06256172 0.06256172
0.17588832 0.06256172 0.06256172
0.18857273 0.06256172 0.06256172
0.20108362 0.06256172 0.06256172
0.21357762 0.06256172 0.06256172
0.22616121 0.06256172 0.06256172
0.23890988 0.06256172 0.06256172
0.25187865 0.06256172 0.06256172
0.26510814 0.06256172 0.06256172
0.27862835 0.06256172 0.06256172
0.29246109 0.06256172 0.06256172
0.30662172 0.06256172 0.06256172
0.32112026 0.06256172 0.06256172
0.33596229 0.06256172 0.06256172
0.35114959 0.06256172 0.06256172
0.36668067 0.06256172 0.06256172
0.38255122 0.06256172 0.06256172
0.39875440 0.06256172 0.06256172
0.41528119 0.06256172 0.06256172
0.43212064 0.06256172 0.06256172
0.44926012 0.06256172 0.06256172
0.46668550 0.06256172 0.06256172
0.48438139 0.06256172 0.06256172
0.50233127 0.06256172 0.06256172
0.52051772 0.06256172 0.06256172
0.53892252 0.06256172 0.06256172
0.06256172 0.07050581 0.06256172
0.06256172 0.07050581 0.06256172
0.06256172 0.07050581 0.06256172
0.07050581 0.07050581 0.06256172
0.11355954 0.07050581 0.06256172
0.13319501 0.07050581 0.06256172
0.14883818 0.07050581 0.06256172
0.16278479 0.07050581 0.06256172
0.17588832 0.07050581 0.06256172
0.18857273 0.07050581 0.06256172
0.20108362 0.07050581 0.06256172
0.21357762 0.07050581 0.06256172
0.22616121 0.07050581 0.06256172
0.23890988 0.07050581 0.06256172
0.25187865 0.07050581 0.06256172
0.26510814 0.07050581 0.06256172
0.27862835 0.07050581 0.06256172
0.29246109 0.07050581 0.06256172
0.30662172 0.07050581 0.06256172
0.32112026 0.07050581 0.06256172
0.33596229 0.07050581 0.06256172
0.35114959 0.07050581 0.06256172
0.36668067 0.07050581 0.06256172
0.38255122 0.07050581 0.06256172
0.39875440 0.07050581 0.06256172
0.41528119 0.07050581 0.06256172
0.43212064 0.07050581 0.06256172
0.44926012 0.07050581 0.06256172
0.46668550 0.07050581 0.06256172
0.48438139 0.07050581 0.06256172
0.50233127 0.07050581 0.06256172
0.52051772 0.07050581 0.06256172
0.53892252 0.07050581 0.06256172
0.06256172 0.11355954 0.06256172
0.06256172 0.11355954 0.06256172
0.06256172 0.11355954 0.06256172
0.07050581 0.11355954 0.06256172
0.11355954 0.11355954 0.06256172
0.13319501 0.11355954 0.06256172
0.14883818 0.11355954 0.06256172
0.16278479 0.11355954 0.06256172
0.17588832 0.11355954 0.06256172
0.18857273 0.11355954 0.06256172
0.20108362 0.11355954 0.06256172
0.21357762 0.11355954 0.06256172
0.22616121 0.11355954 0.06256172
0.23890988 0.11355954 0.06256172
0.25187865 0.11355954 0.06256172
0.26510814 0.11355954 0.06256172
0.27862835 0.11355954 0.06256172
0.29246109 0.11355954 0.06256172
0.30662172 0.11355954 0.06256172
0.32112026 0.11355954 0.06256172
0.33596229 0.11355954 0.06256172
0.35114959 0.11355954 0.06256172
0.36668067 0.11355954 0.06256172
0.38255122 0.11355954 0.06256172
0.39875440 0.11355954 0.06256172
0.41528119 0.11355954 0.06256172
0.43212064 0.11355954 0.06256172
0.44926012 0.11355954 0.06256172
0.46668550 0.11355954 0.06256172
0.48438139 0.11355954 0.06256172
0.50233127 0.11355954 0.06256172
0.52051772 0.11355954 0.06256172
0.53892252 0.11355954 0.06256172
0.06256172 0.13319501 0.06256172
0.06256172 0.13319501 0.06256172
0.06256172 0.13319501 0.06256172
0.07050581 0.13319501 0.06256172
0.11355954 0.13319501 0.06256172
0.13319501 0.13319501 0.06256172
0.14883818 0.13319501 0.06256172
0.16278479 0.13319501 0.06256172
0.17588832 0.13319501 0.06256172
0.18857273 0.13319501 0.06256172
0.20108362 0.13319501 0.06256172
0.21357762 0.13319501 0.06256172
0.22616121 0.13319501 0.06256172
0.23890988 0.13319501 0.06256172
0.25187865 0.13319501 0.06256172
0.26510814 0.13319501 0.06256172
0.27862835 0.13319501 0.06256172
0.29246109 0.13319501 0.06256172
0.30662172 0.13319501 0.06256172
0.32112026 0.13319501 0.06256172
0.33596229 0.13319501 0.06256172
0.35114959 0.13319501 0.06256172
0.36668067 0.13319501 0.06256172
0.38255122 0.13319501 0.06256172
0.39875440 0.13319501 0.06256172
0.41528119 0.13319501 0.06256172
0.43212064 0.13319501 0.06256172
0.44926012 0.13319501 0.06256172
0.46668550 0.13319501 0.06256172
0.48438139 0.13319501 0.06256172
0.50233127 0.13319501 0.06256172
0.52051772 0.13319501 0.06256172
0.53892252 0.13319501 0.06256172
0.06256172 0.14883818 0.06256172
0.06256172 0.14883818 0.06256172
0.06256172 0.14883818 0.06256172
0.07050581 0.14883818 0.06256172
0.11355954 0.14883818 0.06256172
0.13319501 0.14883818 0.06256172
0.14883818 0.14883818 0.06256172
0.16278479 0.14883818 0.06256172
0.17588832 0.14883818 0.06256172
0.18857273 0.14883818 0.06256172
0.20108362 0.14883818 0.06256172
0.21357762 0.14883818 0.06256172
0.22616121 0.14883818 0.06256172
0.23890988 0.14883818 0.06256172
0.25187865 0.14883818 0.06256172
0.26510814 0.14883818 0.06256172
0.27862835 0.14883818 0.06256172
0.29246109 0.14883818 0.06256172
0.30662172 0.14883818 0.06256172
0.32112026 0.14883818 0.06256172
0.33596229 0.14883818 0.06256172
0.35114959 0.14883818 0.06256172
0.36668067 0.14883818 0.06256172
0.38255122 0.14883818 0.06256172
0.39875440 0.14883818 0.06256172
0.41528119 0.14883818 0.06256172
0.43212064 0.14883818 0.06256172
0.44926012 0.14883818 0.06256172
0.46668550 0.14883818 0.06256172
0.48438139 0.14883818 0.06256172
0.50233127 0.14883818 0.06256172
0.52051772 0.14883818 0.06256172
0.53892252 0.14883818 0.06256172
0.06256172 0.16278479 0.06256172
0.06256172 0.16278479 0.06256172
0.06256172 0.16278479 0.06256172
0.07050581 0.16278479 0.06256172
0.11355954 0.16278479 0.06256172
0.13319501 0.16278479 0.06256172
0.14883818 0.16278479 0.06256172
0.16278479 0.16278479 0.06256172
0.17588832 0.16278479 0.06256172
0.18857273 0.16278479 0.06256172
0.20108362 0.16278479 0.06256172
0.21357762 0.16278479 0.06256172
0.22616121 0.16278479 0.06256172
0.23890988 0.16278479 0.06256172
0.25187865 0.16278479 0.06256172
0.26510814 0.16278479 0.06256172
0.27862835 0.16278479 0.06256172
0.29246109 0.16278479 0.06256172
0.30662172 0.16278479 0.06256172
0.32112026 0.16278479 0.06256172
0.33596229 0.16278479 0.06256172
0.35114959 0.16278479 0.06256172
0.36668067 0.16278479 0.06256172
0.38255122 0.16278479 0.06256172
0.39875440 0.16278479 0.06256172
0.41528119 0.16278479 0.06256172
0.43212064 0.16278479 0.06256172
0.44926012 0.16278479 0.06256172
0.46668550 0.16278479 0.06256172
0.48438139 0.16278479 0.06256172
0.50233127 0.16278479 0.06256172
0.52051772 0.16278479 0.06256172
0.53892252 0.16278479 0.06256172
0.06256172 0.17588832 0.06256172
0.06256172 0.17588832 0.06256172
0.06256172 0.17588832 0.06256172
0.07050581 0.17588832 0.06256172
0.11355954 0.17588832 0.06256172
0.13319501 0.17588832 0.06256172
0.14883818 0.17588832 0.06256172
0.16278479 0.17588832 0.06256172
0.17588832 0.17588832 0.06256172
0.18857273 0.17588832 0.06256172
0.20108362 0.17588832 0.06256172
0.21357762 0.17588832 0.06256172
0.22616121 0.17588832 0.06256172
0.23890988 0.17588832 0.06256172
0.25187865 0.17588832 0.06256172
0.26510814 0.17588832 0.06256172
0.27862835 0.17588832 0.06256172
0.29246109 0.17588832 0.06256172
0.30662172 0.17588832 0.06256172
0.32112026 0.17588832 0.06256172
0.33596229 0.17588832 0.06256172
0.35114959 0.17588832 0.06256172
0.36668067 0.17588832 0.06256172
0.38255122 0.17588832 0.06256172
0.39875440 0.17588832 0.06256172
0.41528119 0.17588832 0.06256172
0.43212064 0.17588832 0.06256172
0.44926012 0.17588832 0.06256172
0.46668550 0.17588832 0.06256172
0.48438139 0.17588832 0.06256172
0.50233127 0.17588832 0.06256172
0.52051772 0.17588832 0.06256172
0.53892252 0.17588832 0.06256172
0.06256172 0.18857273 0.06256172
0.06256172 0.18857273 0.06256172
0.06256172 0.18857273 0.06256172
0.07050581 0.18857273 0.06256172
0.11355954 0.18857273 0.06256172
0.13319501 0.18857273 0.06256172
0.14883818 0.18857273 0.06256172
0.16278479 0.18857273 0.06256172
0.17588832 0.18857273 0.06256172
0.18857273 0.18857273 0.06256172
0.20108362 0.18857273 0.06256172
0.21357762 0.18857273 0.06256172
0.22616121 0.18857273 0.06256172
0.23890988 0.18857273 0.06256172
0.25187865 0.18857273 0.06256172
0.26510814 0.18857273 0.06256172
0.27862835 0.18857273 0.06256172
0.29246109 0.18857273 0.06256172
0.30662172 0.18857273 0.06256172
0.32112026 0.18857273 0.06256172
0.33596229 0.18857273 0.06256172
0.35114959 0.18857273 0.06256172
0.36668067 0.18857273 0.06256172
0.38255122 0.18857273 0.06256172
0.39875440 0.18857273 0.06256172
0.41528119 0.18857273 0.06256172
0.43212064 0.18857273 0.06256172
0.44926012 0.18857273 0.06256172
0.46668550 0.18857273 0.06256172
0.48438139 0.18857273 0.06256172
0.50233127 0.18857273 0.06256172
0.52051772 0.18857273 0.06256172
0.53892252 0.18857273 0.06256172
0.06256172 0.20108362 0.06256172
0.06256172 0.20108362 0.06256172
0.06256172 0.20108362 0.06256172
0.07050581 0.20108362 0.06256172
0.11355954 0.20108362 0.06256172
0.13319501 0.20108362 0.06256172
0.14883818 0.20108362 0.06256172
0.16278479 0.20108362 0.06256172
0.17588832 0.20108362 0.06256172
0.18857273 0.20108362 0.06256172
0.20108362 0.20108362 0.06256172
0.21357762 0.20108362 0.06256172
0.22616121 0.20108362 0.06256172
0.23890988 0.20108362 0.06256172
0.25187865 0.20108362 0.06256172
0.26510814 0.20108362 0.06256172
0.27862835 0.20108362 0.06256172
0.29246109 0.20108362 0.06256172
0.30662172 0.20108362 0.06256172
0.32112026 0.20108362 0.06256172
0.33596229 0.20108362 0.06256172
0.35114959 0.20108362 0.06256172
0.36668067 0.20108362 0.06256172
0.38255122 0.20108362 0.06256172
0.39875440 0.20108362 0.06256172
0.41528119 0.20108362 0.06256172
0.43212064 0.20108362 0.06256172
0.44926012 0.20108362 0.06256172
0.46668550 0.20108362 0.06256172
0.48438139 0.20108362 0.06256172
0.50233127 0.20108362 0.06256172
0.52051772 0.20108362 0.06256172
0.53892252 0.20108362 0.06256172
0.06256172 0.21357762 0.06256172
0.06256172 0.21357762 0.06256172
0.06256172 0.21357762 0.06256172
0.07050581 0.21357762 0.06256172
0.11355954 0.21357762 0.06256172
0.13319501 0.21357762 0.06256172
0.14883818 0.21357762 0.06256172
0.16278479 0.21357762 0.06256172
0.17588832 0.21357762 0.06256172
0.18857273 0.21357762 0.06256172
0.20108362 0.21357762 0.06256172
0.21357762 0.21357762 0.06256172
0.22616121 0.21357762 0.06256172
0.23890988 0.21357762 0.06256172
0.25187865 0.21357762 0.06256172
0.26510814 0.21357762 0.06256172
0.27862835 0.21357762 0.06256172
0.29246109 0.21357762 0.06256172
0.30662172 0.21357762 0.06256172
0.32112026 0.21357762 0.06256172
0.33596229 0.21357762 0.06256172
0.35114959 0.21357762 0.06256172
0.36668067 0.21357762 0.06256172
0.38255122 0.21357762 0.06256172
0.39875440 0.21357762 0.06256172
0.41528119 0.21357762 0.06256172
0.43212064 0.21357762 0.06256172
0.44926012 0.21357762 0.06256172
0.46668550 0.21357762 0.06256172
0.48438139 0.21357762 0.06256172
0.50233127 0.21357762 0.06256172
0.52051772 0.21357762 0.06256172
0.53892252 0.21357762 0.06256172
0.06256172 0.22616121 0.06256172
0.06256172 0.22616121 0.06256172
0.06256172 0.22616121 0.06256172
0.07050581 0.22616121 0.06256172
0.11355954 0.22616121 0.06256172
0.13319501 0.22616121 0.06256172
0.14883818 0.22616121 0.06256172
0.16278479 0.22616121 0.06256172
0.17588832 0.22616121 0.06256172
0.18857273 0.22616121 0.06256172
0.20108362 0.22616121 0.06256172
0.21357762 0.22616121 0.06256172
0.22616121 0.22616121 0.06256172
0.23890988 0.22616121 0.06256172
0.25187865 0.22616121 0.06256172
0.26510814 0.22616121 0.06256172
0.27862835 0.22616121 0.06256172
0.29246109 0.22616121 0.06256172
0.30662172 0.22616121 0.06256172
0.32112026 0.22616121 0.06256172
0.33596229 0.22616121 0.06256172
0.35114959 0.22616121 0.06256172
0.36668067 0.22616121 0.06256172
0.38255122 0.22616121 0.06256172
0.39875440 0.22616121 0.06256172
0.41528119 0.22616121 0.06256172
0.43212064 0.22616121 0.06256172
0.44926012 0.22616121 0.06256172
0.46668550 0.22616121 0.06256172
0.48438139 0.22616121 0.06256172
0.50233127 0.22616121 0.06256172
0.52051772 0.22616121 0.06256172
0.53892252 0.22616121 0.06256172
0.06256172 0.23890988 0.06256172
0.06256172 0.23890988 0.06256172
0.06256172 0.23890988 0.06256172
0.07050581 0.23890988 0.06256172
0.11355954 0.23890988 0.06256172
0.13319501 0.23890988 0.06256172
0.14883818 0.23890988 0.06256172
0.16278479 0.23890988 0.06256172
0.17588832 0.23890988 0.06256172
0.18857273 0.23890988 0.06256172
0.20108362 0.23890988 0.06256172
0.21357762 0.23890988 0.06256172
0.22616121 0.23890988 0.06256172
0.23890988 0.23890988 0.06256172
0.25187865 0.23890988 0.06256172
0.26510814 0.23890988 0.06256172
0.27862835 0.23890988 0.06256172
0.29246109 0.23890988 0.06256172
0.30662172 0.23890988 0.06256172
0.32112026 0.23890988 0.06256172
0.33596229 0.23890988 0.06256172
0.35114959 0.23890988 0.06256172
0.36668067 0.23890988 0.06256172
0.38255122 0.23890988 0.06256172
0.39875440 0.23890988 0.06256172
0.41528119 0.23890988 0.06256172
0.43212064 0.23890988 0.06256172
0.44926012 0.23890988 0.06256172
0.46668550 0.23890988 0.06256172
0.48438139 0.23890988 0.06256172
0.50233127 0.23890988 0.06256172
0.52051772 0.23890988 0.06256172
0.53892252 0.23890988 0.06256172
0.06256172 0.25187865 0.06256172
0.06256172 0.25187865 0.06256172
0.06256172 0.25187865 0.06256172
0.07050581 0.25187865 0.06256172
0.11355954 0.25187865 0.06256172
0.13319501 0.25187865 0.06256172
0.14883818 0.25187865 0.06256172
0.16278479 0.25187865 0.06256172
0.17588832 0.25187865 0.06256172
0.18857273 0.25187865 0.06256172
0.20108362 0.25187865 0.06256172
0.21357762 0.25187865 0.06256172
0.22616121 0.25187865 0.06256172
0.23890988 0.25187865 0.06256172
0.25187865 0.25187865 0.06256172
0.26510814 0.25187865 0.06256172
0.27862835 0.25187865 0.06256172
0.29246109 0.25187865 0.06256172
0.30662172 0.25187865 0.06256172
0.32112026 0.25187865 0.06256172
0.33596229 0.25187865 0.06256172
0.35114959 0.25187865 0.06256172
0.36668067 0.25187865 0.06256172
0.38255122 0.25187865 0.06256172
0.39875440 0.25187865 0.06256172
0.41528119 0.25187865 0.06256172
0.43212064 0.25187865 0.06256172
0.44926012 0.25187865 0.06256172
0.46668550 0.25187865 0.06256172
0.48438139 0.25187865 0.06256172
0.50233127 0.25187865 0.06256172
0.52051772 0.25187865 0.06256172
0.53892252 0.25187865 0.06256172
0.06256172 0.26510814 0.06256172
0.06256172 0.26510814 0.06256172
0.06256172 0.26510814 0.06256172
0.07050581 0.26510814 0.06256172
0.11355954 0.26510814 0.06256172
0.13319501 0.26510814 0.06256172
0.14883818 0.26510814 0.06256172
0.16278479 0.26510814 0.06256172
0.17588832 0.26510814 0.06256172
0.18857273 0.26510814 0.06256172
0.20108362 0.26510814 0.06256172
0.21357762 0.26510814 0.06256172
0.22616121 0.26510814 0.06256172
0.23890988 0.26510814 0.06256172
0.25187865 0.26510814 0.06256172
0.26510814 0.26510814 0.06256172
0.27862835 0.26510814 0.06256172
0.29246109 0.26510814 0.06256172
0.30662172 0.26510814 0.06256172
0.32112026 0.26510814 0.06256172
0.33596229 0.26510814 0.06256172
0.35114959 0.26510814 0.06256172
0.36668067 0.26510814 0.06256172
0.38255122 0.26510814 0.06256172
0.39875440 0.26510814 0.06256172
0.41528119 0.26510814 0.06256172
0.43212064 0.26510814 0.06256172
0.44926012 0.26510814 0.06256172
0.46668550 0.26510814 0.06256172
0.48438139 0.26510814 0.06256172
0.50233127 0.26510814 0.06256172
0.52051772 0.26510814 0.06256172
0.53892252 0.26510814 0.06256172
0.06256172 0.27862835 0.06256172
0.06256172 0.27862835 0.06256172
0.06256172 0.27862835 0.06256172
0.07050581 0.27862835 0.06256172
0.11355954 0.27862835 0.06256172
0.13319501 0.27862835 0.06256172
0.14883818 0.27862835 0.06256172
0.16278479 0.27862835 0.06256172
0.17588832 0.27862835 0.06256172
0.18857273 0.27862835 0.06256172
0.20108362 0.27862835 0.06256172
0.21357762 0.27862835 0.06256172
0.22616121 0.27862835 0.06256172
0.23890988 0.27862835 0.06256172
0.25187865 0.27862835 0.06256172
0.26510814 0.27862835 0.06256172
0.27862835 0.27862835 0.06256172
0.29246109 0.27862835 0.06256172
0.30662172 0.27862835 0.06256172
0.32112026 0.27862835 0.06256172
0.33596229 0.27862835 0.06256172
0.35114959 0.27862835 0.06256172
0.36668067 0.27862835 0.06256172
0.38255122 0.27862835 0.06256172
0.39875440 0.27862835 0.06256172
0.41528119 0.27862835 0.06256172
0.43212064 0.27862835 0.06256172
0.44926012 0.27862835 0.06256172
0.46668550 0.27862835 0.06256172
0.48438139 0.27862835 0.06256172
0.50233127 0.27862835 0.06256172
0.52051772 0.27862835 0.06256172
0.53892252 0.27862835 0.06256172
0.06256172 0.29246109 0.06256172
0.06256172 0.29246109 0.06256172
0.06256172 0.29246109 0.06256172
0.07050581 0.29246109 0.06256172
0.11355954 0.29246109 0.06256172
0.13319501 0.29246109 0.06256172
0.14883818 0.29246109 0.06256172
0.16278479 0.29246109 0.06256172
0.17588832 0.29246109 0.06256172
0.18857273 0.29246109 0.06256172
0.20108362 0.29246109 0.06256172
0.21357762 0.29246109 0.06256172
0.22616121 0.29246109 0.06256172
0.23890988 0.29246109 0.06256172
0.25187865 0.29246109 0.06256172
0.26510814 0.29246109 0.06256172
0.27862835 0.29246109 0.06256172
0.29246109 0.29246109 0.06256172
0.30662172 0.29246109 0.06256172
0.32112026 0.29246109 0.06256172
0.33596229 0.29246109 0.06256172
0.35114959 0.29246109 0.06256172
0.36668067 0.29246109 0.06256172
0.38255122 0.29246109 0.06256172
0.39875440 0.29246109 0.06256172
0.41528119 0.29246109 0.06256172
0.43212064 0.29246109 0.06256172
0.44926012 0.29246109 0.06256172
0.46668550 0.29246109 0.06256172
0.48438139 0.29246109 0.06256172
0.50233127 0.29246109 0.06256172
0.52051772 0.29246109 0.06256172
0.53892252 0.29246109 0.06256172
0.06256172 0.30662172 0.06256172
0.06256172 0.30662172 0.06256172
0.06256172 0.30662172 0.06256172
0.07050581 0.30662172 0.06256172
0.11355954 0.30662172 0.06256172
0.13319501 0.30662172 0.06256172
0.14883818 0.30662172 0.06256172
0.16278479 0.30662172 0.06256172
0.17588832 0.30662172 0.06256172
0.18857273 0.30662172 0.06256172
0.20108362 0.30662172 0.06256172
0.21357762 0.30662172 0.06256172
0.22616121 0.30662172 0.06256172
0.23890988 0.30662172 0.06256172
0.25187865 0.30662172 0.06256172
0.26510814 0.30662172 0.06256172
0.27862835 0.30662172 0.06256172
0.29246109 0.30662172 0.06256172
0.30662172 0.30662172 0.06256172
0.32112026 0.30662172 0.06256172
0.33596229 0.30662172 0.06256172
0.35114959 0.30662172 0.06256172
0.36668067 0.30662172 0.06256172
0.38255122 0.30662172 0.06256172
0.39875440 0.30662172 0.06256172
0.41528119 0.30662172 0.06256172
0.43212064 0.30662172 0.06256172
0.44926012 0.30662172 0.06256172
0.46668550 0.30662172 0.06256172
0.48438139 0.30662172 0.06256172
0.50233127 0.30662172 0.06256172
0.52051772 0.30662172 0.06256172
0.53892252 0.30662172 0.06256172
0.06256172 0.32112026 0.06256172
0.06256172 0.32112026 0.06256172
0.06256172 0.32112026 0.06256172
0.07050581 0.32112026 0.06256172
0.11355954 0.32112026 0.06256172
0.13319501 0.32112026 0.06256172
0.14883818 0.32112026 0.06256172
0.16278479 0.32112026 0.06256172
0.17588832 0.32112026 0.06256172
0.18857273 0.32112026 0.06256172
0.20108362 0.32112026 0.06256172
0.21357762 0.32112026 0.06256172
0.22616121 0.32112026 0.06256172
0.23890988 0.32112026 0.06256172
0.25187865 0.32112026 0.06256172
0.26510814 0.32112026 0.06256172
0.27862835 0.32112026 0.06256172
0.29246109 0.32112026 0.06256172
0.30662172 0.32112026 0.06256172
0.32112026 0.32112026 0.06256172
0.33596229 0.32112026 0.06256172
0.35114959 0.32112026 0.06256172
0.36668067 0.32112026 0.06256172
0.38255122 0.32112026 0.06256172
0.39875440 0.32112026 0.06256172
0.41528119 0.32112026 0.06256172
0.43212064 0.32112026 0.06256172
0.44926012 0.32112026 0.06256172
0.46668550 0.32112026 0.06256172
0.48438139 0.32112026 0.06256172
0.50233127 0.32112026 0.06256172
0.52051772 0.32112026 0.06256172
0.53892252 0.32112026 0.06256172
0.06256172 0.33596229 0.06256172
0.06256172 0.33596229 0.06256172
0.06256172 0.33596229 0.06256172
0.07050581 0.33596229 0.06256172
0.11355954 0.33596229 0.06256172
0.13319501 0.33596229 0.06256172
0.14883818 0.33596229 0.06256172
0.16278479 0.33596229 0.06256172
0.17588832 0.33596229 0.06256172
0.18857273 0.33596229 0.06256172
0.20108362 0.33596229 0.06256172
0.21357762 0.33596229 0.06256172
0.22616121 0.33596229 0.06256172
0.23890988 0.33596229 0.06256172
0.25187865 0.33596229 0.06256172
0.26510814 0.33596229 0.06256172
0.27862835 0.33596229 0.06256172
0.29246109 0.33596229 0.06256172
0.30662172 0.33596229 0.06256172
0.32112026 0.33596229 0.06256172
0.33596229 0.33596229 0.06256172
0.35114959 0.33596229 0.06256172
0.36668067 0.33596229 0.06256172
0.38255122 0.33596229 0.06256172
0.39875440 0.33596229 0.06256172
0.41528119 0.33596229 0.06256172
0.43212064 0.33596229 0.06256172
0.44926012 0.33596229 0.06256172
0.46668550 0.33596229 0.06256172
0.48438139 0.33596229 0.06256172
0.50233127 0.33596229 0.06256172
0.52051772 0.33596229 0.06256172
0.53892252 0.33596229 0.06256172
0.06256172 0.35114959 0.06256172
0.06256172 0.35114959 0.06256172
0.06256172 0.35114959 0.06256172
0.07050581 0.35114959 0.06256172
0.11355954 0.35114959 0.06256172
0.13319501 0.35114959 0.06256172
0.14883818 0.35114959 0.06256172
0.16278479 0.35114959 0.06256172
0.17588832 0.35114959 0.06256172
0.18857273 0.35114959 0.06256172
0.20108362 0.35114959 0.06256172
0.21357762 0.35114959 0.06256172
0.22616121 0.35114959 0.06256172
0.23890988 0.35114959 0.06256172
0.25187865 0.35114959 0.06256172
0.26510814 0.35114959 0.06256172
0.27862835 0.35114959 0.06256172
0.29246109 0.35114959 0.06256172
0.30662172 0.35114959 0.06256172
0.32112026 0.35114959 0.06256172
0.33596229 0.35114959 0.06256172
0.35114959 0.35114959 0.06256172
0.36668067 0.35114959 0.06256172
0.38255122 0.35114959 0.06256172
0.39875440 0.35114959 0.06256172
0.41528119 0.35114959 0.06256172
0.43212064 0.35114959 0.06256172
