src/ffmpeg_scripts/luts/flog-experimental_-3p67.cube
TITLE "flog-experimental_-3p67"
LUT_3D_SIZE 9
# Fujifilm F-Log/Rec2020 -> PQ (EOTF Only)/Rec2020, CineEI Shift -3.67, Black Level 0.00% IRE, Input 109% -> Output 100% - Created with LUTCalc v4.01 by Ben Turley October 2020
0.00000073 0.00000073 0.00000073
0.05480663 0.00000073 0.00000073
0.13035101 0.00000073 0.00000073
0.19509018 0.00000073 0.00000073
0.26534520 0.00000073 0.00000073
0.34469679 0.00000073 0.00000073
0.43422795 0.00000073 0.00000073
0.53376653 0.00000073 0.00000073
0.64230689 0.00000073 0.00000073
0.00000073 0.05480663 0.00000073
0.05480663 0.05480663 0.00000073
0.13035101 0.05480663 0.00000073
0.19509018 0.05480663 0.00000073
0.26534520 0.05480663 0.00000073
0.34469679 0.05480663 0.00000073
0.43422795 0.05480663 0.00000073
0.53376653 0.05480663 0.00000073
0.64230689 0.05480663 0.00000073
0.00000073 0.13035101 0.00000073
0.05480663 0.13035101 0.00000073
0.13035101 0.13035101 0.00000073
0.19509018 0.13035101 0.00000073
0.26534520 0.13035101 0.00000073
0.34469679 0.13035101 0.00000073
0.43422795 0.13035101 0.00000073
0.53376653 0.13035101 0.00000073
0.64230689 0.13035101 0.00000073
0.00000073 0.19509018 0.00000073
0.05480663 0.19509018 0.00000073
0.13035101 0.19509018 0.00000073
0.19509018 0.19509018 0.00000073
0.26534520 0.19509018 0.00000073
0.34469679 0.19509018 0.00000073
0.43422795 0.19509018 0.00000073
0.53376653 0.19509018 0.00000073
0.64230689 0.19509018 0.00000073
0.00000073 0.26534520 0.00000073
0.05480663 0.26534520 0.00000073
0.13035101 0.26534520 0.00000073
0.19509018 0.26534520 0.00000073
0.26534520 0.26534520 0.00000073
0.34469679 0.26534520 0.00000073
0.43422795 0.26534520 0.00000073
0.53376653 0.26534520 0.00000073
0.64230689 0.26534520 0.00000073
0.00000073 0.34469679 0.00000073
0.05480663 0.34469679 0.00000073
0.13035101 0.34469679 0.00000073
0.19509018 0.34469679 0.00000073
0.26534520 0.34469679 0.00000073
0.34469679 0.34469679 0.00000073
0.43422795 0.34469679 0.00000073
0.53376653 0.34469679 0.00000073
0.64230689 0.34469679 0.00000073
0.00000073 0.43422795 0.00000073
0.05480663 0.43422795 0.00000073
0.13035101 0.43422795 0.00000073
0.19509018 0.43422795 0.00000073
0.26534520 0.43422795 0.00000073
0.34469679 0.43422795 0.00000073
0.43422795 0.43422795 0.00000073
0.53376653 0.43422795 0.00000073
0.64230689 0.43422795 0.00000073
0.00000073 0.53376653 0.00000073
0.05480663 0.53376653 0.00000073
0.13035101 0.53376653 0.00000073
0.19509018 0.53376653 0.00000073
0.26534520 0.53376653 0.00000073
0.34469679 0.53376653 0.00000073
0.43422795 0.53376653 0.00000073
0.53376653 0.53376653 0.00000073
0.64230689 0.53376653 0.00000073
0.00000073 0.64230689 0.00000073
0.05480663 0.64230689 0.00000073
0.13035101 0.64230689 0.00000073
0.19509018 0.64230689 0.00000073
0.26534520 0.64230689 0.00000073
0.34469679 0.64230689 0.00000073
0.43422795 0.64230689 0.00000073
0.53376653 0.64230689 0.00000073
0.64230689 0.64230689 0.00000073
0.00000073 0.00000073 0.05480663
0.05480663 0.00000073 0.05480663
0.13035101 0.00000073 0.05480663
0.19509018 0.00000073 0.05480663
0.26534520 0.00000073 0.05480663
0.34469679 0.00000073 0.05480663
0.43422795 0.00000073 0.05480663
0.53376653 0.00000073 0.05480663
0.64230689 0.00000073 0.05480663
0.00000073 0.05480663 0.05480663
0.05480663 0.05480663 0.05480663
0.13035101 0.05480663 0.05480663
0.19509018 0.05480663 0.05480663
0.26534520 0.05480663 0.05480663
0.34469679 0.05480663 0.05480663
0.43422795 0.05480663 0.05480663
0.53376653 0.05480663 0.05480663
0.64230689 0.05480663 0.05480663
0.00000073 0.13035101 0.05480663
0.05480663 0.13035101 0.05480663
0.13035101 0.13035101 0.05480663
0.19509018 0.13035101 0.05480663
0.26534520 0.13035101 0.05480663
0.34469679 0.13035101 0.05480663
0.43422795 0.13035101 0.05480663
0.53376653 0.13035101 0.05480663
0.64230689 0.13035101 0.05480663
0.00000073 0.19509018 0.05480663
0.05480663 0.19509018 0.05480663
0.13035101 0.19509018 0.05480663
0.19509018 0.19509018 0.05480663
0.26534520 0.19509018 0.05480663
0.34469679 0.19509018 0.05480663
0.43422795 0.19509018 0.05480663
0.53376653 0.19509018 0.05480663
0.64230689 0.19509018 0.05480663
0.00000073 0.26534520 0.05480663
0.05480663 0.26534520 0.05480663
0.13035101 0.26534520 0.05480663
0.19509018 0.26534520 0.05480663
0.26534520 0.26534520 0.05480663
0.34469679 0.26534520 0.05480663
0.43422795 0.26534520 0.05480663
0.53376653 0.26534520 0.05480663
0.64230689 0.26534520 0.05480663
0.00000073 0.34469679 0.05480663
0.05480663 0.34469679 0.05480663
0.13035101 0.34469679 0.05480663
0.19509018 0.34469679 0.05480663
0.26534520 0.34469679 0.05480663
0.34469679 0.34469679 0.05480663
0.43422795 0.34469679 0.05480663
0.53376653 0.34469679 0.05480663
0.64230689 0.34469679 0.05480663
0.00000073 0.43422795 0.05480663
0.05480663 0.43422795 0.05480663
0.13035101 0.43422795 0.05480663
0.19509018 0.43422795 0.05480663
0.26534520 0.43422795 0.05480663
0.34469679 0.43422795 0.05480663
0.43422795 0.43422795 0.05480663
0.53376653 0.43422795 0.05480663
0.64230689 0.43422795 0.05480663
0.00000073 0.53376653 0.05480663
0.05480663 0.53376653 0.05480663
0.13035101 0.53376653 0.05480663
0.19509018 0.53376653 0.05480663
0.26534520 0.53376653 0.05480663
0.34469679 0.53376653 0.05480663
0.43422795 0.53376653 0.05480663
0.53376653 0.53376653 0.05480663
0.64230689 0.53376653 0.05480663
0.00000073 0.64230689 0.05480663
0.05480663 0.64230689 0.05480663
0.13035101 0.64230689 0.05480663
0.19509018 0.64230689 0.05480663
0.26534520 0.64230689 0.05480663
0.34469679 0.64230689 0.05480663
0.43422795 0.64230689 0.05480663
0.53376653 0.64230689 0.05480663
0.64230689 0.64230689 0.05480663
0.00000073 0.00000073 0.13035101
0.05480663 0.00000073 0.13035101
0.13035101 0.00000073 0.13035101
0.19509018 0.00000073 0.13035101
0.26534520 0.00000073 0.13035101
0.34469679 0.00000073 0.13035101
0.43422795 0.00000073 0.13035101
0.53376653 0.00000073 0.13035101
0.64230689 0.00000073 0.13035101
0.00000073 0.05480663 0.13035101
0.05480663 0.05480663 0.13035101
0.13035101 0.05480663 0.13035101
0.19509018 0.05480663 0.13035101
0.26534520 0.05480663 0.13035101
0.34469679 0.05480663 0.13035101
0.43422795 0.05480663 0.13035101
0.53376653 0.05480663 0.13035101
0.64230689 0.05480663 0.13035101
0.00000073 0.13035101 0.13035101
0.05480663 0.13035101 0.13035101
0.13035101 0.13035101 0.13035101
0.19509018 0.13035101 0.13035101
0.26534520 0.13035101 0.13035101
0.34469679 0.13035101 0.13035101
0.43422795 0.13035101 0.13035101
0.53376653 0.13035101 0.13035101
0.64230689 0.13035101 0.13035101
0.00000073 0.19509018 0.13035101
0.05480663 0.19509018 0.13035101
0.13035101 0.19509018 0.13035101
0.19509018 0.19509018 0.13035101
0.26534520 0.19509018 0.13035101
0.34469679 0.19509018 0.13035101
0.43422795 0.19509018 0.13035101
0.53376653 0.19509018 0.13035101
0.64230689 0.19509018 0.13035101
0.00000073 0.26534520 0.13035101
0.05480663 0.26534520 0.13035101
0.13035101 0.26534520 0.13035101
0.19509018 0.26534520 0.13035101
0.26534520 0.26534520 0.13035101
0.34469679 0.26534520 0.13035101
0.43422795 0.26534520 0.13035101
0.53376653 0.26534520 0.13035101
0.64230689 0.26534520 0.13035101
0.00000073 0.34469679 0.13035101
0.05480663 0.34469679 0.13035101
0.13035101 0.34469679 0.13035101
0.19509018 0.34469679 0.13035101
0.26534520 0.34469679 0.13035101
0.34469679 0.34469679 0.13035101
0.43422795 0.34469679 0.13035101
0.53376653 0.34469679 0.13035101
0.64230689 0.34469679 0.13035101
0.00000073 0.43422795 0.13035101
0.05480663 0.43422795 0.13035101
0.13035101 0.43422795 0.13035101
0.19509018 0.43422795 0.13035101
0.26534520 0.43422795 0.13035101
0.34469679 0.43422795 0.13035101
0.43422795 0.43422795 0.13035101
0.53376653 0.43422795 0.13035101
0.64230689 0.43422795 0.13035101
0.00000073 0.53376653 0.13035101
0.05480663 0.53376653 0.13035101
0.13035101 0.53376653 0.13035101
0.19509018 0.53376653 0.13035101
0.26534520 0.53376653 0.13035101
0.34469679 0.53376653 0.13035101
0.43422795 0.53376653 0.13035101
0.53376653 0.53376653 0.13035101
0.64230689 0.53376653 0.13035101
0.00000073 0.64230689 0.13035101
0.05480663 0.64230689 0.13035101
0.13035101 0.64230689 0.13035101
0.19509018 0.64230689 0.13035101
0.26534520 0.64230689 0.13035101
0.34469679 0.64230689 0.13035101
0.43422795 0.64230689 0.13035101
0.53376653 0.64230689 0.13035101
0.64230689 0.64230689 0.13035101
0.00000073 0.00000073 0.19509018
0.05480663 0.00000073 0.19509018
0.13035101 0.00000073 0.19509018
0.19509018 0.00000073 0.19509018
0.26534520 0.00000073 0.19509018
0.34469679 0.00000073 0.19509018
0.43422795 0.00000073 0.19509018
0.53376653 0.00000073 0.19509018
0.64230689 0.00000073 0.19509018
0.00000073 0.05480663 0.19509018
0.05480663 0.05480663 0.19509018
0.13035101 0.05480663 0.19509018
0.19509018 0.05480663 0.19509018
0.26534520 0.05480663 0.19509018
0.34469679 0.05480663 0.19509018
0.43422795 0.05480663 0.19509018
0.53376653 0.05480663 0.19509018
0.64230689 0.05480663 0.19509018
0.00000073 0.13035101 0.19509018
0.05480663 0.13035101 0.19509018
0.13035101 0.13035101 0.19509018
0.19509018 0.13035101 0.19509018
0.26534520 0.13035101 0.19509018
0.34469679 0.13035101 0.19509018
0.43422795 0.13035101 0.19509018
0.53376653 0.13035101 0.19509018
0.64230689 0.13035101 0.19509018
0.00000073 0.19509018 0.19509018
0.05480663 0.19509018 0.19509018
0.13035101 0.19509018 0.19509018
0.19509018 0.19509018 0.19509018
0.26534520 0.19509018 0.19509018
0.34469679 0.19509018 0.19509018
0.43422795 0.19509018 0.19509018
0.53376653 0.19509018 0.19509018
0.64230689 0.19509018 0.19509018
0.00000073 0.26534520 0.19509018
0.05480663 0.26534520 0.19509018
0.13035101 0.26534520 0.19509018
0.19509018 0.26534520 0.19509018
0.26534520 0.26534520 0.19509018
0.34469679 0.26534520 0.19509018
0.43422795 0.26534520 0.19509018
0.53376653 0.26534520 0.19509018
0.64230689 0.26534520 0.19509018
0.00000073 0.34469679 0.19509018
0.05480663 0.34469679 0.19509018
0.13035101 0.34469679 0.19509018
0.19509018 0.34469679 0.19509018
0.26534520 0.34469679 0.19509018
0.34469679 0.34469679 0.19509018
0.43422795 0.34469679 0.19509018
0.53376653 0.34469679 0.19509018
0.64230689 0.34469679 0.19509018
0.00000073 0.43422795 0.19509018
0.05480663 0.43422795 0.19509018
0.13035101 0.43422795 0.19509018
0.19509018 0.43422795 0.19509018
0.26534520 0.43422795 0.19509018
0.34469679 0.43422795 0.19509018
0.43422795 0.43422795 0.19509018
0.53376653 0.43422795 0.19509018
0.64230689 0.43422795 0.19509018
0.00000073 0.53376653 0.19509018
0.05480663 0.53376653 0.19509018
0.13035101 0.53376653 0.19509018
0.19509018 0.53376653 0.19509018
0.26534520 0.53376653 0.19509018
0.34469679 0.53376653 0.19509018
0.43422795 0.53376653 0.19509018
0.53376653 0.53376653 0.19509018
0.64230689 0.53376653 0.19509018
0.00000073 0.64230689 0.19509018
0.05480663 0.64230689 0.19509018
0.13035101 0.64230689 0.19509018
0.19509018 0.64230689 0.19509018
0.26534520 0.64230689 0.19509018
0.34469679 0.64230689 0.19509018
0.43422795 0.64230689 0.19509018
0.53376653 0.64230689 0.19509018
0.64230689 0.64230689 0.19509018
0.00000073 0.00000073 0.26534520
0.05480663 0.00000073 0.26534520
0.13035101 0.00000073 0.26534520
0.19509018 0.00000073 0.26534520
0.26534520 0.00000073 0.26534520
0.34469679 0.00000073 0.26534520
0.43422795 0.00000073 0.26534520
0.53376653 0.00000073 0.26534520
0.64230689 0.00000073 0.26534520
0.00000073 0.05480663 0.26534520
0.05480663 0.05480663 0.26534520
0.13035101 0.05480663 0.26534520
0.19509018 0.05480663 0.26534520
0.26534520 0.05480663 0.26534520
0.34469679 0.05480663 0.26534520
0.43422795 0.05480663 0.26534520
0.53376653 0.05480663 0.26534520
0.64230689 0.05480663 0.26534520
0.00000073 0.13035101 0.26534520
0.05480663 0.13035101 0.26534520
0.13035101 0.13035101 0.26534520
0.19509018 0.13035101 0.26534520
0.26534520 0.13035101 0.26534520
0.34469679 0.13035101 0.26534520
0.43422795 0.13035101 0.26534520
0.53376653 0.13035101 0.26534520
0.64230689 0.13035101 0.26534520
0.00000073 0.19509018 0.26534520
0.05480663 0.19509018 0.26534520
0.13035101 0.19509018 0.26534520
0.19509018 0.19509018 0.26534520
0.26534520 0.19509018 0.26534520
0.34469679 0.19509018 0.26534520
0.43422795 0.19509018 0.26534520
0.53376653 0.19509018 0.26534520
0.64230689 0.19509018 0.26534520
0.00000073 0.26534520 0.26534520
0.05480663 0.26534520 0.26534520
0.13035101 0.26534520 0.26534520
0.19509018 0.26534520 0.26534520
0.26534520 0.26534520 0.26534520
0.34469679 0.26534520 0.26534520
0.43422795 0.26534520 0.26534520
0.53376653 0.26534520 0.26534520
0.64230689 0.26534520 0.26534520
0.00000073 0.34469679 0.26534520
0.05480663 0.34469679 0.26534520
0.13035101 0.34469679 0.26534520
0.19509018 0.34469679 0.26534520
0.26534520 0.34469679 0.26534520
0.34469679 0.34469679 0.26534520
0.43422795 0.34469679 0.26534520
0.53376653 0.34469679 0.26534520
0.64230689 0.34469679 0.26534520
0.00000073 0.43422795 0.26534520
0.05480663 0.43422795 0.26534520
0.13035101 0.43422795 0.26534520
0.19509018 0.43422795 0.26534520
0.26534520 0.43422795 0.26534520
0.34469679 0.43422795 0.26534520
0.43422795 0.43422795 0.26534520
0.53376653 0.43422795 0.26534520
0.64230689 0.43422795 0.26534520
0.00000073 0.53376653 0.26534520
0.05480663 0.53376653 0.26534520
0.13035101 0.53376653 0.26534520
0.19509018 0.53376653 0.26534520
0.26534520 0.53376653 0.26534520
0.34469679 0.53376653 0.26534520
0.43422795 0.53376653 0.26534520
0.53376653 0.53376653 0.26534520
0.64230689 0.53376653 0.26534520
0.00000073 0.64230689 0.26534520
0.05480663 0.64230689 0.26534520
0.13035101 0.64230689 0.26534520
0.19509018 0.64230689 0.26534520
0.26534520 0.64230689 0.26534520
0.34469679 0.64230689 0.26534520
0.43422795 0.64230689 0.26534520
0.53376653 0.64230689 0.26534520
0.64230689 0.64230689 0.26534520
0.00000073 0.00000073 0.34469679
0.05480663 0.00000073 0.34469679
0.13035101 0.00000073 0.34469679
0.19509018 0.00000073 0.34469679
0.26534520 0.00000073 0.34469679
0.34469679 0.00000073 0.34469679
0.43422795 0.00000073 0.34469679
0.53376653 0.00000073 0.34469679
0.64230689 0.00000073 0.34469679
0.00000073 0.05480663 0.34469679
0.05480663 0.05480663 0.34469679
0.13035101 0.05480663 0.34469679
0.19509018 0.05480663 0.34469679
0.26534520 0.05480663 0.34469679
0.34469679 0.05480663 0.34469679
0.43422795 0.05480663 0.34469679
0.53376653 0.05480663 0.34469679
0.64230689 0.05480663 0.34469679
0.00000073 0.13035101 0.34469679
0.05480663 0.13035101 0.34469679
0.13035101 0.13035101 0.34469679
0.19509018 0.13035101 0.34469679
0.26534520 0.13035101 0.34469679
0.34469679 0.13035101 0.34469679
0.43422795 0.13035101 0.34469679
0.53376653 0.13035101 0.34469679
0.64230689 0.13035101 0.34469679
0.00000073 0.19509018 0.34469679
0.05480663 0.19509018 0.34469679
0.13035101 0.19509018 0.34469679
0.19509018 0.19509018 0.34469679
0.26534520 0.19509018 0.34469679
0.34469679 0.19509018 0.34469679
0.43422795 0.19509018 0.34469679
0.53376653 0.19509018 0.34469679
0.64230689 0.19509018 0.34469679
0.00000073 0.26534520 0.34469679
0.05480663 0.26534520 0.34469679
0.13035101 0.26534520 0.34469679
0.19509018 0.26534520 0.34469679
0.26534520 0.26534520 0.34469679
0.34469679 0.26534520 0.34469679
0.43422795 0.26534520 0.34469679
0.53376653 0.26534520 0.34469679
0.64230689 0.26534520 0.34469679
0.00000073 0.34469679 0.34469679
0.05480663 0.34469679 0.34469679
0.13035101 0.34469679 0.34469679
0.19509018 0.34469679 0.34469679
0.26534520 0.34469679 0.34469679
0.34469679 0.34469679 0.34469679
0.43422795 0.34469679 0.34469679
0.53376653 0.34469679 0.34469679
0.64230689 0.34469679 0.34469679
0.00000073 0.43422795 0.34469679
0.05480663 0.43422795 0.34469679
0.13035101 0.43422795 0.34469679
0.19509018 0.43422795 0.34469679
0.26534520 0.43422795 0.34469679
0.34469679 0.43422795 0.34469679
0.43422795 0.43422795 0.34469679
0.53376653 0.43422795 0.34469679
0.64230689 0.43422795 0.34469679
0.00000073 0.53376653 0.34469679
0.05480663 0.53376653 0.34469679
0.13035101 0.53376653 0.34469679
0.19509018 0.53376653 0.34469679
0.26534520 0.53376653 0.34469679
0.34469679 0.53376653 0.34469679
0.43422795 0.53376653 0.34469679
0.53376653 0.53376653 0.34469679
0.64230689 0.53376653 0.34469679
0.00000073 0.64230689 0.34469679
0.05480663 0.64230689 0.34469679
0.13035101 0.64230689 0.34469679
0.19509018 0.64230689 0.34469679
0.26534520 0.64230689 0.34469679
0.34469679 0.64230689 0.34469679
0.43422795 0.64230689 0.34469679
0.53376653 0.64230689 0.34469679
0.64230689 0.64230689 0.34469679
0.00000073 0.00000073 0.43422795
0.05480663 0.00000073 0.43422795
0.13035101 0.00000073 0.43422795
0.19509018 0.00000073 0.43422795
0.26534520 0.00000073 0.43422795
0.34469679 0.00000073 0.43422795
0.43422795 0.00000073 0.43422795
0.53376653 0.00000073 0.43422795
0.64230689 0.00000073 0.43422795
0.00000073 0.05480663 0.43422795
0.05480663 0.05480663 0.43422795
0.13035101 0.05480663 0.43422795
0.19509018 0.05480663 0.43422795
0.26534520 0.05480663 0.43422795
0.34469679 0.05480663 0.43422795
0.43422795 0.05480663 0.43422795
0.53376653 0.05480663 0.43422795
0.64230689 0.05480663 0.43422795
0.00000073 0.13035101 0.43422795
0.05480663 0.13035101 0.43422795
0.13035101 0.13035101 0.43422795
0.19509018 0.13035101 0.43422795
0.26534520 0.13035101 0.43422795
0.34469679 0.13035101 0.43422795
0.43422795 0.13035101 0.43422795
0.53376653 0.13035101 0.43422795
0.64230689 0.13035101 0.43422795
0.00000073 0.19509018 0.43422795
0.05480663 0.19509018 0.43422795
0.13035101 0.19509018 0.43422795
0.19509018 0.19509018 0.43422795
0.26534520 0.19509018 0.43422795
0.34469679 0.19509018 0.43422795
0.43422795 0.19509018 0.43422795
0.53376653 0.19509018 0.43422795
0.64230689 0.19509018 0.43422795
0.00000073 0.26534520 0.43422795
0.05480663 0.26534520 0.43422795
0.13035101 0.26534520 0.43422795
0.19509018 0.26534520 0.43422795
0.26534520 0.26534520 0.43422795
0.34469679 0.26534520 0.43422795
0.43422795 0.26534520 0.43422795
0.53376653 0.26534520 0.43422795
0.64230689 0.26534520 0.43422795
0.00000073 0.34469679 0.43422795
0.05480663 0.34469679 0.43422795
0.13035101 0.34469679 0.43422795
0.19509018 0.34469679 0.43422795
0.26534520 0.34469679 0.43422795
0.34469679 0.34469679 0.43422795
0.43422795 0.34469679 0.43422795
0.53376653 0.34469679 0.43422795
0.64230689 0.34469679 0.43422795
0.00000073 0.43422795 0.43422795
0.05480663 0.43422795 0.43422795
0.13035101 0.43422795 0.43422795
0.19509018 0.43422795 0.43422795
0.26534520 0.43422795 0.43422795
0.34469679 0.43422795 0.43422795
0.43422795 0.43422795 0.43422795
0.53376653 0.43422795 0.43422795
0.64230689 0.43422795 0.43422795
0.00000073 0.53376653 0.43422795
0.05480663 0.53376653 0.43422795
0.13035101 0.53376653 0.43422795
0.19509018 0.53376653 0.43422795
0.26534520 0.53376653 0.43422795
0.34469679 0.53376653 0.43422795
0.43422795 0.53376653 0.43422795
0.53376653 0.53376653 0.43422795
0.64230689 0.53376653 0.43422795
0.00000073 0.64230689 0.43422795
0.05480663 0.64230689 0.43422795
0.13035101 0.64230689 0.43422795
0.19509018 0.64230689 0.43422795
0.26534520 0.64230689 0.43422795
0.34469679 0.64230689 0.43422795
0.43422795 0.64230689 0.43422795
0.53376653 0.64230689 0.43422795
0.64230689 0.64230689 0.43422795
0.00000073 0.00000073 0.53376653
0.05480663 0.00000073 0.53376653
0.13035101 0.00000073 0.53376653
0.19509018 0.00000073 0.53376653
0.26534520 0.00000073 0.53376653
0.34469679 0.00000073 0.53376653
0.43422795 0.00000073 0.53376653
0.53376653 0.00000073 0.53376653
0.64230689 0.00000073 0.53376653
0.00000073 0.05480663 0.53376653
0.05480663 0.05480663 0.53376653
0.13035101 0.05480663 0.53376653
0.19509018 0.05480663 0.53376653
0.26534520 0.05480663 0.53376653
0.34469679 0.05480663 0.53376653
0.43422795 0.05480663 0.53376653
0.53376653 0.05480663 0.53376653
0.64230689 0.05480663 0.53376653
0.00000073 0.13035101 0.53376653
0.05480663 0.13035101 0.53376653
0.13035101 0.13035101 0.53376653
0.19509018 0.13035101 0.53376653
0.26534520 0.13035101 0.53376653
0.34469679 0.13035101 0.53376653
0.43422795 0.13035101 0.53376653
0.53376653 0.13035101 0.53376653
0.64230689 0.13035101 0.53376653
0.00000073 0.19509018 0.53376653
0.05480663 0.19509018 0.53376653
0.13035101 0.19509018 0.53376653
0.19509018 0.19509018 0.53376653
0.26534520 0.19509018 0.53376653
0.34469679 0.19509018 0.53376653
0.43422795 0.19509018 0.53376653
0.53376653 0.19509018 0.53376653
0.64230689 0.19509018 0.53376653
0.00000073 0.26534520 0.53376653
0.05480663 0.26534520 0.53376653
0.13035101 0.26534520 0.53376653
0.19509018 0.26534520 0.53376653
0.26534520 0.26534520 0.53376653
0.34469679 0.26534520 0.53376653
0.43422795 0.26534520 0.53376653
0.53376653 0.26534520 0.53376653
0.64230689 0.26534520 0.53376653
0.00000073 0.34469679 0.53376653
0.05480663 0.34469679 0.53376653
0.13035101 0.34469679 0.53376653
0.19509018 0.34469679 0.53376653
0.26534520 0.34469679 0.53376653
0.34469679 0.34469679 0.53376653
0.43422795 0.34469679 0.53376653
0.53376653 0.34469679 0.53376653
0.64230689 0.34469679 0.53376653
0.00000073 0.43422795 0.53376653
0.05480663 0.43422795 0.53376653
0.13035101 0.43422795 0.53376653
0.19509018 0.43422795 0.53376653
0.26534520 0.43422795 0.53376653
0.34469679 0.43422795 0.53376653
0.43422795 0.43422795 0.53376653
0.53376653 0.43422795 0.53376653
0.64230689 0.43422795 0.53376653
0.00000073 0.53376653 0.53376653
0.05480663 0.53376653 0.53376653
0.13035101 0.53376653 0.53376653
0.19509018 0.53376653 0.53376653
0.26534520 0.53376653 0.53376653
0.34469679 0.53376653 0.53376653
0.43422795 0.53376653 0.53376653
0.53376653 0.53376653 0.53376653
0.64230689 0.53376653 0.53376653
0.00000073 0.64230689 0.53376653
0.05480663 0.64230689 0.53376653
0.13035101 0.64230689 0.53376653
0.19509018 0.64230689 0.53376653
0.26534520 0.64230689 0.53376653
0.34469679 0.64230689 0.53376653
0.43422795 0.64230689 0.53376653
0.53376653 0.64230689 0.53376653
0.64230689 0.64230689 0.53376653
0.00000073 0.00000073 0.64230689
0.05480663 0.00000073 0.64230689
0.13035101 0.00000073 0.64230689
0.19509018 0.00000073 0.64230689
0.26534520 0.00000073 0.64230689
0.34469679 0.00000073 0.64230689
0.43422795 0.00000073 0.64230689
0.53376653 0.00000073 0.64230689
0.64230689 0.00000073 0.64230689
0.00000073 0.05480663 0.64230689
0.05480663 0.05480663 0.64230689
0.13035101 0.05480663 0.64230689
0.19509018 0.05480663 0.64230689
0.26534520 0.05480663 0.64230689
0.34469679 0.05480663 0.64230689
0.43422795 0.05480663 0.64230689
0.53376653 0.05480663 0.64230689
0.64230689 0.05480663 0.64230689
0.00000073 0.13035101 0.64230689
0.05480663 0.13035101 0.64230689
0.13035101 0.13035101 0.64230689
0.19509018 0.13035101 0.64230689
0.26534520 0.13035101 0.64230689
0.34469679 0.13035101 0.64230689
0.43422795 0.13035101 0.64230689
0.53376653 0.13035101 0.64230689
0.64230689 0.13035101 0.64230689
0.00000073 0.19509018 0.64230689
0.05480663 0.19509018 0.64230689
0.13035101 0.19509018 0.64230689
0.19509018 0.19509018 0.64230689
0.26534520 0.19509018 0.64230689
0.34469679 0.19509018 0.64230689
0.43422795 0.19509018 0.64230689
0.53376653 0.19509018 0.64230689
0.64230689 0.19509018 0.64230689
0.00000073 0.26534520 0.64230689
0.05480663 0.26534520 0.64230689
0.13035101 0.26534520 0.64230689
0.19509018 0.26534520 0.64230689
0.26534520 0.26534520 0.64230689
0.34469679 0.26534520 0.64230689
0.43422795 0.26534520 0.64230689
0.53376653 0.26534520 0.64230689
0.64230689 0.26534520 0.64230689
0.00000073 0.34469679 0.64230689
0.05480663 0.34469679 0.64230689
0.13035101 0.34469679 0.64230689
0.19509018 0.34469679 0.64230689
0.26534520 0.34469679 0.64230689
0.34469679 0.34469679 0.64230689
0.43422795 0.34469679 0.64230689
0.53376653 0.34469679 0.64230689
0.64230689 0.34469679 0.64230689
0.00000073 0.43422795 0.64230689
0.05480663 0.43422795 0.64230689
0.13035101 0.43422795 0.64230689
0.19509018 0.43422795 0.64230689
0.26534520 0.43422795 0.64230689
0.34469679 0.43422795 0.64230689
0.43422795 0.43422795 0.64230689
0.53376653 0.43422795 0.64230689
0.64230689 0.43422795 0.64230689
0.00000073 0.53376653 0.64230689
0.05480663 0.53376653 0.64230689
0.13035101 0.53376653 0.64230689
0.19509018 0.53376653 0.64230689
0.26534520 0.53376653 0.64230689
0.34469679 0.53376653 0.64230689
0.43422795 0.53376653 0.64230689
0.53376653 0.53376653 0.64230689
0.64230689 0.53376653 0.64230689
0.00000073 0.64230689 0.64230689
0.05480663 0.64230689 0.64230689
0.13035101 0.64230689 0.64230689
0.19509018 0.64230689 0.64230689
0.26534520 0.64230689 0.64230689
0.34469679 0.64230689 0.64230689
0.43422795 0.64230689 0.64230689
0.53376653 0.64230689 0.64230689
0.64230689 0.64230689 0.64230689
