src/ffmpeg_scripts/luts/flog-smpte2084_-4p00.cube
TITLE "flog-smpte2084_-4p00"
LUT_3D_SIZE 33
# Fujifilm F-Log/Rec2020 -> PQ (EOTF Only)/Rec2020, CineEI Shift -4.00, Black Level 0.00% IRE, Input 109% -> Output 109% - Created with LUTCalc v4.01 by Ben Turley October 2020
0.06256172 0.06256172 0.06256172
0.06256172 0.06256172 0.06256172
0.06256172 0.06256172 0.06256172
0.06673300 0.06256172 0.06256172
0.09299619 0.06256172 0.06256172
0.10610008 0.06256172 0.06256172
0.11689191 0.06256172 0.06256172
0.12674217 0.06256172 0.06256172
0.13617473 0.06256172 0.06256172
0.14545682 0.06256172 0.06256172
0.15474787 0.06256172 0.06256172
0.16415301 0.06256172 0.06256172
0.17374648 0.06256172 0.06256172
0.18358324 0.06256172 0.06256172
0.19370531 0.06256172 0.06256172
0.20414547 0.06256172 0.06256172
0.21492947 0.06256172 0.06256172
0.22607757 0.06256172 0.06256172
0.23760543 0.06256172 0.06256172
0.24952484 0.06256172 0.06256172
0.26184421 0.06256172 0.06256172
0.27456893 0.06256172 0.06256172
0.28770164 0.06256172 0.06256172
0.30124251 0.06256172 0.06256172
0.31518939 0.06256172 0.06256172
0.32953801 0.06256172 0.06256172
0.34428214 0.06256172 0.06256172
0.35941373 0.06256172 0.06256172
0.37492303 0.06256172 0.06256172
0.39079877 0.06256172 0.06256172
0.40702823 0.06256172 0.06256172
0.42359742 0.06256172 0.06256172
0.44049116 0.06256172 0.06256172
0.06256172 0.06256172 0.06256172
0.06256172 0.06256172 0.06256172
0.06256172 0.06256172 0.06256172
0.06673300 0.06256172 0.06256172
0.09299619 0.06256172 0.06256172
0.10610008 0.06256172 0.06256172
0.11689191 0.06256172 0.06256172
0.12674217 0.06256172 0.06256172
0.13617473 0.06256172 0.06256172
0.14545682 0.06256172 0.06256172
0.15474787 0.06256172 0.06256172
0.16415301 0.06256172 0.06256172
0.17374648 0.06256172 0.06256172
0.18358324 0.06256172 0.06256172
0.19370531 0.06256172 0.06256172
0.20414547 0.06256172 0.06256172
0.21492947 0.06256172 0.06256172
0.22607757 0.06256172 0.06256172
0.23760543 0.06256172 0.06256172
0.24952484 0.06256172 0.06256172
0.26184421 0.06256172 0.06256172
0.27456893 0.06256172 0.06256172
0.28770164 0.06256172 0.06256172
0.30124251 0.06256172 0.06256172
0.31518939 0.06256172 0.06256172
0.32953801 0.06256172 0.06256172
0.34428214 0.06256172 0.06256172
0.35941373 0.06256172 0.06256172
0.37492303 0.06256172 0.06256172
0.39079877 0.06256172 0.06256172
0.40702823 0.06256172 0.06256172
0.42359742 0.06256172 0.06256172
0.44049116 0.06256172 0.06256172
0.06256172 0.06256172 0.06256172
0.06256172 0.06256172 0.06256172
0.06256172 0.06256172 0.06256172
0.06673300 0.06256172 0.06256172
0.09299619 0.06256172 0.06256172
0.10610008 0.06256172 0.06256172
0.11689191 0.06256172 0.06256172
0.12674217 0.06256172 0.06256172
0.13617473 0.06256172 0.06256172
0.14545682 0.06256172 0.06256172
0.15474787 0.06256172 0.06256172
0.16415301 0.06256172 0.06256172
0.17374648 0.06256172 0.06256172
0.18358324 0.06256172 0.06256172
0.19370531 0.06256172 0.06256172
0.20414547 0.06256172 0.06256172
0.21492947 0.06256172 0.06256172
0.22607757 0.06256172 0.06256172
0.23760543 0.06256172 0.06256172
0.24952484 0.06256172 0.06256172
0.26184421 0.06256172 0.06256172
0.27456893 0.06256172 0.06256172
0.28770164 0.06256172 0.06256172
0.30124251 0.06256172 0.06256172
0.31518939 0.06256172 0.06256172
0.32953801 0.06256172 0.06256172
0.34428214 0.06256172 0.06256172
0.35941373 0.06256172 0.06256172
0.37492303 0.06256172 0.06256172
0.39079877 0.06256172 0.06256172
0.40702823 0.06256172 0.06256172
0.42359742 0.06256172 0.06256172
0.44049116 0.06256172 0.06256172
0.06256172 0.06673300 0.06256172
0.06256172 0.06673300 0.06256172
0.06256172 0.06673300 0.06256172
0.06673300 0.06673300 0.06256172
0.09299619 0.06673300 0.06256172
0.10610008 0.06673300 0.06256172
0.11689191 0.06673300 0.06256172
0.12674217 0.06673300 0.06256172
0.13617473 0.06673300 0.06256172
0.14545682 0.06673300 0.06256172
0.15474787 0.06673300 0.06256172
0.16415301 0.06673300 0.06256172
0.17374648 0.06673300 0.06256172
0.18358324 0.06673300 0.06256172
0.19370531 0.06673300 0.06256172
0.20414547 0.06673300 0.06256172
0.21492947 0.06673300 0.06256172
0.22607757 0.06673300 0.06256172
0.23760543 0.06673300 0.06256172
0.24952484 0.06673300 0.06256172
0.26184421 0.06673300 0.06256172
0.27456893 0.06673300 0.06256172
0.28770164 0.06673300 0.06256172
0.30124251 0.06673300 0.06256172
0.31518939 0.06673300 0.06256172
0.32953801 0.06673300 0.06256172
0.34428214 0.06673300 0.06256172
0.35941373 0.06673300 0.06256172
0.37492303 0.06673300 0.06256172
0.39079877 0.06673300 0.06256172
0.40702823 0.06673300 0.06256172
0.42359742 0.06673300 0.06256172
0.44049116 0.06673300 0.06256172
0.06256172 0.09299619 0.06256172
0.06256172 0.09299619 0.06256172
0.06256172 0.09299619 0.06256172
0.06673300 0.09299619 0.06256172
0.09299619 0.09299619 0.06256172
0.10610008 0.09299619 0.06256172
0.11689191 0.09299619 0.06256172
0.12674217 0.09299619 0.06256172
0.13617473 0.09299619 0.06256172
0.14545682 0.09299619 0.06256172
0.15474787 0.09299619 0.06256172
0.16415301 0.09299619 0.06256172
0.17374648 0.09299619 0.06256172
0.18358324 0.09299619 0.06256172
0.19370531 0.09299619 0.06256172
0.20414547 0.09299619 0.06256172
0.21492947 0.09299619 0.06256172
0.22607757 0.09299619 0.06256172
0.23760543 0.09299619 0.06256172
0.24952484 0.09299619 0.06256172
0.26184421 0.09299619 0.06256172
0.27456893 0.09299619 0.06256172
0.28770164 0.09299619 0.06256172
0.30124251 0.09299619 0.06256172
0.31518939 0.09299619 0.06256172
0.32953801 0.09299619 0.06256172
0.34428214 0.09299619 0.06256172
0.35941373 0.09299619 0.06256172
0.37492303 0.09299619 0.06256172
0.39079877 0.09299619 0.06256172
0.40702823 0.09299619 0.06256172
0.42359742 0.09299619 0.06256172
0.44049116 0.09299619 0.06256172
0.06256172 0.10610008 0.06256172
0.06256172 0.10610008 0.06256172
0.06256172 0.10610008 0.06256172
0.06673300 0.10610008 0.06256172
0.09299619 0.10610008 0.06256172
0.10610008 0.10610008 0.06256172
0.11689191 0.10610008 0.06256172
0.12674217 0.10610008 0.06256172
0.13617473 0.10610008 0.06256172
0.14545682 0.10610008 0.06256172
0.15474787 0.10610008 0.06256172
0.16415301 0.10610008 0.06256172
0.17374648 0.10610008 0.06256172
0.18358324 0.10610008 0.06256172
0.19370531 0.10610008 0.06256172
0.20414547 0.10610008 0.06256172
0.21492947 0.10610008 0.06256172
0.22607757 0.10610008 0.06256172
0.23760543 0.10610008 0.06256172
0.24952484 0.10610008 0.06256172
0.26184421 0.10610008 0.06256172
0.27456893 0.10610008 0.06256172
0.28770164 0.10610008 0.06256172
0.30124251 0.10610008 0.06256172
0.31518939 0.10610008 0.06256172
0.32953801 0.10610008 0.06256172
0.34428214 0.10610008 0.06256172
0.35941373 0.10610008 0.06256172
0.37492303 0.10610008 0.06256172
0.39079877 0.10610008 0.06256172
0.40702823 0.10610008 0.06256172
0.42359742 0.10610008 0.06256172
0.44049116 0.10610008 0.06256172
0.06256172 0.11689191 0.06256172
0.06256172 0.11689191 0.06256172
0.06256172 0.11689191 0.06256172
0.06673300 0.11689191 0.06256172
0.09299619 0.11689191 0.06256172
0.10610008 0.11689191 0.06256172
0.11689191 0.11689191 0.06256172
0.12674217 0.11689191 0.06256172
0.13617473 0.11689191 0.06256172
0.14545682 0.11689191 0.06256172
0.15474787 0.11689191 0.06256172
0.16415301 0.11689191 0.06256172
0.17374648 0.11689191 0.06256172
0.18358324 0.11689191 0.06256172
0.19370531 0.11689191 0.06256172
0.20414547 0.11689191 0.06256172
0.21492947 0.11689191 0.06256172
0.22607757 0.11689191 0.06256172
0.23760543 0.11689191 0.06256172
0.24952484 0.11689191 0.06256172
0.26184421 0.11689191 0.06256172
0.27456893 0.11689191 0.06256172
0.28770164 0.11689191 0.06256172
0.30124251 0.11689191 0.06256172
0.31518939 0.11689191 0.06256172
0.32953801 0.11689191 0.06256172
0.34428214 0.11689191 0.06256172
0.35941373 0.11689191 0.06256172
0.37492303 0.11689191 0.06256172
0.39079877 0.11689191 0.06256172
0.40702823 0.11689191 0.06256172
0.42359742 0.11689191 0.06256172
0.44049116 0.11689191 0.06256172
0.06256172 0.12674217 0.06256172
0.06256172 0.12674217 0.06256172
0.06256172 0.12674217 0.06256172
0.06673300 0.12674217 0.06256172
0.09299619 0.12674217 0.06256172
0.10610008 0.12674217 0.06256172
0.11689191 0.12674217 0.06256172
0.12674217 0.12674217 0.06256172
0.13617473 0.12674217 0.06256172
0.14545682 0.12674217 0.06256172
0.15474787 0.12674217 0.06256172
0.16415301 0.12674217 0.06256172
0.17374648 0.12674217 0.06256172
0.18358324 0.12674217 0.06256172
0.19370531 0.12674217 0.06256172
0.20414547 0.12674217 0.06256172
0.21492947 0.12674217 0.06256172
0.22607757 0.12674217 0.06256172
0.23760543 0.12674217 0.06256172
0.24952484 0.12674217 0.06256172
0.26184421 0.12674217 0.06256172
0.27456893 0.12674217 0.06256172
0.28770164 0.12674217 0.06256172
0.30124251 0.12674217 0.06256172
0.31518939 0.12674217 0.06256172
0.32953801 0.12674217 0.06256172
0.34428214 0.12674217 0.06256172
0.35941373 0.12674217 0.06256172
0.37492303 0.12674217 0.06256172
0.39079877 0.12674217 0.06256172
0.40702823 0.12674217 0.06256172
0.42359742 0.12674217 0.06256172
0.44049116 0.12674217 0.06256172
0.06256172 0.13617473 0.06256172
0.06256172 0.13617473 0.06256172
0.06256172 0.13617473 0.06256172
0.06673300 0.13617473 0.06256172
0.09299619 0.13617473 0.06256172
0.10610008 0.13617473 0.06256172
0.11689191 0.13617473 0.06256172
0.12674217 0.13617473 0.06256172
0.13617473 0.13617473 0.06256172
0.14545682 0.13617473 0.06256172
0.15474787 0.13617473 0.06256172
0.16415301 0.13617473 0.06256172
0.17374648 0.13617473 0.06256172
0.18358324 0.13617473 0.06256172
0.19370531 0.13617473 0.06256172
0.20414547 0.13617473 0.06256172
0.21492947 0.13617473 0.06256172
0.22607757 0.13617473 0.06256172
0.23760543 0.13617473 0.06256172
0.24952484 0.13617473 0.06256172
0.26184421 0.13617473 0.06256172
0.27456893 0.13617473 0.06256172
0.28770164 0.13617473 0.06256172
0.30124251 0.13617473 0.06256172
0.31518939 0.13617473 0.06256172
0.32953801 0.13617473 0.06256172
0.34428214 0.13617473 0.06256172
0.35941373 0.13617473 0.06256172
0.37492303 0.13617473 0.06256172
0.39079877 0.13617473 0.06256172
0.40702823 0.13617473 0.06256172
0.42359742 0.13617473 0.06256172
0.44049116 0.13617473 0.06256172
0.06256172 0.14545682 0.06256172
0.06256172 0.14545682 0.06256172
0.06256172 0.14545682 0.06256172
0.06673300 0.14545682 0.06256172
0.09299619 0.14545682 0.06256172
0.10610008 0.14545682 0.06256172
0.11689191 0.14545682 0.06256172
0.12674217 0.14545682 0.06256172
0.13617473 0.14545682 0.06256172
0.14545682 0.14545682 0.06256172
0.15474787 0.14545682 0.06256172
0.16415301 0.14545682 0.06256172
0.17374648 0.14545682 0.06256172
0.18358324 0.14545682 0.06256172
0.19370531 0.14545682 0.06256172
0.20414547 0.14545682 0.06256172
0.21492947 0.14545682 0.06256172
0.22607757 0.14545682 0.06256172
0.23760543 0.14545682 0.06256172
0.24952484 0.14545682 0.06256172
0.26184421 0.14545682 0.06256172
0.27456893 0.14545682 0.06256172
0.28770164 0.14545682 0.06256172
0.30124251 0.14545682 0.06256172
0.31518939 0.14545682 0.06256172
0.32953801 0.14545682 0.06256172
0.34428214 0.14545682 0.06256172
0.35941373 0.14545682 0.06256172
0.37492303 0.14545682 0.06256172
0.39079877 0.14545682 0.06256172
0.40702823 0.14545682 0.06256172
0.42359742 0.14545682 0.06256172
0.44049116 0.14545682 0.06256172
0.06256172 0.15474787 0.06256172
0.06256172 0.15474787 0.06256172
0.06256172 0.15474787 0.06256172
0.06673300 0.15474787 0.06256172
0.09299619 0.15474787 0.06256172
0.10610008 0.15474787 0.06256172
0.11689191 0.15474787 0.06256172
0.12674217 0.15474787 0.06256172
0.13617473 0.15474787 0.06256172
0.14545682 0.15474787 0.06256172
0.15474787 0.15474787 0.06256172
0.16415301 0.15474787 0.06256172
0.17374648 0.15474787 0.06256172
0.18358324 0.15474787 0.06256172
0.19370531 0.15474787 0.06256172
0.20414547 0.15474787 0.06256172
0.21492947 0.15474787 0.06256172
0.22607757 0.15474787 0.06256172
0.23760543 0.15474787 0.06256172
0.24952484 0.15474787 0.06256172
0.26184421 0.15474787 0.06256172
0.27456893 0.15474787 0.06256172
0.28770164 0.15474787 0.06256172
0.30124251 0.15474787 0.06256172
0.31518939 0.15474787 0.06256172
0.32953801 0.15474787 0.06256172
0.34428214 0.15474787 0.06256172
0.35941373 0.15474787 0.06256172
0.37492303 0.15474787 0.06256172
0.39079877 0.15474787 0.06256172
0.40702823 0.15474787 0.06256172
0.42359742 0.15474787 0.06256172
0.44049116 0.15474787 0.06256172
0.06256172 0.16415301 0.06256172
0.06256172 0.16415301 0.06256172
0.06256172 0.16415301 0.06256172
0.06673300 0.16415301 0.06256172
0.09299619 0.16415301 0.06256172
0.10610008 0.16415301 0.06256172
0.11689191 0.16415301 0.06256172
0.12674217 0.16415301 0.06256172
0.13617473 0.16415301 0.06256172
0.14545682 0.16415301 0.06256172
0.15474787 0.16415301 0.06256172
0.16415301 0.16415301 0.06256172
0.17374648 0.16415301 0.06256172
0.18358324 0.16415301 0.06256172
0.19370531 0.16415301 0.06256172
0.20414547 0.16415301 0.06256172
0.21492947 0.16415301 0.06256172
0.22607757 0.16415301 0.06256172
0.23760543 0.16415301 0.06256172
0.24952484 0.16415301 0.06256172
0.26184421 0.16415301 0.06256172
0.27456893 0.16415301 0.06256172
0.28770164 0.16415301 0.06256172
0.30124251 0.16415301 0.06256172
0.31518939 0.16415301 0.06256172
0.32953801 0.16415301 0.06256172
0.34428214 0.16415301 0.06256172
0.35941373 0.16415301 0.06256172
0.37492303 0.16415301 0.06256172
0.39079877 0.16415301 0.06256172
0.40702823 0.16415301 0.06256172
0.42359742 0.16415301 0.06256172
0.44049116 0.16415301 0.06256172
0.06256172 0.17374648 0.06256172
0.06256172 0.17374648 0.06256172
0.06256172 0.17374648 0.06256172
0.06673300 0.17374648 0.06256172
0.09299619 0.17374648 0.06256172
0.10610008 0.17374648 0.06256172
0.11689191 0.17374648 0.06256172
0.12674217 0.17374648 0.06256172
0.13617473 0.17374648 0.06256172
0.14545682 0.17374648 0.06256172
0.15474787 0.17374648 0.06256172
0.16415301 0.17374648 0.06256172
0.17374648 0.17374648 0.06256172
0.18358324 0.17374648 0.06256172
0.19370531 0.17374648 0.06256172
0.20414547 0.17374648 0.06256172
0.21492947 0.17374648 0.06256172
0.22607757 0.17374648 0.06256172
0.23760543 0.17374648 0.06256172
0.24952484 0.17374648 0.06256172
0.26184421 0.17374648 0.06256172
0.27456893 0.17374648 0.06256172
0.28770164 0.17374648 0.06256172
0.30124251 0.17374648 0.06256172
0.31518939 0.17374648 0.06256172
0.32953801 0.17374648 0.06256172
0.34428214 0.17374648 0.06256172
0.35941373 0.17374648 0.06256172
0.37492303 0.17374648 0.06256172
0.39079877 0.17374648 0.06256172
0.40702823 0.17374648 0.06256172
0.42359742 0.17374648 0.06256172
0.44049116 0.17374648 0.06256172
0.06256172 0.18358324 0.06256172
0.06256172 0.18358324 0.06256172
0.06256172 0.18358324 0.06256172
0.06673300 0.18358324 0.06256172
0.09299619 0.18358324 0.06256172
0.10610008 0.18358324 0.06256172
0.11689191 0.18358324 0.06256172
0.12674217 0.18358324 0.06256172
0.13617473 0.18358324 0.06256172
0.14545682 0.18358324 0.06256172
0.15474787 0.18358324 0.06256172
0.16415301 0.18358324 0.06256172
0.17374648 0.18358324 0.06256172
0.18358324 0.18358324 0.06256172
0.19370531 0.18358324 0.06256172
0.20414547 0.18358324 0.06256172
0.21492947 0.18358324 0.06256172
0.22607757 0.18358324 0.06256172
0.23760543 0.18358324 0.06256172
0.24952484 0.18358324 0.06256172
0.26184421 0.18358324 0.06256172
0.27456893 0.18358324 0.06256172
0.28770164 0.18358324 0.06256172
0.30124251 0.18358324 0.06256172
0.31518939 0.18358324 0.06256172
0.32953801 0.18358324 0.06256172
0.34428214 0.18358324 0.06256172
0.35941373 0.18358324 0.06256172
0.37492303 0.18358324 0.06256172
0.39079877 0.18358324 0.06256172
0.40702823 0.18358324 0.06256172
0.42359742 0.18358324 0.06256172
0.44049116 0.18358324 0.06256172
0.06256172 0.19370531 0.06256172
0.06256172 0.19370531 0.06256172
0.06256172 0.19370531 0.06256172
0.06673300 0.19370531 0.06256172
0.09299619 0.19370531 0.06256172
0.10610008 0.19370531 0.06256172
0.11689191 0.19370531 0.06256172
0.12674217 0.19370531 0.06256172
0.13617473 0.19370531 0.06256172
0.14545682 0.19370531 0.06256172
0.15474787 0.19370531 0.06256172
0.16415301 0.19370531 0.06256172
0.17374648 0.19370531 0.06256172
0.18358324 0.19370531 0.06256172
0.19370531 0.19370531 0.06256172
0.20414547 0.19370531 0.06256172
0.21492947 0.19370531 0.06256172
0.22607757 0.19370531 0.06256172
0.23760543 0.19370531 0.06256172
0.24952484 0.19370531 0.06256172
0.26184421 0.19370531 0.06256172
0.27456893 0.19370531 0.06256172
0.28770164 0.19370531 0.06256172
0.30124251 0.19370531 0.06256172
0.31518939 0.19370531 0.06256172
0.32953801 0.19370531 0.06256172
0.34428214 0.19370531 0.06256172
0.35941373 0.19370531 0.06256172
0.37492303 0.19370531 0.06256172
0.39079877 0.19370531 0.06256172
0.40702823 0.19370531 0.06256172
0.42359742 0.19370531 0.06256172
0.44049116 0.19370531 0.06256172
0.06256172 0.20414547 0.06256172
0.06256172 0.20414547 0.06256172
0.06256172 0.20414547 0.06256172
0.06673300 0.20414547 0.06256172
0.09299619 0.20414547 0.06256172
0.10610008 0.20414547 0.06256172
0.11689191 0.20414547 0.06256172
0.12674217 0.20414547 0.06256172
0.13617473 0.20414547 0.06256172
0.14545682 0.20414547 0.06256172
0.15474787 0.20414547 0.06256172
0.16415301 0.20414547 0.06256172
0.17374648 0.20414547 0.06256172
0.18358324 0.20414547 0.06256172
0.19370531 0.20414547 0.06256172
0.20414547 0.20414547 0.06256172
0.21492947 0.20414547 0.06256172
0.22607757 0.20414547 0.06256172
0.23760543 0.20414547 0.06256172
0.24952484 0.20414547 0.06256172
0.26184421 0.20414547 0.06256172
0.27456893 0.20414547 0.06256172
0.28770164 0.20414547 0.06256172
0.30124251 0.20414547 0.06256172
0.31518939 0.20414547 0.06256172
0.32953801 0.20414547 0.06256172
0.34428214 0.20414547 0.06256172
0.35941373 0.20414547 0.06256172
0.37492303 0.20414547 0.06256172
0.39079877 0.20414547 0.06256172
0.40702823 0.20414547 0.06256172
0.42359742 0.20414547 0.06256172
0.44049116 0.20414547 0.06256172
0.06256172 0.21492947 0.06256172
0.06256172 0.21492947 0.06256172
0.06256172 0.21492947 0.06256172
0.06673300 0.21492947 0.06256172
0.09299619 0.21492947 0.06256172
0.10610008 0.21492947 0.06256172
0.11689191 0.21492947 0.06256172
0.12674217 0.21492947 0.06256172
0.13617473 0.21492947 0.06256172
0.14545682 0.21492947 0.06256172
0.15474787 0.21492947 0.06256172
0.16415301 0.21492947 0.06256172
0.17374648 0.21492947 0.06256172
0.18358324 0.21492947 0.06256172
0.19370531 0.21492947 0.06256172
0.20414547 0.21492947 0.06256172
0.21492947 0.21492947 0.06256172
0.22607757 0.21492947 0.06256172
0.23760543 0.21492947 0.06256172
0.24952484 0.21492947 0.06256172
0.26184421 0.21492947 0.06256172
0.27456893 0.21492947 0.06256172
0.28770164 0.21492947 0.06256172
0.30124251 0.21492947 0.06256172
0.31518939 0.21492947 0.06256172
0.32953801 0.21492947 0.06256172
0.34428214 0.21492947 0.06256172
0.35941373 0.21492947 0.06256172
0.37492303 0.21492947 0.06256172
0.39079877 0.21492947 0.06256172
0.40702823 0.21492947 0.06256172
0.42359742 0.21492947 0.06256172
0.44049116 0.21492947 0.06256172
0.06256172 0.22607757 0.06256172
0.06256172 0.22607757 0.06256172
0.06256172 0.22607757 0.06256172
0.06673300 0.22607757 0.06256172
0.09299619 0.22607757 0.06256172
0.10610008 0.22607757 0.06256172
0.11689191 0.22607757 0.06256172
0.12674217 0.22607757 0.06256172
0.13617473 0.22607757 0.06256172
0.14545682 0.22607757 0.06256172
0.15474787 0.22607757 0.06256172
0.16415301 0.22607757 0.06256172
0.17374648 0.22607757 0.06256172
0.18358324 0.22607757 0.06256172
0.19370531 0.22607757 0.06256172
0.20414547 0.22607757 0.06256172
0.21492947 0.22607757 0.06256172
0.22607757 0.22607757 0.06256172
0.23760543 0.22607757 0.06256172
0.24952484 0.22607757 0.06256172
0.26184421 0.22607757 0.06256172
0.27456893 0.22607757 0.06256172
0.28770164 0.22607757 0.06256172
0.30124251 0.22607757 0.06256172
0.31518939 0.22607757 0.06256172
0.32953801 0.22607757 0.06256172
0.34428214 0.22607757 0.06256172
0.35941373 0.22607757 0.06256172
0.37492303 0.22607757 0.06256172
0.39079877 0.22607757 0.06256172
0.40702823 0.22607757 0.06256172
0.42359742 0.22607757 0.06256172
0.44049116 0.22607757 0.06256172
0.06256172 0.23760543 0.06256172
0.06256172 0.23760543 0.06256172
0.06256172 0.23760543 0.06256172
0.06673300 0.23760543 0.06256172
0.09299619 0.23760543 0.06256172
0.10610008 0.23760543 0.06256172
0.11689191 0.23760543 0.06256172
0.12674217 0.23760543 0.06256172
0.13617473 0.23760543 0.06256172
0.14545682 0.23760543 0.06256172
0.15474787 0.23760543 0.06256172
0.16415301 0.23760543 0.06256172
0.17374648 0.23760543 0.06256172
0.18358324 0.23760543 0.06256172
0.19370531 0.23760543 0.06256172
0.20414547 0.23760543 0.06256172
0.21492947 0.23760543 0.06256172
0.22607757 0.23760543 0.06256172
0.23760543 0.23760543 0.06256172
0.24952484 0.23760543 0.06256172
0.26184421 0.23760543 0.06256172
0.27456893 0.23760543 0.06256172
0.28770164 0.23760543 0.06256172
0.30124251 0.23760543 0.06256172
0.31518939 0.23760543 0.06256172
0.32953801 0.23760543 0.06256172
0.34428214 0.23760543 0.06256172
0.35941373 0.23760543 0.06256172
0.37492303 0.23760543 0.06256172
0.39079877 0.23760543 0.06256172
0.40702823 0.23760543 0.06256172
0.42359742 0.23760543 0.06256172
0.44049116 0.23760543 0.06256172
0.06256172 0.24952484 0.06256172
0.06256172 0.24952484 0.06256172
0.06256172 0.24952484 0.06256172
0.06673300 0.24952484 0.06256172
0.09299619 0.24952484 0.06256172
0.10610008 0.24952484 0.06256172
0.11689191 0.24952484 0.06256172
0.12674217 0.24952484 0.06256172
0.13617473 0.24952484 0.06256172
0.14545682 0.24952484 0.06256172
0.15474787 0.24952484 0.06256172
0.16415301 0.24952484 0.06256172
0.17374648 0.24952484 0.06256172
0.18358324 0.24952484 0.06256172
0.19370531 0.24952484 0.06256172
0.20414547 0.24952484 0.06256172
0.21492947 0.24952484 0.06256172
0.22607757 0.24952484 0.06256172
0.23760543 0.24952484 0.06256172
0.24952484 0.24952484 0.06256172
0.26184421 0.24952484 0.06256172
0.27456893 0.24952484 0.06256172
0.28770164 0.24952484 0.06256172
0.30124251 0.24952484 0.06256172
0.31518939 0.24952484 0.06256172
0.32953801 0.24952484 0.06256172
0.34428214 0.24952484 0.06256172
0.35941373 0.24952484 0.06256172
0.37492303 0.24952484 0.06256172
0.39079877 0.24952484 0.06256172
0.40702823 0.24952484 0.06256172
0.42359742 0.24952484 0.06256172
0.44049116 0.24952484 0.06256172
0.06256172 0.26184421 0.06256172
0.06256172 0.26184421 0.06256172
0.06256172 0.26184421 0.06256172
0.06673300 0.26184421 0.06256172
0.09299619 0.26184421 0.06256172
0.10610008 0.26184421 0.06256172
0.11689191 0.26184421 0.06256172
0.12674217 0.26184421 0.06256172
0.13617473 0.26184421 0.06256172
0.14545682 0.26184421 0.06256172
0.15474787 0.26184421 0.06256172
0.16415301 0.26184421 0.06256172
0.17374648 0.26184421 0.06256172
0.18358324 0.26184421 0.06256172
0.19370531 0.26184421 0.06256172
0.20414547 0.26184421 0.06256172
0.21492947 0.26184421 0.06256172
0.22607757 0.26184421 0.06256172
0.23760543 0.26184421 0.06256172
0.24952484 0.26184421 0.06256172
0.26184421 0.26184421 0.06256172
0.27456893 0.26184421 0.06256172
0.28770164 0.26184421 0.06256172
0.30124251 0.26184421 0.06256172
0.31518939 0.26184421 0.06256172
0.32953801 0.26184421 0.06256172
0.34428214 0.26184421 0.06256172
0.35941373 0.26184421 0.06256172
0.37492303 0.26184421 0.06256172
0.39079877 0.26184421 0.06256172
0.40702823 0.26184421 0.06256172
0.42359742 0.26184421 0.06256172
0.44049116 0.26184421 0.06256172
0.06256172 0.27456893 0.06256172
0.06256172 0.27456893 0.06256172
0.06256172 0.27456893 0.06256172
0.06673300 0.27456893 0.06256172
0.09299619 0.27456893 0.06256172
0.10610008 0.27456893 0.06256172
0.11689191 0.27456893 0.06256172
0.12674217 0.27456893 0.06256172
0.13617473 0.27456893 0.06256172
0.14545682 0.27456893 0.06256172
0.15474787 0.27456893 0.06256172
0.16415301 0.27456893 0.06256172
0.17374648 0.27456893 0.06256172
0.18358324 0.27456893 0.06256172
0.19370531 0.27456893 0.06256172
0.20414547 0.27456893 0.06256172
0.21492947 0.27456893 0.06256172
0.22607757 0.27456893 0.06256172
0.23760543 0.27456893 0.06256172
0.24952484 0.27456893 0.06256172
0.26184421 0.27456893 0.06256172
0.27456893 0.27456893 0.06256172
0.28770164 0.27456893 0.06256172
0.30124251 0.27456893 0.06256172
0.31518939 0.27456893 0.06256172
0.32953801 0.27456893 0.06256172
0.34428214 0.27456893 0.06256172
