src/ffmpeg_scripts/luts/flog-experimental_1p00.cube
TITLE "flog-experimental_1p00"
LUT_3D_SIZE 33
# Fujifilm F-Log/Rec2020 -> PQ (EOTF Only)/Rec2020, CineEI Shift 1.00, Black Level 0.00% IRE, Input 109% -> Output 100% - Created with LUTCalc v4.01 by Ben Turley October 2020
0.00000073 0.00000073 0.00000073
0.00000073 0.00000073 0.00000073
0.00000073 0.00000073 0.00000073
0.04208668 0.00000073 0.00000073
0.20081481 0.00000073 0.00000073
0.26055751 0.00000073 0.00000073
0.30518610 0.00000073 0.00000073
0.34323735 0.00000073 0.00000073
0.37773689 0.00000073 0.00000073
0.41013156 0.00000073 0.00000073
0.44122972 0.00000073 0.00000073
0.47152804 0.00000073 0.00000073
0.50135113 0.00000073 0.00000073
0.53091986 0.00000073 0.00000073
0.56038825 0.00000073 0.00000073
0.58986486 0.00000073 0.00000073
0.61942607 0.00000073 0.00000073
0.64912461 0.00000073 0.00000073
0.67899540 0.00000073 0.00000073
0.70905967 0.00000073 0.00000073
0.73932791 0.00000073 0.00000073
0.76980211 0.00000073 0.00000073
0.80047747 0.00000073 0.00000073
0.83134378 0.00000073 0.00000073
0.86238646 0.00000073 0.00000073
0.89358750 0.00000073 0.00000073
0.92492613 0.00000073 0.00000073
0.95637948 0.00000073 0.00000073
0.98792308 0.00000073 0.00000073
1.00000000 0.00000073 0.00000073
1.00000000 0.00000073 0.00000073
1.00000000 0.00000073 0.00000073
1.00000000 0.00000073 0.00000073
0.00000073 0.00000073 0.00000073
0.00000073 0.00000073 0.00000073
0.00000073 0.00000073 0.00000073
0.04208668 0.00000073 0.00000073
0.20081481 0.00000073 0.00000073
0.26055751 0.00000073 0.00000073
0.30518610 0.00000073 0.00000073
0.34323735 0.00000073 0.00000073
0.37773689 0.00000073 0.00000073
0.41013156 0.00000073 0.00000073
0.44122972 0.00000073 0.00000073
0.47152804 0.00000073 0.00000073
0.50135113 0.00000073 0.00000073
0.53091986 0.00000073 0.00000073
0.56038825 0.00000073 0.00000073
0.58986486 0.00000073 0.00000073
0.61942607 0.00000073 0.00000073
0.64912461 0.00000073 0.00000073
0.67899540 0.00000073 0.00000073
0.70905967 0.00000073 0.00000073
0.73932791 0.00000073 0.00000073
0.76980211 0.00000073 0.00000073
0.80047747 0.00000073 0.00000073
0.83134378 0.00000073 0.00000073
0.86238646 0.00000073 0.00000073
0.89358750 0.00000073 0.00000073
0.92492613 0.00000073 0.00000073
0.95637948 0.00000073 0.00000073
0.98792308 0.00000073 0.00000073
1.00000000 0.00000073 0.00000073
1.00000000 0.00000073 0.00000073
1.00000000 0.00000073 0.00000073
1.00000000 0.00000073 0.00000073
0.00000073 0.00000073 0.00000073
0.00000073 0.00000073 0.00000073
0.00000073 0.00000073 0.00000073
0.04208668 0.00000073 0.00000073
0.20081481 0.00000073 0.00000073
0.26055751 0.00000073 0.00000073
0.30518610 0.00000073 0.00000073
0.34323735 0.00000073 0.00000073
0.37773689 0.00000073 0.00000073
0.41013156 0.00000073 0.00000073
0.44122972 0.00000073 0.00000073
0.47152804 0.00000073 0.00000073
0.50135113 0.00000073 0.00000073
0.53091986 0.00000073 0.00000073
0.56038825 0.00000073 0.00000073
0.58986486 0.00000073 0.00000073
0.61942607 0.00000073 0.00000073
0.64912461 0.00000073 0.00000073
0.67899540 0.00000073 0.00000073
0.70905967 0.00000073 0.00000073
0.73932791 0.00000073 0.00000073
0.76980211 0.00000073 0.00000073
0.80047747 0.00000073 0.00000073
0.83134378 0.00000073 0.00000073
0.86238646 0.00000073 0.00000073
0.89358750 0.00000073 0.00000073
0.92492613 0.00000073 0.00000073
0.95637948 0.00000073 0.00000073
0.98792308 0.00000073 0.00000073
1.00000000 0.00000073 0.00000073
1.00000000 0.00000073 0.00000073
1.00000000 0.00000073 0.00000073
1.00000000 0.00000073 0.00000073
0.00000073 0.04208668 0.00000073
0.00000073 0.04208668 0.00000073
0.00000073 0.04208668 0.00000073
0.04208668 0.04208668 0.00000073
0.20081481 0.04208668 0.00000073
0.26055751 0.04208668 0.00000073
0.30518610 0.04208668 0.00000073
0.34323735 0.04208668 0.00000073
0.37773689 0.04208668 0.00000073
0.41013156 0.04208668 0.00000073
0.44122972 0.04208668 0.00000073
0.47152804 0.04208668 0.00000073
0.50135113 0.04208668 0.00000073
0.53091986 0.04208668 0.00000073
0.56038825 0.04208668 0.00000073
0.58986486 0.04208668 0.00000073
0.61942607 0.04208668 0.00000073
0.64912461 0.04208668 0.00000073
0.67899540 0.04208668 0.00000073
0.70905967 0.04208668 0.00000073
0.73932791 0.04208668 0.00000073
0.76980211 0.04208668 0.00000073
0.80047747 0.04208668 0.00000073
0.83134378 0.04208668 0.00000073
0.86238646 0.04208668 0.00000073
0.89358750 0.04208668 0.00000073
0.92492613 0.04208668 0.00000073
0.95637948 0.04208668 0.00000073
0.98792308 0.04208668 0.00000073
1.00000000 0.04208668 0.00000073
1.00000000 0.04208668 0.00000073
1.00000000 0.04208668 0.00000073
1.00000000 0.04208668 0.00000073
0.00000073 0.20081481 0.00000073
0.00000073 0.20081481 0.00000073
0.00000073 0.20081481 0.00000073
0.04208668 0.20081481 0.00000073
0.20081481 0.20081481 0.00000073
0.26055751 0.20081481 0.00000073
0.30518610 0.20081481 0.00000073
0.34323735 0.20081481 0.00000073
0.37773689 0.20081481 0.00000073
0.41013156 0.20081481 0.00000073
0.44122972 0.20081481 0.00000073
0.47152804 0.20081481 0.00000073
0.50135113 0.20081481 0.00000073
0.53091986 0.20081481 0.00000073
0.56038825 0.20081481 0.00000073
0.58986486 0.20081481 0.00000073
0.61942607 0.20081481 0.00000073
0.64912461 0.20081481 0.00000073
0.67899540 0.20081481 0.00000073
0.70905967 0.20081481 0.00000073
0.73932791 0.20081481 0.00000073
0.76980211 0.20081481 0.00000073
0.80047747 0.20081481 0.00000073
0.83134378 0.20081481 0.00000073
0.86238646 0.20081481 0.00000073
0.89358750 0.20081481 0.00000073
0.92492613 0.20081481 0.00000073
0.95637948 0.20081481 0.00000073
0.98792308 0.20081481 0.00000073
1.00000000 0.20081481 0.00000073
1.00000000 0.20081481 0.00000073
1.00000000 0.20081481 0.00000073
1.00000000 0.20081481 0.00000073
0.00000073 0.26055751 0.00000073
0.00000073 0.26055751 0.00000073
0.00000073 0.26055751 0.00000073
0.04208668 0.26055751 0.00000073
0.20081481 0.26055751 0.00000073
0.26055751 0.26055751 0.00000073
0.30518610 0.26055751 0.00000073
0.34323735 0.26055751 0.00000073
0.37773689 0.26055751 0.00000073
0.41013156 0.26055751 0.00000073
0.44122972 0.26055751 0.00000073
0.47152804 0.26055751 0.00000073
0.50135113 0.26055751 0.00000073
0.53091986 0.26055751 0.00000073
0.56038825 0.26055751 0.00000073
0.58986486 0.26055751 0.00000073
0.61942607 0.26055751 0.00000073
0.64912461 0.26055751 0.00000073
0.67899540 0.26055751 0.00000073
0.70905967 0.26055751 0.00000073
0.73932791 0.26055751 0.00000073
0.76980211 0.26055751 0.00000073
0.80047747 0.26055751 0.00000073
0.83134378 0.26055751 0.00000073
0.86238646 0.26055751 0.00000073
0.89358750 0.26055751 0.00000073
0.92492613 0.26055751 0.00000073
0.95637948 0.26055751 0.00000073
0.98792308 0.26055751 0.00000073
1.00000000 0.26055751 0.00000073
1.00000000 0.26055751 0.00000073
1.00000000 0.26055751 0.00000073
1.00000000 0.26055751 0.00000073
0.00000073 0.30518610 0.00000073
0.00000073 0.30518610 0.00000073
0.00000073 0.30518610 0.00000073
0.04208668 0.30518610 0.00000073
0.20081481 0.30518610 0.00000073
0.26055751 0.30518610 0.00000073
0.30518610 0.30518610 0.00000073
0.34323735 0.30518610 0.00000073
0.37773689 0.30518610 0.00000073
0.41013156 0.30518610 0.00000073
0.44122972 0.30518610 0.00000073
0.47152804 0.30518610 0.00000073
0.50135113 0.30518610 0.00000073
0.53091986 0.30518610 0.00000073
0.56038825 0.30518610 0.00000073
0.58986486 0.30518610 0.00000073
0.61942607 0.30518610 0.00000073
0.64912461 0.30518610 0.00000073
0.67899540 0.30518610 0.00000073
0.70905967 0.30518610 0.00000073
0.73932791 0.30518610 0.00000073
0.76980211 0.30518610 0.00000073
0.80047747 0.30518610 0.00000073
0.83134378 0.30518610 0.00000073
0.86238646 0.30518610 0.00000073
0.89358750 0.30518610 0.00000073
0.92492613 0.30518610 0.00000073
0.95637948 0.30518610 0.00000073
0.98792308 0.30518610 0.00000073
1.00000000 0.30518610 0.00000073
1.00000000 0.30518610 0.00000073
1.00000000 0.30518610 0.00000073
1.00000000 0.30518610 0.00000073
0.00000073 0.34323735 0.00000073
0.00000073 0.34323735 0.00000073
0.00000073 0.34323735 0.00000073
0.04208668 0.34323735 0.00000073
0.20081481 0.34323735 0.00000073
0.26055751 0.34323735 0.00000073
0.30518610 0.34323735 0.00000073
0.34323735 0.34323735 0.00000073
0.37773689 0.34323735 0.00000073
0.41013156 0.34323735 0.00000073
0.44122972 0.34323735 0.00000073
0.47152804 0.34323735 0.00000073
0.50135113 0.34323735 0.00000073
0.53091986 0.34323735 0.00000073
0.56038825 0.34323735 0.00000073
0.58986486 0.34323735 0.00000073
0.61942607 0.34323735 0.00000073
0.64912461 0.34323735 0.00000073
0.67899540 0.34323735 0.00000073
0.70905967 0.34323735 0.00000073
0.73932791 0.34323735 0.00000073
0.76980211 0.34323735 0.00000073
0.80047747 0.34323735 0.00000073
0.83134378 0.34323735 0.00000073
0.86238646 0.34323735 0.00000073
0.89358750 0.34323735 0.00000073
0.92492613 0.34323735 0.00000073
0.95637948 0.34323735 0.00000073
0.98792308 0.34323735 0.00000073
1.00000000 0.34323735 0.00000073
1.00000000 0.34323735 0.00000073
1.00000000 0.34323735 0.00000073
1.00000000 0.34323735 0.00000073
0.00000073 0.37773689 0.00000073
0.00000073 0.37773689 0.00000073
0.00000073 0.37773689 0.00000073
0.04208668 0.37773689 0.00000073
0.20081481 0.37773689 0.00000073
0.26055751 0.37773689 0.00000073
0.30518610 0.37773689 0.00000073
0.34323735 0.37773689 0.00000073
0.37773689 0.37773689 0.00000073
0.41013156 0.37773689 0.00000073
0.44122972 0.37773689 0.00000073
0.47152804 0.37773689 0.00000073
0.50135113 0.37773689 0.00000073
0.53091986 0.37773689 0.00000073
0.56038825 0.37773689 0.00000073
0.58986486 0.37773689 0.00000073
0.61942607 0.37773689 0.00000073
0.64912461 0.37773689 0.00000073
0.67899540 0.37773689 0.00000073
0.70905967 0.37773689 0.00000073
0.73932791 0.37773689 0.00000073
0.76980211 0.37773689 0.00000073
0.80047747 0.37773689 0.00000073
0.83134378 0.37773689 0.00000073
0.86238646 0.37773689 0.00000073
0.89358750 0.37773689 0.00000073
0.92492613 0.37773689 0.00000073
0.95637948 0.37773689 0.00000073
0.98792308 0.37773689 0.00000073
1.00000000 0.37773689 0.00000073
1.00000000 0.37773689 0.00000073
1.00000000 0.37773689 0.00000073
1.00000000 0.37773689 0.00000073
0.00000073 0.41013156 0.00000073
0.00000073 0.41013156 0.00000073
0.00000073 0.41013156 0.00000073
0.04208668 0.41013156 0.00000073
0.20081481 0.41013156 0.00000073
0.26055751 0.41013156 0.00000073
0.30518610 0.41013156 0.00000073
0.34323735 0.41013156 0.00000073
0.37773689 0.41013156 0.00000073
0.41013156 0.41013156 0.00000073
0.44122972 0.41013156 0.00000073
0.47152804 0.41013156 0.00000073
0.50135113 0.41013156 0.00000073
0.53091986 0.41013156 0.00000073
0.56038825 0.41013156 0.00000073
0.58986486 0.41013156 0.00000073
0.61942607 0.41013156 0.00000073
0.64912461 0.41013156 0.00000073
0.67899540 0.41013156 0.00000073
0.70905967 0.41013156 0.00000073
0.73932791 0.41013156 0.00000073
0.76980211 0.41013156 0.00000073
0.80047747 0.41013156 0.00000073
0.83134378 0.41013156 0.00000073
0.86238646 0.41013156 0.00000073
0.89358750 0.41013156 0.00000073
0.92492613 0.41013156 0.00000073
0.95637948 0.41013156 0.00000073
0.98792308 0.41013156 0.00000073
1.00000000 0.41013156 0.00000073
1.00000000 0.41013156 0.00000073
1.00000000 0.41013156 0.00000073
1.00000000 0.41013156 0.00000073
0.00000073 0.44122972 0.00000073
0.00000073 0.44122972 0.00000073
0.00000073 0.44122972 0.00000073
0.04208668 0.44122972 0.00000073
0.20081481 0.44122972 0.00000073
0.26055751 0.44122972 0.00000073
0.30518610 0.44122972 0.00000073
0.34323735 0.44122972 0.00000073
0.37773689 0.44122972 0.00000073
0.41013156 0.44122972 0.00000073
0.44122972 0.44122972 0.00000073
0.47152804 0.44122972 0.00000073
0.50135113 0.44122972 0.00000073
0.53091986 0.44122972 0.00000073
0.56038825 0.44122972 0.00000073
0.58986486 0.44122972 0.00000073
0.61942607 0.44122972 0.00000073
0.64912461 0.44122972 0.00000073
0.67899540 0.44122972 0.00000073
0.70905967 0.44122972 0.00000073
0.73932791 0.44122972 0.00000073
0.76980211 0.44122972 0.00000073
0.80047747 0.44122972 0.00000073
0.83134378 0.44122972 0.00000073
0.86238646 0.44122972 0.00000073
0.89358750 0.44122972 0.00000073
0.92492613 0.44122972 0.00000073
0.95637948 0.44122972 0.00000073
0.98792308 0.44122972 0.00000073
1.00000000 0.44122972 0.00000073
1.00000000 0.44122972 0.00000073
1.00000000 0.44122972 0.00000073
1.00000000 0.44122972 0.00000073
0.00000073 0.47152804 0.00000073
0.00000073 0.47152804 0.00000073
0.00000073 0.47152804 0.00000073
0.04208668 0.47152804 0.00000073
0.20081481 0.47152804 0.00000073
0.26055751 0.47152804 0.00000073
0.30518610 0.47152804 0.00000073
0.34323735 0.47152804 0.00000073
0.37773689 0.47152804 0.00000073
0.41013156 0.47152804 0.00000073
0.44122972 0.47152804 0.00000073
0.47152804 0.47152804 0.00000073
0.50135113 0.47152804 0.00000073
0.53091986 0.47152804 0.00000073
0.56038825 0.47152804 0.00000073
0.58986486 0.47152804 0.00000073
0.61942607 0.47152804 0.00000073
0.64912461 0.47152804 0.00000073
0.67899540 0.47152804 0.00000073
0.70905967 0.47152804 0.00000073
0.73932791 0.47152804 0.00000073
0.76980211 0.47152804 0.00000073
0.80047747 0.47152804 0.00000073
0.83134378 0.47152804 0.00000073
0.86238646 0.47152804 0.00000073
0.89358750 0.47152804 0.00000073
0.92492613 0.47152804 0.00000073
0.95637948 0.47152804 0.00000073
0.98792308 0.47152804 0.00000073
1.00000000 0.47152804 0.00000073
1.00000000 0.47152804 0.00000073
1.00000000 0.47152804 0.00000073
1.00000000 0.47152804 0.00000073
0.00000073 0.50135113 0.00000073
0.00000073 0.50135113 0.00000073
0.00000073 0.50135113 0.00000073
0.04208668 0.50135113 0.00000073
0.20081481 0.50135113 0.00000073
0.26055751 0.50135113 0.00000073
0.30518610 0.50135113 0.00000073
0.34323735 0.50135113 0.00000073
0.37773689 0.50135113 0.00000073
0.41013156 0.50135113 0.00000073
0.44122972 0.50135113 0.00000073
0.47152804 0.50135113 0.00000073
0.50135113 0.50135113 0.00000073
0.53091986 0.50135113 0.00000073
0.56038825 0.50135113 0.00000073
0.58986486 0.50135113 0.00000073
0.61942607 0.50135113 0.00000073
0.64912461 0.50135113 0.00000073
0.67899540 0.50135113 0.00000073
0.70905967 0.50135113 0.00000073
0.73932791 0.50135113 0.00000073
0.76980211 0.50135113 0.00000073
0.80047747 0.50135113 0.00000073
0.83134378 0.50135113 0.00000073
0.86238646 0.50135113 0.00000073
0.89358750 0.50135113 0.00000073
0.92492613 0.50135113 0.00000073
0.95637948 0.50135113 0.00000073
0.98792308 0.50135113 0.00000073
1.00000000 0.50135113 0.00000073
1.00000000 0.50135113 0.00000073
1.00000000 0.50135113 0.00000073
1.00000000 0.50135113 0.00000073
0.00000073 0.53091986 0.00000073
0.00000073 0.53091986 0.00000073
0.00000073 0.53091986 0.00000073
0.04208668 0.53091986 0.00000073
0.20081481 0.53091986 0.00000073
0.26055751 0.53091986 0.00000073
0.30518610 0.53091986 0.00000073
0.34323735 0.53091986 0.00000073
0.37773689 0.53091986 0.00000073
0.41013156 0.53091986 0.00000073
0.44122972 0.53091986 0.00000073
0.47152804 0.53091986 0.00000073
0.50135113 0.53091986 0.00000073
0.53091986 0.53091986 0.00000073
0.56038825 0.53091986 0.00000073
0.58986486 0.53091986 0.00000073
0.61942607 0.53091986 0.00000073
0.64912461 0.53091986 0.00000073
0.67899540 0.53091986 0.00000073
0.70905967 0.53091986 0.00000073
0.73932791 0.53091986 0.00000073
0.76980211 0.53091986 0.00000073
0.80047747 0.53091986 0.00000073
0.83134378 0.53091986 0.00000073
0.86238646 0.53091986 0.00000073
0.89358750 0.53091986 0.00000073
0.92492613 0.53091986 0.00000073
0.95637948 0.53091986 0.00000073
0.98792308 0.53091986 0.00000073
1.00000000 0.53091986 0.00000073
1.00000000 0.53091986 0.00000073
1.00000000 0.53091986 0.00000073
1.00000000 0.53091986 0.00000073
0.00000073 0.56038825 0.00000073
0.00000073 0.56038825 0.00000073
0.00000073 0.56038825 0.00000073
0.04208668 0.56038825 0.00000073
0.20081481 0.56038825 0.00000073
0.26055751 0.56038825 0.00000073
0.30518610 0.56038825 0.00000073
0.34323735 0.56038825 0.00000073
0.37773689 0.56038825 0.00000073
0.41013156 0.56038825 0.00000073
0.44122972 0.56038825 0.00000073
0.47152804 0.56038825 0.00000073
0.50135113 0.56038825 0.00000073
0.53091986 0.56038825 0.00000073
0.56038825 0.56038825 0.00000073
0.58986486 0.56038825 0.00000073
0.61942607 0.56038825 0.00000073
0.64912461 0.56038825 0.00000073
0.67899540 0.56038825 0.00000073
0.70905967 0.56038825 0.00000073
0.73932791 0.56038825 0.00000073
0.76980211 0.56038825 0.00000073
0.80047747 0.56038825 0.00000073
0.83134378 0.56038825 0.00000073
0.86238646 0.56038825 0.00000073
0.89358750 0.56038825 0.00000073
0.92492613 0.56038825 0.00000073
0.95637948 0.56038825 0.00000073
0.98792308 0.56038825 0.00000073
1.00000000 0.56038825 0.00000073
1.00000000 0.56038825 0.00000073
1.00000000 0.56038825 0.00000073
1.00000000 0.56038825 0.00000073
0.00000073 0.58986486 0.00000073
0.00000073 0.58986486 0.00000073
0.00000073 0.58986486 0.00000073
0.04208668 0.58986486 0.00000073
0.20081481 0.58986486 0.00000073
0.26055751 0.58986486 0.00000073
0.30518610 0.58986486 0.00000073
0.34323735 0.58986486 0.00000073
0.37773689 0.58986486 0.00000073
0.41013156 0.58986486 0.00000073
0.44122972 0.58986486 0.00000073
0.47152804 0.58986486 0.00000073
0.50135113 0.58986486 0.00000073
0.53091986 0.58986486 0.00000073
0.56038825 0.58986486 0.00000073
0.58986486 0.58986486 0.00000073
0.61942607 0.58986486 0.00000073
0.64912461 0.58986486 0.00000073
0.67899540 0.58986486 0.00000073
0.70905967 0.58986486 0.00000073
0.73932791 0.58986486 0.00000073
0.76980211 0.58986486 0.00000073
0.80047747 0.58986486 0.00000073
0.83134378 0.58986486 0.00000073
0.86238646 0.58986486 0.00000073
0.89358750 0.58986486 0.00000073
0.92492613 0.58986486 0.00000073
0.95637948 0.58986486 0.00000073
0.98792308 0.58986486 0.00000073
1.00000000 0.58986486 0.00000073
1.00000000 0.58986486 0.00000073
1.00000000 0.58986486 0.00000073
1.00000000 0.58986486 0.00000073
0.00000073 0.61942607 0.00000073
0.00000073 0.61942607 0.00000073
0.00000073 0.61942607 0.00000073
0.04208668 0.61942607 0.00000073
0.20081481 0.61942607 0.00000073
0.26055751 0.61942607 0.00000073
0.30518610 0.61942607 0.00000073
0.34323735 0.61942607 0.00000073
0.37773689 0.61942607 0.00000073
0.41013156 0.61942607 0.00000073
0.44122972 0.61942607 0.00000073
0.47152804 0.61942607 0.00000073
0.50135113 0.61942607 0.00000073
0.53091986 0.61942607 0.00000073
0.56038825 0.61942607 0.00000073
0.58986486 0.61942607 0.00000073
0.61942607 0.61942607 0.00000073
0.64912461 0.61942607 0.00000073
0.67899540 0.61942607 0.00000073
0.70905967 0.61942607 0.00000073
0.73932791 0.61942607 0.00000073
0.76980211 0.61942607 0.00000073
0.80047747 0.61942607 0.00000073
0.83134378 0.61942607 0.00000073
0.86238646 0.61942607 0.00000073
0.89358750 0.61942607 0.00000073
0.92492613 0.61942607 0.00000073
0.95637948 0.61942607 0.00000073
0.98792308 0.61942607 0.00000073
1.00000000 0.61942607 0.00000073
1.00000000 0.61942607 0.00000073
1.00000000 0.61942607 0.00000073
1.00000000 0.61942607 0.00000073
0.00000073 0.64912461 0.00000073
0.00000073 0.64912461 0.00000073
0.00000073 0.64912461 0.00000073
0.04208668 0.64912461 0.00000073
0.20081481 0.64912461 0.00000073
0.26055751 0.64912461 0.00000073
0.30518610 0.64912461 0.00000073
0.34323735 0.64912461 0.00000073
0.37773689 0.64912461 0.00000073
0.41013156 0.64912461 0.00000073
0.44122972 0.64912461 0.00000073
0.47152804 0.64912461 0.00000073
0.50135113 0.64912461 0.00000073
0.53091986 0.64912461 0.00000073
0.56038825 0.64912461 0.00000073
0.58986486 0.64912461 0.00000073
0.61942607 0.64912461 0.00000073
0.64912461 0.64912461 0.00000073
0.67899540 0.64912461 0.00000073
0.70905967 0.64912461 0.00000073
0.73932791 0.64912461 0.00000073
0.76980211 0.64912461 0.00000073
0.80047747 0.64912461 0.00000073
0.83134378 0.64912461 0.00000073
0.86238646 0.64912461 0.00000073
0.89358750 0.64912461 0.00000073
0.92492613 0.64912461 0.00000073
0.95637948 0.64912461 0.00000073
0.98792308 0.64912461 0.00000073
1.00000000 0.64912461 0.00000073
1.00000000 0.64912461 0.00000073
1.00000000 0.64912461 0.00000073
1.00000000 0.64912461 0.00000073
0.00000073 0.67899540 0.00000073
0.00000073 0.67899540 0.00000073
0.00000073 0.67899540 0.00000073
0.04208668 0.67899540 0.00000073
0.20081481 0.67899540 0.00000073
0.26055751 0.67899540 0.00000073
0.30518610 0.67899540 0.00000073
0.34323735 0.67899540 0.00000073
0.37773689 0.67899540 0.00000073
0.41013156 0.67899540 0.00000073
0.44122972 0.67899540 0.00000073
0.47152804 0.67899540 0.00000073
0.50135113 0.67899540 0.00000073
0.53091986 0.67899540 0.00000073
0.56038825 0.67899540 0.00000073
0.58986486 0.67899540 0.00000073
0.61942607 0.67899540 0.00000073
0.64912461 0.67899540 0.00000073
0.67899540 0.67899540 0.00000073
0.70905967 0.67899540 0.00000073
0.73932791 0.67899540 0.00000073
0.76980211 0.67899540 0.00000073
0.80047747 0.67899540 0.00000073
0.83134378 0.67899540 0.00000073
0.86238646 0.67899540 0.00000073
0.89358750 0.67899540 0.00000073
0.92492613 0.67899540 0.00000073
0.95637948 0.67899540 0.00000073
0.98792308 0.67899540 0.00000073
1.00000000 0.67899540 0.00000073
1.00000000 0.67899540 0.00000073
1.00000000 0.67899540 0.00000073
1.00000000 0.67899540 0.00000073
0.00000073 0.70905967 0.00000073
0.00000073 0.70905967 0.00000073
0.00000073 0.70905967 0.00000073
0.04208668 0.70905967 0.00000073
0.20081481 0.70905967 0.00000073
0.26055751 0.70905967 0.00000073
0.30518610 0.70905967 0.00000073
0.34323735 0.70905967 0.00000073
0.37773689 0.70905967 0.00000073
0.41013156 0.70905967 0.00000073
0.44122972 0.70905967 0.00000073
0.47152804 0.70905967 0.00000073
0.50135113 0.70905967 0.00000073
0.53091986 0.70905967 0.00000073
0.56038825 0.70905967 0.00000073
0.58986486 0.70905967 0.00000073
0.61942607 0.70905967 0.00000073
0.64912461 0.70905967 0.00000073
0.67899540 0.70905967 0.00000073
0.70905967 0.70905967 0.00000073
0.73932791 0.70905967 0.00000073
0.76980211 0.70905967 0.00000073
0.80047747 0.70905967 0.00000073
0.83134378 0.70905967 0.00000073
0.86238646 0.70905967 0.00000073
0.89358750 0.70905967 0.00000073
0.92492613 0.70905967 0.00000073
0.95637948 0.70905967 0.00000073
0.98792308 0.70905967 0.00000073
1.00000000 0.70905967 0.00000073
1.00000000 0.70905967 0.00000073
1.00000000 0.70905967 0.00000073
1.00000000 0.70905967 0.00000073
0.00000073 0.73932791 0.00000073
0.00000073 0.73932791 0.00000073
0.00000073 0.73932791 0.00000073
0.04208668 0.73932791 0.00000073
0.20081481 0.73932791 0.00000073
0.26055751 0.73932791 0.00000073
0.30518610 0.73932791 0.00000073
0.34323735 0.73932791 0.00000073
0.37773689 0.73932791 0.00000073
0.41013156 0.73932791 0.00000073
0.44122972 0.73932791 0.00000073
0.47152804 0.73932791 0.00000073
0.50135113 0.73932791 0.00000073
0.53091986 0.73932791 0.00000073
0.56038825 0.73932791 0.00000073
0.58986486 0.73932791 0.00000073
0.61942607 0.73932791 0.00000073
0.64912461 0.73932791 0.00000073
0.67899540 0.73932791 0.00000073
0.70905967 0.73932791 0.00000073
0.73932791 0.73932791 0.00000073
0.76980211 0.73932791 0.00000073
0.80047747 0.73932791 0.00000073
0.83134378 0.73932791 0.00000073
0.86238646 0.73932791 0.00000073
0.89358750 0.73932791 0.00000073
0.92492613 0.73932791 0.00000073
0.95637948 0.73932791 0.00000073
0.98792308 0.73932791 0.00000073
1.00000000 0.73932791 0.00000073
1.00000000 0.73932791 0.00000073
1.00000000 0.73932791 0.00000073
1.00000000 0.73932791 0.00000073
0.00000073 0.76980211 0.00000073
0.00000073 0.76980211 0.00000073
0.00000073 0.76980211 0.00000073
0.04208668 0.76980211 0.00000073
0.20081481 0.76980211 0.00000073
0.26055751 0.76980211 0.00000073
0.30518610 0.76980211 0.00000073
0.34323735 0.76980211 0.00000073
0.37773689 0.76980211 0.00000073
0.41013156 0.76980211 0.00000073
0.44122972 0.76980211 0.00000073
0.47152804 0.76980211 0.00000073
0.50135113 0.76980211 0.00000073
0.53091986 0.76980211 0.00000073
0.56038825 0.76980211 0.00000073
0.58986486 0.76980211 0.00000073
0.61942607 0.76980211 0.00000073
0.64912461 0.76980211 0.00000073
0.67899540 0.76980211 0.00000073
0.70905967 0.76980211 0.00000073
0.73932791 0.76980211 0.00000073
0.76980211 0.76980211 0.00000073
0.80047747 0.76980211 0.00000073
0.83134378 0.76980211 0.00000073
0.86238646 0.76980211 0.00000073
0.89358750 0.76980211 0.00000073
0.92492613 0.76980211 0.00000073
