src/ffmpeg_scripts/luts/flog-smpte2084_-2p33.cube
TITLE "flog-smpte2084_-2p33"
LUT_3D_SIZE 5
# Fujifilm F-Log/Rec2020 -> PQ (EOTF Only)/Rec2020, CineEI Shift -2.33, Black Level 0.00% IRE, Input 109% -> Output 109% - Created with LUTCalc v4.01 by Ben Turley October 2020
0.06256172 0.06256172 0.06256172
0.17588832 0.06256172 0.06256172
0.27862835 0.06256172 0.06256172
0.39875440 0.06256172 0.06256172
0.53892252 0.06256172 0.06256172
0.06256172 0.17588832 0.06256172
0.17588832 0.17588832 0.06256172
0.27862835 0.17588832 0.06256172
0.39875440 0.17588832 0.06256172
0.53892252 0.17588832 0.06256172
0.06256172 0.27862835 0.06256172
0.17588832 0.27862835 0.06256172
0.27862835 0.27862835 0.06256172
0.39875440 0.27862835 0.06256172
0.53892252 0.27862835 0.06256172
0.06256172 0.39875440 0.06256172
0.17588832 0.39875440 0.06256172
0.27862835 0.39875440 0.06256172
0.39875440 0.39875440 0.06256172
0.53892252 0.39875440 0.06256172
0.06256172 0.53892252 0.06256172
0.17588832 0.53892252 0.06256172
0.27862835 0.53892252 0.06256172
0.39875440 0.53892252 0.06256172
0.53892252 0.53892252 0.06256172
0.06256172 0.06256172 0.17588832
0.17588832 0.06256172 0.17588832
0.27862835 0.06256172 0.17588832
0.39875440 0.06256172 0.17588832
0.53892252 0.06256172 0.17588832
0.06256172 0.17588832 0.17588832
0.17588832 0.17588832 0.17588832
0.27862835 0.17588832 0.17588832
0.39875440 0.17588832 0.17588832
0.53892252 0.17588832 0.17588832
0.06256172 0.27862835 0.17588832
0.17588832 0.27862835 0.17588832
0.27862835 0.27862835 0.17588832
0.39875440 0.27862835 0.17588832
0.53892252 0.27862835 0.17588832
0.06256172 0.39875440 0.17588832
0.17588832 0.39875440 0.17588832
0.27862835 0.39875440 0.17588832
0.39875440 0.39875440 0.17588832
0.53892252 0.39875440 0.17588832
0.06256172 0.53892252 0.17588832
0.17588832 0.53892252 0.17588832
0.27862835 0.53892252 0.17588832
0.39875440 0.53892252 0.17588832
0.53892252 0.53892252 0.17588832
0.06256172 0.06256172 0.27862835
0.17588832 0.06256172 0.27862835
0.27862835 0.06256172 0.27862835
0.39875440 0.06256172 0.27862835
0.53892252 0.06256172 0.27862835
0.06256172 0.17588832 0.27862835
0.17588832 0.17588832 0.27862835
0.27862835 0.17588832 0.27862835
0.39875440 0.17588832 0.27862835
0.53892252 0.17588832 0.27862835
0.06256172 0.27862835 0.27862835
0.17588832 0.27862835 0.27862835
0.27862835 0.27862835 0.27862835
0.39875440 0.27862835 0.27862835
0.53892252 0.27862835 0.27862835
0.06256172 0.39875440 0.27862835
0.17588832 0.39875440 0.27862835
0.27862835 0.39875440 0.27862835
0.39875440 0.39875440 0.27862835
0.53892252 0.39875440 0.27862835
0.06256172 0.53892252 0.27862835
0.17588832 0.53892252 0.27862835
0.27862835 0.53892252 0.27862835
0.39875440 0.53892252 0.27862835
0.53892252 0.53892252 0.27862835
0.06256172 0.06256172 0.39875440
0.17588832 0.06256172 0.39875440
0.27862835 0.06256172 0.39875440
0.39875440 0.06256172 0.39875440
0.53892252 0.06256172 0.39875440
0.06256172 0.17588832 0.39875440
0.17588832 0.17588832 0.39875440
0.27862835 0.17588832 0.39875440
0.39875440 0.17588832 0.39875440
0.53892252 0.17588832 0.39875440
0.06256172 0.27862835 0.39875440
0.17588832 0.27862835 0.39875440
0.27862835 0.27862835 0.39875440
0.39875440 0.27862835 0.39875440
0.53892252 0.27862835 0.39875440
0.06256172 0.39875440 0.39875440
0.17588832 0.39875440 0.39875440
0.27862835 0.39875440 0.39875440
0.39875440 0.39875440 0.39875440
0.53892252 0.39875440 0.39875440
0.06256172 0.53892252 0.39875440
0.17588832 0.53892252 0.39875440
0.27862835 0.53892252 0.39875440
0.39875440 0.53892252 0.39875440
0.53892252 0.53892252 0.39875440
0.06256172 0.06256172 0.53892252
0.17588832 0.06256172 0.53892252
0.27862835 0.06256172 0.53892252
0.39875440 0.06256172 0.53892252
0.53892252 0.06256172 0.53892252
0.06256172 0.17588832 0.53892252
0.17588832 0.17588832 0.53892252
0.27862835 0.17588832 0.53892252
0.39875440 0.17588832 0.53892252
0.53892252 0.17588832 0.53892252
0.06256172 0.27862835 0.53892252
0.17588832 0.27862835 0.53892252
0.27862835 0.27862835 0.53892252
0.39875440 0.27862835 0.53892252
0.53892252 0.27862835 0.53892252
0.06256172 0.39875440 0.53892252
0.17588832 0.39875440 0.53892252
0.27862835 0.39875440 0.53892252
0.39875440 0.39875440 0.53892252
0.53892252 0.39875440 0.53892252
0.06256172 0.53892252 0.53892252
0.17588832 0.53892252 0.53892252
0.27862835 0.53892252 0.53892252
0.39875440 0.53892252 0.53892252
0.53892252 0.53892252 0.53892252
