src/ffmpeg_scripts/luts/flog-smpte2084_-3p67.cube
TITLE "flog-smpte2084_-3p67"
LUT_3D_SIZE 5
# Fujifilm F-Log/Rec2020 -> PQ (EOTF Only)/Rec2020, CineEI Shift -3.67, Black Level 0.00% IRE, Input 109% -> Output 109% - Created with LUTCalc v4.01 by Ben Turley October 2020
0.06256172 0.06256172 0.06256172
0.14311819 0.06256172 0.06256172
0.22654461 0.06256172 0.06256172
0.33091416 0.06256172 0.06256172
0.45950695 0.06256172 0.06256172
0.06256172 0.14311819 0.06256172
0.14311819 0.14311819 0.06256172
0.22654461 0.14311819 0.06256172
0.33091416 0.14311819 0.06256172
0.45950695 0.14311819 0.06256172
0.06256172 0.22654461 0.06256172
0.14311819 0.22654461 0.06256172
0.22654461 0.22654461 0.06256172
0.33091416 0.22654461 0.06256172
0.45950695 0.22654461 0.06256172
0.06256172 0.33091416 0.06256172
0.14311819 0.33091416 0.06256172
0.22654461 0.33091416 0.06256172
0.33091416 0.33091416 0.06256172
0.45950695 0.33091416 0.06256172
0.06256172 0.45950695 0.06256172
0.14311819 0.45950695 0.06256172
0.22654461 0.45950695 0.06256172
0.33091416 0.45950695 0.06256172
0.45950695 0.45950695 0.06256172
0.06256172 0.06256172 0.14311819
0.14311819 0.06256172 0.14311819
0.22654461 0.06256172 0.14311819
0.33091416 0.06256172 0.14311819
0.45950695 0.06256172 0.14311819
0.06256172 0.14311819 0.14311819
0.14311819 0.14311819 0.14311819
0.22654461 0.14311819 0.14311819
0.33091416 0.14311819 0.14311819
0.45950695 0.14311819 0.14311819
0.06256172 0.22654461 0.14311819
0.14311819 0.22654461 0.14311819
0.22654461 0.22654461 0.14311819
0.33091416 0.22654461 0.14311819
0.45950695 0.22654461 0.14311819
0.06256172 0.33091416 0.14311819
0.14311819 0.33091416 0.14311819
0.22654461 0.33091416 0.14311819
0.33091416 0.33091416 0.14311819
0.45950695 0.33091416 0.14311819
0.06256172 0.45950695 0.14311819
0.14311819 0.45950695 0.14311819
0.22654461 0.45950695 0.14311819
0.33091416 0.45950695 0.14311819
0.45950695 0.45950695 0.14311819
0.06256172 0.06256172 0.22654461
0.14311819 0.06256172 0.22654461
0.22654461 0.06256172 0.22654461
0.33091416 0.06256172 0.22654461
0.45950695 0.06256172 0.22654461
0.06256172 0.14311819 0.22654461
0.14311819 0.14311819 0.22654461
0.22654461 0.14311819 0.22654461
0.33091416 0.14311819 0.22654461
0.45950695 0.14311819 0.22654461
0.06256172 0.22654461 0.22654461
0.14311819 0.22654461 0.22654461
0.22654461 0.22654461 0.22654461
0.33091416 0.22654461 0.22654461
0.45950695 0.22654461 0.22654461
0.06256172 0.33091416 0.22654461
0.14311819 0.33091416 0.22654461
0.22654461 0.33091416 0.22654461
0.33091416 0.33091416 0.22654461
0.45950695 0.33091416 0.22654461
0.06256172 0.45950695 0.22654461
0.14311819 0.45950695 0.22654461
0.22654461 0.45950695 0.22654461
0.33091416 0.45950695 0.22654461
0.45950695 0.45950695 0.22654461
0.06256172 0.06256172 0.33091416
0.14311819 0.06256172 0.33091416
0.22654461 0.06256172 0.33091416
0.33091416 0.06256172 0.33091416
0.45950695 0.06256172 0.33091416
0.06256172 0.14311819 0.33091416
0.14311819 0.14311819 0.33091416
0.22654461 0.14311819 0.33091416
0.33091416 0.14311819 0.33091416
0.45950695 0.14311819 0.33091416
0.06256172 0.22654461 0.33091416
0.14311819 0.22654461 0.33091416
0.22654461 0.22654461 0.33091416
0.33091416 0.22654461 0.33091416
0.45950695 0.22654461 0.33091416
0.06256172 0.33091416 0.33091416
0.14311819 0.33091416 0.33091416
0.22654461 0.33091416 0.33091416
0.33091416 0.33091416 0.33091416
0.45950695 0.33091416 0.33091416
0.06256172 0.45950695 0.33091416
0.14311819 0.45950695 0.33091416
0.22654461 0.45950695 0.33091416
0.33091416 0.45950695 0.33091416
0.45950695 0.45950695 0.33091416
0.06256172 0.06256172 0.45950695
0.14311819 0.06256172 0.45950695
0.22654461 0.06256172 0.45950695
0.33091416 0.06256172 0.45950695
0.45950695 0.06256172 0.45950695
0.06256172 0.14311819 0.45950695
0.14311819 0.14311819 0.45950695
0.22654461 0.14311819 0.45950695
0.33091416 0.14311819 0.45950695
0.45950695 0.14311819 0.45950695
0.06256172 0.22654461 0.45950695
0.14311819 0.22654461 0.45950695
0.22654461 0.22654461 0.45950695
0.33091416 0.22654461 0.45950695
0.45950695 0.22654461 0.45950695
0.06256172 0.33091416 0.45950695
0.14311819 0.33091416 0.45950695
0.22654461 0.33091416 0.45950695
0.33091416 0.33091416 0.45950695
0.45950695 0.33091416 0.45950695
0.06256172 0.45950695 0.45950695
0.14311819 0.45950695 0.45950695
0.22654461 0.45950695 0.45950695
0.33091416 0.45950695 0.45950695
0.45950695 0.45950695 0.45950695
