src/ffmpeg_scripts/luts/flog-smpte2084_1p33.cube
TITLE "flog-smpte2084_1p33"
LUT_3D_SIZE 5
# Fujifilm F-Log/Rec2020 -> PQ (EOTF Only)/Rec2020, CineEI Shift 1.33, Black Level 0.00% IRE, Input 109% -> Output 109% - Created with LUTCalc v4.01 by Ben Turley October 2020
0.06256172 0.06256172 0.06256172
0.31106041 0.06256172 0.06256172
0.46447813 0.06256172 0.06256172
0.61662467 0.06256172 0.06256172
0.77287378 0.06256172 0.06256172
0.06256172 0.31106041 0.06256172
0.31106041 0.31106041 0.06256172
0.46447813 0.31106041 0.06256172
0.61662467 0.31106041 0.06256172
0.77287378 0.31106041 0.06256172
0.06256172 0.46447813 0.06256172
0.31106041 0.46447813 0.06256172
0.46447813 0.46447813 0.06256172
0.61662467 0.46447813 0.06256172
0.77287378 0.46447813 0.06256172
0.06256172 0.61662467 0.06256172
0.31106041 0.61662467 0.06256172
0.46447813 0.61662467 0.06256172
0.61662467 0.61662467 0.06256172
0.77287378 0.61662467 0.06256172
0.06256172 0.77287378 0.06256172
0.31106041 0.77287378 0.06256172
0.46447813 0.77287378 0.06256172
0.61662467 0.77287378 0.06256172
0.77287378 0.77287378 0.06256172
0.06256172 0.06256172 0.31106041
0.31106041 0.06256172 0.31106041
0.46447813 0.06256172 0.31106041
0.61662467 0.06256172 0.31106041
0.77287378 0.06256172 0.31106041
0.06256172 0.31106041 0.31106041
0.31106041 0.31106041 0.31106041
0.46447813 0.31106041 0.31106041
0.61662467 0.31106041 0.31106041
0.77287378 0.31106041 0.31106041
0.06256172 0.46447813 0.31106041
0.31106041 0.46447813 0.31106041
0.46447813 0.46447813 0.31106041
0.61662467 0.46447813 0.31106041
0.77287378 0.46447813 0.31106041
0.06256172 0.61662467 0.31106041
0.31106041 0.61662467 0.31106041
0.46447813 0.61662467 0.31106041
0.61662467 0.61662467 0.31106041
0.77287378 0.61662467 0.31106041
0.06256172 0.77287378 0.31106041
0.31106041 0.77287378 0.31106041
0.46447813 0.77287378 0.31106041
0.61662467 0.77287378 0.31106041
0.77287378 0.77287378 0.31106041
0.06256172 0.06256172 0.46447813
0.31106041 0.06256172 0.46447813
0.46447813 0.06256172 0.46447813
0.61662467 0.06256172 0.46447813
0.77287378 0.06256172 0.46447813
0.06256172 0.31106041 0.46447813
0.31106041 0.31106041 0.46447813
0.46447813 0.31106041 0.46447813
0.61662467 0.31106041 0.46447813
0.77287378 0.31106041 0.46447813
0.06256172 0.46447813 0.46447813
0.31106041 0.46447813 0.46447813
0.46447813 0.46447813 0.46447813
0.61662467 0.46447813 0.46447813
0.77287378 0.46447813 0.46447813
0.06256172 0.61662467 0.46447813
0.31106041 0.61662467 0.46447813
0.46447813 0.61662467 0.46447813
0.61662467 0.61662467 0.46447813
0.77287378 0.61662467 0.46447813
0.06256172 0.77287378 0.46447813
0.31106041 0.77287378 0.46447813
0.46447813 0.77287378 0.46447813
0.61662467 0.77287378 0.46447813
0.77287378 0.77287378 0.46447813
0.06256172 0.06256172 0.61662467
0.31106041 0.06256172 0.61662467
0.46447813 0.06256172 0.61662467
0.61662467 0.06256172 0.61662467
0.77287378 0.06256172 0.61662467
0.06256172 0.31106041 0.61662467
0.31106041 0.31106041 0.61662467
0.46447813 0.31106041 0.61662467
0.61662467 0.31106041 0.61662467
0.77287378 0.31106041 0.61662467
0.06256172 0.46447813 0.61662467
0.31106041 0.46447813 0.61662467
0.46447813 0.46447813 0.61662467
0.61662467 0.46447813 0.61662467
0.77287378 0.46447813 0.61662467
0.06256172 0.61662467 0.61662467
0.31106041 0.61662467 0.61662467
0.46447813 0.61662467 0.61662467
0.61662467 0.61662467 0.61662467
0.77287378 0.61662467 0.61662467
0.06256172 0.77287378 0.61662467
0.31106041 0.77287378 0.61662467
0.46447813 0.77287378 0.61662467
0.61662467 0.77287378 0.61662467
0.77287378 0.77287378 0.61662467
0.06256172 0.06256172 0.77287378
0.31106041 0.06256172 0.77287378
0.46447813 0.06256172 0.77287378
0.61662467 0.06256172 0.77287378
0.77287378 0.06256172 0.77287378
0.06256172 0.31106041 0.77287378
0.31106041 0.31106041 0.77287378
0.46447813 0.31106041 0.77287378
0.61662467 0.31106041 0.77287378
0.77287378 0.31106041 0.77287378
0.06256172 0.46447813 0.77287378
0.31106041 0.46447813 0.77287378
0.46447813 0.46447813 0.77287378
0.61662467 0.46447813 0.77287378
0.77287378 0.46447813 0.77287378
0.06256172 0.61662467 0.77287378
0.31106041 0.61662467 0.77287378
0.46447813 0.61662467 0.77287378
0.61662467 0.61662467 0.77287378
0.77287378 0.61662467 0.77287378
0.06256172 0.77287378 0.77287378
0.31106041 0.77287378 0.77287378
0.46447813 0.77287378 0.77287378
0.61662467 0.77287378 0.77287378
0.77287378 0.77287378 0.77287378
