src/ffmpeg_scripts/luts/flog-smpte2084_2p67.cube
TITLE "flog-smpte2084_2p67"
LUT_3D_SIZE 9
# Fujifilm F-Log/Rec2020 -> PQ (EOTF Only)/Rec2020, CineEI Shift 2.67, Black Level 0.00% IRE, Input 109% -> Output 109% - Created with LUTCalc v4.01 by Ben Turley October 2020
0.06256172 0.06256172 0.06256172
0.24287364 0.06256172 0.06256172
0.37642659 0.06256172 0.06256172
0.46385607 0.06256172 0.06256172
0.54420908 0.06256172 0.06256172
0.62329077 0.06256172 0.06256172
0.70226899 0.06256172 0.06256172
0.78089826 0.06256172 0.06256172
0.85844755 0.06256172 0.06256172
0.06256172 0.24287364 0.06256172
0.24287364 0.24287364 0.06256172
0.37642659 0.24287364 0.06256172
0.46385607 0.24287364 0.06256172
0.54420908 0.24287364 0.06256172
0.62329077 0.24287364 0.06256172
0.70226899 0.24287364 0.06256172
0.78089826 0.24287364 0.06256172
0.85844755 0.24287364 0.06256172
0.06256172 0.37642659 0.06256172
0.24287364 0.37642659 0.06256172
0.37642659 0.37642659 0.06256172
0.46385607 0.37642659 0.06256172
0.54420908 0.37642659 0.06256172
0.62329077 0.37642659 0.06256172
0.70226899 0.37642659 0.06256172
0.78089826 0.37642659 0.06256172
0.85844755 0.37642659 0.06256172
0.06256172 0.46385607 0.06256172
0.24287364 0.46385607 0.06256172
0.37642659 0.46385607 0.06256172
0.46385607 0.46385607 0.06256172
0.54420908 0.46385607 0.06256172
0.62329077 0.46385607 0.06256172
0.70226899 0.46385607 0.06256172
0.78089826 0.46385607 0.06256172
0.85844755 0.46385607 0.06256172
0.06256172 0.54420908 0.06256172
0.24287364 0.54420908 0.06256172
0.37642659 0.54420908 0.06256172
0.46385607 0.54420908 0.06256172
0.54420908 0.54420908 0.06256172
0.62329077 0.54420908 0.06256172
0.70226899 0.54420908 0.06256172
0.78089826 0.54420908 0.06256172
0.85844755 0.54420908 0.06256172
0.06256172 0.62329077 0.06256172
0.24287364 0.62329077 0.06256172
0.37642659 0.62329077 0.06256172
0.46385607 0.62329077 0.06256172
0.54420908 0.62329077 0.06256172
0.62329077 0.62329077 0.06256172
0.70226899 0.62329077 0.06256172
0.78089826 0.62329077 0.06256172
0.85844755 0.62329077 0.06256172
0.06256172 0.70226899 0.06256172
0.24287364 0.70226899 0.06256172
0.37642659 0.70226899 0.06256172
0.46385607 0.70226899 0.06256172
0.54420908 0.70226899 0.06256172
0.62329077 0.70226899 0.06256172
0.70226899 0.70226899 0.06256172
0.78089826 0.70226899 0.06256172
0.85844755 0.70226899 0.06256172
0.06256172 0.78089826 0.06256172
0.24287364 0.78089826 0.06256172
0.37642659 0.78089826 0.06256172
0.46385607 0.78089826 0.06256172
0.54420908 0.78089826 0.06256172
0.62329077 0.78089826 0.06256172
0.70226899 0.78089826 0.06256172
0.78089826 0.78089826 0.06256172
0.85844755 0.78089826 0.06256172
0.06256172 0.85844755 0.06256172
0.24287364 0.85844755 0.06256172
0.37642659 0.85844755 0.06256172
0.46385607 0.85844755 0.06256172
0.54420908 0.85844755 0.06256172
0.62329077 0.85844755 0.06256172
0.70226899 0.85844755 0.06256172
0.78089826 0.85844755 0.06256172
0.85844755 0.85844755 0.06256172
0.06256172 0.06256172 0.24287364
0.24287364 0.06256172 0.24287364
0.37642659 0.06256172 0.24287364
0.46385607 0.06256172 0.24287364
0.54420908 0.06256172 0.24287364
0.62329077 0.06256172 0.24287364
0.70226899 0.06256172 0.24287364
0.78089826 0.06256172 0.24287364
0.85844755 0.06256172 0.24287364
0.06256172 0.24287364 0.24287364
0.24287364 0.24287364 0.24287364
0.37642659 0.24287364 0.24287364
0.46385607 0.24287364 0.24287364
0.54420908 0.24287364 0.24287364
0.62329077 0.24287364 0.24287364
0.70226899 0.24287364 0.24287364
0.78089826 0.24287364 0.24287364
0.85844755 0.24287364 0.24287364
0.06256172 0.37642659 0.24287364
0.24287364 0.37642659 0.24287364
0.37642659 0.37642659 0.24287364
0.46385607 0.37642659 0.24287364
0.54420908 0.37642659 0.24287364
0.62329077 0.37642659 0.24287364
0.70226899 0.37642659 0.24287364
0.78089826 0.37642659 0.24287364
0.85844755 0.37642659 0.24287364
0.06256172 0.46385607 0.24287364
0.24287364 0.46385607 0.24287364
0.37642659 0.46385607 0.24287364
0.46385607 0.46385607 0.24287364
0.54420908 0.46385607 0.24287364
0.62329077 0.46385607 0.24287364
0.70226899 0.46385607 0.24287364
0.78089826 0.46385607 0.24287364
0.85844755 0.46385607 0.24287364
0.06256172 0.54420908 0.24287364
0.24287364 0.54420908 0.24287364
0.37642659 0.54420908 0.24287364
0.46385607 0.54420908 0.24287364
0.54420908 0.54420908 0.24287364
0.62329077 0.54420908 0.24287364
0.70226899 0.54420908 0.24287364
0.78089826 0.54420908 0.24287364
0.85844755 0.54420908 0.24287364
0.06256172 0.62329077 0.24287364
0.24287364 0.62329077 0.24287364
0.37642659 0.62329077 0.24287364
0.46385607 0.62329077 0.24287364
0.54420908 0.62329077 0.24287364
0.62329077 0.62329077 0.24287364
0.70226899 0.62329077 0.24287364
0.78089826 0.62329077 0.24287364
0.85844755 0.62329077 0.24287364
0.06256172 0.70226899 0.24287364
0.24287364 0.70226899 0.24287364
0.37642659 0.70226899 0.24287364
0.46385607 0.70226899 0.24287364
0.54420908 0.70226899 0.24287364
0.62329077 0.70226899 0.24287364
0.70226899 0.70226899 0.24287364
0.78089826 0.70226899 0.24287364
0.85844755 0.70226899 0.24287364
0.06256172 0.78089826 0.24287364
0.24287364 0.78089826 0.24287364
0.37642659 0.78089826 0.24287364
0.46385607 0.78089826 0.24287364
0.54420908 0.78089826 0.24287364
0.62329077 0.78089826 0.24287364
0.70226899 0.78089826 0.24287364
0.78089826 0.78089826 0.24287364
0.85844755 0.78089826 0.24287364
0.06256172 0.85844755 0.24287364
0.24287364 0.85844755 0.24287364
0.37642659 0.85844755 0.24287364
0.46385607 0.85844755 0.24287364
0.54420908 0.85844755 0.24287364
0.62329077 0.85844755 0.24287364
0.70226899 0.85844755 0.24287364
0.78089826 0.85844755 0.24287364
0.85844755 0.85844755 0.24287364
0.06256172 0.06256172 0.37642659
0.24287364 0.06256172 0.37642659
0.37642659 0.06256172 0.37642659
0.46385607 0.06256172 0.37642659
0.54420908 0.06256172 0.37642659
0.62329077 0.06256172 0.37642659
0.70226899 0.06256172 0.37642659
0.78089826 0.06256172 0.37642659
0.85844755 0.06256172 0.37642659
0.06256172 0.24287364 0.37642659
0.24287364 0.24287364 0.37642659
0.37642659 0.24287364 0.37642659
0.46385607 0.24287364 0.37642659
0.54420908 0.24287364 0.37642659
0.62329077 0.24287364 0.37642659
0.70226899 0.24287364 0.37642659
0.78089826 0.24287364 0.37642659
0.85844755 0.24287364 0.37642659
0.06256172 0.37642659 0.37642659
0.24287364 0.37642659 0.37642659
0.37642659 0.37642659 0.37642659
0.46385607 0.37642659 0.37642659
0.54420908 0.37642659 0.37642659
0.62329077 0.37642659 0.37642659
0.70226899 0.37642659 0.37642659
0.78089826 0.37642659 0.37642659
0.85844755 0.37642659 0.37642659
0.06256172 0.46385607 0.37642659
0.24287364 0.46385607 0.37642659
0.37642659 0.46385607 0.37642659
0.46385607 0.46385607 0.37642659
0.54420908 0.46385607 0.37642659
0.62329077 0.46385607 0.37642659
0.70226899 0.46385607 0.37642659
0.78089826 0.46385607 0.37642659
0.85844755 0.46385607 0.37642659
0.06256172 0.54420908 0.37642659
0.24287364 0.54420908 0.37642659
0.37642659 0.54420908 0.37642659
0.46385607 0.54420908 0.37642659
0.54420908 0.54420908 0.37642659
0.62329077 0.54420908 0.37642659
0.70226899 0.54420908 0.37642659
0.78089826 0.54420908 0.37642659
0.85844755 0.54420908 0.37642659
0.06256172 0.62329077 0.37642659
0.24287364 0.62329077 0.37642659
0.37642659 0.62329077 0.37642659
0.46385607 0.62329077 0.37642659
0.54420908 0.62329077 0.37642659
0.62329077 0.62329077 0.37642659
0.70226899 0.62329077 0.37642659
0.78089826 0.62329077 0.37642659
0.85844755 0.62329077 0.37642659
0.06256172 0.70226899 0.37642659
0.24287364 0.70226899 0.37642659
0.37642659 0.70226899 0.37642659
0.46385607 0.70226899 0.37642659
0.54420908 0.70226899 0.37642659
0.62329077 0.70226899 0.37642659
0.70226899 0.70226899 0.37642659
0.78089826 0.70226899 0.37642659
0.85844755 0.70226899 0.37642659
0.06256172 0.78089826 0.37642659
0.24287364 0.78089826 0.37642659
0.37642659 0.78089826 0.37642659
0.46385607 0.78089826 0.37642659
0.54420908 0.78089826 0.37642659
0.62329077 0.78089826 0.37642659
0.70226899 0.78089826 0.37642659
0.78089826 0.78089826 0.37642659
0.85844755 0.78089826 0.37642659
0.06256172 0.85844755 0.37642659
0.24287364 0.85844755 0.37642659
0.37642659 0.85844755 0.37642659
0.46385607 0.85844755 0.37642659
0.54420908 0.85844755 0.37642659
0.62329077 0.85844755 0.37642659
0.70226899 0.85844755 0.37642659
0.78089826 0.85844755 0.37642659
0.85844755 0.85844755 0.37642659
0.06256172 0.06256172 0.46385607
0.24287364 0.06256172 0.46385607
0.37642659 0.06256172 0.46385607
0.46385607 0.06256172 0.46385607
0.54420908 0.06256172 0.46385607
0.62329077 0.06256172 0.46385607
0.70226899 0.06256172 0.46385607
0.78089826 0.06256172 0.46385607
0.85844755 0.06256172 0.46385607
0.06256172 0.24287364 0.46385607
0.24287364 0.24287364 0.46385607
0.37642659 0.24287364 0.46385607
0.46385607 0.24287364 0.46385607
0.54420908 0.24287364 0.46385607
0.62329077 0.24287364 0.46385607
0.70226899 0.24287364 0.46385607
0.78089826 0.24287364 0.46385607
0.85844755 0.24287364 0.46385607
0.06256172 0.37642659 0.46385607
0.24287364 0.37642659 0.46385607
0.37642659 0.37642659 0.46385607
0.46385607 0.37642659 0.46385607
0.54420908 0.37642659 0.46385607
0.62329077 0.37642659 0.46385607
0.70226899 0.37642659 0.46385607
0.78089826 0.37642659 0.46385607
0.85844755 0.37642659 0.46385607
0.06256172 0.46385607 0.46385607
0.24287364 0.46385607 0.46385607
0.37642659 0.46385607 0.46385607
0.46385607 0.46385607 0.46385607
0.54420908 0.46385607 0.46385607
0.62329077 0.46385607 0.46385607
0.70226899 0.46385607 0.46385607
0.78089826 0.46385607 0.46385607
0.85844755 0.46385607 0.46385607
0.06256172 0.54420908 0.46385607
0.24287364 0.54420908 0.46385607
0.37642659 0.54420908 0.46385607
0.46385607 0.54420908 0.46385607
0.54420908 0.54420908 0.46385607
0.62329077 0.54420908 0.46385607
0.70226899 0.54420908 0.46385607
0.78089826 0.54420908 0.46385607
0.85844755 0.54420908 0.46385607
0.06256172 0.62329077 0.46385607
0.24287364 0.62329077 0.46385607
0.37642659 0.62329077 0.46385607
0.46385607 0.62329077 0.46385607
0.54420908 0.62329077 0.46385607
0.62329077 0.62329077 0.46385607
0.70226899 0.62329077 0.46385607
0.78089826 0.62329077 0.46385607
0.85844755 0.62329077 0.46385607
0.06256172 0.70226899 0.46385607
0.24287364 0.70226899 0.46385607
0.37642659 0.70226899 0.46385607
0.46385607 0.70226899 0.46385607
0.54420908 0.70226899 0.46385607
0.62329077 0.70226899 0.46385607
0.70226899 0.70226899 0.46385607
0.78089826 0.70226899 0.46385607
0.85844755 0.70226899 0.46385607
0.06256172 0.78089826 0.46385607
0.24287364 0.78089826 0.46385607
0.37642659 0.78089826 0.46385607
0.46385607 0.78089826 0.46385607
0.54420908 0.78089826 0.46385607
0.62329077 0.78089826 0.46385607
0.70226899 0.78089826 0.46385607
0.78089826 0.78089826 0.46385607
0.85844755 0.78089826 0.46385607
0.06256172 0.85844755 0.46385607
0.24287364 0.85844755 0.46385607
0.37642659 0.85844755 0.46385607
0.46385607 0.85844755 0.46385607
0.54420908 0.85844755 0.46385607
0.62329077 0.85844755 0.46385607
0.70226899 0.85844755 0.46385607
0.78089826 0.85844755 0.46385607
0.85844755 0.85844755 0.46385607
0.06256172 0.06256172 0.54420908
0.24287364 0.06256172 0.54420908
0.37642659 0.06256172 0.54420908
0.46385607 0.06256172 0.54420908
0.54420908 0.06256172 0.54420908
0.62329077 0.06256172 0.54420908
0.70226899 0.06256172 0.54420908
0.78089826 0.06256172 0.54420908
0.85844755 0.06256172 0.54420908
0.06256172 0.24287364 0.54420908
0.24287364 0.24287364 0.54420908
0.37642659 0.24287364 0.54420908
0.46385607 0.24287364 0.54420908
0.54420908 0.24287364 0.54420908
0.62329077 0.24287364 0.54420908
0.70226899 0.24287364 0.54420908
0.78089826 0.24287364 0.54420908
0.85844755 0.24287364 0.54420908
0.06256172 0.37642659 0.54420908
0.24287364 0.37642659 0.54420908
0.37642659 0.37642659 0.54420908
0.46385607 0.37642659 0.54420908
0.54420908 0.37642659 0.54420908
0.62329077 0.37642659 0.54420908
0.70226899 0.37642659 0.54420908
0.78089826 0.37642659 0.54420908
0.85844755 0.37642659 0.54420908
0.06256172 0.46385607 0.54420908
0.24287364 0.46385607 0.54420908
0.37642659 0.46385607 0.54420908
0.46385607 0.46385607 0.54420908
0.54420908 0.46385607 0.54420908
0.62329077 0.46385607 0.54420908
0.70226899 0.46385607 0.54420908
0.78089826 0.46385607 0.54420908
0.85844755 0.46385607 0.54420908
0.06256172 0.54420908 0.54420908
0.24287364 0.54420908 0.54420908
0.37642659 0.54420908 0.54420908
0.46385607 0.54420908 0.54420908
0.54420908 0.54420908 0.54420908
0.62329077 0.54420908 0.54420908
0.70226899 0.54420908 0.54420908
0.78089826 0.54420908 0.54420908
0.85844755 0.54420908 0.54420908
0.06256172 0.62329077 0.54420908
0.24287364 0.62329077 0.54420908
0.37642659 0.62329077 0.54420908
0.46385607 0.62329077 0.54420908
0.54420908 0.62329077 0.54420908
0.62329077 0.62329077 0.54420908
0.70226899 0.62329077 0.54420908
0.78089826 0.62329077 0.54420908
0.85844755 0.62329077 0.54420908
0.06256172 0.70226899 0.54420908
0.24287364 0.70226899 0.54420908
0.37642659 0.70226899 0.54420908
0.46385607 0.70226899 0.54420908
0.54420908 0.70226899 0.54420908
0.62329077 0.70226899 0.54420908
0.70226899 0.70226899 0.54420908
0.78089826 0.70226899 0.54420908
0.85844755 0.70226899 0.54420908
0.06256172 0.78089826 0.54420908
0.24287364 0.78089826 0.54420908
0.37642659 0.78089826 0.54420908
0.46385607 0.78089826 0.54420908
0.54420908 0.78089826 0.54420908
0.62329077 0.78089826 0.54420908
0.70226899 0.78089826 0.54420908
0.78089826 0.78089826 0.54420908
0.85844755 0.78089826 0.54420908
0.06256172 0.85844755 0.54420908
0.24287364 0.85844755 0.54420908
0.37642659 0.85844755 0.54420908
0.46385607 0.85844755 0.54420908
0.54420908 0.85844755 0.54420908
0.62329077 0.85844755 0.54420908
0.70226899 0.85844755 0.54420908
0.78089826 0.85844755 0.54420908
0.85844755 0.85844755 0.54420908
0.06256172 0.06256172 0.62329077
0.24287364 0.06256172 0.62329077
0.37642659 0.06256172 0.62329077
0.46385607 0.06256172 0.62329077
0.54420908 0.06256172 0.62329077
0.62329077 0.06256172 0.62329077
0.70226899 0.06256172 0.62329077
0.78089826 0.06256172 0.62329077
0.85844755 0.06256172 0.62329077
0.06256172 0.24287364 0.62329077
0.24287364 0.24287364 0.62329077
0.37642659 0.24287364 0.62329077
0.46385607 0.24287364 0.62329077
0.54420908 0.24287364 0.62329077
0.62329077 0.24287364 0.62329077
0.70226899 0.24287364 0.62329077
0.78089826 0.24287364 0.62329077
0.85844755 0.24287364 0.62329077
0.06256172 0.37642659 0.62329077
0.24287364 0.37642659 0.62329077
0.37642659 0.37642659 0.62329077
0.46385607 0.37642659 0.62329077
0.54420908 0.37642659 0.62329077
0.62329077 0.37642659 0.62329077
0.70226899 0.37642659 0.62329077
0.78089826 0.37642659 0.62329077
0.85844755 0.37642659 0.62329077
0.06256172 0.46385607 0.62329077
0.24287364 0.46385607 0.62329077
0.37642659 0.46385607 0.62329077
0.46385607 0.46385607 0.62329077
0.54420908 0.46385607 0.62329077
0.62329077 0.46385607 0.62329077
0.70226899 0.46385607 0.62329077
0.78089826 0.46385607 0.62329077
0.85844755 0.46385607 0.62329077
0.06256172 0.54420908 0.62329077
0.24287364 0.54420908 0.62329077
0.37642659 0.54420908 0.62329077
0.46385607 0.54420908 0.62329077
0.54420908 0.54420908 0.62329077
0.62329077 0.54420908 0.62329077
0.70226899 0.54420908 0.62329077
0.78089826 0.54420908 0.62329077
0.85844755 0.54420908 0.62329077
0.06256172 0.62329077 0.62329077
0.24287364 0.62329077 0.62329077
0.37642659 0.62329077 0.62329077
0.46385607 0.62329077 0.62329077
0.54420908 0.62329077 0.62329077
0.62329077 0.62329077 0.62329077
0.70226899 0.62329077 0.62329077
0.78089826 0.62329077 0.62329077
0.85844755 0.62329077 0.62329077
0.06256172 0.70226899 0.62329077
0.24287364 0.70226899 0.62329077
0.37642659 0.70226899 0.62329077
0.46385607 0.70226899 0.62329077
0.54420908 0.70226899 0.62329077
0.62329077 0.70226899 0.62329077
0.70226899 0.70226899 0.62329077
0.78089826 0.70226899 0.62329077
0.85844755 0.70226899 0.62329077
0.06256172 0.78089826 0.62329077
0.24287364 0.78089826 0.62329077
0.37642659 0.78089826 0.62329077
0.46385607 0.78089826 0.62329077
0.54420908 0.78089826 0.62329077
0.62329077 0.78089826 0.62329077
0.70226899 0.78089826 0.62329077
0.78089826 0.78089826 0.62329077
0.85844755 0.78089826 0.62329077
0.06256172 0.85844755 0.62329077
0.24287364 0.85844755 0.62329077
0.37642659 0.85844755 0.62329077
0.46385607 0.85844755 0.62329077
0.54420908 0.85844755 0.62329077
0.62329077 0.85844755 0.62329077
0.70226899 0.85844755 0.62329077
0.78089826 0.85844755 0.62329077
0.85844755 0.85844755 0.62329077
0.06256172 0.06256172 0.70226899
0.24287364 0.06256172 0.70226899
0.37642659 0.06256172 0.70226899
0.46385607 0.06256172 0.70226899
0.54420908 0.06256172 0.70226899
0.62329077 0.06256172 0.70226899
0.70226899 0.06256172 0.70226899
0.78089826 0.06256172 0.70226899
0.85844755 0.06256172 0.70226899
0.06256172 0.24287364 0.70226899
0.24287364 0.24287364 0.70226899
0.37642659 0.24287364 0.70226899
0.46385607 0.24287364 0.70226899
0.54420908 0.24287364 0.70226899
0.62329077 0.24287364 0.70226899
0.70226899 0.24287364 0.70226899
0.78089826 0.24287364 0.70226899
0.85844755 0.24287364 0.70226899
0.06256172 0.37642659 0.70226899
0.24287364 0.37642659 0.70226899
0.37642659 0.37642659 0.70226899
0.46385607 0.37642659 0.70226899
0.54420908 0.37642659 0.70226899
0.62329077 0.37642659 0.70226899
0.70226899 0.37642659 0.70226899
0.78089826 0.37642659 0.70226899
0.85844755 0.37642659 0.70226899
0.06256172 0.46385607 0.70226899
0.24287364 0.46385607 0.70226899
0.37642659 0.46385607 0.70226899
0.46385607 0.46385607 0.70226899
0.54420908 0.46385607 0.70226899
0.62329077 0.46385607 0.70226899
0.70226899 0.46385607 0.70226899
0.78089826 0.46385607 0.70226899
0.85844755 0.46385607 0.70226899
0.06256172 0.54420908 0.70226899
0.24287364 0.54420908 0.70226899
0.37642659 0.54420908 0.70226899
0.46385607 0.54420908 0.70226899
0.54420908 0.54420908 0.70226899
0.62329077 0.54420908 0.70226899
0.70226899 0.54420908 0.70226899
0.78089826 0.54420908 0.70226899
0.85844755 0.54420908 0.70226899
0.06256172 0.62329077 0.70226899
0.24287364 0.62329077 0.70226899
0.37642659 0.62329077 0.70226899
0.46385607 0.62329077 0.70226899
0.54420908 0.62329077 0.70226899
0.62329077 0.62329077 0.70226899
0.70226899 0.62329077 0.70226899
0.78089826 0.62329077 0.70226899
0.85844755 0.62329077 0.70226899
0.06256172 0.70226899 0.70226899
0.24287364 0.70226899 0.70226899
0.37642659 0.70226899 0.70226899
0.46385607 0.70226899 0.70226899
0.54420908 0.70226899 0.70226899
0.62329077 0.70226899 0.70226899
0.70226899 0.70226899 0.70226899
0.78089826 0.70226899 0.70226899
0.85844755 0.70226899 0.70226899
0.06256172 0.78089826 0.70226899
0.24287364 0.78089826 0.70226899
0.37642659 0.78089826 0.70226899
0.46385607 0.78089826 0.70226899
0.54420908 0.78089826 0.70226899
0.62329077 0.78089826 0.70226899
0.70226899 0.78089826 0.70226899
0.78089826 0.78089826 0.70226899
0.85844755 0.78089826 0.70226899
0.06256172 0.85844755 0.70226899
0.24287364 0.85844755 0.70226899
0.37642659 0.85844755 0.70226899
0.46385607 0.85844755 0.70226899
0.54420908 0.85844755 0.70226899
0.62329077 0.85844755 0.70226899
0.70226899 0.85844755 0.70226899
0.78089826 0.85844755 0.70226899
0.85844755 0.85844755 0.70226899
0.06256172 0.06256172 0.78089826
0.24287364 0.06256172 0.78089826
0.37642659 0.06256172 0.78089826
0.46385607 0.06256172 0.78089826
0.54420908 0.06256172 0.78089826
0.62329077 0.06256172 0.78089826
0.70226899 0.06256172 0.78089826
0.78089826 0.06256172 0.78089826
0.85844755 0.06256172 0.78089826
0.06256172 0.24287364 0.78089826
0.24287364 0.24287364 0.78089826
0.37642659 0.24287364 0.78089826
0.46385607 0.24287364 0.78089826
0.54420908 0.24287364 0.78089826
0.62329077 0.24287364 0.78089826
0.70226899 0.24287364 0.78089826
0.78089826 0.24287364 0.78089826
0.85844755 0.24287364 0.78089826
0.06256172 0.37642659 0.78089826
0.24287364 0.37642659 0.78089826
0.37642659 0.37642659 0.78089826
0.46385607 0.37642659 0.78089826
0.54420908 0.37642659 0.78089826
0.62329077 0.37642659 0.78089826
0.70226899 0.37642659 0.78089826
0.78089826 0.37642659 0.78089826
0.85844755 0.37642659 0.78089826
0.06256172 0.46385607 0.78089826
0.24287364 0.46385607 0.78089826
0.37642659 0.46385607 0.78089826
0.46385607 0.46385607 0.78089826
0.54420908 0.46385607 0.78089826
0.62329077 0.46385607 0.78089826
0.70226899 0.46385607 0.78089826
0.78089826 0.46385607 0.78089826
0.85844755 0.46385607 0.78089826
0.06256172 0.54420908 0.78089826
0.24287364 0.54420908 0.78089826
0.37642659 0.54420908 0.78089826
0.46385607 0.54420908 0.78089826
0.54420908 0.54420908 0.78089826
0.62329077 0.54420908 0.78089826
0.70226899 0.54420908 0.78089826
0.78089826 0.54420908 0.78089826
0.85844755 0.54420908 0.78089826
0.06256172 0.62329077 0.78089826
0.24287364 0.62329077 0.78089826
0.37642659 0.62329077 0.78089826
0.46385607 0.62329077 0.78089826
0.54420908 0.62329077 0.78089826
0.62329077 0.62329077 0.78089826
0.70226899 0.62329077 0.78089826
0.78089826 0.62329077 0.78089826
0.85844755 0.62329077 0.78089826
0.06256172 0.70226899 0.78089826
0.24287364 0.70226899 0.78089826
0.37642659 0.70226899 0.78089826
0.46385607 0.70226899 0.78089826
0.54420908 0.70226899 0.78089826
0.62329077 0.70226899 0.78089826
0.70226899 0.70226899 0.78089826
0.78089826 0.70226899 0.78089826
0.85844755 0.70226899 0.78089826
0.06256172 0.78089826 0.78089826
0.24287364 0.78089826 0.78089826
0.37642659 0.78089826 0.78089826
0.46385607 0.78089826 0.78089826
0.54420908 0.78089826 0.78089826
0.62329077 0.78089826 0.78089826
0.70226899 0.78089826 0.78089826
0.78089826 0.78089826 0.78089826
0.85844755 0.78089826 0.78089826
0.06256172 0.85844755 0.78089826
0.24287364 0.85844755 0.78089826
0.37642659 0.85844755 0.78089826
0.46385607 0.85844755 0.78089826
0.54420908 0.85844755 0.78089826
0.62329077 0.85844755 0.78089826
0.70226899 0.85844755 0.78089826
0.78089826 0.85844755 0.78089826
0.85844755 0.85844755 0.78089826
0.06256172 0.06256172 0.85844755
0.24287364 0.06256172 0.85844755
0.37642659 0.06256172 0.85844755
0.46385607 0.06256172 0.85844755
0.54420908 0.06256172 0.85844755
0.62329077 0.06256172 0.85844755
0.70226899 0.06256172 0.85844755
0.78089826 0.06256172 0.85844755
0.85844755 0.06256172 0.85844755
0.06256172 0.24287364 0.85844755
0.24287364 0.24287364 0.85844755
0.37642659 0.24287364 0.85844755
0.46385607 0.24287364 0.85844755
0.54420908 0.24287364 0.85844755
0.62329077 0.24287364 0.85844755
0.70226899 0.24287364 0.85844755
0.78089826 0.24287364 0.85844755
0.85844755 0.24287364 0.85844755
0.06256172 0.37642659 0.85844755
0.24287364 0.37642659 0.85844755
0.37642659 0.37642659 0.85844755
0.46385607 0.37642659 0.85844755
0.54420908 0.37642659 0.85844755
0.62329077 0.37642659 0.85844755
0.70226899 0.37642659 0.85844755
0.78089826 0.37642659 0.85844755
0.85844755 0.37642659 0.85844755
0.06256172 0.46385607 0.85844755
0.24287364 0.46385607 0.85844755
0.37642659 0.46385607 0.85844755
0.46385607 0.46385607 0.85844755
0.54420908 0.46385607 0.85844755
0.62329077 0.46385607 0.85844755
0.70226899 0.46385607 0.85844755
0.78089826 0.46385607 0.85844755
0.85844755 0.46385607 0.85844755
0.06256172 0.54420908 0.85844755
0.24287364 0.54420908 0.85844755
0.37642659 0.54420908 0.85844755
0.46385607 0.54420908 0.85844755
0.54420908 0.54420908 0.85844755
0.62329077 0.54420908 0.85844755
0.70226899 0.54420908 0.85844755
0.78089826 0.54420908 0.85844755
0.85844755 0.54420908 0.85844755
0.06256172 0.62329077 0.85844755
0.24287364 0.62329077 0.85844755
0.37642659 0.62329077 0.85844755
0.46385607 0.62329077 0.85844755
0.54420908 0.62329077 0.85844755
0.62329077 0.62329077 0.85844755
0.70226899 0.62329077 0.85844755
0.78089826 0.62329077 0.85844755
0.85844755 0.62329077 0.85844755
0.06256172 0.70226899 0.85844755
0.24287364 0.70226899 0.85844755
0.37642659 0.70226899 0.85844755
0.46385607 0.70226899 0.85844755
0.54420908 0.70226899 0.85844755
0.62329077 0.70226899 0.85844755
0.70226899 0.70226899 0.85844755
0.78089826 0.70226899 0.85844755
0.85844755 0.70226899 0.85844755
0.06256172 0.78089826 0.85844755
0.24287364 0.78089826 0.85844755
0.37642659 0.78089826 0.85844755
0.46385607 0.78089826 0.85844755
0.54420908 0.78089826 0.85844755
0.62329077 0.78089826 0.85844755
0.70226899 0.78089826 0.85844755
0.78089826 0.78089826 0.85844755
0.85844755 0.78089826 0.85844755
0.06256172 0.85844755 0.85844755
0.24287364 0.85844755 0.85844755
0.37642659 0.85844755 0.85844755
0.46385607 0.85844755 0.85844755
0.54420908 0.85844755 0.85844755
0.62329077 0.85844755 0.85844755
0.70226899 0.85844755 0.85844755
0.78089826 0.85844755 0.85844755
0.85844755 0.85844755 0.85844755
