src/ffmpeg_scripts/luts/luminance_4p00.cube
TITLE "luminance_4p00"
LUT_3D_SIZE 33
# PQ (EOTF Only)/Rec2020 -> PQ (EOTF Only)/Rec2020, CineEI Shift 4.00, Black Level 0.00% IRE, Input 109% -> Output 109% - Created with LUTCalc v4.01 by Ben Turley October 2020
0.06256172 0.06256172 0.06256172
0.06256172 0.06256172 0.06256172
0.06256172 0.06256172 0.06256172
0.16142713 0.06256172 0.06256179
0.23167916 0.06256172 0.06256172
0.29196569 0.06256172 0.06256172
0.34625590 0.06256172 0.06256172
0.39634134 0.06256172 0.06256172
0.44323389 0.06256188 0.06256172
0.48757860 0.06256172 0.06256172
0.52981966 0.06256189 0.06256172
0.57027994 0.06256172 0.06256172
0.60920373 0.06256172 0.06256194
0.64678163 0.06256172 0.06256197
0.68316609 0.06256172 0.06256172
0.71848151 0.06256172 0.06256200
0.75283115 0.06256206 0.06256204
0.78630187 0.06256172 0.06256172
0.81896771 0.06256212 0.06256172
0.85089240 0.06256172 0.06256172
0.88213130 0.06256200 0.06256172
0.91273293 0.06256172 0.06256172
0.91886608 0.06256213 0.06256172
0.91886608 0.06256172 0.06256219
0.91886608 0.06256172 0.06256172
0.91886608 0.06256227 0.06256227
0.91886608 0.06256172 0.06256172
0.91886608 0.06256172 0.06256172
0.91886608 0.06256172 0.06256172
0.91886608 0.06256172 0.06256172
0.91886608 0.06256172 0.06256172
0.91886608 0.06256272 0.06256172
0.91886608 0.06256285 0.06256272
0.06256172 0.06256172 0.06256172
0.06256172 0.06256172 0.06256172
0.06256172 0.06256172 0.06256172
0.16142713 0.06256172 0.06256179
0.23167916 0.06256172 0.06256172
0.29196569 0.06256172 0.06256172
0.34625590 0.06256172 0.06256172
0.39634134 0.06256172 0.06256172
0.44323389 0.06256188 0.06256172
0.48757860 0.06256172 0.06256172
0.52981966 0.06256189 0.06256172
0.57027994 0.06256172 0.06256172
0.60920373 0.06256172 0.06256194
0.64678163 0.06256172 0.06256197
0.68316609 0.06256172 0.06256172
0.71848151 0.06256172 0.06256200
0.75283115 0.06256206 0.06256204
0.78630187 0.06256172 0.06256172
0.81896771 0.06256212 0.06256172
0.85089240 0.06256172 0.06256172
0.88213130 0.06256200 0.06256172
0.91273293 0.06256172 0.06256172
0.91886608 0.06256213 0.06256172
0.91886608 0.06256172 0.06256219
0.91886608 0.06256172 0.06256172
0.91886608 0.06256227 0.06256227
0.91886608 0.06256172 0.06256172
0.91886608 0.06256172 0.06256172
0.91886608 0.06256172 0.06256172
0.91886608 0.06256172 0.06256172
0.91886608 0.06256172 0.06256172
0.91886608 0.06256272 0.06256172
0.91886608 0.06256285 0.06256272
0.06256172 0.06256172 0.06256172
0.06256172 0.06256172 0.06256172
0.06256172 0.06256172 0.06256172
0.16142713 0.06256172 0.06256179
0.23167916 0.06256172 0.06256172
0.29196569 0.06256172 0.06256172
0.34625590 0.06256172 0.06256172
0.39634134 0.06256172 0.06256172
0.44323389 0.06256188 0.06256172
0.48757860 0.06256172 0.06256172
0.52981966 0.06256189 0.06256172
0.57027994 0.06256172 0.06256172
0.60920373 0.06256172 0.06256194
0.64678163 0.06256172 0.06256197
0.68316609 0.06256172 0.06256172
0.71848151 0.06256172 0.06256200
0.75283115 0.06256206 0.06256204
0.78630187 0.06256172 0.06256172
0.81896771 0.06256212 0.06256172
0.85089240 0.06256172 0.06256172
0.88213130 0.06256200 0.06256172
0.91273293 0.06256172 0.06256172
0.91886608 0.06256213 0.06256172
0.91886608 0.06256172 0.06256219
0.91886608 0.06256172 0.06256172
0.91886608 0.06256227 0.06256227
0.91886608 0.06256172 0.06256172
0.91886608 0.06256172 0.06256172
0.91886608 0.06256172 0.06256172
0.91886608 0.06256172 0.06256172
0.91886608 0.06256172 0.06256172
0.91886608 0.06256272 0.06256172
0.91886608 0.06256285 0.06256272
0.06256180 0.16142713 0.06256172
0.06256180 0.16142713 0.06256172
0.06256180 0.16142713 0.06256172
0.16142713 0.16142713 0.06256172
0.23167916 0.16142713 0.06256172
0.29196569 0.16142713 0.06256172
0.34625590 0.16142713 0.06256185
0.39634134 0.16142713 0.06256172
0.44323389 0.16142713 0.06256189
0.48757860 0.16142713 0.06256172
0.52981966 0.16142713 0.06256172
0.57027994 0.16142713 0.06256172
0.60920373 0.16142713 0.06256172
0.64678163 0.16142713 0.06256197
0.68316609 0.16142713 0.06256200
0.71848151 0.16142713 0.06256200
0.75283115 0.16142713 0.06256204
0.78630187 0.16142713 0.06256172
0.81896771 0.16142713 0.06256172
0.85089240 0.16142713 0.06256172
0.88213130 0.16142713 0.06256172
0.91273293 0.16142713 0.06256172
0.91886608 0.16142713 0.06256172
0.91886608 0.16142713 0.06256172
0.91886608 0.16142713 0.06256172
0.91886608 0.16142713 0.06256172
0.91886608 0.16142713 0.06256172
0.91886608 0.16142713 0.06256172
0.91886608 0.16142713 0.06256245
0.91886608 0.16142713 0.06256245
0.91886608 0.16142713 0.06256257
0.91886608 0.16142713 0.06256172
0.91886608 0.16142713 0.06256172
0.06256185 0.23167916 0.06256172
0.06256185 0.23167916 0.06256172
0.06256185 0.23167916 0.06256172
0.16142713 0.23167916 0.06256172
0.23167916 0.23167916 0.06256172
0.29196569 0.23167916 0.06256172
0.34625590 0.23167916 0.06256172
0.39634134 0.23167916 0.06256187
0.44323389 0.23167916 0.06256172
0.48757860 0.23167916 0.06256172
0.52981966 0.23167916 0.06256172
0.57027994 0.23167916 0.06256172
0.60920373 0.23167916 0.06256194
0.64678163 0.23167916 0.06256197
0.68316609 0.23167916 0.06256200
0.71848151 0.23167916 0.06256172
0.75283115 0.23167916 0.06256172
0.78630187 0.23167916 0.06256172
0.81896771 0.23167916 0.06256172
0.85089240 0.23167916 0.06256172
0.88213130 0.23167916 0.06256172
0.91273293 0.23167916 0.06256172
0.91886608 0.23167916 0.06256172
0.91886608 0.23167916 0.06256172
0.91886608 0.23167916 0.06256172
0.91886608 0.23167916 0.06256172
0.91886608 0.23167916 0.06256235
0.91886608 0.23167916 0.06256235
0.91886608 0.23167916 0.06256172
0.91886608 0.23167916 0.06256172
0.91886608 0.23167916 0.06256172
0.91886608 0.23167916 0.06256172
0.91886608 0.23167916 0.06256272
0.06256184 0.29196569 0.06256172
0.06256184 0.29196569 0.06256172
0.06256184 0.29196569 0.06256172
0.16142713 0.29196569 0.06256172
0.23167916 0.29196569 0.06256172
0.29196569 0.29196569 0.06256172
0.34625590 0.29196569 0.06256172
0.39634134 0.29196569 0.06256172
0.44323389 0.29196569 0.06256172
0.48757860 0.29196569 0.06256191
0.52981966 0.29196569 0.06256172
0.57027994 0.29196569 0.06256172
0.60920373 0.29196569 0.06256172
0.64678163 0.29196569 0.06256172
0.68316609 0.29196569 0.06256200
0.71848151 0.29196569 0.06256172
0.75283115 0.29196569 0.06256172
0.78630187 0.29196569 0.06256172
0.81896771 0.29196569 0.06256172
0.85089240 0.29196569 0.06256172
0.88213130 0.29196569 0.06256172
0.91273293 0.29196569 0.06256172
0.91886608 0.29196569 0.06256172
0.91886608 0.29196569 0.06256172
0.91886608 0.29196569 0.06256172
0.91886608 0.29196569 0.06256227
0.91886608 0.29196569 0.06256172
0.91886608 0.29196569 0.06256172
0.91886608 0.29196569 0.06256172
0.91886608 0.29196569 0.06256172
0.91886608 0.29196569 0.06256172
0.91886608 0.29196569 0.06256172
0.91886608 0.29196569 0.06256272
0.06256189 0.34625590 0.06256172
0.06256189 0.34625590 0.06256172
0.06256189 0.34625590 0.06256172
0.16142713 0.34625590 0.06256172
0.23167916 0.34625590 0.06256172
0.29196569 0.34625590 0.06256172
0.34625590 0.34625590 0.06256172
0.39634134 0.34625590 0.06256172
0.44323389 0.34625590 0.06256172
0.48757860 0.34625590 0.06256172
0.52981966 0.34625590 0.06256172
0.57027994 0.34625590 0.06256172
0.60920373 0.34625590 0.06256172
0.64678163 0.34625590 0.06256172
0.68316609 0.34625590 0.06256172
0.71848151 0.34625590 0.06256172
0.75283115 0.34625590 0.06256172
0.78630187 0.34625590 0.06256172
0.81896771 0.34625590 0.06256172
0.85089240 0.34625590 0.06256172
0.88213130 0.34625590 0.06256172
0.91273293 0.34625590 0.06256172
0.91886608 0.34625590 0.06256172
0.91886608 0.34625590 0.06256172
0.91886608 0.34625590 0.06256172
0.91886608 0.34625590 0.06256172
0.91886608 0.34625590 0.06256172
0.91886608 0.34625590 0.06256235
0.91886608 0.34625590 0.06256245
0.91886608 0.34625590 0.06256172
0.91886608 0.34625590 0.06256257
0.91886608 0.34625590 0.06256172
0.91886608 0.34625590 0.06256172
0.06256191 0.39634134 0.06256172
0.06256191 0.39634134 0.06256172
0.06256191 0.39634134 0.06256172
0.16142713 0.39634134 0.06256172
0.23167916 0.39634134 0.06256172
0.29196569 0.39634134 0.06256172
0.34625590 0.39634134 0.06256172
0.39634134 0.39634134 0.06256172
0.44323389 0.39634134 0.06256172
0.48757860 0.39634134 0.06256191
0.52981966 0.39634134 0.06256191
0.57027994 0.39634134 0.06256172
0.60920373 0.39634134 0.06256172
0.64678163 0.39634134 0.06256172
0.68316609 0.39634134 0.06256200
0.71848151 0.39634134 0.06256172
0.75283115 0.39634134 0.06256204
0.78630187 0.39634134 0.06256172
0.81896771 0.39634134 0.06256172
0.85089240 0.39634134 0.06256172
0.88213130 0.39634134 0.06256172
0.91273293 0.39634134 0.06256172
0.91886608 0.39634134 0.06256219
0.91886608 0.39634134 0.06256219
0.91886608 0.39634134 0.06256172
0.91886608 0.39634134 0.06256227
0.91886608 0.39634134 0.06256172
0.91886608 0.39634134 0.06256172
0.91886608 0.39634134 0.06256172
0.91886608 0.39634134 0.06256172
0.91886608 0.39634134 0.06256257
0.91886608 0.39634134 0.06256172
0.91886608 0.39634134 0.06256272
0.06256172 0.44323389 0.06256172
0.06256172 0.44323389 0.06256172
0.06256172 0.44323389 0.06256172
0.16142713 0.44323389 0.06256189
0.23167916 0.44323389 0.06256189
0.29196569 0.44323389 0.06256172
0.34625590 0.44323389 0.06256172
0.39634134 0.44323389 0.06256172
0.44323389 0.44323389 0.06256172
0.48757860 0.44323389 0.06256172
0.52981966 0.44323389 0.06256172
0.57027994 0.44323389 0.06256172
0.60920373 0.44323389 0.06256172
0.64678163 0.44323389 0.06256197
0.68316609 0.44323389 0.06256172
0.71848151 0.44323389 0.06256172
0.75283115 0.44323389 0.06256172
0.78630187 0.44323389 0.06256172
0.81896771 0.44323389 0.06256208
0.85089240 0.44323389 0.06256172
0.88213130 0.44323389 0.06256172
0.91273293 0.44323389 0.06256172
0.91886608 0.44323389 0.06256172
0.91886608 0.44323389 0.06256172
0.91886608 0.44323389 0.06256227
0.91886608 0.44323389 0.06256227
0.91886608 0.44323389 0.06256172
0.91886608 0.44323389 0.06256172
0.91886608 0.44323389 0.06256172
0.91886608 0.44323389 0.06256172
0.91886608 0.44323389 0.06256172
0.91886608 0.44323389 0.06256172
0.91886608 0.44323389 0.06256172
0.06256195 0.48757860 0.06256172
0.06256195 0.48757860 0.06256172
0.06256195 0.48757860 0.06256172
0.16142713 0.48757860 0.06256172
0.23167916 0.48757860 0.06256172
0.29196569 0.48757860 0.06256191
0.34625590 0.48757860 0.06256172
0.39634134 0.48757860 0.06256172
0.44323389 0.48757860 0.06256172
0.48757860 0.48757860 0.06256172
0.52981966 0.48757860 0.06256194
0.57027994 0.48757860 0.06256172
0.60920373 0.48757860 0.06256172
0.64678163 0.48757860 0.06256197
0.68316609 0.48757860 0.06256172
0.71848151 0.48757860 0.06256200
0.75283115 0.48757860 0.06256204
0.78630187 0.48757860 0.06256172
0.81896771 0.48757860 0.06256208
0.85089240 0.48757860 0.06256172
0.88213130 0.48757860 0.06256172
0.91273293 0.48757860 0.06256172
0.91886608 0.48757860 0.06256172
0.91886608 0.48757860 0.06256219
0.91886608 0.48757860 0.06256227
0.91886608 0.48757860 0.06256227
0.91886608 0.48757860 0.06256172
0.91886608 0.48757860 0.06256235
0.91886608 0.48757860 0.06256245
0.91886608 0.48757860 0.06256172
0.91886608 0.48757860 0.06256172
0.91886608 0.48757860 0.06256172
0.91886608 0.48757860 0.06256172
0.06256196 0.52981966 0.06256172
0.06256196 0.52981966 0.06256172
0.06256196 0.52981966 0.06256172
0.16142713 0.52981966 0.06256172
0.23167916 0.52981966 0.06256172
0.29196569 0.52981966 0.06256172
0.34625590 0.52981966 0.06256172
0.39634134 0.52981966 0.06256172
0.44323389 0.52981966 0.06256172
0.48757860 0.52981966 0.06256172
0.52981966 0.52981966 0.06256172
0.57027994 0.52981966 0.06256172
0.60920373 0.52981966 0.06256172
0.64678163 0.52981966 0.06256172
0.68316609 0.52981966 0.06256172
0.71848151 0.52981966 0.06256172
0.75283115 0.52981966 0.06256172
0.78630187 0.52981966 0.06256204
0.81896771 0.52981966 0.06256172
0.85089240 0.52981966 0.06256172
0.88213130 0.52981966 0.06256172
0.91273293 0.52981966 0.06256172
0.91886608 0.52981966 0.06256172
0.91886608 0.52981966 0.06256172
0.91886608 0.52981966 0.06256172
0.91886608 0.52981966 0.06256172
0.91886608 0.52981966 0.06256172
0.91886608 0.52981966 0.06256172
0.91886608 0.52981966 0.06256245
0.91886608 0.52981966 0.06256172
0.91886608 0.52981966 0.06256172
0.91886608 0.52981966 0.06256172
0.91886608 0.52981966 0.06256172
0.06256198 0.57027994 0.06256172
0.06256198 0.57027994 0.06256172
0.06256198 0.57027994 0.06256172
0.16142713 0.57027994 0.06256172
0.23167916 0.57027994 0.06256172
0.29196569 0.57027994 0.06256172
0.34625590 0.57027994 0.06256194
0.39634134 0.57027994 0.06256172
0.44323389 0.57027994 0.06256172
0.48757860 0.57027994 0.06256172
0.52981966 0.57027994 0.06256172
0.57027994 0.57027994 0.06256197
0.60920373 0.57027994 0.06256172
0.64678163 0.57027994 0.06256172
0.68316609 0.57027994 0.06256200
0.71848151 0.57027994 0.06256172
0.75283115 0.57027994 0.06256172
0.78630187 0.57027994 0.06256172
0.81896771 0.57027994 0.06256172
0.85089240 0.57027994 0.06256172
0.88213130 0.57027994 0.06256172
0.91273293 0.57027994 0.06256172
0.91886608 0.57027994 0.06256172
0.91886608 0.57027994 0.06256172
0.91886608 0.57027994 0.06256172
0.91886608 0.57027994 0.06256172
0.91886608 0.57027994 0.06256172
0.91886608 0.57027994 0.06256172
0.91886608 0.57027994 0.06256245
0.91886608 0.57027994 0.06256172
0.91886608 0.57027994 0.06256172
0.91886608 0.57027994 0.06256257
0.91886608 0.57027994 0.06256172
0.06256198 0.60920373 0.06256172
0.06256198 0.60920373 0.06256172
0.06256198 0.60920373 0.06256172
0.16142713 0.60920373 0.06256172
0.23167916 0.60920373 0.06256172
0.29196569 0.60920373 0.06256172
0.34625590 0.60920373 0.06256197
0.39634134 0.60920373 0.06256197
0.44323389 0.60920373 0.06256172
0.48757860 0.60920373 0.06256197
0.52981966 0.60920373 0.06256172
0.57027994 0.60920373 0.06256197
0.60920373 0.60920373 0.06256172
0.64678163 0.60920373 0.06256172
0.68316609 0.60920373 0.06256172
0.71848151 0.60920373 0.06256172
0.75283115 0.60920373 0.06256172
0.78630187 0.60920373 0.06256204
0.81896771 0.60920373 0.06256172
0.85089240 0.60920373 0.06256172
0.88213130 0.60920373 0.06256213
0.91273293 0.60920373 0.06256172
0.91886608 0.60920373 0.06256219
0.91886608 0.60920373 0.06256219
0.91886608 0.60920373 0.06256172
0.91886608 0.60920373 0.06256227
0.91886608 0.60920373 0.06256172
0.91886608 0.60920373 0.06256235
0.91886608 0.60920373 0.06256245
0.91886608 0.60920373 0.06256172
0.91886608 0.60920373 0.06256172
0.91886608 0.60920373 0.06256172
0.91886608 0.60920373 0.06256172
0.06256202 0.64678163 0.06256172
0.06256202 0.64678163 0.06256172
0.06256202 0.64678163 0.06256172
0.16142713 0.64678163 0.06256197
0.23167916 0.64678163 0.06256172
0.29196569 0.64678163 0.06256197
0.34625590 0.64678163 0.06256172
0.39634134 0.64678163 0.06256172
0.44323389 0.64678163 0.06256172
0.48757860 0.64678163 0.06256200
0.52981966 0.64678163 0.06256200
0.57027994 0.64678163 0.06256172
0.60920373 0.64678163 0.06256172
0.64678163 0.64678163 0.06256172
0.68316609 0.64678163 0.06256172
0.71848151 0.64678163 0.06256172
0.75283115 0.64678163 0.06256204
0.78630187 0.64678163 0.06256172
0.81896771 0.64678163 0.06256208
0.85089240 0.64678163 0.06256172
0.88213130 0.64678163 0.06256172
0.91273293 0.64678163 0.06256172
0.91886608 0.64678163 0.06256172
0.91886608 0.64678163 0.06256219
0.91886608 0.64678163 0.06256172
0.91886608 0.64678163 0.06256172
0.91886608 0.64678163 0.06256172
0.91886608 0.64678163 0.06256172
0.91886608 0.64678163 0.06256245
0.91886608 0.64678163 0.06256172
0.91886608 0.64678163 0.06256257
0.91886608 0.64678163 0.06256172
0.91886608 0.64678163 0.06256272
0.06256201 0.68316609 0.06256172
0.06256201 0.68316609 0.06256172
0.06256201 0.68316609 0.06256172
0.16142713 0.68316609 0.06256200
0.23167916 0.68316609 0.06256172
0.29196569 0.68316609 0.06256172
0.34625590 0.68316609 0.06256172
0.39634134 0.68316609 0.06256172
0.44323389 0.68316609 0.06256172
0.48757860 0.68316609 0.06256172
0.52981966 0.68316609 0.06256200
0.57027994 0.68316609 0.06256200
0.60920373 0.68316609 0.06256172
0.64678163 0.68316609 0.06256172
0.68316609 0.68316609 0.06256172
0.71848151 0.68316609 0.06256204
0.75283115 0.68316609 0.06256208
0.78630187 0.68316609 0.06256208
0.81896771 0.68316609 0.06256172
0.85089240 0.68316609 0.06256172
0.88213130 0.68316609 0.06256172
0.91273293 0.68316609 0.06256172
0.91886608 0.68316609 0.06256219
0.91886608 0.68316609 0.06256172
0.91886608 0.68316609 0.06256172
0.91886608 0.68316609 0.06256172
0.91886608 0.68316609 0.06256172
0.91886608 0.68316609 0.06256235
0.91886608 0.68316609 0.06256245
0.91886608 0.68316609 0.06256172
0.91886608 0.68316609 0.06256172
0.91886608 0.68316609 0.06256172
0.91886608 0.68316609 0.06256272
0.06256208 0.71848151 0.06256172
0.06256208 0.71848151 0.06256172
0.06256208 0.71848151 0.06256172
0.16142713 0.71848151 0.06256172
0.23167916 0.71848151 0.06256172
0.29196569 0.71848151 0.06256204
0.34625590 0.71848151 0.06256172
0.39634134 0.71848151 0.06256172
0.44323389 0.71848151 0.06256172
0.48757860 0.71848151 0.06256172
0.52981966 0.71848151 0.06256172
0.57027994 0.71848151 0.06256172
0.60920373 0.71848151 0.06256172
0.64678163 0.71848151 0.06256172
0.68316609 0.71848151 0.06256172
0.71848151 0.71848151 0.06256172
0.75283115 0.71848151 0.06256172
0.78630187 0.71848151 0.06256172
0.81896771 0.71848151 0.06256172
0.85089240 0.71848151 0.06256172
0.88213130 0.71848151 0.06256172
0.91273293 0.71848151 0.06256172
0.91886608 0.71848151 0.06256219
0.91886608 0.71848151 0.06256172
0.91886608 0.71848151 0.06256172
0.91886608 0.71848151 0.06256172
0.91886608 0.71848151 0.06256172
0.91886608 0.71848151 0.06256172
0.91886608 0.71848151 0.06256172
0.91886608 0.71848151 0.06256172
0.91886608 0.71848151 0.06256172
0.91886608 0.71848151 0.06256172
0.91886608 0.71848151 0.06256172
0.06256199 0.75283115 0.06256172
0.06256199 0.75283115 0.06256172
0.06256199 0.75283115 0.06256172
0.16142713 0.75283115 0.06256172
0.23167916 0.75283115 0.06256172
0.29196569 0.75283115 0.06256172
0.34625590 0.75283115 0.06256172
0.39634134 0.75283115 0.06256172
0.44323389 0.75283115 0.06256172
0.48757860 0.75283115 0.06256172
0.52981966 0.75283115 0.06256172
0.57027994 0.75283115 0.06256172
0.60920373 0.75283115 0.06256172
0.64678163 0.75283115 0.06256172
0.68316609 0.75283115 0.06256172
0.71848151 0.75283115 0.06256172
0.75283115 0.75283115 0.06256172
0.78630187 0.75283115 0.06256208
0.81896771 0.75283115 0.06256172
0.85089240 0.75283115 0.06256172
0.88213130 0.75283115 0.06256172
0.91273293 0.75283115 0.06256172
0.91886608 0.75283115 0.06256172
0.91886608 0.75283115 0.06256219
0.91886608 0.75283115 0.06256172
0.91886608 0.75283115 0.06256227
0.91886608 0.75283115 0.06256172
0.91886608 0.75283115 0.06256172
0.91886608 0.75283115 0.06256172
0.91886608 0.75283115 0.06256172
0.91886608 0.75283115 0.06256257
0.91886608 0.75283115 0.06256172
0.91886608 0.75283115 0.06256172
0.06256220 0.78630187 0.06256172
0.06256220 0.78630187 0.06256172
0.06256220 0.78630187 0.06256172
0.16142713 0.78630187 0.06256208
0.23167916 0.78630187 0.06256172
0.29196569 0.78630187 0.06256172
0.34625590 0.78630187 0.06256172
0.39634134 0.78630187 0.06256172
0.44323389 0.78630187 0.06256172
0.48757860 0.78630187 0.06256172
0.52981966 0.78630187 0.06256172
0.57027994 0.78630187 0.06256172
0.60920373 0.78630187 0.06256172
0.64678163 0.78630187 0.06256172
0.68316609 0.78630187 0.06256172
0.71848151 0.78630187 0.06256172
0.75283115 0.78630187 0.06256172
0.78630187 0.78630187 0.06256172
0.81896771 0.78630187 0.06256172
0.85089240 0.78630187 0.06256172
0.88213130 0.78630187 0.06256213
0.91273293 0.78630187 0.06256172
0.91886608 0.78630187 0.06256172
0.91886608 0.78630187 0.06256172
0.91886608 0.78630187 0.06256172
0.91886608 0.78630187 0.06256172
0.91886608 0.78630187 0.06256172
0.91886608 0.78630187 0.06256235
0.91886608 0.78630187 0.06256245
0.91886608 0.78630187 0.06256172
0.91886608 0.78630187 0.06256172
0.91886608 0.78630187 0.06256172
0.91886608 0.78630187 0.06256272
0.06256207 0.81896771 0.06256172
0.06256207 0.81896771 0.06256172
0.06256207 0.81896771 0.06256172
0.16142713 0.81896771 0.06256172
0.23167916 0.81896771 0.06256172
0.29196569 0.81896771 0.06256172
0.34625590 0.81896771 0.06256172
0.39634134 0.81896771 0.06256172
0.44323389 0.81896771 0.06256172
0.48757860 0.81896771 0.06256172
0.52981966 0.81896771 0.06256172
0.57027994 0.81896771 0.06256172
0.60920373 0.81896771 0.06256172
0.64678163 0.81896771 0.06256172
0.68316609 0.81896771 0.06256208
0.71848151 0.81896771 0.06256172
0.75283115 0.81896771 0.06256172
0.78630187 0.81896771 0.06256213
0.81896771 0.81896771 0.06256213
0.85089240 0.81896771 0.06256172
0.88213130 0.81896771 0.06256172
0.91273293 0.81896771 0.06256172
0.91886608 0.81896771 0.06256219
0.91886608 0.81896771 0.06256172
0.91886608 0.81896771 0.06256172
0.91886608 0.81896771 0.06256227
0.91886608 0.81896771 0.06256172
0.91886608 0.81896771 0.06256235
0.91886608 0.81896771 0.06256245
0.91886608 0.81896771 0.06256172
0.91886608 0.81896771 0.06256172
0.91886608 0.81896771 0.06256172
0.91886608 0.81896771 0.06256172
0.06256222 0.85089240 0.06256172
0.06256222 0.85089240 0.06256172
0.06256222 0.85089240 0.06256172
0.16142713 0.85089240 0.06256172
0.23167916 0.85089240 0.06256172
0.29196569 0.85089240 0.06256172
0.34625590 0.85089240 0.06256213
0.39634134 0.85089240 0.06256172
0.44323389 0.85089240 0.06256172
0.48757860 0.85089240 0.06256172
0.52981966 0.85089240 0.06256172
0.57027994 0.85089240 0.06256172
0.60920373 0.85089240 0.06256172
0.64678163 0.85089240 0.06256172
0.68316609 0.85089240 0.06256172
0.71848151 0.85089240 0.06256172
0.75283115 0.85089240 0.06256213
0.78630187 0.85089240 0.06256172
0.81896771 0.85089240 0.06256172
0.85089240 0.85089240 0.06256172
0.88213130 0.85089240 0.06256172
0.91273293 0.85089240 0.06256172
0.91886608 0.85089240 0.06256172
0.91886608 0.85089240 0.06256172
0.91886608 0.85089240 0.06256172
0.91886608 0.85089240 0.06256172
0.91886608 0.85089240 0.06256235
0.91886608 0.85089240 0.06256172
0.91886608 0.85089240 0.06256172
0.91886608 0.85089240 0.06256172
0.91886608 0.85089240 0.06256257
0.91886608 0.85089240 0.06256172
0.91886608 0.85089240 0.06256172
0.06256172 0.88213130 0.06256172
0.06256172 0.88213130 0.06256172
0.06256172 0.88213130 0.06256172
0.16142713 0.88213130 0.06256172
0.23167916 0.88213130 0.06256172
0.29196569 0.88213130 0.06256213
0.34625590 0.88213130 0.06256213
0.39634134 0.88213130 0.06256172
0.44323389 0.88213130 0.06256172
0.48757860 0.88213130 0.06256172
0.52981966 0.88213130 0.06256172
0.57027994 0.88213130 0.06256172
0.60920373 0.88213130 0.06256172
0.64678163 0.88213130 0.06256172
0.68316609 0.88213130 0.06256172
0.71848151 0.88213130 0.06256172
0.75283115 0.88213130 0.06256213
0.78630187 0.88213130 0.06256172
0.81896771 0.88213130 0.06256172
0.85089240 0.88213130 0.06256172
0.88213130 0.88213130 0.06256219
0.91273293 0.88213130 0.06256172
0.91886608 0.88213130 0.06256219
0.91886608 0.88213130 0.06256172
0.91886608 0.88213130 0.06256172
0.91886608 0.88213130 0.06256172
0.91886608 0.88213130 0.06256172
0.91886608 0.88213130 0.06256172
0.91886608 0.88213130 0.06256172
0.91886608 0.88213130 0.06256172
0.91886608 0.88213130 0.06256257
0.91886608 0.88213130 0.06256257
0.91886608 0.88213130 0.06256172
0.06256221 0.91273293 0.06256172
0.06256221 0.91273293 0.06256172
0.06256221 0.91273293 0.06256172
0.16142713 0.91273293 0.06256172
0.23167916 0.91273293 0.06256172
0.29196569 0.91273293 0.06256227
0.34625590 0.91273293 0.06256172
0.39634134 0.91273293 0.06256172
0.44323389 0.91273293 0.06256219
0.48757860 0.91273293 0.06256219
0.52981966 0.91273293 0.06256172
0.57027994 0.91273293 0.06256219
0.60920373 0.91273293 0.06256219
0.64678163 0.91273293 0.06256172
0.68316609 0.91273293 0.06256219
0.71848151 0.91273293 0.06256172
0.75283115 0.91273293 0.06256172
0.78630187 0.91273293 0.06256172
0.81896771 0.91273293 0.06256172
0.85089240 0.91273293 0.06256172
0.88213130 0.91273293 0.06256172
0.91273293 0.91273293 0.06256172
0.91886608 0.91273293 0.06256227
0.91886608 0.91273293 0.06256172
0.91886608 0.91273293 0.06256172
0.91886608 0.91273293 0.06256172
0.91886608 0.91273293 0.06256172
