src/ffmpeg_scripts/luts/luminance-unclipped_-1p00.cube
TITLE "luminance-unclipped_-1p00"
LUT_3D_SIZE 33
# PQ (EOTF Only)/Rec2020 -> PQ (EOTF Only)/Rec2020, CineEI Shift -1.00, Black Level -7.25% IRE, Input 109% -> Output 109% - Created with LUTCalc v4.01 by Ben Turley October 2020
0.00047898 0.00047898 0.00047898
0.00047898 0.00047898 0.00047898
0.00047898 0.00047898 0.00047898
0.02645279 0.00047902 0.00047898
0.05450388 0.00047903 0.00047898
0.08367572 0.00047898 0.00047898
0.11367435 0.00047908 0.00047907
0.14434169 0.00047906 0.00047898
0.17557670 0.00047898 0.00047898
0.20730834 0.00047898 0.00047909
0.23948356 0.00047898 0.00047898
0.27206099 0.00047913 0.00047898
0.30500735 0.00047898 0.00047898
0.33829520 0.00047913 0.00047914
0.37190148 0.00047898 0.00047898
0.40580650 0.00047898 0.00047898
0.43999321 0.00047920 0.00047898
0.47444669 0.00047898 0.00047898
0.50915376 0.00047921 0.00047898
0.54410269 0.00047898 0.00047898
0.57928293 0.00047921 0.00047898
0.61468499 0.00047920 0.00047898
0.65030022 0.00047930 0.00047927
0.68612074 0.00047898 0.00047898
0.72213932 0.00047928 0.00047898
0.75834930 0.00047898 0.00047898
0.79474455 0.00047898 0.00047898
0.83131934 0.00047931 0.00047898
0.86806838 0.00047898 0.00047898
0.90498673 0.00047942 0.00047898
0.91886608 0.00047898 0.00047898
0.91886608 0.00047944 0.00047898
0.91886608 0.00047954 0.00047953
0.00047898 0.00047898 0.00047898
0.00047898 0.00047898 0.00047898
0.00047898 0.00047898 0.00047898
0.02645279 0.00047902 0.00047898
0.05450388 0.00047903 0.00047898
0.08367572 0.00047898 0.00047898
0.11367435 0.00047908 0.00047907
0.14434169 0.00047906 0.00047898
0.17557670 0.00047898 0.00047898
0.20730834 0.00047898 0.00047909
0.23948356 0.00047898 0.00047898
0.27206099 0.00047913 0.00047898
0.30500735 0.00047898 0.00047898
0.33829520 0.00047913 0.00047914
0.37190148 0.00047898 0.00047898
0.40580650 0.00047898 0.00047898
0.43999321 0.00047920 0.00047898
0.47444669 0.00047898 0.00047898
0.50915376 0.00047921 0.00047898
0.54410269 0.00047898 0.00047898
0.57928293 0.00047921 0.00047898
0.61468499 0.00047920 0.00047898
0.65030022 0.00047930 0.00047927
0.68612074 0.00047898 0.00047898
0.72213932 0.00047928 0.00047898
0.75834930 0.00047898 0.00047898
0.79474455 0.00047898 0.00047898
0.83131934 0.00047931 0.00047898
0.86806838 0.00047898 0.00047898
0.90498673 0.00047942 0.00047898
0.91886608 0.00047898 0.00047898
0.91886608 0.00047944 0.00047898
0.91886608 0.00047954 0.00047953
0.00047898 0.00047898 0.00047898
0.00047898 0.00047898 0.00047898
0.00047898 0.00047898 0.00047898
0.02645279 0.00047902 0.00047898
0.05450388 0.00047903 0.00047898
0.08367572 0.00047898 0.00047898
0.11367435 0.00047908 0.00047907
0.14434169 0.00047906 0.00047898
0.17557670 0.00047898 0.00047898
0.20730834 0.00047898 0.00047909
0.23948356 0.00047898 0.00047898
0.27206099 0.00047913 0.00047898
0.30500735 0.00047898 0.00047898
0.33829520 0.00047913 0.00047914
0.37190148 0.00047898 0.00047898
0.40580650 0.00047898 0.00047898
0.43999321 0.00047920 0.00047898
0.47444669 0.00047898 0.00047898
0.50915376 0.00047921 0.00047898
0.54410269 0.00047898 0.00047898
0.57928293 0.00047921 0.00047898
0.61468499 0.00047920 0.00047898
0.65030022 0.00047930 0.00047927
0.68612074 0.00047898 0.00047898
0.72213932 0.00047928 0.00047898
0.75834930 0.00047898 0.00047898
0.79474455 0.00047898 0.00047898
0.83131934 0.00047931 0.00047898
0.86806838 0.00047898 0.00047898
0.90498673 0.00047942 0.00047898
0.91886608 0.00047898 0.00047898
0.91886608 0.00047944 0.00047898
0.91886608 0.00047954 0.00047953
0.00047904 0.02645279 0.00047898
0.00047904 0.02645279 0.00047898
0.00047904 0.02645279 0.00047898
0.02645279 0.02645279 0.00047898
0.05450388 0.02645279 0.00047898
0.08367572 0.02645279 0.00047898
0.11367435 0.02645279 0.00047898
0.14434169 0.02645279 0.00047898
0.17557670 0.02645279 0.00047898
0.20730834 0.02645279 0.00047898
0.23948356 0.02645279 0.00047898
0.27206099 0.02645279 0.00047898
0.30500735 0.02645279 0.00047898
0.33829520 0.02645279 0.00047898
0.37190148 0.02645279 0.00047898
0.40580650 0.02645279 0.00047898
0.43999321 0.02645279 0.00047918
0.47444669 0.02645279 0.00047898
0.50915376 0.02645279 0.00047898
0.54410269 0.02645279 0.00047898
0.57928293 0.02645279 0.00047898
0.61468499 0.02645279 0.00047898
0.65030022 0.02645279 0.00047898
0.68612074 0.02645279 0.00047927
0.72213932 0.02645279 0.00047898
0.75834930 0.02645279 0.00047898
0.79474455 0.02645279 0.00047898
0.83131934 0.02645279 0.00047898
0.86806838 0.02645279 0.00047940
0.90498673 0.02645279 0.00047898
0.91886608 0.02645279 0.00047946
0.91886608 0.02645279 0.00047946
0.91886608 0.02645279 0.00047898
0.00047906 0.05450388 0.00047898
0.00047906 0.05450388 0.00047898
0.00047906 0.05450388 0.00047898
0.02645279 0.05450388 0.00047898
0.05450388 0.05450388 0.00047898
0.08367572 0.05450388 0.00047898
0.11367435 0.05450388 0.00047907
0.14434169 0.05450388 0.00047908
0.17557670 0.05450388 0.00047898
0.20730834 0.05450388 0.00047898
0.23948356 0.05450388 0.00047898
0.27206099 0.05450388 0.00047912
0.30500735 0.05450388 0.00047898
0.33829520 0.05450388 0.00047898
0.37190148 0.05450388 0.00047898
0.40580650 0.05450388 0.00047898
0.43999321 0.05450388 0.00047898
0.47444669 0.05450388 0.00047898
0.50915376 0.05450388 0.00047898
0.54410269 0.05450388 0.00047898
0.57928293 0.05450388 0.00047898
0.61468499 0.05450388 0.00047898
0.65030022 0.05450388 0.00047898
0.68612074 0.05450388 0.00047927
0.72213932 0.05450388 0.00047898
0.75834930 0.05450388 0.00047898
0.79474455 0.05450388 0.00047935
0.83131934 0.05450388 0.00047898
0.86806838 0.05450388 0.00047940
0.90498673 0.05450388 0.00047898
0.91886608 0.05450388 0.00047898
0.91886608 0.05450388 0.00047898
0.91886608 0.05450388 0.00047898
0.00047906 0.08367572 0.00047898
0.00047906 0.08367572 0.00047898
0.00047906 0.08367572 0.00047898
0.02645279 0.08367572 0.00047898
0.05450388 0.08367572 0.00047898
0.08367572 0.08367572 0.00047898
0.11367435 0.08367572 0.00047907
0.14434169 0.08367572 0.00047898
0.17557670 0.08367572 0.00047898
0.20730834 0.08367572 0.00047898
0.23948356 0.08367572 0.00047898
0.27206099 0.08367572 0.00047898
0.30500735 0.08367572 0.00047898
0.33829520 0.08367572 0.00047898
0.37190148 0.08367572 0.00047898
0.40580650 0.08367572 0.00047898
0.43999321 0.08367572 0.00047898
0.47444669 0.08367572 0.00047898
0.50915376 0.08367572 0.00047898
0.54410269 0.08367572 0.00047898
0.57928293 0.08367572 0.00047898
0.61468499 0.08367572 0.00047898
0.65030022 0.08367572 0.00047898
0.68612074 0.08367572 0.00047898
0.72213932 0.08367572 0.00047898
0.75834930 0.08367572 0.00047898
0.79474455 0.08367572 0.00047898
0.83131934 0.08367572 0.00047898
0.86806838 0.08367572 0.00047898
0.90498673 0.08367572 0.00047898
0.91886608 0.08367572 0.00047898
0.91886608 0.08367572 0.00047898
0.91886608 0.08367572 0.00047898
0.00047907 0.11367435 0.00047898
0.00047907 0.11367435 0.00047898
0.00047907 0.11367435 0.00047898
0.02645279 0.11367435 0.00047898
0.05450388 0.11367435 0.00047898
0.08367572 0.11367435 0.00047898
0.11367435 0.11367435 0.00047898
0.14434169 0.11367435 0.00047898
0.17557670 0.11367435 0.00047898
0.20730834 0.11367435 0.00047898
0.23948356 0.11367435 0.00047910
0.27206099 0.11367435 0.00047898
0.30500735 0.11367435 0.00047898
0.33829520 0.11367435 0.00047914
0.37190148 0.11367435 0.00047898
0.40580650 0.11367435 0.00047898
0.43999321 0.11367435 0.00047898
0.47444669 0.11367435 0.00047898
0.50915376 0.11367435 0.00047898
0.54410269 0.11367435 0.00047898
0.57928293 0.11367435 0.00047898
0.61468499 0.11367435 0.00047898
0.65030022 0.11367435 0.00047927
0.68612074 0.11367435 0.00047898
0.72213932 0.11367435 0.00047898
0.75834930 0.11367435 0.00047898
0.79474455 0.11367435 0.00047898
0.83131934 0.11367435 0.00047935
0.86806838 0.11367435 0.00047940
0.90498673 0.11367435 0.00047898
0.91886608 0.11367435 0.00047898
0.91886608 0.11367435 0.00047898
0.91886608 0.11367435 0.00047898
0.00047909 0.14434169 0.00047908
0.00047909 0.14434169 0.00047908
0.00047909 0.14434169 0.00047908
0.02645279 0.14434169 0.00047898
0.05450388 0.14434169 0.00047898
0.08367572 0.14434169 0.00047908
0.11367435 0.14434169 0.00047898
0.14434169 0.14434169 0.00047898
0.17557670 0.14434169 0.00047898
0.20730834 0.14434169 0.00047898
0.23948356 0.14434169 0.00047912
0.27206099 0.14434169 0.00047898
0.30500735 0.14434169 0.00047898
0.33829520 0.14434169 0.00047898
0.37190148 0.14434169 0.00047916
0.40580650 0.14434169 0.00047898
0.43999321 0.14434169 0.00047918
0.47444669 0.14434169 0.00047898
0.50915376 0.14434169 0.00047898
0.54410269 0.14434169 0.00047898
0.57928293 0.14434169 0.00047898
0.61468499 0.14434169 0.00047898
0.65030022 0.14434169 0.00047927
0.68612074 0.14434169 0.00047927
0.72213932 0.14434169 0.00047898
0.75834930 0.14434169 0.00047898
0.79474455 0.14434169 0.00047898
0.83131934 0.14434169 0.00047898
0.86806838 0.14434169 0.00047898
0.90498673 0.14434169 0.00047898
0.91886608 0.14434169 0.00047898
0.91886608 0.14434169 0.00047898
0.91886608 0.14434169 0.00047953
0.00047898 0.17557670 0.00047898
0.00047898 0.17557670 0.00047898
0.00047898 0.17557670 0.00047898
0.02645279 0.17557670 0.00047898
0.05450388 0.17557670 0.00047898
0.08367572 0.17557670 0.00047898
0.11367435 0.17557670 0.00047898
0.14434169 0.17557670 0.00047898
0.17557670 0.17557670 0.00047898
0.20730834 0.17557670 0.00047898
0.23948356 0.17557670 0.00047898
0.27206099 0.17557670 0.00047898
0.30500735 0.17557670 0.00047898
0.33829520 0.17557670 0.00047914
0.37190148 0.17557670 0.00047898
0.40580650 0.17557670 0.00047898
0.43999321 0.17557670 0.00047898
0.47444669 0.17557670 0.00047898
0.50915376 0.17557670 0.00047898
0.54410269 0.17557670 0.00047898
0.57928293 0.17557670 0.00047898
0.61468499 0.17557670 0.00047898
0.65030022 0.17557670 0.00047898
0.68612074 0.17557670 0.00047898
0.72213932 0.17557670 0.00047898
0.75834930 0.17557670 0.00047898
0.79474455 0.17557670 0.00047935
0.83131934 0.17557670 0.00047898
0.86806838 0.17557670 0.00047898
0.90498673 0.17557670 0.00047898
0.91886608 0.17557670 0.00047898
0.91886608 0.17557670 0.00047898
0.91886608 0.17557670 0.00047898
0.00047913 0.20730834 0.00047898
0.00047913 0.20730834 0.00047898
0.00047913 0.20730834 0.00047898
0.02645279 0.20730834 0.00047898
0.05450388 0.20730834 0.00047898
0.08367572 0.20730834 0.00047910
0.11367435 0.20730834 0.00047898
0.14434169 0.20730834 0.00047898
0.17557670 0.20730834 0.00047910
0.20730834 0.20730834 0.00047912
0.23948356 0.20730834 0.00047898
0.27206099 0.20730834 0.00047912
0.30500735 0.20730834 0.00047898
0.33829520 0.20730834 0.00047916
0.37190148 0.20730834 0.00047898
0.40580650 0.20730834 0.00047898
0.43999321 0.20730834 0.00047918
0.47444669 0.20730834 0.00047898
0.50915376 0.20730834 0.00047920
0.54410269 0.20730834 0.00047898
0.57928293 0.20730834 0.00047898
0.61468499 0.20730834 0.00047898
0.65030022 0.20730834 0.00047898
0.68612074 0.20730834 0.00047898
0.72213932 0.20730834 0.00047931
0.75834930 0.20730834 0.00047898
0.79474455 0.20730834 0.00047898
0.83131934 0.20730834 0.00047898
0.86806838 0.20730834 0.00047898
0.90498673 0.20730834 0.00047898
0.91886608 0.20730834 0.00047946
0.91886608 0.20730834 0.00047898
0.91886608 0.20730834 0.00047898
0.00047916 0.23948356 0.00047898
0.00047916 0.23948356 0.00047898
0.00047916 0.23948356 0.00047898
0.02645279 0.23948356 0.00047898
0.05450388 0.23948356 0.00047898
0.08367572 0.23948356 0.00047898
0.11367435 0.23948356 0.00047898
0.14434169 0.23948356 0.00047898
0.17557670 0.23948356 0.00047898
0.20730834 0.23948356 0.00047898
0.23948356 0.23948356 0.00047898
0.27206099 0.23948356 0.00047898
0.30500735 0.23948356 0.00047898
0.33829520 0.23948356 0.00047898
0.37190148 0.23948356 0.00047898
0.40580650 0.23948356 0.00047916
0.43999321 0.23948356 0.00047918
0.47444669 0.23948356 0.00047918
0.50915376 0.23948356 0.00047898
0.54410269 0.23948356 0.00047898
0.57928293 0.23948356 0.00047898
0.61468499 0.23948356 0.00047898
0.65030022 0.23948356 0.00047898
0.68612074 0.23948356 0.00047927
0.72213932 0.23948356 0.00047898
0.75834930 0.23948356 0.00047898
0.79474455 0.23948356 0.00047898
0.83131934 0.23948356 0.00047898
0.86806838 0.23948356 0.00047940
0.90498673 0.23948356 0.00047898
0.91886608 0.23948356 0.00047946
0.91886608 0.23948356 0.00047898
0.91886608 0.23948356 0.00047898
0.00047913 0.27206099 0.00047898
0.00047913 0.27206099 0.00047898
0.00047913 0.27206099 0.00047898
0.02645279 0.27206099 0.00047898
0.05450388 0.27206099 0.00047898
0.08367572 0.27206099 0.00047898
0.11367435 0.27206099 0.00047912
0.14434169 0.27206099 0.00047898
0.17557670 0.27206099 0.00047912
0.20730834 0.27206099 0.00047898
0.23948356 0.27206099 0.00047898
0.27206099 0.27206099 0.00047898
0.30500735 0.27206099 0.00047898
0.33829520 0.27206099 0.00047898
0.37190148 0.27206099 0.00047898
0.40580650 0.27206099 0.00047918
0.43999321 0.27206099 0.00047898
0.47444669 0.27206099 0.00047898
0.50915376 0.27206099 0.00047898
0.54410269 0.27206099 0.00047898
0.57928293 0.27206099 0.00047898
0.61468499 0.27206099 0.00047898
0.65030022 0.27206099 0.00047927
0.68612074 0.27206099 0.00047927
0.72213932 0.27206099 0.00047898
0.75834930 0.27206099 0.00047931
0.79474455 0.27206099 0.00047898
0.83131934 0.27206099 0.00047898
0.86806838 0.27206099 0.00047940
0.90498673 0.27206099 0.00047898
0.91886608 0.27206099 0.00047898
0.91886608 0.27206099 0.00047898
0.91886608 0.27206099 0.00047898
0.00047915 0.30500735 0.00047914
0.00047915 0.30500735 0.00047914
0.00047915 0.30500735 0.00047914
0.02645279 0.30500735 0.00047914
0.05450388 0.30500735 0.00047898
0.08367572 0.30500735 0.00047914
0.11367435 0.30500735 0.00047914
0.14434169 0.30500735 0.00047914
0.17557670 0.30500735 0.00047898
0.20730834 0.30500735 0.00047914
0.23948356 0.30500735 0.00047898
0.27206099 0.30500735 0.00047898
0.30500735 0.30500735 0.00047916
0.33829520 0.30500735 0.00047898
0.37190148 0.30500735 0.00047898
0.40580650 0.30500735 0.00047898
0.43999321 0.30500735 0.00047898
0.47444669 0.30500735 0.00047898
0.50915376 0.30500735 0.00047898
0.54410269 0.30500735 0.00047898
0.57928293 0.30500735 0.00047898
0.61468499 0.30500735 0.00047898
0.65030022 0.30500735 0.00047898
0.68612074 0.30500735 0.00047898
0.72213932 0.30500735 0.00047898
0.75834930 0.30500735 0.00047898
0.79474455 0.30500735 0.00047935
0.83131934 0.30500735 0.00047935
0.86806838 0.30500735 0.00047940
0.90498673 0.30500735 0.00047898
0.91886608 0.30500735 0.00047898
0.91886608 0.30500735 0.00047898
0.91886608 0.30500735 0.00047898
0.00047917 0.33829520 0.00047898
0.00047917 0.33829520 0.00047898
0.00047917 0.33829520 0.00047898
0.02645279 0.33829520 0.00047914
0.05450388 0.33829520 0.00047898
0.08367572 0.33829520 0.00047898
0.11367435 0.33829520 0.00047914
0.14434169 0.33829520 0.00047898
0.17557670 0.33829520 0.00047898
0.20730834 0.33829520 0.00047916
0.23948356 0.33829520 0.00047898
0.27206099 0.33829520 0.00047916
0.30500735 0.33829520 0.00047898
0.33829520 0.33829520 0.00047916
0.37190148 0.33829520 0.00047898
0.40580650 0.33829520 0.00047898
0.43999321 0.33829520 0.00047898
0.47444669 0.33829520 0.00047898
0.50915376 0.33829520 0.00047898
0.54410269 0.33829520 0.00047920
0.57928293 0.33829520 0.00047898
0.61468499 0.33829520 0.00047898
0.65030022 0.33829520 0.00047898
0.68612074 0.33829520 0.00047927
0.72213932 0.33829520 0.00047898
0.75834930 0.33829520 0.00047931
0.79474455 0.33829520 0.00047898
0.83131934 0.33829520 0.00047898
0.86806838 0.33829520 0.00047898
0.90498673 0.33829520 0.00047898
0.91886608 0.33829520 0.00047946
0.91886608 0.33829520 0.00047898
0.91886608 0.33829520 0.00047953
0.00047917 0.37190148 0.00047898
0.00047917 0.37190148 0.00047898
0.00047917 0.37190148 0.00047898
0.02645279 0.37190148 0.00047898
0.05450388 0.37190148 0.00047898
0.08367572 0.37190148 0.00047898
0.11367435 0.37190148 0.00047898
0.14434169 0.37190148 0.00047898
0.17557670 0.37190148 0.00047898
0.20730834 0.37190148 0.00047898
0.23948356 0.37190148 0.00047898
0.27206099 0.37190148 0.00047898
0.30500735 0.37190148 0.00047898
0.33829520 0.37190148 0.00047898
0.37190148 0.37190148 0.00047898
0.40580650 0.37190148 0.00047898
0.43999321 0.37190148 0.00047898
0.47444669 0.37190148 0.00047920
0.50915376 0.37190148 0.00047898
0.54410269 0.37190148 0.00047898
0.57928293 0.37190148 0.00047898
0.61468499 0.37190148 0.00047898
0.65030022 0.37190148 0.00047898
0.68612074 0.37190148 0.00047898
0.72213932 0.37190148 0.00047898
0.75834930 0.37190148 0.00047898
0.79474455 0.37190148 0.00047898
0.83131934 0.37190148 0.00047898
0.86806838 0.37190148 0.00047898
0.90498673 0.37190148 0.00047898
0.91886608 0.37190148 0.00047898
0.91886608 0.37190148 0.00047898
0.91886608 0.37190148 0.00047953
0.00047921 0.40580650 0.00047898
0.00047921 0.40580650 0.00047898
0.00047921 0.40580650 0.00047898
0.02645279 0.40580650 0.00047898
0.05450388 0.40580650 0.00047898
0.08367572 0.40580650 0.00047898
0.11367435 0.40580650 0.00047898
0.14434169 0.40580650 0.00047898
0.17557670 0.40580650 0.00047898
0.20730834 0.40580650 0.00047898
0.23948356 0.40580650 0.00047898
0.27206099 0.40580650 0.00047898
0.30500735 0.40580650 0.00047898
0.33829520 0.40580650 0.00047898
0.37190148 0.40580650 0.00047898
0.40580650 0.40580650 0.00047918
0.43999321 0.40580650 0.00047898
0.47444669 0.40580650 0.00047898
0.50915376 0.40580650 0.00047898
0.54410269 0.40580650 0.00047898
0.57928293 0.40580650 0.00047898
0.61468499 0.40580650 0.00047898
0.65030022 0.40580650 0.00047898
0.68612074 0.40580650 0.00047898
0.72213932 0.40580650 0.00047898
0.75834930 0.40580650 0.00047898
0.79474455 0.40580650 0.00047898
0.83131934 0.40580650 0.00047898
0.86806838 0.40580650 0.00047898
0.90498673 0.40580650 0.00047898
0.91886608 0.40580650 0.00047898
0.91886608 0.40580650 0.00047898
0.91886608 0.40580650 0.00047898
0.00047898 0.43999321 0.00047898
0.00047898 0.43999321 0.00047898
0.00047898 0.43999321 0.00047898
0.02645279 0.43999321 0.00047898
0.05450388 0.43999321 0.00047898
0.08367572 0.43999321 0.00047898
0.11367435 0.43999321 0.00047898
0.14434169 0.43999321 0.00047898
0.17557670 0.43999321 0.00047898
0.20730834 0.43999321 0.00047898
0.23948356 0.43999321 0.00047898
0.27206099 0.43999321 0.00047898
0.30500735 0.43999321 0.00047898
0.33829520 0.43999321 0.00047898
0.37190148 0.43999321 0.00047898
0.40580650 0.43999321 0.00047898
0.43999321 0.43999321 0.00047898
0.47444669 0.43999321 0.00047920
0.50915376 0.43999321 0.00047898
0.54410269 0.43999321 0.00047898
0.57928293 0.43999321 0.00047898
0.61468499 0.43999321 0.00047898
0.65030022 0.43999321 0.00047927
0.68612074 0.43999321 0.00047927
0.72213932 0.43999321 0.00047898
0.75834930 0.43999321 0.00047931
0.79474455 0.43999321 0.00047898
0.83131934 0.43999321 0.00047898
0.86806838 0.43999321 0.00047898
0.90498673 0.43999321 0.00047898
0.91886608 0.43999321 0.00047946
0.91886608 0.43999321 0.00047898
0.91886608 0.43999321 0.00047898
0.00047924 0.47444669 0.00047920
0.00047924 0.47444669 0.00047920
0.00047924 0.47444669 0.00047920
0.02645279 0.47444669 0.00047920
0.05450388 0.47444669 0.00047920
0.08367572 0.47444669 0.00047898
0.11367435 0.47444669 0.00047898
0.14434169 0.47444669 0.00047898
0.17557670 0.47444669 0.00047898
0.20730834 0.47444669 0.00047898
0.23948356 0.47444669 0.00047898
0.27206099 0.47444669 0.00047920
0.30500735 0.47444669 0.00047898
0.33829520 0.47444669 0.00047920
0.37190148 0.47444669 0.00047898
0.40580650 0.47444669 0.00047898
0.43999321 0.47444669 0.00047898
0.47444669 0.47444669 0.00047920
0.50915376 0.47444669 0.00047923
0.54410269 0.47444669 0.00047898
0.57928293 0.47444669 0.00047898
0.61468499 0.47444669 0.00047898
0.65030022 0.47444669 0.00047898
0.68612074 0.47444669 0.00047927
0.72213932 0.47444669 0.00047898
0.75834930 0.47444669 0.00047898
0.79474455 0.47444669 0.00047898
0.83131934 0.47444669 0.00047898
0.86806838 0.47444669 0.00047940
0.90498673 0.47444669 0.00047898
0.91886608 0.47444669 0.00047898
0.91886608 0.47444669 0.00047898
0.91886608 0.47444669 0.00047953
0.00047925 0.50915376 0.00047898
0.00047925 0.50915376 0.00047898
0.00047925 0.50915376 0.00047898
0.02645279 0.50915376 0.00047898
0.05450388 0.50915376 0.00047898
0.08367572 0.50915376 0.00047898
0.11367435 0.50915376 0.00047898
0.14434169 0.50915376 0.00047898
0.17557670 0.50915376 0.00047898
0.20730834 0.50915376 0.00047898
0.23948356 0.50915376 0.00047898
0.27206099 0.50915376 0.00047898
0.30500735 0.50915376 0.00047898
0.33829520 0.50915376 0.00047898
0.37190148 0.50915376 0.00047920
0.40580650 0.50915376 0.00047898
0.43999321 0.50915376 0.00047898
0.47444669 0.50915376 0.00047898
0.50915376 0.50915376 0.00047898
0.54410269 0.50915376 0.00047898
0.57928293 0.50915376 0.00047898
0.61468499 0.50915376 0.00047898
0.65030022 0.50915376 0.00047898
0.68612074 0.50915376 0.00047898
0.72213932 0.50915376 0.00047898
0.75834930 0.50915376 0.00047935
0.79474455 0.50915376 0.00047898
0.83131934 0.50915376 0.00047898
0.86806838 0.50915376 0.00047940
0.90498673 0.50915376 0.00047898
0.91886608 0.50915376 0.00047898
0.91886608 0.50915376 0.00047898
0.91886608 0.50915376 0.00047898
0.00047922 0.54410269 0.00047898
0.00047922 0.54410269 0.00047898
0.00047922 0.54410269 0.00047898
0.02645279 0.54410269 0.00047898
0.05450388 0.54410269 0.00047898
0.08367572 0.54410269 0.00047898
0.11367435 0.54410269 0.00047898
0.14434169 0.54410269 0.00047898
0.17557670 0.54410269 0.00047898
0.20730834 0.54410269 0.00047898
0.23948356 0.54410269 0.00047898
0.27206099 0.54410269 0.00047898
0.30500735 0.54410269 0.00047898
0.33829520 0.54410269 0.00047898
0.37190148 0.54410269 0.00047898
0.40580650 0.54410269 0.00047898
0.43999321 0.54410269 0.00047898
0.47444669 0.54410269 0.00047898
0.50915376 0.54410269 0.00047898
0.54410269 0.54410269 0.00047898
0.57928293 0.54410269 0.00047898
0.61468499 0.54410269 0.00047898
0.65030022 0.54410269 0.00047898
0.68612074 0.54410269 0.00047898
0.72213932 0.54410269 0.00047898
0.75834930 0.54410269 0.00047898
0.79474455 0.54410269 0.00047935
0.83131934 0.54410269 0.00047935
0.86806838 0.54410269 0.00047940
0.90498673 0.54410269 0.00047898
0.91886608 0.54410269 0.00047898
0.91886608 0.54410269 0.00047898
0.91886608 0.54410269 0.00047953
0.00047916 0.57928293 0.00047898
0.00047916 0.57928293 0.00047898
0.00047916 0.57928293 0.00047898
0.02645279 0.57928293 0.00047898
0.05450388 0.57928293 0.00047898
0.08367572 0.57928293 0.00047898
0.11367435 0.57928293 0.00047898
0.14434169 0.57928293 0.00047898
0.17557670 0.57928293 0.00047898
0.20730834 0.57928293 0.00047898
0.23948356 0.57928293 0.00047898
0.27206099 0.57928293 0.00047898
0.30500735 0.57928293 0.00047898
0.33829520 0.57928293 0.00047898
0.37190148 0.57928293 0.00047898
0.40580650 0.57928293 0.00047898
0.43999321 0.57928293 0.00047923
0.47444669 0.57928293 0.00047898
0.50915376 0.57928293 0.00047898
0.54410269 0.57928293 0.00047898
0.57928293 0.57928293 0.00047898
0.61468499 0.57928293 0.00047898
0.65030022 0.57928293 0.00047898
0.68612074 0.57928293 0.00047931
0.72213932 0.57928293 0.00047898
0.75834930 0.57928293 0.00047898
0.79474455 0.57928293 0.00047898
0.83131934 0.57928293 0.00047898
0.86806838 0.57928293 0.00047898
0.90498673 0.57928293 0.00047898
0.91886608 0.57928293 0.00047898
0.91886608 0.57928293 0.00047946
0.91886608 0.57928293 0.00047898
0.00047928 0.61468499 0.00047898
0.00047928 0.61468499 0.00047898
0.00047928 0.61468499 0.00047898
0.02645279 0.61468499 0.00047898
0.05450388 0.61468499 0.00047898
0.08367572 0.61468499 0.00047927
0.11367435 0.61468499 0.00047898
0.14434169 0.61468499 0.00047898
0.17557670 0.61468499 0.00047898
0.20730834 0.61468499 0.00047927
0.23948356 0.61468499 0.00047898
0.27206099 0.61468499 0.00047898
0.30500735 0.61468499 0.00047898
0.33829520 0.61468499 0.00047898
0.37190148 0.61468499 0.00047927
0.40580650 0.61468499 0.00047898
0.43999321 0.61468499 0.00047898
0.47444669 0.61468499 0.00047898
0.50915376 0.61468499 0.00047898
0.54410269 0.61468499 0.00047898
0.57928293 0.61468499 0.00047898
0.61468499 0.61468499 0.00047898
0.65030022 0.61468499 0.00047898
0.68612074 0.61468499 0.00047898
0.72213932 0.61468499 0.00047898
0.75834930 0.61468499 0.00047931
0.79474455 0.61468499 0.00047898
