src/ffmpeg_scripts/luts/luminance_1p33.cube
TITLE "luminance_1p33"
LUT_3D_SIZE 9
# PQ (EOTF Only)/Rec2020 -> PQ (EOTF Only)/Rec2020, CineEI Shift 1.33, Black Level 0.00% IRE, Input 109% -> Output 109% - Created with LUTCalc v4.01 by Ben Turley October 2020
0.06256172 0.06256172 0.06256172
0.15229481 0.06256172 0.06256172
0.30627433 0.06256172 0.06256172
0.44761664 0.06256172 0.06256172
0.58173955 0.06256191 0.06256172
0.71078289 0.06256172 0.06256172
0.83591164 0.06256200 0.06256172
0.91886608 0.06256172 0.06256172
0.91886608 0.06256238 0.06256245
0.06256181 0.15229481 0.06256172
0.15229481 0.15229481 0.06256172
0.30627433 0.15229481 0.06256172
0.44761664 0.15229481 0.06256189
0.58173955 0.15229481 0.06256172
0.71078289 0.15229481 0.06256172
0.83591164 0.15229481 0.06256208
0.91886608 0.15229481 0.06256227
0.91886608 0.15229481 0.06256235
0.06256185 0.30627433 0.06256172
0.15229481 0.30627433 0.06256172
0.30627433 0.30627433 0.06256172
0.44761664 0.30627433 0.06256172
0.58173955 0.30627433 0.06256194
0.71078289 0.30627433 0.06256172
0.83591164 0.30627433 0.06256208
0.91886608 0.30627433 0.06256172
0.91886608 0.30627433 0.06256172
0.06256192 0.44761664 0.06256189
0.15229481 0.44761664 0.06256172
0.30627433 0.44761664 0.06256172
0.44761664 0.44761664 0.06256191
0.58173955 0.44761664 0.06256194
0.71078289 0.44761664 0.06256200
0.83591164 0.44761664 0.06256172
0.91886608 0.44761664 0.06256172
0.91886608 0.44761664 0.06256235
0.06256194 0.58173955 0.06256172
0.15229481 0.58173955 0.06256194
0.30627433 0.58173955 0.06256172
0.44761664 0.58173955 0.06256172
0.58173955 0.58173955 0.06256172
0.71078289 0.58173955 0.06256172
0.83591164 0.58173955 0.06256172
0.91886608 0.58173955 0.06256172
0.91886608 0.58173955 0.06256172
0.06256202 0.71078289 0.06256200
0.15229481 0.71078289 0.06256172
0.30627433 0.71078289 0.06256200
0.44761664 0.71078289 0.06256172
0.58173955 0.71078289 0.06256204
0.71078289 0.71078289 0.06256204
0.83591164 0.71078289 0.06256172
0.91886608 0.71078289 0.06256172
0.91886608 0.71078289 0.06256172
0.06256197 0.83591164 0.06256172
0.15229481 0.83591164 0.06256172
0.30627433 0.83591164 0.06256172
0.44761664 0.83591164 0.06256172
0.58173955 0.83591164 0.06256208
0.71078289 0.83591164 0.06256172
0.83591164 0.83591164 0.06256213
0.91886608 0.83591164 0.06256172
0.91886608 0.83591164 0.06256235
0.06256224 0.91886608 0.06256172
0.15229481 0.91886608 0.06256172
0.30627433 0.91886608 0.06256172
0.44761664 0.91886608 0.06256172
0.58173955 0.91886608 0.06256172
0.71078289 0.91886608 0.06256172
0.83591164 0.91886608 0.06256172
0.91886608 0.91886608 0.06256172
0.91886608 0.91886608 0.06256172
0.06256243 0.91886608 0.06256172
0.15229481 0.91886608 0.06256245
0.30627433 0.91886608 0.06256235
0.44761664 0.91886608 0.06256172
0.58173955 0.91886608 0.06256172
0.71078289 0.91886608 0.06256172
0.83591164 0.91886608 0.06256235
0.91886608 0.91886608 0.06256172
0.91886608 0.91886608 0.06256172
0.06256172 0.06256181 0.15229481
0.15229481 0.06256182 0.15229481
0.30627433 0.06256172 0.15229481
0.44761664 0.06256189 0.15229481
0.58173955 0.06256198 0.15229481
0.71078289 0.06256172 0.15229481
0.83591164 0.06256206 0.15229481
0.91886608 0.06256218 0.15229481
0.91886608 0.06256172 0.15229481
0.06256180 0.15229481 0.15229481
0.15229481 0.15229481 0.15229481
0.30627433 0.15229481 0.15229481
0.44761664 0.15229481 0.15229481
0.58173955 0.15229481 0.15229481
0.71078289 0.15229481 0.15229481
0.83591164 0.15229481 0.15229481
0.91886608 0.15229481 0.15229481
0.91886608 0.15229481 0.15229481
0.06256183 0.30627433 0.15229481
0.15229481 0.30627433 0.15229481
0.30627433 0.30627433 0.15229481
0.44761664 0.30627433 0.15229481
0.58173955 0.30627433 0.15229481
0.71078289 0.30627433 0.15229481
0.83591164 0.30627433 0.15229481
0.91886608 0.30627433 0.15229481
0.91886608 0.30627433 0.15229481
0.06256192 0.44761664 0.15229481
0.15229481 0.44761664 0.15229481
0.30627433 0.44761664 0.15229481
0.44761664 0.44761664 0.15229481
0.58173955 0.44761664 0.15229481
0.71078289 0.44761664 0.15229481
0.83591164 0.44761664 0.15229481
0.91886608 0.44761664 0.15229481
0.91886608 0.44761664 0.15229481
0.06256190 0.58173955 0.15229481
0.15229481 0.58173955 0.15229481
0.30627433 0.58173955 0.15229481
0.44761664 0.58173955 0.15229481
0.58173955 0.58173955 0.15229481
0.71078289 0.58173955 0.15229481
0.83591164 0.58173955 0.15229481
0.91886608 0.58173955 0.15229481
0.91886608 0.58173955 0.15229481
0.06256207 0.71078289 0.15229481
0.15229481 0.71078289 0.15229481
0.30627433 0.71078289 0.15229481
0.44761664 0.71078289 0.15229481
0.58173955 0.71078289 0.15229481
0.71078289 0.71078289 0.15229481
0.83591164 0.71078289 0.15229481
0.91886608 0.71078289 0.15229481
0.91886608 0.71078289 0.15229481
0.06256217 0.83591164 0.15229481
0.15229481 0.83591164 0.15229481
0.30627433 0.83591164 0.15229481
0.44761664 0.83591164 0.15229481
0.58173955 0.83591164 0.15229481
0.71078289 0.83591164 0.15229481
0.83591164 0.83591164 0.15229481
0.91886608 0.83591164 0.15229481
0.91886608 0.83591164 0.15229481
0.06256172 0.91886608 0.15229481
0.15229481 0.91886608 0.15229481
0.30627433 0.91886608 0.15229481
0.44761664 0.91886608 0.15229481
0.58173955 0.91886608 0.15229481
0.71078289 0.91886608 0.15229481
0.83591164 0.91886608 0.15229481
0.91886608 0.91886608 0.15229481
0.91886608 0.91886608 0.15229481
0.06256253 0.91886608 0.15229481
0.15229481 0.91886608 0.15229481
0.30627433 0.91886608 0.15229481
0.44761664 0.91886608 0.15229481
0.58173955 0.91886608 0.15229481
0.71078289 0.91886608 0.15229481
0.83591164 0.91886608 0.15229481
0.91886608 0.91886608 0.15229481
0.91886608 0.91886608 0.15229481
0.06256172 0.06256191 0.30627433
0.15229481 0.06256172 0.30627433
0.30627433 0.06256189 0.30627433
0.44761664 0.06256172 0.30627433
0.58173955 0.06256194 0.30627433
0.71078289 0.06256172 0.30627433
0.83591164 0.06256208 0.30627433
0.91886608 0.06256172 0.30627433
0.91886608 0.06256231 0.30627433
0.06256172 0.15229481 0.30627433
0.15229481 0.15229481 0.30627433
0.30627433 0.15229481 0.30627433
0.44761664 0.15229481 0.30627433
0.58173955 0.15229481 0.30627433
0.71078289 0.15229481 0.30627433
0.83591164 0.15229481 0.30627433
0.91886608 0.15229481 0.30627433
0.91886608 0.15229481 0.30627433
0.06256185 0.30627433 0.30627433
0.15229481 0.30627433 0.30627433
0.30627433 0.30627433 0.30627433
0.44761664 0.30627433 0.30627433
0.58173955 0.30627433 0.30627433
0.71078289 0.30627433 0.30627433
0.83591164 0.30627433 0.30627433
0.91886608 0.30627433 0.30627433
0.91886608 0.30627433 0.30627433
0.06256192 0.44761664 0.30627433
0.15229481 0.44761664 0.30627433
0.30627433 0.44761664 0.30627433
0.44761664 0.44761664 0.30627433
0.58173955 0.44761664 0.30627433
0.71078289 0.44761664 0.30627433
0.83591164 0.44761664 0.30627433
0.91886608 0.44761664 0.30627433
0.91886608 0.44761664 0.30627433
0.06256199 0.58173955 0.30627433
0.15229481 0.58173955 0.30627433
0.30627433 0.58173955 0.30627433
0.44761664 0.58173955 0.30627433
0.58173955 0.58173955 0.30627433
0.71078289 0.58173955 0.30627433
0.83591164 0.58173955 0.30627433
0.91886608 0.58173955 0.30627433
0.91886608 0.58173955 0.30627433
0.06256203 0.71078289 0.30627433
0.15229481 0.71078289 0.30627433
0.30627433 0.71078289 0.30627433
0.44761664 0.71078289 0.30627433
0.58173955 0.71078289 0.30627433
0.71078289 0.71078289 0.30627433
0.83591164 0.71078289 0.30627433
0.91886608 0.71078289 0.30627433
0.91886608 0.71078289 0.30627433
0.06256200 0.83591164 0.30627433
0.15229481 0.83591164 0.30627433
0.30627433 0.83591164 0.30627433
0.44761664 0.83591164 0.30627433
0.58173955 0.83591164 0.30627433
0.71078289 0.83591164 0.30627433
0.83591164 0.83591164 0.30627433
0.91886608 0.83591164 0.30627433
0.91886608 0.83591164 0.30627433
0.06256228 0.91886608 0.30627433
0.15229481 0.91886608 0.30627433
0.30627433 0.91886608 0.30627433
0.44761664 0.91886608 0.30627433
0.58173955 0.91886608 0.30627433
0.71078289 0.91886608 0.30627433
0.83591164 0.91886608 0.30627433
0.91886608 0.91886608 0.30627433
0.91886608 0.91886608 0.30627433
0.06256241 0.91886608 0.30627433
0.15229481 0.91886608 0.30627433
0.30627433 0.91886608 0.30627433
0.44761664 0.91886608 0.30627433
0.58173955 0.91886608 0.30627433
0.71078289 0.91886608 0.30627433
0.83591164 0.91886608 0.30627433
0.91886608 0.91886608 0.30627433
0.91886608 0.91886608 0.30627433
0.06256172 0.06256194 0.44761664
0.15229481 0.06256194 0.44761664
0.30627433 0.06256194 0.44761664
0.44761664 0.06256198 0.44761664
0.58173955 0.06256197 0.44761664
0.71078289 0.06256200 0.44761664
0.83591164 0.06256200 0.44761664
0.91886608 0.06256219 0.44761664
0.91886608 0.06256238 0.44761664
0.06256172 0.15229481 0.44761664
0.15229481 0.15229481 0.44761664
0.30627433 0.15229481 0.44761664
0.44761664 0.15229481 0.44761664
0.58173955 0.15229481 0.44761664
0.71078289 0.15229481 0.44761664
0.83591164 0.15229481 0.44761664
0.91886608 0.15229481 0.44761664
0.91886608 0.15229481 0.44761664
0.06256172 0.30627433 0.44761664
0.15229481 0.30627433 0.44761664
0.30627433 0.30627433 0.44761664
0.44761664 0.30627433 0.44761664
0.58173955 0.30627433 0.44761664
0.71078289 0.30627433 0.44761664
0.83591164 0.30627433 0.44761664
0.91886608 0.30627433 0.44761664
0.91886608 0.30627433 0.44761664
0.06256191 0.44761664 0.44761664
0.15229481 0.44761664 0.44761664
0.30627433 0.44761664 0.44761664
0.44761664 0.44761664 0.44761664
0.58173955 0.44761664 0.44761664
0.71078289 0.44761664 0.44761664
0.83591164 0.44761664 0.44761664
0.91886608 0.44761664 0.44761664
0.91886608 0.44761664 0.44761664
0.06256191 0.58173955 0.44761664
0.15229481 0.58173955 0.44761664
0.30627433 0.58173955 0.44761664
0.44761664 0.58173955 0.44761664
0.58173955 0.58173955 0.44761664
0.71078289 0.58173955 0.44761664
0.83591164 0.58173955 0.44761664
0.91886608 0.58173955 0.44761664
0.91886608 0.58173955 0.44761664
0.06256201 0.71078289 0.44761664
0.15229481 0.71078289 0.44761664
0.30627433 0.71078289 0.44761664
0.44761664 0.71078289 0.44761664
0.58173955 0.71078289 0.44761664
0.71078289 0.71078289 0.44761664
0.83591164 0.71078289 0.44761664
0.91886608 0.71078289 0.44761664
0.91886608 0.71078289 0.44761664
0.06256216 0.83591164 0.44761664
0.15229481 0.83591164 0.44761664
0.30627433 0.83591164 0.44761664
0.44761664 0.83591164 0.44761664
0.58173955 0.83591164 0.44761664
0.71078289 0.83591164 0.44761664
0.83591164 0.83591164 0.44761664
0.91886608 0.83591164 0.44761664
0.91886608 0.83591164 0.44761664
0.06256223 0.91886608 0.44761664
0.15229481 0.91886608 0.44761664
0.30627433 0.91886608 0.44761664
0.44761664 0.91886608 0.44761664
0.58173955 0.91886608 0.44761664
0.71078289 0.91886608 0.44761664
0.83591164 0.91886608 0.44761664
0.91886608 0.91886608 0.44761664
0.91886608 0.91886608 0.44761664
0.06256242 0.91886608 0.44761664
0.15229481 0.91886608 0.44761664
0.30627433 0.91886608 0.44761664
0.44761664 0.91886608 0.44761664
0.58173955 0.91886608 0.44761664
0.71078289 0.91886608 0.44761664
0.83591164 0.91886608 0.44761664
0.91886608 0.91886608 0.44761664
0.91886608 0.91886608 0.44761664
0.06256197 0.06256204 0.58173955
0.15229481 0.06256208 0.58173955
0.30627433 0.06256172 0.58173955
0.44761664 0.06256172 0.58173955
0.58173955 0.06256172 0.58173955
0.71078289 0.06256172 0.58173955
0.83591164 0.06256213 0.58173955
0.91886608 0.06256223 0.58173955
0.91886608 0.06256250 0.58173955
0.06256172 0.15229481 0.58173955
0.15229481 0.15229481 0.58173955
0.30627433 0.15229481 0.58173955
0.44761664 0.15229481 0.58173955
0.58173955 0.15229481 0.58173955
0.71078289 0.15229481 0.58173955
0.83591164 0.15229481 0.58173955
0.91886608 0.15229481 0.58173955
0.91886608 0.15229481 0.58173955
0.06256172 0.30627433 0.58173955
0.15229481 0.30627433 0.58173955
0.30627433 0.30627433 0.58173955
0.44761664 0.30627433 0.58173955
0.58173955 0.30627433 0.58173955
0.71078289 0.30627433 0.58173955
0.83591164 0.30627433 0.58173955
0.91886608 0.30627433 0.58173955
0.91886608 0.30627433 0.58173955
0.06256172 0.44761664 0.58173955
0.15229481 0.44761664 0.58173955
0.30627433 0.44761664 0.58173955
0.44761664 0.44761664 0.58173955
0.58173955 0.44761664 0.58173955
0.71078289 0.44761664 0.58173955
0.83591164 0.44761664 0.58173955
0.91886608 0.44761664 0.58173955
0.91886608 0.44761664 0.58173955
0.06256172 0.58173955 0.58173955
0.15229481 0.58173955 0.58173955
0.30627433 0.58173955 0.58173955
0.44761664 0.58173955 0.58173955
0.58173955 0.58173955 0.58173955
0.71078289 0.58173955 0.58173955
0.83591164 0.58173955 0.58173955
0.91886608 0.58173955 0.58173955
0.91886608 0.58173955 0.58173955
0.06256204 0.71078289 0.58173955
0.15229481 0.71078289 0.58173955
0.30627433 0.71078289 0.58173955
0.44761664 0.71078289 0.58173955
0.58173955 0.71078289 0.58173955
0.71078289 0.71078289 0.58173955
0.83591164 0.71078289 0.58173955
0.91886608 0.71078289 0.58173955
0.91886608 0.71078289 0.58173955
0.06256222 0.83591164 0.58173955
0.15229481 0.83591164 0.58173955
0.30627433 0.83591164 0.58173955
0.44761664 0.83591164 0.58173955
0.58173955 0.83591164 0.58173955
0.71078289 0.83591164 0.58173955
0.83591164 0.83591164 0.58173955
0.91886608 0.83591164 0.58173955
0.91886608 0.83591164 0.58173955
0.06256229 0.91886608 0.58173955
0.15229481 0.91886608 0.58173955
0.30627433 0.91886608 0.58173955
0.44761664 0.91886608 0.58173955
0.58173955 0.91886608 0.58173955
0.71078289 0.91886608 0.58173955
0.83591164 0.91886608 0.58173955
0.91886608 0.91886608 0.58173955
0.91886608 0.91886608 0.58173955
0.06256172 0.91886608 0.58173955
0.15229481 0.91886608 0.58173955
0.30627433 0.91886608 0.58173955
0.44761664 0.91886608 0.58173955
0.58173955 0.91886608 0.58173955
0.71078289 0.91886608 0.58173955
0.83591164 0.91886608 0.58173955
0.91886608 0.91886608 0.58173955
0.91886608 0.91886608 0.58173955
0.06256172 0.06256213 0.71078289
0.15229481 0.06256213 0.71078289
0.30627433 0.06256213 0.71078289
0.44761664 0.06256219 0.71078289
0.58173955 0.06256219 0.71078289
0.71078289 0.06256213 0.71078289
0.83591164 0.06256172 0.71078289
0.91886608 0.06256219 0.71078289
0.91886608 0.06256172 0.71078289
0.06256172 0.15229481 0.71078289
0.15229481 0.15229481 0.71078289
0.30627433 0.15229481 0.71078289
0.44761664 0.15229481 0.71078289
0.58173955 0.15229481 0.71078289
0.71078289 0.15229481 0.71078289
0.83591164 0.15229481 0.71078289
0.91886608 0.15229481 0.71078289
0.91886608 0.15229481 0.71078289
0.06256172 0.30627433 0.71078289
0.15229481 0.30627433 0.71078289
0.30627433 0.30627433 0.71078289
0.44761664 0.30627433 0.71078289
0.58173955 0.30627433 0.71078289
0.71078289 0.30627433 0.71078289
0.83591164 0.30627433 0.71078289
0.91886608 0.30627433 0.71078289
0.91886608 0.30627433 0.71078289
0.06256208 0.44761664 0.71078289
0.15229481 0.44761664 0.71078289
0.30627433 0.44761664 0.71078289
0.44761664 0.44761664 0.71078289
0.58173955 0.44761664 0.71078289
0.71078289 0.44761664 0.71078289
0.83591164 0.44761664 0.71078289
0.91886608 0.44761664 0.71078289
0.91886608 0.44761664 0.71078289
0.06256172 0.58173955 0.71078289
0.15229481 0.58173955 0.71078289
0.30627433 0.58173955 0.71078289
0.44761664 0.58173955 0.71078289
0.58173955 0.58173955 0.71078289
0.71078289 0.58173955 0.71078289
0.83591164 0.58173955 0.71078289
0.91886608 0.58173955 0.71078289
0.91886608 0.58173955 0.71078289
0.06256204 0.71078289 0.71078289
0.15229481 0.71078289 0.71078289
0.30627433 0.71078289 0.71078289
0.44761664 0.71078289 0.71078289
0.58173955 0.71078289 0.71078289
0.71078289 0.71078289 0.71078289
0.83591164 0.71078289 0.71078289
0.91886608 0.71078289 0.71078289
0.91886608 0.71078289 0.71078289
0.06256215 0.83591164 0.71078289
0.15229481 0.83591164 0.71078289
0.30627433 0.83591164 0.71078289
0.44761664 0.83591164 0.71078289
0.58173955 0.83591164 0.71078289
0.71078289 0.83591164 0.71078289
0.83591164 0.83591164 0.71078289
0.91886608 0.83591164 0.71078289
0.91886608 0.83591164 0.71078289
0.06256217 0.91886608 0.71078289
0.15229481 0.91886608 0.71078289
0.30627433 0.91886608 0.71078289
0.44761664 0.91886608 0.71078289
0.58173955 0.91886608 0.71078289
0.71078289 0.91886608 0.71078289
0.83591164 0.91886608 0.71078289
0.91886608 0.91886608 0.71078289
0.91886608 0.91886608 0.71078289
0.06256253 0.91886608 0.71078289
0.15229481 0.91886608 0.71078289
0.30627433 0.91886608 0.71078289
0.44761664 0.91886608 0.71078289
0.58173955 0.91886608 0.71078289
0.71078289 0.91886608 0.71078289
0.83591164 0.91886608 0.71078289
0.91886608 0.91886608 0.71078289
0.91886608 0.91886608 0.71078289
0.06256172 0.06256231 0.83591164
0.15229481 0.06256172 0.83591164
0.30627433 0.06256172 0.83591164
0.44761664 0.06256227 0.83591164
0.58173955 0.06256172 0.83591164
0.71078289 0.06256219 0.83591164
0.83591164 0.06256172 0.83591164
0.91886608 0.06256172 0.83591164
0.91886608 0.06256235 0.83591164
0.06256172 0.15229481 0.83591164
0.15229481 0.15229481 0.83591164
0.30627433 0.15229481 0.83591164
0.44761664 0.15229481 0.83591164
0.58173955 0.15229481 0.83591164
0.71078289 0.15229481 0.83591164
0.83591164 0.15229481 0.83591164
0.91886608 0.15229481 0.83591164
0.91886608 0.15229481 0.83591164
0.06256172 0.30627433 0.83591164
0.15229481 0.30627433 0.83591164
0.30627433 0.30627433 0.83591164
0.44761664 0.30627433 0.83591164
0.58173955 0.30627433 0.83591164
0.71078289 0.30627433 0.83591164
0.83591164 0.30627433 0.83591164
0.91886608 0.30627433 0.83591164
0.91886608 0.30627433 0.83591164
0.06256172 0.44761664 0.83591164
0.15229481 0.44761664 0.83591164
0.30627433 0.44761664 0.83591164
0.44761664 0.44761664 0.83591164
0.58173955 0.44761664 0.83591164
0.71078289 0.44761664 0.83591164
0.83591164 0.44761664 0.83591164
0.91886608 0.44761664 0.83591164
0.91886608 0.44761664 0.83591164
0.06256172 0.58173955 0.83591164
0.15229481 0.58173955 0.83591164
0.30627433 0.58173955 0.83591164
0.44761664 0.58173955 0.83591164
0.58173955 0.58173955 0.83591164
0.71078289 0.58173955 0.83591164
0.83591164 0.58173955 0.83591164
0.91886608 0.58173955 0.83591164
0.91886608 0.58173955 0.83591164
0.06256172 0.71078289 0.83591164
0.15229481 0.71078289 0.83591164
0.30627433 0.71078289 0.83591164
0.44761664 0.71078289 0.83591164
0.58173955 0.71078289 0.83591164
0.71078289 0.71078289 0.83591164
0.83591164 0.71078289 0.83591164
0.91886608 0.71078289 0.83591164
0.91886608 0.71078289 0.83591164
0.06256172 0.83591164 0.83591164
0.15229481 0.83591164 0.83591164
0.30627433 0.83591164 0.83591164
0.44761664 0.83591164 0.83591164
0.58173955 0.83591164 0.83591164
0.71078289 0.83591164 0.83591164
0.83591164 0.83591164 0.83591164
0.91886608 0.83591164 0.83591164
0.91886608 0.83591164 0.83591164
0.06256213 0.91886608 0.83591164
0.15229481 0.91886608 0.83591164
0.30627433 0.91886608 0.83591164
0.44761664 0.91886608 0.83591164
0.58173955 0.91886608 0.83591164
0.71078289 0.91886608 0.83591164
0.83591164 0.91886608 0.83591164
0.91886608 0.91886608 0.83591164
0.91886608 0.91886608 0.83591164
0.06256245 0.91886608 0.83591164
0.15229481 0.91886608 0.83591164
0.30627433 0.91886608 0.83591164
0.44761664 0.91886608 0.83591164
0.58173955 0.91886608 0.83591164
0.71078289 0.91886608 0.83591164
0.83591164 0.91886608 0.83591164
0.91886608 0.91886608 0.83591164
0.91886608 0.91886608 0.83591164
0.06256172 0.06256235 0.91886608
0.15229481 0.06256245 0.91886608
0.30627433 0.06256245 0.91886608
0.44761664 0.06256245 0.91886608
0.58173955 0.06256172 0.91886608
0.71078289 0.06256172 0.91886608
0.83591164 0.06256245 0.91886608
0.91886608 0.06256235 0.91886608
0.91886608 0.06256265 0.91886608
0.06256172 0.15229481 0.91886608
0.15229481 0.15229481 0.91886608
0.30627433 0.15229481 0.91886608
0.44761664 0.15229481 0.91886608
0.58173955 0.15229481 0.91886608
0.71078289 0.15229481 0.91886608
0.83591164 0.15229481 0.91886608
0.91886608 0.15229481 0.91886608
0.91886608 0.15229481 0.91886608
0.06256172 0.30627433 0.91886608
0.15229481 0.30627433 0.91886608
0.30627433 0.30627433 0.91886608
0.44761664 0.30627433 0.91886608
0.58173955 0.30627433 0.91886608
0.71078289 0.30627433 0.91886608
0.83591164 0.30627433 0.91886608
0.91886608 0.30627433 0.91886608
0.91886608 0.30627433 0.91886608
0.06256172 0.44761664 0.91886608
0.15229481 0.44761664 0.91886608
0.30627433 0.44761664 0.91886608
0.44761664 0.44761664 0.91886608
0.58173955 0.44761664 0.91886608
0.71078289 0.44761664 0.91886608
0.83591164 0.44761664 0.91886608
0.91886608 0.44761664 0.91886608
0.91886608 0.44761664 0.91886608
0.06256172 0.58173955 0.91886608
0.15229481 0.58173955 0.91886608
0.30627433 0.58173955 0.91886608
0.44761664 0.58173955 0.91886608
0.58173955 0.58173955 0.91886608
0.71078289 0.58173955 0.91886608
0.83591164 0.58173955 0.91886608
0.91886608 0.58173955 0.91886608
0.91886608 0.58173955 0.91886608
0.06256227 0.71078289 0.91886608
0.15229481 0.71078289 0.91886608
0.30627433 0.71078289 0.91886608
0.44761664 0.71078289 0.91886608
0.58173955 0.71078289 0.91886608
0.71078289 0.71078289 0.91886608
0.83591164 0.71078289 0.91886608
0.91886608 0.71078289 0.91886608
0.91886608 0.71078289 0.91886608
0.06256172 0.83591164 0.91886608
0.15229481 0.83591164 0.91886608
0.30627433 0.83591164 0.91886608
0.44761664 0.83591164 0.91886608
0.58173955 0.83591164 0.91886608
0.71078289 0.83591164 0.91886608
0.83591164 0.83591164 0.91886608
0.91886608 0.83591164 0.91886608
0.91886608 0.83591164 0.91886608
0.06256172 0.91886608 0.91886608
0.15229481 0.91886608 0.91886608
0.30627433 0.91886608 0.91886608
0.44761664 0.91886608 0.91886608
0.58173955 0.91886608 0.91886608
0.71078289 0.91886608 0.91886608
0.83591164 0.91886608 0.91886608
0.91886608 0.91886608 0.91886608
0.91886608 0.91886608 0.91886608
0.06256249 0.91886608 0.91886608
0.15229481 0.91886608 0.91886608
0.30627433 0.91886608 0.91886608
0.44761664 0.91886608 0.91886608
0.58173955 0.91886608 0.91886608
0.71078289 0.91886608 0.91886608
0.83591164 0.91886608 0.91886608
0.91886608 0.91886608 0.91886608
0.91886608 0.91886608 0.91886608
0.06256172 0.06256272 0.91886608
0.15229481 0.06256172 0.91886608
0.30627433 0.06256281 0.91886608
0.44761664 0.06256272 0.91886608
0.58173955 0.06256281 0.91886608
0.71078289 0.06256257 0.91886608
0.83591164 0.06256272 0.91886608
0.91886608 0.06256272 0.91886608
0.91886608 0.06256272 0.91886608
0.06256245 0.15229481 0.91886608
0.15229481 0.15229481 0.91886608
0.30627433 0.15229481 0.91886608
0.44761664 0.15229481 0.91886608
0.58173955 0.15229481 0.91886608
0.71078289 0.15229481 0.91886608
0.83591164 0.15229481 0.91886608
0.91886608 0.15229481 0.91886608
0.91886608 0.15229481 0.91886608
0.06256245 0.30627433 0.91886608
0.15229481 0.30627433 0.91886608
0.30627433 0.30627433 0.91886608
0.44761664 0.30627433 0.91886608
0.58173955 0.30627433 0.91886608
0.71078289 0.30627433 0.91886608
0.83591164 0.30627433 0.91886608
0.91886608 0.30627433 0.91886608
0.91886608 0.30627433 0.91886608
0.06256257 0.44761664 0.91886608
0.15229481 0.44761664 0.91886608
0.30627433 0.44761664 0.91886608
0.44761664 0.44761664 0.91886608
0.58173955 0.44761664 0.91886608
0.71078289 0.44761664 0.91886608
0.83591164 0.44761664 0.91886608
0.91886608 0.44761664 0.91886608
0.91886608 0.44761664 0.91886608
0.06256172 0.58173955 0.91886608
0.15229481 0.58173955 0.91886608
0.30627433 0.58173955 0.91886608
0.44761664 0.58173955 0.91886608
0.58173955 0.58173955 0.91886608
0.71078289 0.58173955 0.91886608
0.83591164 0.58173955 0.91886608
0.91886608 0.58173955 0.91886608
0.91886608 0.58173955 0.91886608
0.06256172 0.71078289 0.91886608
0.15229481 0.71078289 0.91886608
0.30627433 0.71078289 0.91886608
0.44761664 0.71078289 0.91886608
0.58173955 0.71078289 0.91886608
0.71078289 0.71078289 0.91886608
0.83591164 0.71078289 0.91886608
0.91886608 0.71078289 0.91886608
0.91886608 0.71078289 0.91886608
0.06256172 0.83591164 0.91886608
0.15229481 0.83591164 0.91886608
0.30627433 0.83591164 0.91886608
0.44761664 0.83591164 0.91886608
0.58173955 0.83591164 0.91886608
0.71078289 0.83591164 0.91886608
0.83591164 0.83591164 0.91886608
0.91886608 0.83591164 0.91886608
0.91886608 0.83591164 0.91886608
0.06256172 0.91886608 0.91886608
0.15229481 0.91886608 0.91886608
0.30627433 0.91886608 0.91886608
0.44761664 0.91886608 0.91886608
0.58173955 0.91886608 0.91886608
0.71078289 0.91886608 0.91886608
0.83591164 0.91886608 0.91886608
0.91886608 0.91886608 0.91886608
0.91886608 0.91886608 0.91886608
0.06256172 0.91886608 0.91886608
0.15229481 0.91886608 0.91886608
0.30627433 0.91886608 0.91886608
0.44761664 0.91886608 0.91886608
0.58173955 0.91886608 0.91886608
0.71078289 0.91886608 0.91886608
0.83591164 0.91886608 0.91886608
0.91886608 0.91886608 0.91886608
0.91886608 0.91886608 0.91886608
