src/ffmpeg_scripts/luts/luminance-unclipped_2p00.cube
TITLE "luminance-unclipped_2p00"
LUT_3D_SIZE 9
# PQ (EOTF Only)/Rec2020 -> PQ (EOTF Only)/Rec2020, CineEI Shift 2.00, Black Level -7.25% IRE, Input 109% -> Output 109% - Created with LUTCalc v4.01 by Ben Turley October 2020
0.00047898 0.00047898 0.00047898
0.12371164 0.00047906 0.00047898
0.31925506 0.00047898 0.00047898
0.49151404 0.00047898 0.00047898
0.65099763 0.00047927 0.00047927
0.80171355 0.00047898 0.00047898
0.91886608 0.00047898 0.00047898
0.91886608 0.00047946 0.00047898
0.91886608 0.00047967 0.00047898
0.00047909 0.12371164 0.00047898
0.12371164 0.12371164 0.00047898
0.31925506 0.12371164 0.00047898
0.49151404 0.12371164 0.00047898
0.65099763 0.12371164 0.00047898
0.80171355 0.12371164 0.00047898
0.91886608 0.12371164 0.00047898
0.91886608 0.12371164 0.00047961
0.91886608 0.12371164 0.00047898
0.00047898 0.31925506 0.00047898
0.12371164 0.31925506 0.00047898
0.31925506 0.31925506 0.00047898
0.49151404 0.31925506 0.00047898
0.65099763 0.31925506 0.00047898
0.80171355 0.31925506 0.00047898
0.91886608 0.31925506 0.00047898
0.91886608 0.31925506 0.00047898
0.91886608 0.31925506 0.00047898
0.00047923 0.49151404 0.00047920
0.12371164 0.49151404 0.00047898
0.31925506 0.49151404 0.00047898
0.49151404 0.49151404 0.00047923
0.65099763 0.49151404 0.00047898
0.80171355 0.49151404 0.00047898
0.91886608 0.49151404 0.00047898
0.91886608 0.49151404 0.00047898
0.91886608 0.49151404 0.00047898
0.00047925 0.65099763 0.00047898
0.12371164 0.65099763 0.00047898
0.31925506 0.65099763 0.00047898
0.49151404 0.65099763 0.00047898
0.65099763 0.65099763 0.00047898
0.80171355 0.65099763 0.00047898
0.91886608 0.65099763 0.00047898
0.91886608 0.65099763 0.00047898
0.91886608 0.65099763 0.00047898
0.00047941 0.80171355 0.00047898
0.12371164 0.80171355 0.00047898
0.31925506 0.80171355 0.00047898
0.49151404 0.80171355 0.00047898
0.65099763 0.80171355 0.00047898
0.80171355 0.80171355 0.00047898
0.91886608 0.80171355 0.00047898
0.91886608 0.80171355 0.00047898
0.91886608 0.80171355 0.00047898
0.00047950 0.91886608 0.00047898
0.12371164 0.91886608 0.00047898
0.31925506 0.91886608 0.00047898
0.49151404 0.91886608 0.00047898
0.65099763 0.91886608 0.00047898
0.80171355 0.91886608 0.00047946
0.91886608 0.91886608 0.00047898
0.91886608 0.91886608 0.00047898
0.91886608 0.91886608 0.00047983
0.00047971 0.91886608 0.00047898
0.12371164 0.91886608 0.00047898
0.31925506 0.91886608 0.00047898
0.49151404 0.91886608 0.00047898
0.65099763 0.91886608 0.00047898
0.80171355 0.91886608 0.00047898
0.91886608 0.91886608 0.00047898
0.91886608 0.91886608 0.00047898
0.91886608 0.91886608 0.00047898
0.00047997 0.91886608 0.00047898
0.12371164 0.91886608 0.00047983
0.31925506 0.91886608 0.00047983
0.49151404 0.91886608 0.00047898
0.65099763 0.91886608 0.00047898
0.80171355 0.91886608 0.00047898
0.91886608 0.91886608 0.00047898
0.91886608 0.91886608 0.00047983
0.91886608 0.91886608 0.00047898
0.00047898 0.00047910 0.12371164
0.12371164 0.00047910 0.12371164
0.31925506 0.00047898 0.12371164
0.49151404 0.00047898 0.12371164
0.65099763 0.00047898 0.12371164
0.80171355 0.00047898 0.12371164
0.91886608 0.00047940 0.12371164
0.91886608 0.00047956 0.12371164
0.91886608 0.00047898 0.12371164
0.00047909 0.12371164 0.12371164
0.12371164 0.12371164 0.12371164
0.31925506 0.12371164 0.12371164
0.49151404 0.12371164 0.12371164
0.65099763 0.12371164 0.12371164
0.80171355 0.12371164 0.12371164
0.91886608 0.12371164 0.12371164
0.91886608 0.12371164 0.12371164
0.91886608 0.12371164 0.12371164
0.00047915 0.31925506 0.12371164
0.12371164 0.31925506 0.12371164
0.31925506 0.31925506 0.12371164
0.49151404 0.31925506 0.12371164
0.65099763 0.31925506 0.12371164
0.80171355 0.31925506 0.12371164
0.91886608 0.31925506 0.12371164
0.91886608 0.31925506 0.12371164
0.91886608 0.31925506 0.12371164
0.00047923 0.49151404 0.12371164
0.12371164 0.49151404 0.12371164
0.31925506 0.49151404 0.12371164
0.49151404 0.49151404 0.12371164
0.65099763 0.49151404 0.12371164
0.80171355 0.49151404 0.12371164
0.91886608 0.49151404 0.12371164
0.91886608 0.49151404 0.12371164
0.91886608 0.49151404 0.12371164
0.00047920 0.65099763 0.12371164
0.12371164 0.65099763 0.12371164
0.31925506 0.65099763 0.12371164
0.49151404 0.65099763 0.12371164
0.65099763 0.65099763 0.12371164
0.80171355 0.65099763 0.12371164
0.91886608 0.65099763 0.12371164
0.91886608 0.65099763 0.12371164
0.91886608 0.65099763 0.12371164
0.00047938 0.80171355 0.12371164
0.12371164 0.80171355 0.12371164
0.31925506 0.80171355 0.12371164
0.49151404 0.80171355 0.12371164
0.65099763 0.80171355 0.12371164
0.80171355 0.80171355 0.12371164
0.91886608 0.80171355 0.12371164
0.91886608 0.80171355 0.12371164
0.91886608 0.80171355 0.12371164
0.00047952 0.91886608 0.12371164
0.12371164 0.91886608 0.12371164
0.31925506 0.91886608 0.12371164
0.49151404 0.91886608 0.12371164
0.65099763 0.91886608 0.12371164
0.80171355 0.91886608 0.12371164
0.91886608 0.91886608 0.12371164
0.91886608 0.91886608 0.12371164
0.91886608 0.91886608 0.12371164
0.00047956 0.91886608 0.12371164
0.12371164 0.91886608 0.12371164
0.31925506 0.91886608 0.12371164
0.49151404 0.91886608 0.12371164
0.65099763 0.91886608 0.12371164
0.80171355 0.91886608 0.12371164
0.91886608 0.91886608 0.12371164
0.91886608 0.91886608 0.12371164
0.91886608 0.91886608 0.12371164
0.00047993 0.91886608 0.12371164
0.12371164 0.91886608 0.12371164
0.31925506 0.91886608 0.12371164
0.49151404 0.91886608 0.12371164
0.65099763 0.91886608 0.12371164
0.80171355 0.91886608 0.12371164
0.91886608 0.91886608 0.12371164
0.91886608 0.91886608 0.12371164
0.91886608 0.91886608 0.12371164
0.00047898 0.00047918 0.31925506
0.12371164 0.00047918 0.31925506
0.31925506 0.00047918 0.31925506
0.49151404 0.00047898 0.31925506
0.65099763 0.00047923 0.31925506
0.80171355 0.00047935 0.31925506
0.91886608 0.00047940 0.31925506
0.91886608 0.00047960 0.31925506
0.91886608 0.00047961 0.31925506
0.00047898 0.12371164 0.31925506
0.12371164 0.12371164 0.31925506
0.31925506 0.12371164 0.31925506
0.49151404 0.12371164 0.31925506
0.65099763 0.12371164 0.31925506
0.80171355 0.12371164 0.31925506
0.91886608 0.12371164 0.31925506
0.91886608 0.12371164 0.31925506
0.91886608 0.12371164 0.31925506
0.00047898 0.31925506 0.31925506
0.12371164 0.31925506 0.31925506
0.31925506 0.31925506 0.31925506
0.49151404 0.31925506 0.31925506
0.65099763 0.31925506 0.31925506
0.80171355 0.31925506 0.31925506
0.91886608 0.31925506 0.31925506
0.91886608 0.31925506 0.31925506
0.91886608 0.31925506 0.31925506
0.00047923 0.49151404 0.31925506
0.12371164 0.49151404 0.31925506
0.31925506 0.49151404 0.31925506
0.49151404 0.49151404 0.31925506
0.65099763 0.49151404 0.31925506
0.80171355 0.49151404 0.31925506
0.91886608 0.49151404 0.31925506
0.91886608 0.49151404 0.31925506
0.91886608 0.49151404 0.31925506
0.00047928 0.65099763 0.31925506
0.12371164 0.65099763 0.31925506
0.31925506 0.65099763 0.31925506
0.49151404 0.65099763 0.31925506
0.65099763 0.65099763 0.31925506
0.80171355 0.65099763 0.31925506
0.91886608 0.65099763 0.31925506
0.91886608 0.65099763 0.31925506
0.91886608 0.65099763 0.31925506
0.00047943 0.80171355 0.31925506
0.12371164 0.80171355 0.31925506
0.31925506 0.80171355 0.31925506
0.49151404 0.80171355 0.31925506
0.65099763 0.80171355 0.31925506
0.80171355 0.80171355 0.31925506
0.91886608 0.80171355 0.31925506
0.91886608 0.80171355 0.31925506
0.91886608 0.80171355 0.31925506
0.00047951 0.91886608 0.31925506
0.12371164 0.91886608 0.31925506
0.31925506 0.91886608 0.31925506
0.49151404 0.91886608 0.31925506
0.65099763 0.91886608 0.31925506
0.80171355 0.91886608 0.31925506
0.91886608 0.91886608 0.31925506
0.91886608 0.91886608 0.31925506
0.91886608 0.91886608 0.31925506
0.00047975 0.91886608 0.31925506
0.12371164 0.91886608 0.31925506
0.31925506 0.91886608 0.31925506
0.49151404 0.91886608 0.31925506
0.65099763 0.91886608 0.31925506
0.80171355 0.91886608 0.31925506
0.91886608 0.91886608 0.31925506
0.91886608 0.91886608 0.31925506
0.91886608 0.91886608 0.31925506
0.00047994 0.91886608 0.31925506
0.12371164 0.91886608 0.31925506
0.31925506 0.91886608 0.31925506
0.49151404 0.91886608 0.31925506
0.65099763 0.91886608 0.31925506
0.80171355 0.91886608 0.31925506
0.91886608 0.91886608 0.31925506
0.91886608 0.91886608 0.31925506
0.91886608 0.91886608 0.31925506
0.00047898 0.00047927 0.49151404
0.12371164 0.00047927 0.49151404
0.31925506 0.00047898 0.49151404
0.49151404 0.00047931 0.49151404
0.65099763 0.00047927 0.49151404
0.80171355 0.00047935 0.49151404
0.91886608 0.00047940 0.49151404
0.91886608 0.00047898 0.49151404
0.91886608 0.00047985 0.49151404
0.00047898 0.12371164 0.49151404
0.12371164 0.12371164 0.49151404
0.31925506 0.12371164 0.49151404
0.49151404 0.12371164 0.49151404
0.65099763 0.12371164 0.49151404
0.80171355 0.12371164 0.49151404
0.91886608 0.12371164 0.49151404
0.91886608 0.12371164 0.49151404
0.91886608 0.12371164 0.49151404
0.00047898 0.31925506 0.49151404
0.12371164 0.31925506 0.49151404
0.31925506 0.31925506 0.49151404
0.49151404 0.31925506 0.49151404
0.65099763 0.31925506 0.49151404
0.80171355 0.31925506 0.49151404
0.91886608 0.31925506 0.49151404
0.91886608 0.31925506 0.49151404
0.91886608 0.31925506 0.49151404
0.00047898 0.49151404 0.49151404
0.12371164 0.49151404 0.49151404
0.31925506 0.49151404 0.49151404
0.49151404 0.49151404 0.49151404
0.65099763 0.49151404 0.49151404
0.80171355 0.49151404 0.49151404
0.91886608 0.49151404 0.49151404
0.91886608 0.49151404 0.49151404
0.91886608 0.49151404 0.49151404
0.00047898 0.65099763 0.49151404
0.12371164 0.65099763 0.49151404
0.31925506 0.65099763 0.49151404
0.49151404 0.65099763 0.49151404
0.65099763 0.65099763 0.49151404
0.80171355 0.65099763 0.49151404
0.91886608 0.65099763 0.49151404
0.91886608 0.65099763 0.49151404
0.91886608 0.65099763 0.49151404
0.00047935 0.80171355 0.49151404
0.12371164 0.80171355 0.49151404
0.31925506 0.80171355 0.49151404
0.49151404 0.80171355 0.49151404
0.65099763 0.80171355 0.49151404
0.80171355 0.80171355 0.49151404
0.91886608 0.80171355 0.49151404
0.91886608 0.80171355 0.49151404
0.91886608 0.80171355 0.49151404
0.00047951 0.91886608 0.49151404
0.12371164 0.91886608 0.49151404
0.31925506 0.91886608 0.49151404
0.49151404 0.91886608 0.49151404
0.65099763 0.91886608 0.49151404
0.80171355 0.91886608 0.49151404
0.91886608 0.91886608 0.49151404
0.91886608 0.91886608 0.49151404
0.91886608 0.91886608 0.49151404
0.00047963 0.91886608 0.49151404
0.12371164 0.91886608 0.49151404
0.31925506 0.91886608 0.49151404
0.49151404 0.91886608 0.49151404
0.65099763 0.91886608 0.49151404
0.80171355 0.91886608 0.49151404
0.91886608 0.91886608 0.49151404
0.91886608 0.91886608 0.49151404
0.91886608 0.91886608 0.49151404
0.00047995 0.91886608 0.49151404
0.12371164 0.91886608 0.49151404
0.31925506 0.91886608 0.49151404
0.49151404 0.91886608 0.49151404
0.65099763 0.91886608 0.49151404
0.80171355 0.91886608 0.49151404
0.91886608 0.91886608 0.49151404
0.91886608 0.91886608 0.49151404
0.91886608 0.91886608 0.49151404
0.00047898 0.00047935 0.65099763
0.12371164 0.00047940 0.65099763
0.31925506 0.00047935 0.65099763
0.49151404 0.00047898 0.65099763
0.65099763 0.00047935 0.65099763
0.80171355 0.00047898 0.65099763
0.91886608 0.00047946 0.65099763
0.91886608 0.00047961 0.65099763
0.91886608 0.00047998 0.65099763
0.00047931 0.12371164 0.65099763
0.12371164 0.12371164 0.65099763
0.31925506 0.12371164 0.65099763
0.49151404 0.12371164 0.65099763
0.65099763 0.12371164 0.65099763
0.80171355 0.12371164 0.65099763
0.91886608 0.12371164 0.65099763
0.91886608 0.12371164 0.65099763
0.91886608 0.12371164 0.65099763
0.00047898 0.31925506 0.65099763
0.12371164 0.31925506 0.65099763
0.31925506 0.31925506 0.65099763
0.49151404 0.31925506 0.65099763
0.65099763 0.31925506 0.65099763
0.80171355 0.31925506 0.65099763
0.91886608 0.31925506 0.65099763
0.91886608 0.31925506 0.65099763
0.91886608 0.31925506 0.65099763
0.00047898 0.49151404 0.65099763
0.12371164 0.49151404 0.65099763
0.31925506 0.49151404 0.65099763
0.49151404 0.49151404 0.65099763
0.65099763 0.49151404 0.65099763
0.80171355 0.49151404 0.65099763
0.91886608 0.49151404 0.65099763
0.91886608 0.49151404 0.65099763
0.91886608 0.49151404 0.65099763
0.00047898 0.65099763 0.65099763
0.12371164 0.65099763 0.65099763
0.31925506 0.65099763 0.65099763
0.49151404 0.65099763 0.65099763
0.65099763 0.65099763 0.65099763
0.80171355 0.65099763 0.65099763
0.91886608 0.65099763 0.65099763
0.91886608 0.65099763 0.65099763
0.91886608 0.65099763 0.65099763
0.00047935 0.80171355 0.65099763
0.12371164 0.80171355 0.65099763
0.31925506 0.80171355 0.65099763
0.49151404 0.80171355 0.65099763
0.65099763 0.80171355 0.65099763
0.80171355 0.80171355 0.65099763
0.91886608 0.80171355 0.65099763
0.91886608 0.80171355 0.65099763
0.91886608 0.80171355 0.65099763
0.00047959 0.91886608 0.65099763
0.12371164 0.91886608 0.65099763
0.31925506 0.91886608 0.65099763
0.49151404 0.91886608 0.65099763
0.65099763 0.91886608 0.65099763
0.80171355 0.91886608 0.65099763
0.91886608 0.91886608 0.65099763
0.91886608 0.91886608 0.65099763
0.91886608 0.91886608 0.65099763
0.00047967 0.91886608 0.65099763
0.12371164 0.91886608 0.65099763
0.31925506 0.91886608 0.65099763
0.49151404 0.91886608 0.65099763
0.65099763 0.91886608 0.65099763
0.80171355 0.91886608 0.65099763
0.91886608 0.91886608 0.65099763
0.91886608 0.91886608 0.65099763
0.91886608 0.91886608 0.65099763
0.00047898 0.91886608 0.65099763
0.12371164 0.91886608 0.65099763
0.31925506 0.91886608 0.65099763
0.49151404 0.91886608 0.65099763
0.65099763 0.91886608 0.65099763
0.80171355 0.91886608 0.65099763
0.91886608 0.91886608 0.65099763
0.91886608 0.91886608 0.65099763
0.91886608 0.91886608 0.65099763
0.00047898 0.00047953 0.80171355
0.12371164 0.00047953 0.80171355
0.31925506 0.00047953 0.80171355
0.49151404 0.00047946 0.80171355
0.65099763 0.00047958 0.80171355
0.80171355 0.00047946 0.80171355
0.91886608 0.00047946 0.80171355
0.91886608 0.00047961 0.80171355
0.91886608 0.00047898 0.80171355
0.00047898 0.12371164 0.80171355
0.12371164 0.12371164 0.80171355
0.31925506 0.12371164 0.80171355
0.49151404 0.12371164 0.80171355
0.65099763 0.12371164 0.80171355
0.80171355 0.12371164 0.80171355
0.91886608 0.12371164 0.80171355
0.91886608 0.12371164 0.80171355
0.91886608 0.12371164 0.80171355
0.00047940 0.31925506 0.80171355
0.12371164 0.31925506 0.80171355
0.31925506 0.31925506 0.80171355
0.49151404 0.31925506 0.80171355
0.65099763 0.31925506 0.80171355
0.80171355 0.31925506 0.80171355
0.91886608 0.31925506 0.80171355
0.91886608 0.31925506 0.80171355
0.91886608 0.31925506 0.80171355
0.00047898 0.49151404 0.80171355
0.12371164 0.49151404 0.80171355
0.31925506 0.49151404 0.80171355
0.49151404 0.49151404 0.80171355
0.65099763 0.49151404 0.80171355
0.80171355 0.49151404 0.80171355
0.91886608 0.49151404 0.80171355
0.91886608 0.49151404 0.80171355
0.91886608 0.49151404 0.80171355
0.00047898 0.65099763 0.80171355
0.12371164 0.65099763 0.80171355
0.31925506 0.65099763 0.80171355
0.49151404 0.65099763 0.80171355
0.65099763 0.65099763 0.80171355
0.80171355 0.65099763 0.80171355
0.91886608 0.65099763 0.80171355
0.91886608 0.65099763 0.80171355
0.91886608 0.65099763 0.80171355
0.00047940 0.80171355 0.80171355
0.12371164 0.80171355 0.80171355
0.31925506 0.80171355 0.80171355
0.49151404 0.80171355 0.80171355
0.65099763 0.80171355 0.80171355
0.80171355 0.80171355 0.80171355
0.91886608 0.80171355 0.80171355
0.91886608 0.80171355 0.80171355
0.91886608 0.80171355 0.80171355
0.00047950 0.91886608 0.80171355
0.12371164 0.91886608 0.80171355
0.31925506 0.91886608 0.80171355
0.49151404 0.91886608 0.80171355
0.65099763 0.91886608 0.80171355
0.80171355 0.91886608 0.80171355
0.91886608 0.91886608 0.80171355
0.91886608 0.91886608 0.80171355
0.91886608 0.91886608 0.80171355
0.00047961 0.91886608 0.80171355
0.12371164 0.91886608 0.80171355
0.31925506 0.91886608 0.80171355
0.49151404 0.91886608 0.80171355
0.65099763 0.91886608 0.80171355
0.80171355 0.91886608 0.80171355
0.91886608 0.91886608 0.80171355
0.91886608 0.91886608 0.80171355
0.91886608 0.91886608 0.80171355
0.00048001 0.91886608 0.80171355
0.12371164 0.91886608 0.80171355
0.31925506 0.91886608 0.80171355
0.49151404 0.91886608 0.80171355
0.65099763 0.91886608 0.80171355
0.80171355 0.91886608 0.80171355
0.91886608 0.91886608 0.80171355
0.91886608 0.91886608 0.80171355
0.91886608 0.91886608 0.80171355
0.00047898 0.00047961 0.91886608
0.12371164 0.00047961 0.91886608
0.31925506 0.00047961 0.91886608
0.49151404 0.00047961 0.91886608
0.65099763 0.00047961 0.91886608
0.80171355 0.00047961 0.91886608
0.91886608 0.00047961 0.91886608
0.91886608 0.00047898 0.91886608
0.91886608 0.00047898 0.91886608
0.00047898 0.12371164 0.91886608
0.12371164 0.12371164 0.91886608
0.31925506 0.12371164 0.91886608
0.49151404 0.12371164 0.91886608
0.65099763 0.12371164 0.91886608
0.80171355 0.12371164 0.91886608
0.91886608 0.12371164 0.91886608
0.91886608 0.12371164 0.91886608
0.91886608 0.12371164 0.91886608
0.00047898 0.31925506 0.91886608
0.12371164 0.31925506 0.91886608
0.31925506 0.31925506 0.91886608
0.49151404 0.31925506 0.91886608
0.65099763 0.31925506 0.91886608
0.80171355 0.31925506 0.91886608
0.91886608 0.31925506 0.91886608
0.91886608 0.31925506 0.91886608
0.91886608 0.31925506 0.91886608
0.00047898 0.49151404 0.91886608
0.12371164 0.49151404 0.91886608
0.31925506 0.49151404 0.91886608
0.49151404 0.49151404 0.91886608
0.65099763 0.49151404 0.91886608
0.80171355 0.49151404 0.91886608
0.91886608 0.49151404 0.91886608
0.91886608 0.49151404 0.91886608
0.91886608 0.49151404 0.91886608
0.00047898 0.65099763 0.91886608
0.12371164 0.65099763 0.91886608
0.31925506 0.65099763 0.91886608
0.49151404 0.65099763 0.91886608
0.65099763 0.65099763 0.91886608
0.80171355 0.65099763 0.91886608
0.91886608 0.65099763 0.91886608
0.91886608 0.65099763 0.91886608
0.91886608 0.65099763 0.91886608
0.00047898 0.80171355 0.91886608
0.12371164 0.80171355 0.91886608
0.31925506 0.80171355 0.91886608
0.49151404 0.80171355 0.91886608
0.65099763 0.80171355 0.91886608
0.80171355 0.80171355 0.91886608
0.91886608 0.80171355 0.91886608
0.91886608 0.80171355 0.91886608
0.91886608 0.80171355 0.91886608
0.00047898 0.91886608 0.91886608
0.12371164 0.91886608 0.91886608
0.31925506 0.91886608 0.91886608
0.49151404 0.91886608 0.91886608
0.65099763 0.91886608 0.91886608
0.80171355 0.91886608 0.91886608
0.91886608 0.91886608 0.91886608
0.91886608 0.91886608 0.91886608
0.91886608 0.91886608 0.91886608
0.00047953 0.91886608 0.91886608
0.12371164 0.91886608 0.91886608
0.31925506 0.91886608 0.91886608
0.49151404 0.91886608 0.91886608
0.65099763 0.91886608 0.91886608
0.80171355 0.91886608 0.91886608
0.91886608 0.91886608 0.91886608
0.91886608 0.91886608 0.91886608
0.91886608 0.91886608 0.91886608
0.00047975 0.91886608 0.91886608
0.12371164 0.91886608 0.91886608
0.31925506 0.91886608 0.91886608
0.49151404 0.91886608 0.91886608
0.65099763 0.91886608 0.91886608
0.80171355 0.91886608 0.91886608
0.91886608 0.91886608 0.91886608
0.91886608 0.91886608 0.91886608
0.91886608 0.91886608 0.91886608
0.00047898 0.00047997 0.91886608
0.12371164 0.00047983 0.91886608
0.31925506 0.00047997 0.91886608
0.49151404 0.00047983 0.91886608
0.65099763 0.00047983 0.91886608
0.80171355 0.00047983 0.91886608
0.91886608 0.00047983 0.91886608
0.91886608 0.00048006 0.91886608
0.91886608 0.00048014 0.91886608
0.00047898 0.12371164 0.91886608
0.12371164 0.12371164 0.91886608
0.31925506 0.12371164 0.91886608
0.49151404 0.12371164 0.91886608
0.65099763 0.12371164 0.91886608
0.80171355 0.12371164 0.91886608
0.91886608 0.12371164 0.91886608
0.91886608 0.12371164 0.91886608
0.91886608 0.12371164 0.91886608
0.00047898 0.31925506 0.91886608
0.12371164 0.31925506 0.91886608
0.31925506 0.31925506 0.91886608
0.49151404 0.31925506 0.91886608
0.65099763 0.31925506 0.91886608
0.80171355 0.31925506 0.91886608
0.91886608 0.31925506 0.91886608
0.91886608 0.31925506 0.91886608
0.91886608 0.31925506 0.91886608
0.00047898 0.49151404 0.91886608
0.12371164 0.49151404 0.91886608
0.31925506 0.49151404 0.91886608
0.49151404 0.49151404 0.91886608
0.65099763 0.49151404 0.91886608
0.80171355 0.49151404 0.91886608
0.91886608 0.49151404 0.91886608
0.91886608 0.49151404 0.91886608
0.91886608 0.49151404 0.91886608
0.00047898 0.65099763 0.91886608
0.12371164 0.65099763 0.91886608
0.31925506 0.65099763 0.91886608
0.49151404 0.65099763 0.91886608
0.65099763 0.65099763 0.91886608
0.80171355 0.65099763 0.91886608
0.91886608 0.65099763 0.91886608
0.91886608 0.65099763 0.91886608
0.91886608 0.65099763 0.91886608
0.00047898 0.80171355 0.91886608
0.12371164 0.80171355 0.91886608
0.31925506 0.80171355 0.91886608
0.49151404 0.80171355 0.91886608
0.65099763 0.80171355 0.91886608
0.80171355 0.80171355 0.91886608
0.91886608 0.80171355 0.91886608
0.91886608 0.80171355 0.91886608
0.91886608 0.80171355 0.91886608
0.00047898 0.91886608 0.91886608
0.12371164 0.91886608 0.91886608
0.31925506 0.91886608 0.91886608
0.49151404 0.91886608 0.91886608
0.65099763 0.91886608 0.91886608
0.80171355 0.91886608 0.91886608
0.91886608 0.91886608 0.91886608
0.91886608 0.91886608 0.91886608
0.91886608 0.91886608 0.91886608
0.00047898 0.91886608 0.91886608
0.12371164 0.91886608 0.91886608
0.31925506 0.91886608 0.91886608
0.49151404 0.91886608 0.91886608
0.65099763 0.91886608 0.91886608
0.80171355 0.91886608 0.91886608
0.91886608 0.91886608 0.91886608
0.91886608 0.91886608 0.91886608
0.91886608 0.91886608 0.91886608
0.00048006 0.91886608 0.91886608
0.12371164 0.91886608 0.91886608
0.31925506 0.91886608 0.91886608
0.49151404 0.91886608 0.91886608
0.65099763 0.91886608 0.91886608
0.80171355 0.91886608 0.91886608
0.91886608 0.91886608 0.91886608
0.91886608 0.91886608 0.91886608
0.91886608 0.91886608 0.91886608
0.00047898 0.00048014 0.91886608
0.12371164 0.00047898 0.91886608
0.31925506 0.00048014 0.91886608
0.49151404 0.00048014 0.91886608
0.65099763 0.00048034 0.91886608
0.80171355 0.00048014 0.91886608
0.91886608 0.00048034 0.91886608
0.91886608 0.00048034 0.91886608
0.91886608 0.00047898 0.91886608
0.00047898 0.12371164 0.91886608
0.12371164 0.12371164 0.91886608
0.31925506 0.12371164 0.91886608
0.49151404 0.12371164 0.91886608
0.65099763 0.12371164 0.91886608
0.80171355 0.12371164 0.91886608
0.91886608 0.12371164 0.91886608
0.91886608 0.12371164 0.91886608
0.91886608 0.12371164 0.91886608
0.00047898 0.31925506 0.91886608
0.12371164 0.31925506 0.91886608
0.31925506 0.31925506 0.91886608
0.49151404 0.31925506 0.91886608
0.65099763 0.31925506 0.91886608
0.80171355 0.31925506 0.91886608
0.91886608 0.31925506 0.91886608
0.91886608 0.31925506 0.91886608
0.91886608 0.31925506 0.91886608
0.00047898 0.49151404 0.91886608
0.12371164 0.49151404 0.91886608
0.31925506 0.49151404 0.91886608
0.49151404 0.49151404 0.91886608
0.65099763 0.49151404 0.91886608
0.80171355 0.49151404 0.91886608
0.91886608 0.49151404 0.91886608
0.91886608 0.49151404 0.91886608
0.91886608 0.49151404 0.91886608
0.00047898 0.65099763 0.91886608
0.12371164 0.65099763 0.91886608
0.31925506 0.65099763 0.91886608
0.49151404 0.65099763 0.91886608
0.65099763 0.65099763 0.91886608
0.80171355 0.65099763 0.91886608
0.91886608 0.65099763 0.91886608
0.91886608 0.65099763 0.91886608
0.91886608 0.65099763 0.91886608
0.00047898 0.80171355 0.91886608
0.12371164 0.80171355 0.91886608
0.31925506 0.80171355 0.91886608
0.49151404 0.80171355 0.91886608
0.65099763 0.80171355 0.91886608
0.80171355 0.80171355 0.91886608
0.91886608 0.80171355 0.91886608
0.91886608 0.80171355 0.91886608
0.91886608 0.80171355 0.91886608
0.00047997 0.91886608 0.91886608
0.12371164 0.91886608 0.91886608
0.31925506 0.91886608 0.91886608
0.49151404 0.91886608 0.91886608
0.65099763 0.91886608 0.91886608
0.80171355 0.91886608 0.91886608
0.91886608 0.91886608 0.91886608
0.91886608 0.91886608 0.91886608
0.91886608 0.91886608 0.91886608
0.00047898 0.91886608 0.91886608
0.12371164 0.91886608 0.91886608
0.31925506 0.91886608 0.91886608
0.49151404 0.91886608 0.91886608
0.65099763 0.91886608 0.91886608
0.80171355 0.91886608 0.91886608
0.91886608 0.91886608 0.91886608
0.91886608 0.91886608 0.91886608
0.91886608 0.91886608 0.91886608
0.00047997 0.91886608 0.91886608
0.12371164 0.91886608 0.91886608
0.31925506 0.91886608 0.91886608
0.49151404 0.91886608 0.91886608
0.65099763 0.91886608 0.91886608
0.80171355 0.91886608 0.91886608
0.91886608 0.91886608 0.91886608
0.91886608 0.91886608 0.91886608
0.91886608 0.91886608 0.91886608
