src/ffmpeg_scripts/luts/luminance_0p67.cube
TITLE "luminance_0p67"
LUT_3D_SIZE 5
# PQ (EOTF Only)/Rec2020 -> PQ (EOTF Only)/Rec2020, CineEI Shift 0.67, Black Level 0.00% IRE, Input 109% -> Output 109% - Created with LUTCalc v4.01 by Ben Turley October 2020
0.06256172 0.06256172 0.06256172
0.27703711 0.06256172 0.06256172
0.54036535 0.06256189 0.06256194
0.79309112 0.06256172 0.06256172
0.91886608 0.06256219 0.06256227
0.06256184 0.27703711 0.06256172
0.27703711 0.27703711 0.06256172
0.54036535 0.27703711 0.06256191
0.79309112 0.27703711 0.06256172
0.91886608 0.27703711 0.06256172
0.06256172 0.54036535 0.06256172
0.27703711 0.54036535 0.06256172
0.54036535 0.54036535 0.06256172
0.79309112 0.54036535 0.06256172
0.91886608 0.54036535 0.06256172
0.06256172 0.79309112 0.06256172
0.27703711 0.79309112 0.06256172
0.54036535 0.79309112 0.06256172
0.79309112 0.79309112 0.06256172
0.91886608 0.79309112 0.06256227
0.06256237 0.91886608 0.06256235
0.27703711 0.91886608 0.06256172
0.54036535 0.91886608 0.06256172
0.79309112 0.91886608 0.06256172
0.91886608 0.91886608 0.06256172
0.06256172 0.06256187 0.27703711
0.27703711 0.06256187 0.27703711
0.54036535 0.06256194 0.27703711
0.79309112 0.06256172 0.27703711
0.91886608 0.06256223 0.27703711
0.06256172 0.27703711 0.27703711
0.27703711 0.27703711 0.27703711
0.54036535 0.27703711 0.27703711
0.79309112 0.27703711 0.27703711
0.91886608 0.27703711 0.27703711
0.06256197 0.54036535 0.27703711
0.27703711 0.54036535 0.27703711
0.54036535 0.54036535 0.27703711
0.79309112 0.54036535 0.27703711
0.91886608 0.54036535 0.27703711
0.06256219 0.79309112 0.27703711
0.27703711 0.79309112 0.27703711
0.54036535 0.79309112 0.27703711
0.79309112 0.79309112 0.27703711
0.91886608 0.79309112 0.27703711
0.06256172 0.91886608 0.27703711
0.27703711 0.91886608 0.27703711
0.54036535 0.91886608 0.27703711
0.79309112 0.91886608 0.27703711
0.91886608 0.91886608 0.27703711
0.06256172 0.06256204 0.54036535
0.27703711 0.06256172 0.54036535
0.54036535 0.06256200 0.54036535
0.79309112 0.06256200 0.54036535
0.91886608 0.06256237 0.54036535
0.06256172 0.27703711 0.54036535
0.27703711 0.27703711 0.54036535
0.54036535 0.27703711 0.54036535
0.79309112 0.27703711 0.54036535
0.91886608 0.27703711 0.54036535
0.06256172 0.54036535 0.54036535
0.27703711 0.54036535 0.54036535
0.54036535 0.54036535 0.54036535
0.79309112 0.54036535 0.54036535
0.91886608 0.54036535 0.54036535
0.06256172 0.79309112 0.54036535
0.27703711 0.79309112 0.54036535
0.54036535 0.79309112 0.54036535
0.79309112 0.79309112 0.54036535
0.91886608 0.79309112 0.54036535
0.06256172 0.91886608 0.54036535
0.27703711 0.91886608 0.54036535
0.54036535 0.91886608 0.54036535
0.79309112 0.91886608 0.54036535
0.91886608 0.91886608 0.54036535
0.06256172 0.06256219 0.79309112
0.27703711 0.06256172 0.79309112
0.54036535 0.06256219 0.79309112
0.79309112 0.06256219 0.79309112
0.91886608 0.06256172 0.79309112
0.06256172 0.27703711 0.79309112
0.27703711 0.27703711 0.79309112
0.54036535 0.27703711 0.79309112
0.79309112 0.27703711 0.79309112
0.91886608 0.27703711 0.79309112
0.06256172 0.54036535 0.79309112
0.27703711 0.54036535 0.79309112
0.54036535 0.54036535 0.79309112
0.79309112 0.54036535 0.79309112
0.91886608 0.54036535 0.79309112
0.06256172 0.79309112 0.79309112
0.27703711 0.79309112 0.79309112
0.54036535 0.79309112 0.79309112
0.79309112 0.79309112 0.79309112
0.91886608 0.79309112 0.79309112
0.06256237 0.91886608 0.79309112
0.27703711 0.91886608 0.79309112
0.54036535 0.91886608 0.79309112
0.79309112 0.91886608 0.79309112
0.91886608 0.91886608 0.79309112
0.06256172 0.06256257 0.91886608
0.27703711 0.06256257 0.91886608
0.54036535 0.06256272 0.91886608
0.79309112 0.06256257 0.91886608
0.91886608 0.06256257 0.91886608
0.06256235 0.27703711 0.91886608
0.27703711 0.27703711 0.91886608
0.54036535 0.27703711 0.91886608
0.79309112 0.27703711 0.91886608
0.91886608 0.27703711 0.91886608
0.06256172 0.54036535 0.91886608
0.27703711 0.54036535 0.91886608
0.54036535 0.54036535 0.91886608
0.79309112 0.54036535 0.91886608
0.91886608 0.54036535 0.91886608
0.06256235 0.79309112 0.91886608
0.27703711 0.79309112 0.91886608
0.54036535 0.79309112 0.91886608
0.79309112 0.79309112 0.91886608
0.91886608 0.79309112 0.91886608
0.06256235 0.91886608 0.91886608
0.27703711 0.91886608 0.91886608
0.54036535 0.91886608 0.91886608
0.79309112 0.91886608 0.91886608
0.91886608 0.91886608 0.91886608
