src/ffmpeg_scripts/luts/luminance-unclipped_-3p33.cube
TITLE "luminance-unclipped_-3p33"
LUT_3D_SIZE 9
# PQ (EOTF Only)/Rec2020 -> PQ (EOTF Only)/Rec2020, CineEI Shift -3.33, Black Level -7.25% IRE, Input 109% -> Output 109% - Created with LUTCalc v4.01 by Ben Turley October 2020
0.00047898 0.00047898 0.00047898
0.02607272 0.00047903 0.00047898
0.09967767 0.00047898 0.00047898
0.19215660 0.00047898 0.00047909
0.29942330 0.00047910 0.00047914
0.41948202 0.00047898 0.00047898
0.55108700 0.00047898 0.00047898
0.69336602 0.00047930 0.00047898
0.84566501 0.00047931 0.00047935
0.00047904 0.02607272 0.00047898
0.02607272 0.02607272 0.00047898
0.09967767 0.02607272 0.00047898
0.19215660 0.02607272 0.00047898
0.29942330 0.02607272 0.00047898
0.41948202 0.02607272 0.00047898
0.55108700 0.02607272 0.00047898
0.69336602 0.02607272 0.00047927
0.84566501 0.02607272 0.00047898
0.00047907 0.09967767 0.00047898
0.02607272 0.09967767 0.00047898
0.09967767 0.09967767 0.00047898
0.19215660 0.09967767 0.00047898
0.29942330 0.09967767 0.00047912
0.41948202 0.09967767 0.00047898
0.55108700 0.09967767 0.00047898
0.69336602 0.09967767 0.00047898
0.84566501 0.09967767 0.00047898
0.00047911 0.19215660 0.00047909
0.02607272 0.19215660 0.00047898
0.09967767 0.19215660 0.00047898
0.19215660 0.19215660 0.00047910
0.29942330 0.19215660 0.00047914
0.41948202 0.19215660 0.00047898
0.55108700 0.19215660 0.00047898
0.69336602 0.19215660 0.00047927
0.84566501 0.19215660 0.00047898
0.00047898 0.29942330 0.00047898
0.02607272 0.29942330 0.00047898
0.09967767 0.29942330 0.00047898
0.19215660 0.29942330 0.00047898
0.29942330 0.29942330 0.00047898
0.41948202 0.29942330 0.00047898
0.55108700 0.29942330 0.00047898
0.69336602 0.29942330 0.00047898
0.84566501 0.29942330 0.00047898
0.00047916 0.41948202 0.00047918
0.02607272 0.41948202 0.00047898
0.09967767 0.41948202 0.00047918
0.19215660 0.41948202 0.00047898
0.29942330 0.41948202 0.00047918
0.41948202 0.41948202 0.00047898
0.55108700 0.41948202 0.00047898
0.69336602 0.41948202 0.00047898
0.84566501 0.41948202 0.00047898
0.00047898 0.55108700 0.00047898
0.02607272 0.55108700 0.00047898
0.09967767 0.55108700 0.00047898
0.19215660 0.55108700 0.00047923
0.29942330 0.55108700 0.00047898
0.41948202 0.55108700 0.00047923
0.55108700 0.55108700 0.00047898
0.69336602 0.55108700 0.00047898
0.84566501 0.55108700 0.00047935
0.00047928 0.69336602 0.00047898
0.02607272 0.69336602 0.00047898
0.09967767 0.69336602 0.00047898
0.19215660 0.69336602 0.00047898
0.29942330 0.69336602 0.00047898
0.41948202 0.69336602 0.00047898
0.55108700 0.69336602 0.00047898
0.69336602 0.69336602 0.00047898
0.84566501 0.69336602 0.00047898
0.00047941 0.84566501 0.00047940
0.02607272 0.84566501 0.00047940
0.09967767 0.84566501 0.00047898
0.19215660 0.84566501 0.00047898
0.29942330 0.84566501 0.00047898
0.41948202 0.84566501 0.00047898
0.55108700 0.84566501 0.00047898
0.69336602 0.84566501 0.00047940
0.84566501 0.84566501 0.00047898
0.00047898 0.00047905 0.02607272
0.02607272 0.00047904 0.02607272
0.09967767 0.00047898 0.02607272
0.19215660 0.00047898 0.02607272
0.29942330 0.00047912 0.02607272
0.41948202 0.00047898 0.02607272
0.55108700 0.00047898 0.02607272
0.69336602 0.00047930 0.02607272
0.84566501 0.00047933 0.02607272
0.00047904 0.02607272 0.02607272
0.02607272 0.02607272 0.02607272
0.09967767 0.02607272 0.02607272
0.19215660 0.02607272 0.02607272
0.29942330 0.02607272 0.02607272
0.41948202 0.02607272 0.02607272
0.55108700 0.02607272 0.02607272
0.69336602 0.02607272 0.02607272
0.84566501 0.02607272 0.02607272
0.00047908 0.09967767 0.02607272
0.02607272 0.09967767 0.02607272
0.09967767 0.09967767 0.02607272
0.19215660 0.09967767 0.02607272
0.29942330 0.09967767 0.02607272
0.41948202 0.09967767 0.02607272
0.55108700 0.09967767 0.02607272
0.69336602 0.09967767 0.02607272
0.84566501 0.09967767 0.02607272
0.00047909 0.19215660 0.02607272
0.02607272 0.19215660 0.02607272
0.09967767 0.19215660 0.02607272
0.19215660 0.19215660 0.02607272
0.29942330 0.19215660 0.02607272
0.41948202 0.19215660 0.02607272
0.55108700 0.19215660 0.02607272
0.69336602 0.19215660 0.02607272
0.84566501 0.19215660 0.02607272
0.00047898 0.29942330 0.02607272
0.02607272 0.29942330 0.02607272
0.09967767 0.29942330 0.02607272
0.19215660 0.29942330 0.02607272
0.29942330 0.29942330 0.02607272
0.41948202 0.29942330 0.02607272
0.55108700 0.29942330 0.02607272
0.69336602 0.29942330 0.02607272
0.84566501 0.29942330 0.02607272
0.00047921 0.41948202 0.02607272
0.02607272 0.41948202 0.02607272
0.09967767 0.41948202 0.02607272
0.19215660 0.41948202 0.02607272
0.29942330 0.41948202 0.02607272
0.41948202 0.41948202 0.02607272
0.55108700 0.41948202 0.02607272
0.69336602 0.41948202 0.02607272
0.84566501 0.41948202 0.02607272
0.00047898 0.55108700 0.02607272
0.02607272 0.55108700 0.02607272
0.09967767 0.55108700 0.02607272
0.19215660 0.55108700 0.02607272
0.29942330 0.55108700 0.02607272
0.41948202 0.55108700 0.02607272
0.55108700 0.55108700 0.02607272
0.69336602 0.55108700 0.02607272
0.84566501 0.55108700 0.02607272
0.00047930 0.69336602 0.02607272
0.02607272 0.69336602 0.02607272
0.09967767 0.69336602 0.02607272
0.19215660 0.69336602 0.02607272
0.29942330 0.69336602 0.02607272
0.41948202 0.69336602 0.02607272
0.55108700 0.69336602 0.02607272
0.69336602 0.69336602 0.02607272
0.84566501 0.69336602 0.02607272
0.00047929 0.84566501 0.02607272
0.02607272 0.84566501 0.02607272
0.09967767 0.84566501 0.02607272
0.19215660 0.84566501 0.02607272
0.29942330 0.84566501 0.02607272
0.41948202 0.84566501 0.02607272
0.55108700 0.84566501 0.02607272
0.69336602 0.84566501 0.02607272
0.84566501 0.84566501 0.02607272
0.00047898 0.00047909 0.09967767
0.02607272 0.00047909 0.09967767
0.09967767 0.00047909 0.09967767
0.19215660 0.00047898 0.09967767
0.29942330 0.00047914 0.09967767
0.41948202 0.00047919 0.09967767
0.55108700 0.00047898 0.09967767
0.69336602 0.00047931 0.09967767
0.84566501 0.00047933 0.09967767
0.00047898 0.02607272 0.09967767
0.02607272 0.02607272 0.09967767
0.09967767 0.02607272 0.09967767
0.19215660 0.02607272 0.09967767
0.29942330 0.02607272 0.09967767
0.41948202 0.02607272 0.09967767
0.55108700 0.02607272 0.09967767
0.69336602 0.02607272 0.09967767
0.84566501 0.02607272 0.09967767
0.00047898 0.09967767 0.09967767
0.02607272 0.09967767 0.09967767
0.09967767 0.09967767 0.09967767
0.19215660 0.09967767 0.09967767
0.29942330 0.09967767 0.09967767
0.41948202 0.09967767 0.09967767
0.55108700 0.09967767 0.09967767
0.69336602 0.09967767 0.09967767
0.84566501 0.09967767 0.09967767
0.00047898 0.19215660 0.09967767
0.02607272 0.19215660 0.09967767
0.09967767 0.19215660 0.09967767
0.19215660 0.19215660 0.09967767
0.29942330 0.19215660 0.09967767
0.41948202 0.19215660 0.09967767
0.55108700 0.19215660 0.09967767
0.69336602 0.19215660 0.09967767
0.84566501 0.19215660 0.09967767
0.00047916 0.29942330 0.09967767
0.02607272 0.29942330 0.09967767
0.09967767 0.29942330 0.09967767
0.19215660 0.29942330 0.09967767
0.29942330 0.29942330 0.09967767
0.41948202 0.29942330 0.09967767
0.55108700 0.29942330 0.09967767
0.69336602 0.29942330 0.09967767
0.84566501 0.29942330 0.09967767
0.00047921 0.41948202 0.09967767
0.02607272 0.41948202 0.09967767
0.09967767 0.41948202 0.09967767
0.19215660 0.41948202 0.09967767
0.29942330 0.41948202 0.09967767
0.41948202 0.41948202 0.09967767
0.55108700 0.41948202 0.09967767
0.69336602 0.41948202 0.09967767
0.84566501 0.41948202 0.09967767
0.00047931 0.55108700 0.09967767
0.02607272 0.55108700 0.09967767
0.09967767 0.55108700 0.09967767
0.19215660 0.55108700 0.09967767
0.29942330 0.55108700 0.09967767
0.41948202 0.55108700 0.09967767
0.55108700 0.55108700 0.09967767
0.69336602 0.55108700 0.09967767
0.84566501 0.55108700 0.09967767
0.00047918 0.69336602 0.09967767
0.02607272 0.69336602 0.09967767
0.09967767 0.69336602 0.09967767
0.19215660 0.69336602 0.09967767
0.29942330 0.69336602 0.09967767
0.41948202 0.69336602 0.09967767
0.55108700 0.69336602 0.09967767
0.69336602 0.69336602 0.09967767
0.84566501 0.69336602 0.09967767
0.00047898 0.84566501 0.09967767
0.02607272 0.84566501 0.09967767
0.09967767 0.84566501 0.09967767
0.19215660 0.84566501 0.09967767
0.29942330 0.84566501 0.09967767
0.41948202 0.84566501 0.09967767
0.55108700 0.84566501 0.09967767
0.69336602 0.84566501 0.09967767
0.84566501 0.84566501 0.09967767
0.00047898 0.00047914 0.19215660
0.02607272 0.00047914 0.19215660
0.09967767 0.00047914 0.19215660
0.19215660 0.00047898 0.19215660
0.29942330 0.00047898 0.19215660
0.41948202 0.00047918 0.19215660
0.55108700 0.00047898 0.19215660
0.69336602 0.00047898 0.19215660
0.84566501 0.00047927 0.19215660
0.00047898 0.02607272 0.19215660
0.02607272 0.02607272 0.19215660
0.09967767 0.02607272 0.19215660
0.19215660 0.02607272 0.19215660
0.29942330 0.02607272 0.19215660
0.41948202 0.02607272 0.19215660
0.55108700 0.02607272 0.19215660
0.69336602 0.02607272 0.19215660
0.84566501 0.02607272 0.19215660
0.00047898 0.09967767 0.19215660
0.02607272 0.09967767 0.19215660
0.09967767 0.09967767 0.19215660
0.19215660 0.09967767 0.19215660
0.29942330 0.09967767 0.19215660
0.41948202 0.09967767 0.19215660
0.55108700 0.09967767 0.19215660
0.69336602 0.09967767 0.19215660
0.84566501 0.09967767 0.19215660
0.00047910 0.19215660 0.19215660
0.02607272 0.19215660 0.19215660
0.09967767 0.19215660 0.19215660
0.19215660 0.19215660 0.19215660
0.29942330 0.19215660 0.19215660
0.41948202 0.19215660 0.19215660
0.55108700 0.19215660 0.19215660
0.69336602 0.19215660 0.19215660
0.84566501 0.19215660 0.19215660
0.00047898 0.29942330 0.19215660
0.02607272 0.29942330 0.19215660
0.09967767 0.29942330 0.19215660
0.19215660 0.29942330 0.19215660
0.29942330 0.29942330 0.19215660
0.41948202 0.29942330 0.19215660
0.55108700 0.29942330 0.19215660
0.69336602 0.29942330 0.19215660
0.84566501 0.29942330 0.19215660
0.00047918 0.41948202 0.19215660
0.02607272 0.41948202 0.19215660
0.09967767 0.41948202 0.19215660
0.19215660 0.41948202 0.19215660
0.29942330 0.41948202 0.19215660
0.41948202 0.41948202 0.19215660
0.55108700 0.41948202 0.19215660
0.69336602 0.41948202 0.19215660
0.84566501 0.41948202 0.19215660
0.00047928 0.55108700 0.19215660
0.02607272 0.55108700 0.19215660
0.09967767 0.55108700 0.19215660
0.19215660 0.55108700 0.19215660
0.29942330 0.55108700 0.19215660
0.41948202 0.55108700 0.19215660
0.55108700 0.55108700 0.19215660
0.69336602 0.55108700 0.19215660
0.84566501 0.55108700 0.19215660
0.00047898 0.69336602 0.19215660
0.02607272 0.69336602 0.19215660
0.09967767 0.69336602 0.19215660
0.19215660 0.69336602 0.19215660
0.29942330 0.69336602 0.19215660
0.41948202 0.69336602 0.19215660
0.55108700 0.69336602 0.19215660
0.69336602 0.69336602 0.19215660
0.84566501 0.69336602 0.19215660
0.00047939 0.84566501 0.19215660
0.02607272 0.84566501 0.19215660
0.09967767 0.84566501 0.19215660
0.19215660 0.84566501 0.19215660
0.29942330 0.84566501 0.19215660
0.41948202 0.84566501 0.19215660
0.55108700 0.84566501 0.19215660
0.69336602 0.84566501 0.19215660
0.84566501 0.84566501 0.19215660
0.00047898 0.00047920 0.29942330
0.02607272 0.00047898 0.29942330
0.09967767 0.00047898 0.29942330
0.19215660 0.00047918 0.29942330
0.29942330 0.00047918 0.29942330
0.41948202 0.00047898 0.29942330
0.55108700 0.00047918 0.29942330
0.69336602 0.00047920 0.29942330
0.84566501 0.00047941 0.29942330
0.00047914 0.02607272 0.29942330
0.02607272 0.02607272 0.29942330
0.09967767 0.02607272 0.29942330
0.19215660 0.02607272 0.29942330
0.29942330 0.02607272 0.29942330
0.41948202 0.02607272 0.29942330
0.55108700 0.02607272 0.29942330
0.69336602 0.02607272 0.29942330
0.84566501 0.02607272 0.29942330
0.00047898 0.09967767 0.29942330
0.02607272 0.09967767 0.29942330
0.09967767 0.09967767 0.29942330
0.19215660 0.09967767 0.29942330
0.29942330 0.09967767 0.29942330
0.41948202 0.09967767 0.29942330
0.55108700 0.09967767 0.29942330
0.69336602 0.09967767 0.29942330
0.84566501 0.09967767 0.29942330
0.00047898 0.19215660 0.29942330
0.02607272 0.19215660 0.29942330
0.09967767 0.19215660 0.29942330
0.19215660 0.19215660 0.29942330
0.29942330 0.19215660 0.29942330
0.41948202 0.19215660 0.29942330
0.55108700 0.19215660 0.29942330
0.69336602 0.19215660 0.29942330
0.84566501 0.19215660 0.29942330
0.00047898 0.29942330 0.29942330
0.02607272 0.29942330 0.29942330
0.09967767 0.29942330 0.29942330
0.19215660 0.29942330 0.29942330
0.29942330 0.29942330 0.29942330
0.41948202 0.29942330 0.29942330
0.55108700 0.29942330 0.29942330
0.69336602 0.29942330 0.29942330
0.84566501 0.29942330 0.29942330
0.00047898 0.41948202 0.29942330
0.02607272 0.41948202 0.29942330
0.09967767 0.41948202 0.29942330
0.19215660 0.41948202 0.29942330
0.29942330 0.41948202 0.29942330
0.41948202 0.41948202 0.29942330
0.55108700 0.41948202 0.29942330
0.69336602 0.41948202 0.29942330
0.84566501 0.41948202 0.29942330
0.00047898 0.55108700 0.29942330
0.02607272 0.55108700 0.29942330
0.09967767 0.55108700 0.29942330
0.19215660 0.55108700 0.29942330
0.29942330 0.55108700 0.29942330
0.41948202 0.55108700 0.29942330
0.55108700 0.55108700 0.29942330
0.69336602 0.55108700 0.29942330
0.84566501 0.55108700 0.29942330
0.00047935 0.69336602 0.29942330
0.02607272 0.69336602 0.29942330
0.09967767 0.69336602 0.29942330
0.19215660 0.69336602 0.29942330
0.29942330 0.69336602 0.29942330
0.41948202 0.69336602 0.29942330
0.55108700 0.69336602 0.29942330
0.69336602 0.69336602 0.29942330
0.84566501 0.69336602 0.29942330
0.00047898 0.84566501 0.29942330
0.02607272 0.84566501 0.29942330
0.09967767 0.84566501 0.29942330
0.19215660 0.84566501 0.29942330
0.29942330 0.84566501 0.29942330
0.41948202 0.84566501 0.29942330
0.55108700 0.84566501 0.29942330
0.69336602 0.84566501 0.29942330
0.84566501 0.84566501 0.29942330
0.00047918 0.00047923 0.41948202
0.02607272 0.00047927 0.41948202
0.09967767 0.00047923 0.41948202
0.19215660 0.00047927 0.41948202
0.29942330 0.00047927 0.41948202
0.41948202 0.00047923 0.41948202
0.55108700 0.00047927 0.41948202
0.69336602 0.00047923 0.41948202
0.84566501 0.00047898 0.41948202
0.00047898 0.02607272 0.41948202
0.02607272 0.02607272 0.41948202
0.09967767 0.02607272 0.41948202
0.19215660 0.02607272 0.41948202
0.29942330 0.02607272 0.41948202
0.41948202 0.02607272 0.41948202
0.55108700 0.02607272 0.41948202
0.69336602 0.02607272 0.41948202
0.84566501 0.02607272 0.41948202
0.00047918 0.09967767 0.41948202
0.02607272 0.09967767 0.41948202
0.09967767 0.09967767 0.41948202
0.19215660 0.09967767 0.41948202
0.29942330 0.09967767 0.41948202
0.41948202 0.09967767 0.41948202
0.55108700 0.09967767 0.41948202
0.69336602 0.09967767 0.41948202
0.84566501 0.09967767 0.41948202
0.00047898 0.19215660 0.41948202
0.02607272 0.19215660 0.41948202
0.09967767 0.19215660 0.41948202
0.19215660 0.19215660 0.41948202
0.29942330 0.19215660 0.41948202
0.41948202 0.19215660 0.41948202
0.55108700 0.19215660 0.41948202
0.69336602 0.19215660 0.41948202
0.84566501 0.19215660 0.41948202
0.00047898 0.29942330 0.41948202
0.02607272 0.29942330 0.41948202
0.09967767 0.29942330 0.41948202
0.19215660 0.29942330 0.41948202
0.29942330 0.29942330 0.41948202
0.41948202 0.29942330 0.41948202
0.55108700 0.29942330 0.41948202
0.69336602 0.29942330 0.41948202
0.84566501 0.29942330 0.41948202
0.00047898 0.41948202 0.41948202
0.02607272 0.41948202 0.41948202
0.09967767 0.41948202 0.41948202
0.19215660 0.41948202 0.41948202
0.29942330 0.41948202 0.41948202
0.41948202 0.41948202 0.41948202
0.55108700 0.41948202 0.41948202
0.69336602 0.41948202 0.41948202
0.84566501 0.41948202 0.41948202
0.00047923 0.55108700 0.41948202
0.02607272 0.55108700 0.41948202
0.09967767 0.55108700 0.41948202
0.19215660 0.55108700 0.41948202
0.29942330 0.55108700 0.41948202
0.41948202 0.55108700 0.41948202
0.55108700 0.55108700 0.41948202
0.69336602 0.55108700 0.41948202
0.84566501 0.55108700 0.41948202
0.00047898 0.69336602 0.41948202
0.02607272 0.69336602 0.41948202
0.09967767 0.69336602 0.41948202
0.19215660 0.69336602 0.41948202
0.29942330 0.69336602 0.41948202
0.41948202 0.69336602 0.41948202
0.55108700 0.69336602 0.41948202
0.69336602 0.69336602 0.41948202
0.84566501 0.69336602 0.41948202
0.00047945 0.84566501 0.41948202
0.02607272 0.84566501 0.41948202
0.09967767 0.84566501 0.41948202
0.19215660 0.84566501 0.41948202
0.29942330 0.84566501 0.41948202
0.41948202 0.84566501 0.41948202
0.55108700 0.84566501 0.41948202
0.69336602 0.84566501 0.41948202
0.84566501 0.84566501 0.41948202
0.00047898 0.00047931 0.55108700
0.02607272 0.00047931 0.55108700
0.09967767 0.00047898 0.55108700
0.19215660 0.00047931 0.55108700
0.29942330 0.00047931 0.55108700
0.41948202 0.00047931 0.55108700
0.55108700 0.00047931 0.55108700
0.69336602 0.00047898 0.55108700
0.84566501 0.00047898 0.55108700
0.00047898 0.02607272 0.55108700
0.02607272 0.02607272 0.55108700
0.09967767 0.02607272 0.55108700
0.19215660 0.02607272 0.55108700
0.29942330 0.02607272 0.55108700
0.41948202 0.02607272 0.55108700
0.55108700 0.02607272 0.55108700
0.69336602 0.02607272 0.55108700
0.84566501 0.02607272 0.55108700
0.00047898 0.09967767 0.55108700
0.02607272 0.09967767 0.55108700
0.09967767 0.09967767 0.55108700
0.19215660 0.09967767 0.55108700
0.29942330 0.09967767 0.55108700
0.41948202 0.09967767 0.55108700
0.55108700 0.09967767 0.55108700
0.69336602 0.09967767 0.55108700
0.84566501 0.09967767 0.55108700
0.00047898 0.19215660 0.55108700
0.02607272 0.19215660 0.55108700
0.09967767 0.19215660 0.55108700
0.19215660 0.19215660 0.55108700
0.29942330 0.19215660 0.55108700
0.41948202 0.19215660 0.55108700
0.55108700 0.19215660 0.55108700
0.69336602 0.19215660 0.55108700
0.84566501 0.19215660 0.55108700
0.00047898 0.29942330 0.55108700
0.02607272 0.29942330 0.55108700
0.09967767 0.29942330 0.55108700
0.19215660 0.29942330 0.55108700
0.29942330 0.29942330 0.55108700
0.41948202 0.29942330 0.55108700
0.55108700 0.29942330 0.55108700
0.69336602 0.29942330 0.55108700
0.84566501 0.29942330 0.55108700
0.00047898 0.41948202 0.55108700
0.02607272 0.41948202 0.55108700
0.09967767 0.41948202 0.55108700
0.19215660 0.41948202 0.55108700
0.29942330 0.41948202 0.55108700
0.41948202 0.41948202 0.55108700
0.55108700 0.41948202 0.55108700
0.69336602 0.41948202 0.55108700
0.84566501 0.41948202 0.55108700
0.00047898 0.55108700 0.55108700
0.02607272 0.55108700 0.55108700
0.09967767 0.55108700 0.55108700
0.19215660 0.55108700 0.55108700
0.29942330 0.55108700 0.55108700
0.41948202 0.55108700 0.55108700
0.55108700 0.55108700 0.55108700
0.69336602 0.55108700 0.55108700
0.84566501 0.55108700 0.55108700
0.00047898 0.69336602 0.55108700
0.02607272 0.69336602 0.55108700
0.09967767 0.69336602 0.55108700
0.19215660 0.69336602 0.55108700
0.29942330 0.69336602 0.55108700
0.41948202 0.69336602 0.55108700
0.55108700 0.69336602 0.55108700
0.69336602 0.69336602 0.55108700
0.84566501 0.69336602 0.55108700
0.00047941 0.84566501 0.55108700
0.02607272 0.84566501 0.55108700
0.09967767 0.84566501 0.55108700
0.19215660 0.84566501 0.55108700
0.29942330 0.84566501 0.55108700
0.41948202 0.84566501 0.55108700
0.55108700 0.84566501 0.55108700
0.69336602 0.84566501 0.55108700
0.84566501 0.84566501 0.55108700
0.00047898 0.00047946 0.69336602
0.02607272 0.00047946 0.69336602
0.09967767 0.00047898 0.69336602
0.19215660 0.00047946 0.69336602
0.29942330 0.00047898 0.69336602
0.41948202 0.00047940 0.69336602
0.55108700 0.00047940 0.69336602
0.69336602 0.00047946 0.69336602
0.84566501 0.00047940 0.69336602
0.00047898 0.02607272 0.69336602
0.02607272 0.02607272 0.69336602
0.09967767 0.02607272 0.69336602
0.19215660 0.02607272 0.69336602
0.29942330 0.02607272 0.69336602
0.41948202 0.02607272 0.69336602
0.55108700 0.02607272 0.69336602
0.69336602 0.02607272 0.69336602
0.84566501 0.02607272 0.69336602
0.00047898 0.09967767 0.69336602
0.02607272 0.09967767 0.69336602
0.09967767 0.09967767 0.69336602
0.19215660 0.09967767 0.69336602
0.29942330 0.09967767 0.69336602
0.41948202 0.09967767 0.69336602
0.55108700 0.09967767 0.69336602
0.69336602 0.09967767 0.69336602
0.84566501 0.09967767 0.69336602
0.00047898 0.19215660 0.69336602
0.02607272 0.19215660 0.69336602
0.09967767 0.19215660 0.69336602
0.19215660 0.19215660 0.69336602
0.29942330 0.19215660 0.69336602
0.41948202 0.19215660 0.69336602
0.55108700 0.19215660 0.69336602
0.69336602 0.19215660 0.69336602
0.84566501 0.19215660 0.69336602
0.00047898 0.29942330 0.69336602
0.02607272 0.29942330 0.69336602
0.09967767 0.29942330 0.69336602
0.19215660 0.29942330 0.69336602
0.29942330 0.29942330 0.69336602
0.41948202 0.29942330 0.69336602
0.55108700 0.29942330 0.69336602
0.69336602 0.29942330 0.69336602
0.84566501 0.29942330 0.69336602
0.00047931 0.41948202 0.69336602
0.02607272 0.41948202 0.69336602
0.09967767 0.41948202 0.69336602
0.19215660 0.41948202 0.69336602
0.29942330 0.41948202 0.69336602
0.41948202 0.41948202 0.69336602
0.55108700 0.41948202 0.69336602
0.69336602 0.41948202 0.69336602
0.84566501 0.41948202 0.69336602
0.00047898 0.55108700 0.69336602
0.02607272 0.55108700 0.69336602
0.09967767 0.55108700 0.69336602
0.19215660 0.55108700 0.69336602
0.29942330 0.55108700 0.69336602
0.41948202 0.55108700 0.69336602
0.55108700 0.55108700 0.69336602
0.69336602 0.55108700 0.69336602
0.84566501 0.55108700 0.69336602
0.00047898 0.69336602 0.69336602
0.02607272 0.69336602 0.69336602
0.09967767 0.69336602 0.69336602
0.19215660 0.69336602 0.69336602
0.29942330 0.69336602 0.69336602
0.41948202 0.69336602 0.69336602
0.55108700 0.69336602 0.69336602
0.69336602 0.69336602 0.69336602
0.84566501 0.69336602 0.69336602
0.00047948 0.84566501 0.69336602
0.02607272 0.84566501 0.69336602
0.09967767 0.84566501 0.69336602
0.19215660 0.84566501 0.69336602
0.29942330 0.84566501 0.69336602
0.41948202 0.84566501 0.69336602
0.55108700 0.84566501 0.69336602
0.69336602 0.84566501 0.69336602
0.84566501 0.84566501 0.69336602
0.00047898 0.00047953 0.84566501
0.02607272 0.00047898 0.84566501
0.09967767 0.00047953 0.84566501
0.19215660 0.00047953 0.84566501
0.29942330 0.00047961 0.84566501
0.41948202 0.00047953 0.84566501
0.55108700 0.00047953 0.84566501
0.69336602 0.00047953 0.84566501
0.84566501 0.00047953 0.84566501
0.00047940 0.02607272 0.84566501
0.02607272 0.02607272 0.84566501
0.09967767 0.02607272 0.84566501
0.19215660 0.02607272 0.84566501
0.29942330 0.02607272 0.84566501
0.41948202 0.02607272 0.84566501
0.55108700 0.02607272 0.84566501
0.69336602 0.02607272 0.84566501
0.84566501 0.02607272 0.84566501
0.00047940 0.09967767 0.84566501
0.02607272 0.09967767 0.84566501
0.09967767 0.09967767 0.84566501
0.19215660 0.09967767 0.84566501
0.29942330 0.09967767 0.84566501
0.41948202 0.09967767 0.84566501
0.55108700 0.09967767 0.84566501
0.69336602 0.09967767 0.84566501
0.84566501 0.09967767 0.84566501
0.00047940 0.19215660 0.84566501
0.02607272 0.19215660 0.84566501
0.09967767 0.19215660 0.84566501
0.19215660 0.19215660 0.84566501
0.29942330 0.19215660 0.84566501
0.41948202 0.19215660 0.84566501
0.55108700 0.19215660 0.84566501
0.69336602 0.19215660 0.84566501
0.84566501 0.19215660 0.84566501
0.00047898 0.29942330 0.84566501
0.02607272 0.29942330 0.84566501
0.09967767 0.29942330 0.84566501
0.19215660 0.29942330 0.84566501
0.29942330 0.29942330 0.84566501
0.41948202 0.29942330 0.84566501
0.55108700 0.29942330 0.84566501
0.69336602 0.29942330 0.84566501
0.84566501 0.29942330 0.84566501
0.00047898 0.41948202 0.84566501
0.02607272 0.41948202 0.84566501
0.09967767 0.41948202 0.84566501
0.19215660 0.41948202 0.84566501
0.29942330 0.41948202 0.84566501
0.41948202 0.41948202 0.84566501
0.55108700 0.41948202 0.84566501
0.69336602 0.41948202 0.84566501
0.84566501 0.41948202 0.84566501
0.00047940 0.55108700 0.84566501
0.02607272 0.55108700 0.84566501
0.09967767 0.55108700 0.84566501
0.19215660 0.55108700 0.84566501
0.29942330 0.55108700 0.84566501
0.41948202 0.55108700 0.84566501
0.55108700 0.55108700 0.84566501
0.69336602 0.55108700 0.84566501
0.84566501 0.55108700 0.84566501
0.00047940 0.69336602 0.84566501
0.02607272 0.69336602 0.84566501
0.09967767 0.69336602 0.84566501
0.19215660 0.69336602 0.84566501
0.29942330 0.69336602 0.84566501
0.41948202 0.69336602 0.84566501
0.55108700 0.69336602 0.84566501
0.69336602 0.69336602 0.84566501
0.84566501 0.69336602 0.84566501
0.00047940 0.84566501 0.84566501
0.02607272 0.84566501 0.84566501
0.09967767 0.84566501 0.84566501
0.19215660 0.84566501 0.84566501
0.29942330 0.84566501 0.84566501
0.41948202 0.84566501 0.84566501
0.55108700 0.84566501 0.84566501
0.69336602 0.84566501 0.84566501
0.84566501 0.84566501 0.84566501
