src/ffmpeg_scripts/luts/luminance_-0p67.cube
TITLE "luminance_-0p67"
LUT_3D_SIZE 5
# PQ (EOTF Only)/Rec2020 -> PQ (EOTF Only)/Rec2020, CineEI Shift -0.67, Black Level 0.00% IRE, Input 109% -> Output 109% - Created with LUTCalc v4.01 by Ben Turley October 2020
0.06256172 0.06256172 0.06256172
0.22520604 0.06256180 0.06256172
0.46086289 0.06256185 0.06256189
0.70683334 0.06256172 0.06256172
0.91886608 0.06256219 0.06256219
0.06256172 0.22520604 0.06256172
0.22520604 0.22520604 0.06256172
0.46086289 0.22520604 0.06256189
0.70683334 0.22520604 0.06256172
0.91886608 0.22520604 0.06256172
0.06256172 0.46086289 0.06256189
0.22520604 0.46086289 0.06256172
0.46086289 0.46086289 0.06256172
0.70683334 0.46086289 0.06256172
0.91886608 0.46086289 0.06256172
0.06256204 0.70683334 0.06256172
0.22520604 0.70683334 0.06256172
0.46086289 0.70683334 0.06256172
0.70683334 0.70683334 0.06256204
0.91886608 0.70683334 0.06256227
0.06256225 0.91886608 0.06256172
0.22520604 0.91886608 0.06256172
0.46086289 0.91886608 0.06256172
0.70683334 0.91886608 0.06256172
0.91886608 0.91886608 0.06256172
0.06256172 0.06256185 0.22520604
0.22520604 0.06256185 0.22520604
0.46086289 0.06256172 0.22520604
0.70683334 0.06256200 0.22520604
0.91886608 0.06256213 0.22520604
0.06256172 0.22520604 0.22520604
0.22520604 0.22520604 0.22520604
0.46086289 0.22520604 0.22520604
0.70683334 0.22520604 0.22520604
0.91886608 0.22520604 0.22520604
0.06256190 0.46086289 0.22520604
0.22520604 0.46086289 0.22520604
0.46086289 0.46086289 0.22520604
0.70683334 0.46086289 0.22520604
0.91886608 0.46086289 0.22520604
0.06256191 0.70683334 0.22520604
0.22520604 0.70683334 0.22520604
0.46086289 0.70683334 0.22520604
0.70683334 0.70683334 0.22520604
0.91886608 0.70683334 0.22520604
0.06256233 0.91886608 0.22520604
0.22520604 0.91886608 0.22520604
0.46086289 0.91886608 0.22520604
0.70683334 0.91886608 0.22520604
0.91886608 0.91886608 0.22520604
0.06256172 0.06256172 0.46086289
0.22520604 0.06256172 0.46086289
0.46086289 0.06256172 0.46086289
0.70683334 0.06256172 0.46086289
0.91886608 0.06256217 0.46086289
0.06256172 0.22520604 0.46086289
0.22520604 0.22520604 0.46086289
0.46086289 0.22520604 0.46086289
0.70683334 0.22520604 0.46086289
0.91886608 0.22520604 0.46086289
0.06256172 0.46086289 0.46086289
0.22520604 0.46086289 0.46086289
0.46086289 0.46086289 0.46086289
0.70683334 0.46086289 0.46086289
0.91886608 0.46086289 0.46086289
0.06256206 0.70683334 0.46086289
0.22520604 0.70683334 0.46086289
0.46086289 0.70683334 0.46086289
0.70683334 0.70683334 0.46086289
0.91886608 0.70683334 0.46086289
0.06256172 0.91886608 0.46086289
0.22520604 0.91886608 0.46086289
0.46086289 0.91886608 0.46086289
0.70683334 0.91886608 0.46086289
0.91886608 0.91886608 0.46086289
0.06256172 0.06256208 0.70683334
0.22520604 0.06256172 0.70683334
0.46086289 0.06256217 0.70683334
0.70683334 0.06256219 0.70683334
0.91886608 0.06256172 0.70683334
0.06256172 0.22520604 0.70683334
0.22520604 0.22520604 0.70683334
0.46086289 0.22520604 0.70683334
0.70683334 0.22520604 0.70683334
0.91886608 0.22520604 0.70683334
0.06256172 0.46086289 0.70683334
0.22520604 0.46086289 0.70683334
0.46086289 0.46086289 0.70683334
0.70683334 0.46086289 0.70683334
0.91886608 0.46086289 0.70683334
0.06256172 0.70683334 0.70683334
0.22520604 0.70683334 0.70683334
0.46086289 0.70683334 0.70683334
0.70683334 0.70683334 0.70683334
0.91886608 0.70683334 0.70683334
0.06256225 0.91886608 0.70683334
0.22520604 0.91886608 0.70683334
0.46086289 0.91886608 0.70683334
0.70683334 0.91886608 0.70683334
0.91886608 0.91886608 0.70683334
0.06256227 0.06256252 0.91886608
0.22520604 0.06256245 0.91886608
0.46086289 0.06256245 0.91886608
0.70683334 0.06256235 0.91886608
0.91886608 0.06256172 0.91886608
0.06256227 0.22520604 0.91886608
0.22520604 0.22520604 0.91886608
0.46086289 0.22520604 0.91886608
0.70683334 0.22520604 0.91886608
0.91886608 0.22520604 0.91886608
0.06256172 0.46086289 0.91886608
0.22520604 0.46086289 0.91886608
0.46086289 0.46086289 0.91886608
0.70683334 0.46086289 0.91886608
0.91886608 0.46086289 0.91886608
0.06256172 0.70683334 0.91886608
0.22520604 0.70683334 0.91886608
0.46086289 0.70683334 0.91886608
0.70683334 0.70683334 0.91886608
0.91886608 0.70683334 0.91886608
0.06256227 0.91886608 0.91886608
0.22520604 0.91886608 0.91886608
0.46086289 0.91886608 0.91886608
0.70683334 0.91886608 0.91886608
0.91886608 0.91886608 0.91886608
