src/ffmpeg_scripts/luts/luminance_-1p33.cube
TITLE "luminance_-1p33"
LUT_3D_SIZE 9
# PQ (EOTF Only)/Rec2020 -> PQ (EOTF Only)/Rec2020, CineEI Shift -1.33, Black Level 0.00% IRE, Input 109% -> Output 109% - Created with LUTCalc v4.01 by Ben Turley October 2020
0.06256172 0.06256172 0.06256172
0.10469315 0.06256177 0.06256172
0.20266443 0.06256172 0.06256172
0.30979843 0.06256172 0.06256172
0.42316302 0.06256189 0.06256189
0.54142727 0.06256172 0.06256172
0.66379852 0.06256172 0.06256172
0.78974116 0.06256172 0.06256172
0.91886487 0.06256204 0.06256213
0.06256178 0.10469315 0.06256172
0.10469315 0.10469315 0.06256172
0.20266443 0.10469315 0.06256172
0.30979843 0.10469315 0.06256172
0.42316302 0.10469315 0.06256172
0.54142727 0.10469315 0.06256172
0.66379852 0.10469315 0.06256197
0.78974116 0.10469315 0.06256204
0.91886487 0.10469315 0.06256213
0.06256181 0.20266443 0.06256172
0.10469315 0.20266443 0.06256172
0.20266443 0.20266443 0.06256172
0.30979843 0.20266443 0.06256172
0.42316302 0.20266443 0.06256187
0.54142727 0.20266443 0.06256172
0.66379852 0.20266443 0.06256172
0.78974116 0.20266443 0.06256204
0.91886487 0.20266443 0.06256172
0.06256186 0.30979843 0.06256172
0.10469315 0.30979843 0.06256185
0.20266443 0.30979843 0.06256185
0.30979843 0.30979843 0.06256172
0.42316302 0.30979843 0.06256172
0.54142727 0.30979843 0.06256172
0.66379852 0.30979843 0.06256172
0.78974116 0.30979843 0.06256208
0.91886487 0.30979843 0.06256172
0.06256172 0.42316302 0.06256172
0.10469315 0.42316302 0.06256172
0.20266443 0.42316302 0.06256189
0.30979843 0.42316302 0.06256172
0.42316302 0.42316302 0.06256172
0.54142727 0.42316302 0.06256172
0.66379852 0.42316302 0.06256172
0.78974116 0.42316302 0.06256172
0.91886487 0.42316302 0.06256172
0.06256192 0.54142727 0.06256172
0.10469315 0.54142727 0.06256172
0.20266443 0.54142727 0.06256172
0.30979843 0.54142727 0.06256172
0.42316302 0.54142727 0.06256172
0.54142727 0.54142727 0.06256172
0.66379852 0.54142727 0.06256172
0.78974116 0.54142727 0.06256172
0.91886487 0.54142727 0.06256172
0.06256197 0.66379852 0.06256172
0.10469315 0.66379852 0.06256172
0.20266443 0.66379852 0.06256200
0.30979843 0.66379852 0.06256200
0.42316302 0.66379852 0.06256172
0.54142727 0.66379852 0.06256172
0.66379852 0.66379852 0.06256204
0.78974116 0.66379852 0.06256172
0.91886487 0.66379852 0.06256219
0.06256206 0.78974116 0.06256172
0.10469315 0.78974116 0.06256208
0.20266443 0.78974116 0.06256172
0.30979843 0.78974116 0.06256172
0.42316302 0.78974116 0.06256172
0.54142727 0.78974116 0.06256172
0.66379852 0.78974116 0.06256172
0.78974116 0.78974116 0.06256172
0.91886487 0.78974116 0.06256172
0.06256220 0.91886487 0.06256219
0.10469315 0.91886487 0.06256219
0.20266443 0.91886487 0.06256172
0.30979843 0.91886487 0.06256172
0.42316302 0.91886487 0.06256172
0.54142727 0.91886487 0.06256172
0.66379852 0.91886487 0.06256219
0.78974116 0.91886487 0.06256219
0.91886487 0.91886487 0.06256172
0.06256172 0.06256180 0.10469315
0.10469315 0.06256179 0.10469315
0.20266443 0.06256172 0.10469315
0.30979843 0.06256172 0.10469315
0.42316302 0.06256187 0.10469315
0.54142727 0.06256172 0.10469315
0.66379852 0.06256172 0.10469315
0.78974116 0.06256207 0.10469315
0.91886487 0.06256172 0.10469315
0.06256178 0.10469315 0.10469315
0.10469315 0.10469315 0.10469315
0.20266443 0.10469315 0.10469315
0.30979843 0.10469315 0.10469315
0.42316302 0.10469315 0.10469315
0.54142727 0.10469315 0.10469315
0.66379852 0.10469315 0.10469315
0.78974116 0.10469315 0.10469315
0.91886487 0.10469315 0.10469315
0.06256172 0.20266443 0.10469315
0.10469315 0.20266443 0.10469315
0.20266443 0.20266443 0.10469315
0.30979843 0.20266443 0.10469315
0.42316302 0.20266443 0.10469315
0.54142727 0.20266443 0.10469315
0.66379852 0.20266443 0.10469315
0.78974116 0.20266443 0.10469315
0.91886487 0.20266443 0.10469315
0.06256172 0.30979843 0.10469315
0.10469315 0.30979843 0.10469315
0.20266443 0.30979843 0.10469315
0.30979843 0.30979843 0.10469315
0.42316302 0.30979843 0.10469315
0.54142727 0.30979843 0.10469315
0.66379852 0.30979843 0.10469315
0.78974116 0.30979843 0.10469315
0.91886487 0.30979843 0.10469315
0.06256190 0.42316302 0.10469315
0.10469315 0.42316302 0.10469315
0.20266443 0.42316302 0.10469315
0.30979843 0.42316302 0.10469315
0.42316302 0.42316302 0.10469315
0.54142727 0.42316302 0.10469315
0.66379852 0.42316302 0.10469315
0.78974116 0.42316302 0.10469315
0.91886487 0.42316302 0.10469315
0.06256172 0.54142727 0.10469315
0.10469315 0.54142727 0.10469315
0.20266443 0.54142727 0.10469315
0.30979843 0.54142727 0.10469315
0.42316302 0.54142727 0.10469315
0.54142727 0.54142727 0.10469315
0.66379852 0.54142727 0.10469315
0.78974116 0.54142727 0.10469315
0.91886487 0.54142727 0.10469315
0.06256172 0.66379852 0.10469315
0.10469315 0.66379852 0.10469315
0.20266443 0.66379852 0.10469315
0.30979843 0.66379852 0.10469315
0.42316302 0.66379852 0.10469315
0.54142727 0.66379852 0.10469315
0.66379852 0.66379852 0.10469315
0.78974116 0.66379852 0.10469315
0.91886487 0.66379852 0.10469315
0.06256172 0.78974116 0.10469315
0.10469315 0.78974116 0.10469315
0.20266443 0.78974116 0.10469315
0.30979843 0.78974116 0.10469315
0.42316302 0.78974116 0.10469315
0.54142727 0.78974116 0.10469315
0.66379852 0.78974116 0.10469315
0.78974116 0.78974116 0.10469315
0.91886487 0.78974116 0.10469315
0.06256200 0.91886487 0.10469315
0.10469315 0.91886487 0.10469315
0.20266443 0.91886487 0.10469315
0.30979843 0.91886487 0.10469315
0.42316302 0.91886487 0.10469315
0.54142727 0.91886487 0.10469315
0.66379852 0.91886487 0.10469315
0.78974116 0.91886487 0.10469315
0.91886487 0.91886487 0.10469315
0.06256172 0.06256185 0.20266443
0.10469315 0.06256172 0.20266443
0.20266443 0.06256172 0.20266443
0.30979843 0.06256172 0.20266443
0.42316302 0.06256191 0.20266443
0.54142727 0.06256187 0.20266443
0.66379852 0.06256198 0.20266443
0.78974116 0.06256208 0.20266443
0.91886487 0.06256208 0.20266443
0.06256172 0.10469315 0.20266443
0.10469315 0.10469315 0.20266443
0.20266443 0.10469315 0.20266443
0.30979843 0.10469315 0.20266443
0.42316302 0.10469315 0.20266443
0.54142727 0.10469315 0.20266443
0.66379852 0.10469315 0.20266443
0.78974116 0.10469315 0.20266443
0.91886487 0.10469315 0.20266443
0.06256184 0.20266443 0.20266443
0.10469315 0.20266443 0.20266443
0.20266443 0.20266443 0.20266443
0.30979843 0.20266443 0.20266443
0.42316302 0.20266443 0.20266443
0.54142727 0.20266443 0.20266443
0.66379852 0.20266443 0.20266443
0.78974116 0.20266443 0.20266443
0.91886487 0.20266443 0.20266443
0.06256185 0.30979843 0.20266443
0.10469315 0.30979843 0.20266443
0.20266443 0.30979843 0.20266443
0.30979843 0.30979843 0.20266443
0.42316302 0.30979843 0.20266443
0.54142727 0.30979843 0.20266443
0.66379852 0.30979843 0.20266443
0.78974116 0.30979843 0.20266443
0.91886487 0.30979843 0.20266443
0.06256191 0.42316302 0.20266443
0.10469315 0.42316302 0.20266443
0.20266443 0.42316302 0.20266443
0.30979843 0.42316302 0.20266443
0.42316302 0.42316302 0.20266443
0.54142727 0.42316302 0.20266443
0.66379852 0.42316302 0.20266443
0.78974116 0.42316302 0.20266443
0.91886487 0.42316302 0.20266443
0.06256197 0.54142727 0.20266443
0.10469315 0.54142727 0.20266443
0.20266443 0.54142727 0.20266443
0.30979843 0.54142727 0.20266443
0.42316302 0.54142727 0.20266443
0.54142727 0.54142727 0.20266443
0.66379852 0.54142727 0.20266443
0.78974116 0.54142727 0.20266443
0.91886487 0.54142727 0.20266443
0.06256203 0.66379852 0.20266443
0.10469315 0.66379852 0.20266443
0.20266443 0.66379852 0.20266443
0.30979843 0.66379852 0.20266443
0.42316302 0.66379852 0.20266443
0.54142727 0.66379852 0.20266443
0.66379852 0.66379852 0.20266443
0.78974116 0.66379852 0.20266443
0.91886487 0.66379852 0.20266443
0.06256213 0.78974116 0.20266443
0.10469315 0.78974116 0.20266443
0.20266443 0.78974116 0.20266443
0.30979843 0.78974116 0.20266443
0.42316302 0.78974116 0.20266443
0.54142727 0.78974116 0.20266443
0.66379852 0.78974116 0.20266443
0.78974116 0.78974116 0.20266443
0.91886487 0.78974116 0.20266443
0.06256172 0.91886487 0.20266443
0.10469315 0.91886487 0.20266443
0.20266443 0.91886487 0.20266443
0.30979843 0.91886487 0.20266443
0.42316302 0.91886487 0.20266443
0.54142727 0.91886487 0.20266443
0.66379852 0.91886487 0.20266443
0.78974116 0.91886487 0.20266443
0.91886487 0.91886487 0.20266443
0.06256172 0.06256189 0.30979843
0.10469315 0.06256172 0.30979843
0.20266443 0.06256189 0.30979843
0.30979843 0.06256191 0.30979843
0.42316302 0.06256191 0.30979843
0.54142727 0.06256191 0.30979843
0.66379852 0.06256172 0.30979843
0.78974116 0.06256200 0.30979843
0.91886487 0.06256172 0.30979843
0.06256172 0.10469315 0.30979843
0.10469315 0.10469315 0.30979843
0.20266443 0.10469315 0.30979843
0.30979843 0.10469315 0.30979843
0.42316302 0.10469315 0.30979843
0.54142727 0.10469315 0.30979843
0.66379852 0.10469315 0.30979843
0.78974116 0.10469315 0.30979843
0.91886487 0.10469315 0.30979843
0.06256172 0.20266443 0.30979843
0.10469315 0.20266443 0.30979843
0.20266443 0.20266443 0.30979843
0.30979843 0.20266443 0.30979843
0.42316302 0.20266443 0.30979843
0.54142727 0.20266443 0.30979843
0.66379852 0.20266443 0.30979843
0.78974116 0.20266443 0.30979843
0.91886487 0.20266443 0.30979843
0.06256185 0.30979843 0.30979843
0.10469315 0.30979843 0.30979843
0.20266443 0.30979843 0.30979843
0.30979843 0.30979843 0.30979843
0.42316302 0.30979843 0.30979843
0.54142727 0.30979843 0.30979843
0.66379852 0.30979843 0.30979843
0.78974116 0.30979843 0.30979843
0.91886487 0.30979843 0.30979843
0.06256172 0.42316302 0.30979843
0.10469315 0.42316302 0.30979843
0.20266443 0.42316302 0.30979843
0.30979843 0.42316302 0.30979843
0.42316302 0.42316302 0.30979843
0.54142727 0.42316302 0.30979843
0.66379852 0.42316302 0.30979843
0.78974116 0.42316302 0.30979843
0.91886487 0.42316302 0.30979843
0.06256198 0.54142727 0.30979843
0.10469315 0.54142727 0.30979843
0.20266443 0.54142727 0.30979843
0.30979843 0.54142727 0.30979843
0.42316302 0.54142727 0.30979843
0.54142727 0.54142727 0.30979843
0.66379852 0.54142727 0.30979843
0.78974116 0.54142727 0.30979843
0.91886487 0.54142727 0.30979843
0.06256205 0.66379852 0.30979843
0.10469315 0.66379852 0.30979843
0.20266443 0.66379852 0.30979843
0.30979843 0.66379852 0.30979843
0.42316302 0.66379852 0.30979843
0.54142727 0.66379852 0.30979843
0.66379852 0.66379852 0.30979843
0.78974116 0.66379852 0.30979843
0.91886487 0.66379852 0.30979843
0.06256172 0.78974116 0.30979843
0.10469315 0.78974116 0.30979843
0.20266443 0.78974116 0.30979843
0.30979843 0.78974116 0.30979843
0.42316302 0.78974116 0.30979843
0.54142727 0.78974116 0.30979843
0.66379852 0.78974116 0.30979843
0.78974116 0.78974116 0.30979843
0.91886487 0.78974116 0.30979843
0.06256172 0.91886487 0.30979843
0.10469315 0.91886487 0.30979843
0.20266443 0.91886487 0.30979843
0.30979843 0.91886487 0.30979843
0.42316302 0.91886487 0.30979843
0.54142727 0.91886487 0.30979843
0.66379852 0.91886487 0.30979843
0.78974116 0.91886487 0.30979843
0.91886487 0.91886487 0.30979843
0.06256172 0.06256194 0.42316302
0.10469315 0.06256172 0.42316302
0.20266443 0.06256172 0.42316302
0.30979843 0.06256172 0.42316302
0.42316302 0.06256194 0.42316302
0.54142727 0.06256172 0.42316302
0.66379852 0.06256194 0.42316302
0.78974116 0.06256208 0.42316302
0.91886487 0.06256204 0.42316302
0.06256172 0.10469315 0.42316302
0.10469315 0.10469315 0.42316302
0.20266443 0.10469315 0.42316302
0.30979843 0.10469315 0.42316302
0.42316302 0.10469315 0.42316302
0.54142727 0.10469315 0.42316302
0.66379852 0.10469315 0.42316302
0.78974116 0.10469315 0.42316302
0.91886487 0.10469315 0.42316302
0.06256172 0.20266443 0.42316302
0.10469315 0.20266443 0.42316302
0.20266443 0.20266443 0.42316302
0.30979843 0.20266443 0.42316302
0.42316302 0.20266443 0.42316302
0.54142727 0.20266443 0.42316302
0.66379852 0.20266443 0.42316302
0.78974116 0.20266443 0.42316302
0.91886487 0.20266443 0.42316302
0.06256189 0.30979843 0.42316302
0.10469315 0.30979843 0.42316302
0.20266443 0.30979843 0.42316302
0.30979843 0.30979843 0.42316302
0.42316302 0.30979843 0.42316302
0.54142727 0.30979843 0.42316302
0.66379852 0.30979843 0.42316302
0.78974116 0.30979843 0.42316302
0.91886487 0.30979843 0.42316302
0.06256172 0.42316302 0.42316302
0.10469315 0.42316302 0.42316302
0.20266443 0.42316302 0.42316302
0.30979843 0.42316302 0.42316302
0.42316302 0.42316302 0.42316302
0.54142727 0.42316302 0.42316302
0.66379852 0.42316302 0.42316302
0.78974116 0.42316302 0.42316302
0.91886487 0.42316302 0.42316302
0.06256172 0.54142727 0.42316302
0.10469315 0.54142727 0.42316302
0.20266443 0.54142727 0.42316302
0.30979843 0.54142727 0.42316302
0.42316302 0.54142727 0.42316302
0.54142727 0.54142727 0.42316302
0.66379852 0.54142727 0.42316302
0.78974116 0.54142727 0.42316302
0.91886487 0.54142727 0.42316302
0.06256200 0.66379852 0.42316302
0.10469315 0.66379852 0.42316302
0.20266443 0.66379852 0.42316302
0.30979843 0.66379852 0.42316302
0.42316302 0.66379852 0.42316302
0.54142727 0.66379852 0.42316302
0.66379852 0.66379852 0.42316302
0.78974116 0.66379852 0.42316302
0.91886487 0.66379852 0.42316302
0.06256212 0.78974116 0.42316302
0.10469315 0.78974116 0.42316302
0.20266443 0.78974116 0.42316302
0.30979843 0.78974116 0.42316302
0.42316302 0.78974116 0.42316302
0.54142727 0.78974116 0.42316302
0.66379852 0.78974116 0.42316302
0.78974116 0.78974116 0.42316302
0.91886487 0.78974116 0.42316302
0.06256172 0.91886487 0.42316302
0.10469315 0.91886487 0.42316302
0.20266443 0.91886487 0.42316302
0.30979843 0.91886487 0.42316302
0.42316302 0.91886487 0.42316302
0.54142727 0.91886487 0.42316302
0.66379852 0.91886487 0.42316302
0.78974116 0.91886487 0.42316302
0.91886487 0.91886487 0.42316302
0.06256172 0.06256200 0.54142727
0.10469315 0.06256200 0.54142727
0.20266443 0.06256200 0.54142727
0.30979843 0.06256200 0.54142727
0.42316302 0.06256204 0.54142727
0.54142727 0.06256200 0.54142727
0.66379852 0.06256200 0.54142727
0.78974116 0.06256210 0.54142727
0.91886487 0.06256208 0.54142727
0.06256172 0.10469315 0.54142727
0.10469315 0.10469315 0.54142727
0.20266443 0.10469315 0.54142727
0.30979843 0.10469315 0.54142727
0.42316302 0.10469315 0.54142727
0.54142727 0.10469315 0.54142727
0.66379852 0.10469315 0.54142727
0.78974116 0.10469315 0.54142727
0.91886487 0.10469315 0.54142727
0.06256197 0.20266443 0.54142727
0.10469315 0.20266443 0.54142727
0.20266443 0.20266443 0.54142727
0.30979843 0.20266443 0.54142727
0.42316302 0.20266443 0.54142727
0.54142727 0.20266443 0.54142727
0.66379852 0.20266443 0.54142727
0.78974116 0.20266443 0.54142727
0.91886487 0.20266443 0.54142727
0.06256172 0.30979843 0.54142727
0.10469315 0.30979843 0.54142727
0.20266443 0.30979843 0.54142727
0.30979843 0.30979843 0.54142727
0.42316302 0.30979843 0.54142727
0.54142727 0.30979843 0.54142727
0.66379852 0.30979843 0.54142727
0.78974116 0.30979843 0.54142727
0.91886487 0.30979843 0.54142727
0.06256194 0.42316302 0.54142727
0.10469315 0.42316302 0.54142727
0.20266443 0.42316302 0.54142727
0.30979843 0.42316302 0.54142727
0.42316302 0.42316302 0.54142727
0.54142727 0.42316302 0.54142727
0.66379852 0.42316302 0.54142727
0.78974116 0.42316302 0.54142727
0.91886487 0.42316302 0.54142727
0.06256172 0.54142727 0.54142727
0.10469315 0.54142727 0.54142727
0.20266443 0.54142727 0.54142727
0.30979843 0.54142727 0.54142727
0.42316302 0.54142727 0.54142727
0.54142727 0.54142727 0.54142727
0.66379852 0.54142727 0.54142727
0.78974116 0.54142727 0.54142727
0.91886487 0.54142727 0.54142727
0.06256205 0.66379852 0.54142727
0.10469315 0.66379852 0.54142727
0.20266443 0.66379852 0.54142727
0.30979843 0.66379852 0.54142727
0.42316302 0.66379852 0.54142727
0.54142727 0.66379852 0.54142727
0.66379852 0.66379852 0.54142727
0.78974116 0.66379852 0.54142727
0.91886487 0.66379852 0.54142727
0.06256206 0.78974116 0.54142727
0.10469315 0.78974116 0.54142727
0.20266443 0.78974116 0.54142727
0.30979843 0.78974116 0.54142727
0.42316302 0.78974116 0.54142727
0.54142727 0.78974116 0.54142727
0.66379852 0.78974116 0.54142727
0.78974116 0.78974116 0.54142727
0.91886487 0.78974116 0.54142727
0.06256172 0.91886487 0.54142727
0.10469315 0.91886487 0.54142727
0.20266443 0.91886487 0.54142727
0.30979843 0.91886487 0.54142727
0.42316302 0.91886487 0.54142727
0.54142727 0.91886487 0.54142727
0.66379852 0.91886487 0.54142727
0.78974116 0.91886487 0.54142727
0.91886487 0.91886487 0.54142727
0.06256172 0.06256172 0.66379852
0.10469315 0.06256172 0.66379852
0.20266443 0.06256172 0.66379852
0.30979843 0.06256213 0.66379852
0.42316302 0.06256172 0.66379852
0.54142727 0.06256213 0.66379852
0.66379852 0.06256213 0.66379852
0.78974116 0.06256172 0.66379852
0.91886487 0.06256172 0.66379852
0.06256172 0.10469315 0.66379852
0.10469315 0.10469315 0.66379852
0.20266443 0.10469315 0.66379852
0.30979843 0.10469315 0.66379852
0.42316302 0.10469315 0.66379852
0.54142727 0.10469315 0.66379852
0.66379852 0.10469315 0.66379852
0.78974116 0.10469315 0.66379852
0.91886487 0.10469315 0.66379852
0.06256172 0.20266443 0.66379852
0.10469315 0.20266443 0.66379852
0.20266443 0.20266443 0.66379852
0.30979843 0.20266443 0.66379852
0.42316302 0.20266443 0.66379852
0.54142727 0.20266443 0.66379852
0.66379852 0.20266443 0.66379852
0.78974116 0.20266443 0.66379852
0.91886487 0.20266443 0.66379852
0.06256172 0.30979843 0.66379852
0.10469315 0.30979843 0.66379852
0.20266443 0.30979843 0.66379852
0.30979843 0.30979843 0.66379852
0.42316302 0.30979843 0.66379852
0.54142727 0.30979843 0.66379852
0.66379852 0.30979843 0.66379852
0.78974116 0.30979843 0.66379852
0.91886487 0.30979843 0.66379852
0.06256172 0.42316302 0.66379852
0.10469315 0.42316302 0.66379852
0.20266443 0.42316302 0.66379852
0.30979843 0.42316302 0.66379852
0.42316302 0.42316302 0.66379852
0.54142727 0.42316302 0.66379852
0.66379852 0.42316302 0.66379852
0.78974116 0.42316302 0.66379852
0.91886487 0.42316302 0.66379852
0.06256172 0.54142727 0.66379852
0.10469315 0.54142727 0.66379852
0.20266443 0.54142727 0.66379852
0.30979843 0.54142727 0.66379852
0.42316302 0.54142727 0.66379852
0.54142727 0.54142727 0.66379852
0.66379852 0.54142727 0.66379852
0.78974116 0.54142727 0.66379852
0.91886487 0.54142727 0.66379852
0.06256172 0.66379852 0.66379852
0.10469315 0.66379852 0.66379852
0.20266443 0.66379852 0.66379852
0.30979843 0.66379852 0.66379852
0.42316302 0.66379852 0.66379852
0.54142727 0.66379852 0.66379852
0.66379852 0.66379852 0.66379852
0.78974116 0.66379852 0.66379852
0.91886487 0.66379852 0.66379852
0.06256172 0.78974116 0.66379852
0.10469315 0.78974116 0.66379852
0.20266443 0.78974116 0.66379852
0.30979843 0.78974116 0.66379852
0.42316302 0.78974116 0.66379852
0.54142727 0.78974116 0.66379852
0.66379852 0.78974116 0.66379852
0.78974116 0.78974116 0.66379852
0.91886487 0.78974116 0.66379852
0.06256221 0.91886487 0.66379852
0.10469315 0.91886487 0.66379852
0.20266443 0.91886487 0.66379852
0.30979843 0.91886487 0.66379852
0.42316302 0.91886487 0.66379852
0.54142727 0.91886487 0.66379852
0.66379852 0.91886487 0.66379852
0.78974116 0.91886487 0.66379852
0.91886487 0.91886487 0.66379852
0.06256172 0.06256227 0.78974116
0.10469315 0.06256227 0.78974116
0.20266443 0.06256219 0.78974116
0.30979843 0.06256219 0.78974116
0.42316302 0.06256172 0.78974116
0.54142727 0.06256219 0.78974116
0.66379852 0.06256219 0.78974116
0.78974116 0.06256219 0.78974116
0.91886487 0.06256227 0.78974116
0.06256172 0.10469315 0.78974116
0.10469315 0.10469315 0.78974116
0.20266443 0.10469315 0.78974116
0.30979843 0.10469315 0.78974116
0.42316302 0.10469315 0.78974116
0.54142727 0.10469315 0.78974116
0.66379852 0.10469315 0.78974116
0.78974116 0.10469315 0.78974116
0.91886487 0.10469315 0.78974116
0.06256172 0.20266443 0.78974116
0.10469315 0.20266443 0.78974116
0.20266443 0.20266443 0.78974116
0.30979843 0.20266443 0.78974116
0.42316302 0.20266443 0.78974116
0.54142727 0.20266443 0.78974116
0.66379852 0.20266443 0.78974116
0.78974116 0.20266443 0.78974116
0.91886487 0.20266443 0.78974116
0.06256172 0.30979843 0.78974116
0.10469315 0.30979843 0.78974116
0.20266443 0.30979843 0.78974116
0.30979843 0.30979843 0.78974116
0.42316302 0.30979843 0.78974116
0.54142727 0.30979843 0.78974116
0.66379852 0.30979843 0.78974116
0.78974116 0.30979843 0.78974116
0.91886487 0.30979843 0.78974116
0.06256172 0.42316302 0.78974116
0.10469315 0.42316302 0.78974116
0.20266443 0.42316302 0.78974116
0.30979843 0.42316302 0.78974116
0.42316302 0.42316302 0.78974116
0.54142727 0.42316302 0.78974116
0.66379852 0.42316302 0.78974116
0.78974116 0.42316302 0.78974116
0.91886487 0.42316302 0.78974116
0.06256172 0.54142727 0.78974116
0.10469315 0.54142727 0.78974116
0.20266443 0.54142727 0.78974116
0.30979843 0.54142727 0.78974116
0.42316302 0.54142727 0.78974116
0.54142727 0.54142727 0.78974116
0.66379852 0.54142727 0.78974116
0.78974116 0.54142727 0.78974116
0.91886487 0.54142727 0.78974116
0.06256172 0.66379852 0.78974116
0.10469315 0.66379852 0.78974116
0.20266443 0.66379852 0.78974116
0.30979843 0.66379852 0.78974116
0.42316302 0.66379852 0.78974116
0.54142727 0.66379852 0.78974116
0.66379852 0.66379852 0.78974116
0.78974116 0.66379852 0.78974116
0.91886487 0.66379852 0.78974116
0.06256208 0.78974116 0.78974116
0.10469315 0.78974116 0.78974116
0.20266443 0.78974116 0.78974116
0.30979843 0.78974116 0.78974116
0.42316302 0.78974116 0.78974116
0.54142727 0.78974116 0.78974116
0.66379852 0.78974116 0.78974116
0.78974116 0.78974116 0.78974116
0.91886487 0.78974116 0.78974116
0.06256229 0.91886487 0.78974116
0.10469315 0.91886487 0.78974116
0.20266443 0.91886487 0.78974116
0.30979843 0.91886487 0.78974116
0.42316302 0.91886487 0.78974116
0.54142727 0.91886487 0.78974116
0.66379852 0.91886487 0.78974116
0.78974116 0.91886487 0.78974116
0.91886487 0.91886487 0.78974116
0.06256227 0.06256245 0.91886487
0.10469315 0.06256172 0.91886487
0.20266443 0.06256235 0.91886487
0.30979843 0.06256172 0.91886487
0.42316302 0.06256245 0.91886487
0.54142727 0.06256235 0.91886487
0.66379852 0.06256235 0.91886487
0.78974116 0.06256245 0.91886487
0.91886487 0.06256235 0.91886487
0.06256172 0.10469315 0.91886487
0.10469315 0.10469315 0.91886487
0.20266443 0.10469315 0.91886487
0.30979843 0.10469315 0.91886487
0.42316302 0.10469315 0.91886487
0.54142727 0.10469315 0.91886487
0.66379852 0.10469315 0.91886487
0.78974116 0.10469315 0.91886487
0.91886487 0.10469315 0.91886487
0.06256172 0.20266443 0.91886487
0.10469315 0.20266443 0.91886487
0.20266443 0.20266443 0.91886487
0.30979843 0.20266443 0.91886487
0.42316302 0.20266443 0.91886487
0.54142727 0.20266443 0.91886487
0.66379852 0.20266443 0.91886487
0.78974116 0.20266443 0.91886487
0.91886487 0.20266443 0.91886487
0.06256219 0.30979843 0.91886487
0.10469315 0.30979843 0.91886487
0.20266443 0.30979843 0.91886487
0.30979843 0.30979843 0.91886487
0.42316302 0.30979843 0.91886487
0.54142727 0.30979843 0.91886487
0.66379852 0.30979843 0.91886487
0.78974116 0.30979843 0.91886487
0.91886487 0.30979843 0.91886487
0.06256172 0.42316302 0.91886487
0.10469315 0.42316302 0.91886487
0.20266443 0.42316302 0.91886487
0.30979843 0.42316302 0.91886487
0.42316302 0.42316302 0.91886487
0.54142727 0.42316302 0.91886487
0.66379852 0.42316302 0.91886487
0.78974116 0.42316302 0.91886487
0.91886487 0.42316302 0.91886487
0.06256172 0.54142727 0.91886487
0.10469315 0.54142727 0.91886487
0.20266443 0.54142727 0.91886487
0.30979843 0.54142727 0.91886487
0.42316302 0.54142727 0.91886487
0.54142727 0.54142727 0.91886487
0.66379852 0.54142727 0.91886487
0.78974116 0.54142727 0.91886487
0.91886487 0.54142727 0.91886487
0.06256172 0.66379852 0.91886487
0.10469315 0.66379852 0.91886487
0.20266443 0.66379852 0.91886487
0.30979843 0.66379852 0.91886487
0.42316302 0.66379852 0.91886487
0.54142727 0.66379852 0.91886487
0.66379852 0.66379852 0.91886487
0.78974116 0.66379852 0.91886487
0.91886487 0.66379852 0.91886487
0.06256172 0.78974116 0.91886487
0.10469315 0.78974116 0.91886487
0.20266443 0.78974116 0.91886487
0.30979843 0.78974116 0.91886487
0.42316302 0.78974116 0.91886487
0.54142727 0.78974116 0.91886487
0.66379852 0.78974116 0.91886487
0.78974116 0.78974116 0.91886487
0.91886487 0.78974116 0.91886487
0.06256219 0.91886487 0.91886487
0.10469315 0.91886487 0.91886487
0.20266443 0.91886487 0.91886487
0.30979843 0.91886487 0.91886487
0.42316302 0.91886487 0.91886487
0.54142727 0.91886487 0.91886487
0.66379852 0.91886487 0.91886487
0.78974116 0.91886487 0.91886487
0.91886487 0.91886487 0.91886487
