src/ffmpeg_scripts/luts/luminance_3p00.cube
TITLE "luminance_3p00"
LUT_3D_SIZE 33
# PQ (EOTF Only)/Rec2020 -> PQ (EOTF Only)/Rec2020, CineEI Shift 3.00, Black Level 0.00% IRE, Input 109% -> Output 109% - Created with LUTCalc v4.01 by Ben Turley October 2020
0.06256172 0.06256172 0.06256172
0.06256172 0.06256172 0.06256172
0.06256172 0.06256172 0.06256172
0.13859632 0.06256178 0.06256172
0.19779740 0.06256179 0.06256172
0.25051506 0.06256172 0.06256172
0.29917954 0.06256185 0.06256184
0.34492661 0.06256182 0.06256172
0.38841341 0.06256172 0.06256172
0.43006677 0.06256172 0.06256187
0.47018522 0.06256172 0.06256172
0.50898860 0.06256193 0.06256172
0.54664518 0.06256172 0.06256172
0.58328758 0.06256193 0.06256194
0.61902287 0.06256172 0.06256172
0.65393916 0.06256172 0.06256172
0.68811012 0.06256203 0.06256172
0.72159819 0.06256172 0.06256172
0.75445693 0.06256205 0.06256172
0.78673272 0.06256172 0.06256172
0.81846612 0.06256205 0.06256172
0.84969282 0.06256204 0.06256172
0.88044450 0.06256219 0.06256213
0.91074943 0.06256172 0.06256172
0.91886608 0.06256215 0.06256172
0.91886608 0.06256172 0.06256172
0.91886608 0.06256172 0.06256172
0.91886608 0.06256219 0.06256172
0.91886608 0.06256172 0.06256172
0.91886608 0.06256238 0.06256172
0.91886608 0.06256172 0.06256172
0.91886608 0.06256241 0.06256172
0.91886608 0.06256259 0.06256257
0.06256172 0.06256172 0.06256172
0.06256172 0.06256172 0.06256172
0.06256172 0.06256172 0.06256172
0.13859632 0.06256178 0.06256172
0.19779740 0.06256179 0.06256172
0.25051506 0.06256172 0.06256172
0.29917954 0.06256185 0.06256184
0.34492661 0.06256182 0.06256172
0.38841341 0.06256172 0.06256172
0.43006677 0.06256172 0.06256187
0.47018522 0.06256172 0.06256172
0.50898860 0.06256193 0.06256172
0.54664518 0.06256172 0.06256172
0.58328758 0.06256193 0.06256194
0.61902287 0.06256172 0.06256172
0.65393916 0.06256172 0.06256172
0.68811012 0.06256203 0.06256172
0.72159819 0.06256172 0.06256172
0.75445693 0.06256205 0.06256172
0.78673272 0.06256172 0.06256172
0.81846612 0.06256205 0.06256172
0.84969282 0.06256204 0.06256172
0.88044450 0.06256219 0.06256213
0.91074943 0.06256172 0.06256172
0.91886608 0.06256215 0.06256172
0.91886608 0.06256172 0.06256172
0.91886608 0.06256172 0.06256172
0.91886608 0.06256219 0.06256172
0.91886608 0.06256172 0.06256172
0.91886608 0.06256238 0.06256172
0.91886608 0.06256172 0.06256172
0.91886608 0.06256241 0.06256172
0.91886608 0.06256259 0.06256257
0.06256172 0.06256172 0.06256172
0.06256172 0.06256172 0.06256172
0.06256172 0.06256172 0.06256172
0.13859632 0.06256178 0.06256172
0.19779740 0.06256179 0.06256172
0.25051506 0.06256172 0.06256172
0.29917954 0.06256185 0.06256184
0.34492661 0.06256182 0.06256172
0.38841341 0.06256172 0.06256172
0.43006677 0.06256172 0.06256187
0.47018522 0.06256172 0.06256172
0.50898860 0.06256193 0.06256172
0.54664518 0.06256172 0.06256172
0.58328758 0.06256193 0.06256194
0.61902287 0.06256172 0.06256172
0.65393916 0.06256172 0.06256172
0.68811012 0.06256203 0.06256172
0.72159819 0.06256172 0.06256172
0.75445693 0.06256205 0.06256172
0.78673272 0.06256172 0.06256172
0.81846612 0.06256205 0.06256172
0.84969282 0.06256204 0.06256172
0.88044450 0.06256219 0.06256213
0.91074943 0.06256172 0.06256172
0.91886608 0.06256215 0.06256172
0.91886608 0.06256172 0.06256172
0.91886608 0.06256172 0.06256172
0.91886608 0.06256219 0.06256172
0.91886608 0.06256172 0.06256172
0.91886608 0.06256238 0.06256172
0.91886608 0.06256172 0.06256172
0.91886608 0.06256241 0.06256172
0.91886608 0.06256259 0.06256257
0.06256180 0.13859632 0.06256172
0.06256180 0.13859632 0.06256172
0.06256180 0.13859632 0.06256172
0.13859632 0.13859632 0.06256172
0.19779740 0.13859632 0.06256172
0.25051506 0.13859632 0.06256172
0.29917954 0.13859632 0.06256172
0.34492661 0.13859632 0.06256172
0.38841341 0.13859632 0.06256172
0.43006677 0.13859632 0.06256172
0.47018522 0.13859632 0.06256172
0.50898860 0.13859632 0.06256172
0.54664518 0.13859632 0.06256172
0.58328758 0.13859632 0.06256172
0.61902287 0.13859632 0.06256172
0.65393916 0.13859632 0.06256172
0.68811012 0.13859632 0.06256200
0.72159819 0.13859632 0.06256172
0.75445693 0.13859632 0.06256172
0.78673272 0.13859632 0.06256172
0.81846612 0.13859632 0.06256172
0.84969282 0.13859632 0.06256172
0.88044450 0.13859632 0.06256172
0.91074943 0.13859632 0.06256213
0.91886608 0.13859632 0.06256172
0.91886608 0.13859632 0.06256172
0.91886608 0.13859632 0.06256172
0.91886608 0.13859632 0.06256172
0.91886608 0.13859632 0.06256235
0.91886608 0.13859632 0.06256172
0.91886608 0.13859632 0.06256245
0.91886608 0.13859632 0.06256245
0.91886608 0.13859632 0.06256172
0.06256182 0.19779740 0.06256172
0.06256182 0.19779740 0.06256172
0.06256182 0.19779740 0.06256172
0.13859632 0.19779740 0.06256172
0.19779740 0.19779740 0.06256172
0.25051506 0.19779740 0.06256172
0.29917954 0.19779740 0.06256184
0.34492661 0.19779740 0.06256185
0.38841341 0.19779740 0.06256172
0.43006677 0.19779740 0.06256172
0.47018522 0.19779740 0.06256172
0.50898860 0.19779740 0.06256191
0.54664518 0.19779740 0.06256172
0.58328758 0.19779740 0.06256172
0.61902287 0.19779740 0.06256172
0.65393916 0.19779740 0.06256172
0.68811012 0.19779740 0.06256172
0.72159819 0.19779740 0.06256172
0.75445693 0.19779740 0.06256172
0.78673272 0.19779740 0.06256172
0.81846612 0.19779740 0.06256172
0.84969282 0.19779740 0.06256172
0.88044450 0.19779740 0.06256172
0.91074943 0.19779740 0.06256213
0.91886608 0.19779740 0.06256172
0.91886608 0.19779740 0.06256172
0.91886608 0.19779740 0.06256227
0.91886608 0.19779740 0.06256172
0.91886608 0.19779740 0.06256235
0.91886608 0.19779740 0.06256172
0.91886608 0.19779740 0.06256172
0.91886608 0.19779740 0.06256172
0.91886608 0.19779740 0.06256172
0.06256183 0.25051506 0.06256172
0.06256183 0.25051506 0.06256172
0.06256183 0.25051506 0.06256172
0.13859632 0.25051506 0.06256172
0.19779740 0.25051506 0.06256172
0.25051506 0.25051506 0.06256172
0.29917954 0.25051506 0.06256184
0.34492661 0.25051506 0.06256172
0.38841341 0.25051506 0.06256172
0.43006677 0.25051506 0.06256172
0.47018522 0.25051506 0.06256172
0.50898860 0.25051506 0.06256172
0.54664518 0.25051506 0.06256172
0.58328758 0.25051506 0.06256172
0.61902287 0.25051506 0.06256172
0.65393916 0.25051506 0.06256172
0.68811012 0.25051506 0.06256172
0.72159819 0.25051506 0.06256172
0.75445693 0.25051506 0.06256172
0.78673272 0.25051506 0.06256172
0.81846612 0.25051506 0.06256172
0.84969282 0.25051506 0.06256172
0.88044450 0.25051506 0.06256172
0.91074943 0.25051506 0.06256172
0.91886608 0.25051506 0.06256172
0.91886608 0.25051506 0.06256172
0.91886608 0.25051506 0.06256172
0.91886608 0.25051506 0.06256172
0.91886608 0.25051506 0.06256172
0.91886608 0.25051506 0.06256172
0.91886608 0.25051506 0.06256172
0.91886608 0.25051506 0.06256172
0.91886608 0.25051506 0.06256172
0.06256184 0.29917954 0.06256172
0.06256184 0.29917954 0.06256172
0.06256184 0.29917954 0.06256172
0.13859632 0.29917954 0.06256172
0.19779740 0.29917954 0.06256172
0.25051506 0.29917954 0.06256172
0.29917954 0.29917954 0.06256172
0.34492661 0.29917954 0.06256172
0.38841341 0.29917954 0.06256172
0.43006677 0.29917954 0.06256172
0.47018522 0.29917954 0.06256189
0.50898860 0.29917954 0.06256172
0.54664518 0.29917954 0.06256172
0.58328758 0.29917954 0.06256194
0.61902287 0.29917954 0.06256172
0.65393916 0.29917954 0.06256172
0.68811012 0.29917954 0.06256172
0.72159819 0.29917954 0.06256172
0.75445693 0.29917954 0.06256172
0.78673272 0.29917954 0.06256172
0.81846612 0.29917954 0.06256172
0.84969282 0.29917954 0.06256172
0.88044450 0.29917954 0.06256213
0.91074943 0.29917954 0.06256172
0.91886608 0.29917954 0.06256172
0.91886608 0.29917954 0.06256172
0.91886608 0.29917954 0.06256172
0.91886608 0.29917954 0.06256227
0.91886608 0.29917954 0.06256235
0.91886608 0.29917954 0.06256172
0.91886608 0.29917954 0.06256172
0.91886608 0.29917954 0.06256172
0.91886608 0.29917954 0.06256172
0.06256187 0.34492661 0.06256185
0.06256187 0.34492661 0.06256185
0.06256187 0.34492661 0.06256185
0.13859632 0.34492661 0.06256172
0.19779740 0.34492661 0.06256172
0.25051506 0.34492661 0.06256185
0.29917954 0.34492661 0.06256172
0.34492661 0.34492661 0.06256172
0.38841341 0.34492661 0.06256172
0.43006677 0.34492661 0.06256172
0.47018522 0.34492661 0.06256191
0.50898860 0.34492661 0.06256172
0.54664518 0.34492661 0.06256172
0.58328758 0.34492661 0.06256172
0.61902287 0.34492661 0.06256197
0.65393916 0.34492661 0.06256172
0.68811012 0.34492661 0.06256200
0.72159819 0.34492661 0.06256172
0.75445693 0.34492661 0.06256172
0.78673272 0.34492661 0.06256172
0.81846612 0.34492661 0.06256172
0.84969282 0.34492661 0.06256172
0.88044450 0.34492661 0.06256213
0.91074943 0.34492661 0.06256213
0.91886608 0.34492661 0.06256172
0.91886608 0.34492661 0.06256172
0.91886608 0.34492661 0.06256172
0.91886608 0.34492661 0.06256172
0.91886608 0.34492661 0.06256172
0.91886608 0.34492661 0.06256172
0.91886608 0.34492661 0.06256172
0.91886608 0.34492661 0.06256172
0.91886608 0.34492661 0.06256257
0.06256172 0.38841341 0.06256172
0.06256172 0.38841341 0.06256172
0.06256172 0.38841341 0.06256172
0.13859632 0.38841341 0.06256172
0.19779740 0.38841341 0.06256172
0.25051506 0.38841341 0.06256172
0.29917954 0.38841341 0.06256172
0.34492661 0.38841341 0.06256172
0.38841341 0.38841341 0.06256172
0.43006677 0.38841341 0.06256172
0.47018522 0.38841341 0.06256172
0.50898860 0.38841341 0.06256172
0.54664518 0.38841341 0.06256172
0.58328758 0.38841341 0.06256194
0.61902287 0.38841341 0.06256172
0.65393916 0.38841341 0.06256172
0.68811012 0.38841341 0.06256172
0.72159819 0.38841341 0.06256172
0.75445693 0.38841341 0.06256172
0.78673272 0.38841341 0.06256172
0.81846612 0.38841341 0.06256172
0.84969282 0.38841341 0.06256172
0.88044450 0.38841341 0.06256172
0.91074943 0.38841341 0.06256172
0.91886608 0.38841341 0.06256172
0.91886608 0.38841341 0.06256172
0.91886608 0.38841341 0.06256227
0.91886608 0.38841341 0.06256172
0.91886608 0.38841341 0.06256172
0.91886608 0.38841341 0.06256172
0.91886608 0.38841341 0.06256172
0.91886608 0.38841341 0.06256172
0.91886608 0.38841341 0.06256172
0.06256193 0.43006677 0.06256172
0.06256193 0.43006677 0.06256172
0.06256193 0.43006677 0.06256172
0.13859632 0.43006677 0.06256172
0.19779740 0.43006677 0.06256172
0.25051506 0.43006677 0.06256189
0.29917954 0.43006677 0.06256172
0.34492661 0.43006677 0.06256172
0.38841341 0.43006677 0.06256189
0.43006677 0.43006677 0.06256191
0.47018522 0.43006677 0.06256172
0.50898860 0.43006677 0.06256191
0.54664518 0.43006677 0.06256172
0.58328758 0.43006677 0.06256197
0.61902287 0.43006677 0.06256172
0.65393916 0.43006677 0.06256172
0.68811012 0.43006677 0.06256200
0.72159819 0.43006677 0.06256172
0.75445693 0.43006677 0.06256204
0.78673272 0.43006677 0.06256172
0.81846612 0.43006677 0.06256172
0.84969282 0.43006677 0.06256172
0.88044450 0.43006677 0.06256172
0.91074943 0.43006677 0.06256172
0.91886608 0.43006677 0.06256219
0.91886608 0.43006677 0.06256172
0.91886608 0.43006677 0.06256172
0.91886608 0.43006677 0.06256172
0.91886608 0.43006677 0.06256172
0.91886608 0.43006677 0.06256172
0.91886608 0.43006677 0.06256245
0.91886608 0.43006677 0.06256172
0.91886608 0.43006677 0.06256172
0.06256197 0.47018522 0.06256172
0.06256197 0.47018522 0.06256172
0.06256197 0.47018522 0.06256172
0.13859632 0.47018522 0.06256172
0.19779740 0.47018522 0.06256172
0.25051506 0.47018522 0.06256172
0.29917954 0.47018522 0.06256172
0.34492661 0.47018522 0.06256172
0.38841341 0.47018522 0.06256172
0.43006677 0.47018522 0.06256172
0.47018522 0.47018522 0.06256172
0.50898860 0.47018522 0.06256172
0.54664518 0.47018522 0.06256172
0.58328758 0.47018522 0.06256172
0.61902287 0.47018522 0.06256172
0.65393916 0.47018522 0.06256197
0.68811012 0.47018522 0.06256200
0.72159819 0.47018522 0.06256200
0.75445693 0.47018522 0.06256172
0.78673272 0.47018522 0.06256172
0.81846612 0.47018522 0.06256172
0.84969282 0.47018522 0.06256172
0.88044450 0.47018522 0.06256172
0.91074943 0.47018522 0.06256213
0.91886608 0.47018522 0.06256172
0.91886608 0.47018522 0.06256172
0.91886608 0.47018522 0.06256172
0.91886608 0.47018522 0.06256172
0.91886608 0.47018522 0.06256235
0.91886608 0.47018522 0.06256172
0.91886608 0.47018522 0.06256245
0.91886608 0.47018522 0.06256172
0.91886608 0.47018522 0.06256172
0.06256192 0.50898860 0.06256172
0.06256192 0.50898860 0.06256172
0.06256192 0.50898860 0.06256172
0.13859632 0.50898860 0.06256172
0.19779740 0.50898860 0.06256172
0.25051506 0.50898860 0.06256172
0.29917954 0.50898860 0.06256191
0.34492661 0.50898860 0.06256172
0.38841341 0.50898860 0.06256191
0.43006677 0.50898860 0.06256172
0.47018522 0.50898860 0.06256172
0.50898860 0.50898860 0.06256172
0.54664518 0.50898860 0.06256172
0.58328758 0.50898860 0.06256172
0.61902287 0.50898860 0.06256172
0.65393916 0.50898860 0.06256200
0.68811012 0.50898860 0.06256172
0.72159819 0.50898860 0.06256172
0.75445693 0.50898860 0.06256172
0.78673272 0.50898860 0.06256172
0.81846612 0.50898860 0.06256172
0.84969282 0.50898860 0.06256172
0.88044450 0.50898860 0.06256213
0.91074943 0.50898860 0.06256213
0.91886608 0.50898860 0.06256172
0.91886608 0.50898860 0.06256219
0.91886608 0.50898860 0.06256172
0.91886608 0.50898860 0.06256172
0.91886608 0.50898860 0.06256235
0.91886608 0.50898860 0.06256172
0.91886608 0.50898860 0.06256172
0.91886608 0.50898860 0.06256172
0.91886608 0.50898860 0.06256172
0.06256196 0.54664518 0.06256194
0.06256196 0.54664518 0.06256194
0.06256196 0.54664518 0.06256194
0.13859632 0.54664518 0.06256194
0.19779740 0.54664518 0.06256172
0.25051506 0.54664518 0.06256194
0.29917954 0.54664518 0.06256194
0.34492661 0.54664518 0.06256194
0.38841341 0.54664518 0.06256172
0.43006677 0.54664518 0.06256194
0.47018522 0.54664518 0.06256172
0.50898860 0.54664518 0.06256172
0.54664518 0.54664518 0.06256197
0.58328758 0.54664518 0.06256172
0.61902287 0.54664518 0.06256172
0.65393916 0.54664518 0.06256172
0.68811012 0.54664518 0.06256172
0.72159819 0.54664518 0.06256172
0.75445693 0.54664518 0.06256172
0.78673272 0.54664518 0.06256172
0.81846612 0.54664518 0.06256172
0.84969282 0.54664518 0.06256172
0.88044450 0.54664518 0.06256172
0.91074943 0.54664518 0.06256172
0.91886608 0.54664518 0.06256172
0.91886608 0.54664518 0.06256172
0.91886608 0.54664518 0.06256227
0.91886608 0.54664518 0.06256227
0.91886608 0.54664518 0.06256235
0.91886608 0.54664518 0.06256172
0.91886608 0.54664518 0.06256172
0.91886608 0.54664518 0.06256172
0.91886608 0.54664518 0.06256172
0.06256198 0.58328758 0.06256172
0.06256198 0.58328758 0.06256172
0.06256198 0.58328758 0.06256172
0.13859632 0.58328758 0.06256194
0.19779740 0.58328758 0.06256172
0.25051506 0.58328758 0.06256172
0.29917954 0.58328758 0.06256194
0.34492661 0.58328758 0.06256172
0.38841341 0.58328758 0.06256172
0.43006677 0.58328758 0.06256197
0.47018522 0.58328758 0.06256172
0.50898860 0.58328758 0.06256197
0.54664518 0.58328758 0.06256172
0.58328758 0.58328758 0.06256197
0.61902287 0.58328758 0.06256172
0.65393916 0.58328758 0.06256172
0.68811012 0.58328758 0.06256172
0.72159819 0.58328758 0.06256172
0.75445693 0.58328758 0.06256172
0.78673272 0.58328758 0.06256204
0.81846612 0.58328758 0.06256172
0.84969282 0.58328758 0.06256172
0.88044450 0.58328758 0.06256172
0.91074943 0.58328758 0.06256213
0.91886608 0.58328758 0.06256172
0.91886608 0.58328758 0.06256219
0.91886608 0.58328758 0.06256172
0.91886608 0.58328758 0.06256172
0.91886608 0.58328758 0.06256172
0.91886608 0.58328758 0.06256172
0.91886608 0.58328758 0.06256245
0.91886608 0.58328758 0.06256172
0.91886608 0.58328758 0.06256257
0.06256198 0.61902287 0.06256172
0.06256198 0.61902287 0.06256172
0.06256198 0.61902287 0.06256172
0.13859632 0.61902287 0.06256172
0.19779740 0.61902287 0.06256172
0.25051506 0.61902287 0.06256172
0.29917954 0.61902287 0.06256172
0.34492661 0.61902287 0.06256172
0.38841341 0.61902287 0.06256172
0.43006677 0.61902287 0.06256172
0.47018522 0.61902287 0.06256172
0.50898860 0.61902287 0.06256172
0.54664518 0.61902287 0.06256172
0.58328758 0.61902287 0.06256172
0.61902287 0.61902287 0.06256172
0.65393916 0.61902287 0.06256172
0.68811012 0.61902287 0.06256172
0.72159819 0.61902287 0.06256204
0.75445693 0.61902287 0.06256172
0.78673272 0.61902287 0.06256172
0.81846612 0.61902287 0.06256172
0.84969282 0.61902287 0.06256172
0.88044450 0.61902287 0.06256172
0.91074943 0.61902287 0.06256172
0.91886608 0.61902287 0.06256172
0.91886608 0.61902287 0.06256172
0.91886608 0.61902287 0.06256172
0.91886608 0.61902287 0.06256172
0.91886608 0.61902287 0.06256172
0.91886608 0.61902287 0.06256172
0.91886608 0.61902287 0.06256172
0.91886608 0.61902287 0.06256172
0.91886608 0.61902287 0.06256257
0.06256204 0.65393916 0.06256172
0.06256204 0.65393916 0.06256172
0.06256204 0.65393916 0.06256172
0.13859632 0.65393916 0.06256172
0.19779740 0.65393916 0.06256172
0.25051506 0.65393916 0.06256172
0.29917954 0.65393916 0.06256172
0.34492661 0.65393916 0.06256172
0.38841341 0.65393916 0.06256172
0.43006677 0.65393916 0.06256172
0.47018522 0.65393916 0.06256172
0.50898860 0.65393916 0.06256172
0.54664518 0.65393916 0.06256172
0.58328758 0.65393916 0.06256172
0.61902287 0.65393916 0.06256172
0.65393916 0.65393916 0.06256200
0.68811012 0.65393916 0.06256172
0.72159819 0.65393916 0.06256172
0.75445693 0.65393916 0.06256172
0.78673272 0.65393916 0.06256172
0.81846612 0.65393916 0.06256172
0.84969282 0.65393916 0.06256172
0.88044450 0.65393916 0.06256172
0.91074943 0.65393916 0.06256172
0.91886608 0.65393916 0.06256172
0.91886608 0.65393916 0.06256172
0.91886608 0.65393916 0.06256172
0.91886608 0.65393916 0.06256172
0.91886608 0.65393916 0.06256172
0.91886608 0.65393916 0.06256172
0.91886608 0.65393916 0.06256172
0.91886608 0.65393916 0.06256172
0.91886608 0.65393916 0.06256172
0.06256172 0.68811012 0.06256172
0.06256172 0.68811012 0.06256172
0.06256172 0.68811012 0.06256172
0.13859632 0.68811012 0.06256172
0.19779740 0.68811012 0.06256172
0.25051506 0.68811012 0.06256172
0.29917954 0.68811012 0.06256172
0.34492661 0.68811012 0.06256172
0.38841341 0.68811012 0.06256172
0.43006677 0.68811012 0.06256172
0.47018522 0.68811012 0.06256172
0.50898860 0.68811012 0.06256172
0.54664518 0.68811012 0.06256172
0.58328758 0.68811012 0.06256172
0.61902287 0.68811012 0.06256172
0.65393916 0.68811012 0.06256172
0.68811012 0.68811012 0.06256172
0.72159819 0.68811012 0.06256204
0.75445693 0.68811012 0.06256172
0.78673272 0.68811012 0.06256172
0.81846612 0.68811012 0.06256172
0.84969282 0.68811012 0.06256172
0.88044450 0.68811012 0.06256213
0.91074943 0.68811012 0.06256213
0.91886608 0.68811012 0.06256172
0.91886608 0.68811012 0.06256219
0.91886608 0.68811012 0.06256172
0.91886608 0.68811012 0.06256172
0.91886608 0.68811012 0.06256172
0.91886608 0.68811012 0.06256172
0.91886608 0.68811012 0.06256245
0.91886608 0.68811012 0.06256172
0.91886608 0.68811012 0.06256172
0.06256209 0.72159819 0.06256204
0.06256209 0.72159819 0.06256204
0.06256209 0.72159819 0.06256204
0.13859632 0.72159819 0.06256204
0.19779740 0.72159819 0.06256204
0.25051506 0.72159819 0.06256172
0.29917954 0.72159819 0.06256172
0.34492661 0.72159819 0.06256172
0.38841341 0.72159819 0.06256172
0.43006677 0.72159819 0.06256172
0.47018522 0.72159819 0.06256172
0.50898860 0.72159819 0.06256204
0.54664518 0.72159819 0.06256172
0.58328758 0.72159819 0.06256204
0.61902287 0.72159819 0.06256172
0.65393916 0.72159819 0.06256172
0.68811012 0.72159819 0.06256172
0.72159819 0.72159819 0.06256204
0.75445693 0.72159819 0.06256208
0.78673272 0.72159819 0.06256172
0.81846612 0.72159819 0.06256172
0.84969282 0.72159819 0.06256172
0.88044450 0.72159819 0.06256172
0.91074943 0.72159819 0.06256213
0.91886608 0.72159819 0.06256172
0.91886608 0.72159819 0.06256172
0.91886608 0.72159819 0.06256172
0.91886608 0.72159819 0.06256172
0.91886608 0.72159819 0.06256235
0.91886608 0.72159819 0.06256172
0.91886608 0.72159819 0.06256172
0.91886608 0.72159819 0.06256172
0.91886608 0.72159819 0.06256257
0.06256211 0.75445693 0.06256172
0.06256211 0.75445693 0.06256172
0.06256211 0.75445693 0.06256172
0.13859632 0.75445693 0.06256172
0.19779740 0.75445693 0.06256172
0.25051506 0.75445693 0.06256172
0.29917954 0.75445693 0.06256172
0.34492661 0.75445693 0.06256172
0.38841341 0.75445693 0.06256172
0.43006677 0.75445693 0.06256172
0.47018522 0.75445693 0.06256172
0.50898860 0.75445693 0.06256172
0.54664518 0.75445693 0.06256172
0.58328758 0.75445693 0.06256172
0.61902287 0.75445693 0.06256204
0.65393916 0.75445693 0.06256172
0.68811012 0.75445693 0.06256172
0.72159819 0.75445693 0.06256172
0.75445693 0.75445693 0.06256172
0.78673272 0.75445693 0.06256172
0.81846612 0.75445693 0.06256172
0.84969282 0.75445693 0.06256172
0.88044450 0.75445693 0.06256172
0.91074943 0.75445693 0.06256172
0.91886608 0.75445693 0.06256172
0.91886608 0.75445693 0.06256227
0.91886608 0.75445693 0.06256172
0.91886608 0.75445693 0.06256172
0.91886608 0.75445693 0.06256235
0.91886608 0.75445693 0.06256172
0.91886608 0.75445693 0.06256172
0.91886608 0.75445693 0.06256172
0.91886608 0.75445693 0.06256172
0.06256206 0.78673272 0.06256172
0.06256206 0.78673272 0.06256172
0.06256206 0.78673272 0.06256172
0.13859632 0.78673272 0.06256172
0.19779740 0.78673272 0.06256172
0.25051506 0.78673272 0.06256172
0.29917954 0.78673272 0.06256172
0.34492661 0.78673272 0.06256172
0.38841341 0.78673272 0.06256172
0.43006677 0.78673272 0.06256172
0.47018522 0.78673272 0.06256172
0.50898860 0.78673272 0.06256172
0.54664518 0.78673272 0.06256172
0.58328758 0.78673272 0.06256172
0.61902287 0.78673272 0.06256172
0.65393916 0.78673272 0.06256172
0.68811012 0.78673272 0.06256172
0.72159819 0.78673272 0.06256172
0.75445693 0.78673272 0.06256172
0.78673272 0.78673272 0.06256172
0.81846612 0.78673272 0.06256172
0.84969282 0.78673272 0.06256172
0.88044450 0.78673272 0.06256172
0.91074943 0.78673272 0.06256172
0.91886608 0.78673272 0.06256172
0.91886608 0.78673272 0.06256172
0.91886608 0.78673272 0.06256227
0.91886608 0.78673272 0.06256227
0.91886608 0.78673272 0.06256235
0.91886608 0.78673272 0.06256172
0.91886608 0.78673272 0.06256172
0.91886608 0.78673272 0.06256172
0.91886608 0.78673272 0.06256257
0.06256197 0.81846612 0.06256172
0.06256197 0.81846612 0.06256172
0.06256197 0.81846612 0.06256172
0.13859632 0.81846612 0.06256172
0.19779740 0.81846612 0.06256172
0.25051506 0.81846612 0.06256172
0.29917954 0.81846612 0.06256172
0.34492661 0.81846612 0.06256172
0.38841341 0.81846612 0.06256172
0.43006677 0.81846612 0.06256172
0.47018522 0.81846612 0.06256172
0.50898860 0.81846612 0.06256172
0.54664518 0.81846612 0.06256172
0.58328758 0.81846612 0.06256172
0.61902287 0.81846612 0.06256172
0.65393916 0.81846612 0.06256172
0.68811012 0.81846612 0.06256208
0.72159819 0.81846612 0.06256172
0.75445693 0.81846612 0.06256172
0.78673272 0.81846612 0.06256172
0.81846612 0.81846612 0.06256172
0.84969282 0.81846612 0.06256172
0.88044450 0.81846612 0.06256172
0.91074943 0.81846612 0.06256219
0.91886608 0.81846612 0.06256172
0.91886608 0.81846612 0.06256172
0.91886608 0.81846612 0.06256172
0.91886608 0.81846612 0.06256172
0.91886608 0.81846612 0.06256172
0.91886608 0.81846612 0.06256172
0.91886608 0.81846612 0.06256172
0.91886608 0.81846612 0.06256245
0.91886608 0.81846612 0.06256172
0.06256216 0.84969282 0.06256172
0.06256216 0.84969282 0.06256172
0.06256216 0.84969282 0.06256172
0.13859632 0.84969282 0.06256172
0.19779740 0.84969282 0.06256172
0.25051506 0.84969282 0.06256213
0.29917954 0.84969282 0.06256172
0.34492661 0.84969282 0.06256172
0.38841341 0.84969282 0.06256172
0.43006677 0.84969282 0.06256213
0.47018522 0.84969282 0.06256172
0.50898860 0.84969282 0.06256172
0.54664518 0.84969282 0.06256172
0.58328758 0.84969282 0.06256172
0.61902287 0.84969282 0.06256213
0.65393916 0.84969282 0.06256172
0.68811012 0.84969282 0.06256172
0.72159819 0.84969282 0.06256172
0.75445693 0.84969282 0.06256172
0.78673272 0.84969282 0.06256172
0.81846612 0.84969282 0.06256172
0.84969282 0.84969282 0.06256172
0.88044450 0.84969282 0.06256172
0.91074943 0.84969282 0.06256172
0.91886608 0.84969282 0.06256172
0.91886608 0.84969282 0.06256219
0.91886608 0.84969282 0.06256172
