src/ffmpeg_scripts/luts/luminance-unclipped_3p33.cube
TITLE "luminance-unclipped_3p33"
LUT_3D_SIZE 33
# PQ (EOTF Only)/Rec2020 -> PQ (EOTF Only)/Rec2020, CineEI Shift 3.33, Black Level -7.25% IRE, Input 109% -> Output 109% - Created with LUTCalc v4.01 by Ben Turley October 2020
0.00047898 0.00047898 0.00047898
0.00047898 0.00047898 0.00047898
0.00047898 0.00047898 0.00047898
0.09683869 0.00047898 0.00047898
0.16963850 0.00047909 0.00047898
0.23366293 0.00047898 0.00047898
0.29227176 0.00047898 0.00047898
0.34701692 0.00047913 0.00047914
0.39878905 0.00047912 0.00047898
0.44816301 0.00047898 0.00047898
0.49553873 0.00047920 0.00047898
0.54120943 0.00047922 0.00047920
0.58539866 0.00047898 0.00047898
0.62828203 0.00047898 0.00047923
0.67000085 0.00047898 0.00047898
0.71067107 0.00047898 0.00047927
0.75038939 0.00047898 0.00047898
0.78923759 0.00047898 0.00047898
0.82728564 0.00047898 0.00047935
0.86459403 0.00047933 0.00047898
0.90121551 0.00047931 0.00047898
0.91886608 0.00047898 0.00047898
0.91886608 0.00047898 0.00047898
0.91886608 0.00047898 0.00047898
0.91886608 0.00047898 0.00047898
0.91886608 0.00047898 0.00047898
0.91886608 0.00047964 0.00047898
0.91886608 0.00047898 0.00047898
0.91886608 0.00047969 0.00047971
0.91886608 0.00047967 0.00047898
0.91886608 0.00047975 0.00047898
0.91886608 0.00047961 0.00047898
0.91886608 0.00047991 0.00047997
0.00047898 0.00047898 0.00047898
0.00047898 0.00047898 0.00047898
0.00047898 0.00047898 0.00047898
0.09683869 0.00047898 0.00047898
0.16963850 0.00047909 0.00047898
0.23366293 0.00047898 0.00047898
0.29227176 0.00047898 0.00047898
0.34701692 0.00047913 0.00047914
0.39878905 0.00047912 0.00047898
0.44816301 0.00047898 0.00047898
0.49553873 0.00047920 0.00047898
0.54120943 0.00047922 0.00047920
0.58539866 0.00047898 0.00047898
0.62828203 0.00047898 0.00047923
0.67000085 0.00047898 0.00047898
0.71067107 0.00047898 0.00047927
0.75038939 0.00047898 0.00047898
0.78923759 0.00047898 0.00047898
0.82728564 0.00047898 0.00047935
0.86459403 0.00047933 0.00047898
0.90121551 0.00047931 0.00047898
0.91886608 0.00047898 0.00047898
0.91886608 0.00047898 0.00047898
0.91886608 0.00047898 0.00047898
0.91886608 0.00047898 0.00047898
0.91886608 0.00047898 0.00047898
0.91886608 0.00047964 0.00047898
0.91886608 0.00047898 0.00047898
0.91886608 0.00047969 0.00047971
0.91886608 0.00047967 0.00047898
0.91886608 0.00047975 0.00047898
0.91886608 0.00047961 0.00047898
0.91886608 0.00047991 0.00047997
0.00047898 0.00047898 0.00047898
0.00047898 0.00047898 0.00047898
0.00047898 0.00047898 0.00047898
0.09683869 0.00047898 0.00047898
0.16963850 0.00047909 0.00047898
0.23366293 0.00047898 0.00047898
0.29227176 0.00047898 0.00047898
0.34701692 0.00047913 0.00047914
0.39878905 0.00047912 0.00047898
0.44816301 0.00047898 0.00047898
0.49553873 0.00047920 0.00047898
0.54120943 0.00047922 0.00047920
0.58539866 0.00047898 0.00047898
0.62828203 0.00047898 0.00047923
0.67000085 0.00047898 0.00047898
0.71067107 0.00047898 0.00047927
0.75038939 0.00047898 0.00047898
0.78923759 0.00047898 0.00047898
0.82728564 0.00047898 0.00047935
0.86459403 0.00047933 0.00047898
0.90121551 0.00047931 0.00047898
0.91886608 0.00047898 0.00047898
0.91886608 0.00047898 0.00047898
0.91886608 0.00047898 0.00047898
0.91886608 0.00047898 0.00047898
0.91886608 0.00047898 0.00047898
0.91886608 0.00047964 0.00047898
0.91886608 0.00047898 0.00047898
0.91886608 0.00047969 0.00047971
0.91886608 0.00047967 0.00047898
0.91886608 0.00047975 0.00047898
0.91886608 0.00047961 0.00047898
0.91886608 0.00047991 0.00047997
0.00047908 0.09683869 0.00047898
0.00047908 0.09683869 0.00047898
0.00047908 0.09683869 0.00047898
0.09683869 0.09683869 0.00047898
0.16963850 0.09683869 0.00047898
0.23366293 0.09683869 0.00047898
0.29227176 0.09683869 0.00047898
0.34701692 0.09683869 0.00047898
0.39878905 0.09683869 0.00047898
0.44816301 0.09683869 0.00047898
0.49553873 0.09683869 0.00047898
0.54120943 0.09683869 0.00047898
0.58539866 0.09683869 0.00047898
0.62828203 0.09683869 0.00047927
0.67000085 0.09683869 0.00047898
0.71067107 0.09683869 0.00047898
0.75038939 0.09683869 0.00047931
0.78923759 0.09683869 0.00047898
0.82728564 0.09683869 0.00047898
0.86459403 0.09683869 0.00047898
0.90121551 0.09683869 0.00047940
0.91886608 0.09683869 0.00047898
0.91886608 0.09683869 0.00047898
0.91886608 0.09683869 0.00047953
0.91886608 0.09683869 0.00047898
0.91886608 0.09683869 0.00047898
0.91886608 0.09683869 0.00047898
0.91886608 0.09683869 0.00047898
0.91886608 0.09683869 0.00047898
0.91886608 0.09683869 0.00047898
0.91886608 0.09683869 0.00047983
0.91886608 0.09683869 0.00047983
0.91886608 0.09683869 0.00047898
0.00047911 0.16963850 0.00047898
0.00047911 0.16963850 0.00047898
0.00047911 0.16963850 0.00047898
0.09683869 0.16963850 0.00047898
0.16963850 0.16963850 0.00047898
0.23366293 0.16963850 0.00047898
0.29227176 0.16963850 0.00047914
0.34701692 0.16963850 0.00047914
0.39878905 0.16963850 0.00047898
0.44816301 0.16963850 0.00047898
0.49553873 0.16963850 0.00047898
0.54120943 0.16963850 0.00047920
0.58539866 0.16963850 0.00047923
0.62828203 0.16963850 0.00047898
0.67000085 0.16963850 0.00047927
0.71067107 0.16963850 0.00047898
0.75038939 0.16963850 0.00047898
0.78923759 0.16963850 0.00047898
0.82728564 0.16963850 0.00047898
0.86459403 0.16963850 0.00047898
0.90121551 0.16963850 0.00047898
0.91886608 0.16963850 0.00047898
0.91886608 0.16963850 0.00047898
0.91886608 0.16963850 0.00047898
0.91886608 0.16963850 0.00047898
0.91886608 0.16963850 0.00047898
0.91886608 0.16963850 0.00047898
0.91886608 0.16963850 0.00047971
0.91886608 0.16963850 0.00047971
0.91886608 0.16963850 0.00047898
0.91886608 0.16963850 0.00047983
0.91886608 0.16963850 0.00047898
0.91886608 0.16963850 0.00047997
0.00047908 0.23366293 0.00047910
0.00047908 0.23366293 0.00047910
0.00047908 0.23366293 0.00047910
0.09683869 0.23366293 0.00047898
0.16963850 0.23366293 0.00047898
0.23366293 0.23366293 0.00047898
0.29227176 0.23366293 0.00047914
0.34701692 0.23366293 0.00047898
0.39878905 0.23366293 0.00047898
0.44816301 0.23366293 0.00047918
0.49553873 0.23366293 0.00047898
0.54120943 0.23366293 0.00047898
0.58539866 0.23366293 0.00047898
0.62828203 0.23366293 0.00047898
0.67000085 0.23366293 0.00047927
0.71067107 0.23366293 0.00047898
0.75038939 0.23366293 0.00047898
0.78923759 0.23366293 0.00047898
0.82728564 0.23366293 0.00047898
0.86459403 0.23366293 0.00047898
0.90121551 0.23366293 0.00047898
0.91886608 0.23366293 0.00047898
0.91886608 0.23366293 0.00047898
0.91886608 0.23366293 0.00047898
0.91886608 0.23366293 0.00047953
0.91886608 0.23366293 0.00047898
0.91886608 0.23366293 0.00047961
0.91886608 0.23366293 0.00047898
0.91886608 0.23366293 0.00047898
0.91886608 0.23366293 0.00047898
0.91886608 0.23366293 0.00047898
0.91886608 0.23366293 0.00047898
0.91886608 0.23366293 0.00047997
0.00047913 0.29227176 0.00047898
0.00047913 0.29227176 0.00047898
0.00047913 0.29227176 0.00047898
0.09683869 0.29227176 0.00047898
0.16963850 0.29227176 0.00047898
0.23366293 0.29227176 0.00047898
0.29227176 0.29227176 0.00047898
0.34701692 0.29227176 0.00047916
0.39878905 0.29227176 0.00047898
0.44816301 0.29227176 0.00047918
0.49553873 0.29227176 0.00047898
0.54120943 0.29227176 0.00047898
0.58539866 0.29227176 0.00047898
0.62828203 0.29227176 0.00047923
0.67000085 0.29227176 0.00047927
0.71067107 0.29227176 0.00047898
0.75038939 0.29227176 0.00047898
0.78923759 0.29227176 0.00047931
0.82728564 0.29227176 0.00047898
0.86459403 0.29227176 0.00047898
0.90121551 0.29227176 0.00047898
0.91886608 0.29227176 0.00047898
0.91886608 0.29227176 0.00047946
0.91886608 0.29227176 0.00047898
0.91886608 0.29227176 0.00047898
0.91886608 0.29227176 0.00047898
0.91886608 0.29227176 0.00047898
0.91886608 0.29227176 0.00047971
0.91886608 0.29227176 0.00047971
0.91886608 0.29227176 0.00047898
0.91886608 0.29227176 0.00047983
0.91886608 0.29227176 0.00047898
0.91886608 0.29227176 0.00047898
0.00047914 0.34701692 0.00047898
0.00047914 0.34701692 0.00047898
0.00047914 0.34701692 0.00047898
0.09683869 0.34701692 0.00047898
0.16963850 0.34701692 0.00047898
0.23366293 0.34701692 0.00047898
0.29227176 0.34701692 0.00047898
0.34701692 0.34701692 0.00047898
0.39878905 0.34701692 0.00047898
0.44816301 0.34701692 0.00047898
0.49553873 0.34701692 0.00047898
0.54120943 0.34701692 0.00047898
0.58539866 0.34701692 0.00047898
0.62828203 0.34701692 0.00047898
0.67000085 0.34701692 0.00047927
0.71067107 0.34701692 0.00047898
0.75038939 0.34701692 0.00047898
0.78923759 0.34701692 0.00047898
0.82728564 0.34701692 0.00047935
0.86459403 0.34701692 0.00047898
0.90121551 0.34701692 0.00047898
0.91886608 0.34701692 0.00047898
0.91886608 0.34701692 0.00047898
0.91886608 0.34701692 0.00047946
0.91886608 0.34701692 0.00047898
0.91886608 0.34701692 0.00047898
0.91886608 0.34701692 0.00047898
0.91886608 0.34701692 0.00047898
0.91886608 0.34701692 0.00047898
0.91886608 0.34701692 0.00047898
0.91886608 0.34701692 0.00047898
0.91886608 0.34701692 0.00047898
0.91886608 0.34701692 0.00047898
0.00047917 0.39878905 0.00047898
0.00047917 0.39878905 0.00047898
0.00047917 0.39878905 0.00047898
0.09683869 0.39878905 0.00047898
0.16963850 0.39878905 0.00047898
0.23366293 0.39878905 0.00047898
0.29227176 0.39878905 0.00047898
0.34701692 0.39878905 0.00047898
0.39878905 0.39878905 0.00047898
0.44816301 0.39878905 0.00047898
0.49553873 0.39878905 0.00047898
0.54120943 0.39878905 0.00047898
0.58539866 0.39878905 0.00047898
0.62828203 0.39878905 0.00047923
0.67000085 0.39878905 0.00047927
0.71067107 0.39878905 0.00047927
0.75038939 0.39878905 0.00047931
0.78923759 0.39878905 0.00047898
0.82728564 0.39878905 0.00047898
0.86459403 0.39878905 0.00047898
0.90121551 0.39878905 0.00047898
0.91886608 0.39878905 0.00047898
0.91886608 0.39878905 0.00047898
0.91886608 0.39878905 0.00047946
0.91886608 0.39878905 0.00047953
0.91886608 0.39878905 0.00047953
0.91886608 0.39878905 0.00047898
0.91886608 0.39878905 0.00047898
0.91886608 0.39878905 0.00047898
0.91886608 0.39878905 0.00047898
0.91886608 0.39878905 0.00047898
0.91886608 0.39878905 0.00047898
0.91886608 0.39878905 0.00047898
0.00047919 0.44816301 0.00047898
0.00047919 0.44816301 0.00047898
0.00047919 0.44816301 0.00047898
0.09683869 0.44816301 0.00047898
0.16963850 0.44816301 0.00047898
0.23366293 0.44816301 0.00047898
0.29227176 0.44816301 0.00047898
0.34701692 0.44816301 0.00047898
0.39878905 0.44816301 0.00047898
0.44816301 0.44816301 0.00047898
0.49553873 0.44816301 0.00047898
0.54120943 0.44816301 0.00047898
0.58539866 0.44816301 0.00047927
0.62828203 0.44816301 0.00047927
0.67000085 0.44816301 0.00047898
0.71067107 0.44816301 0.00047898
0.75038939 0.44816301 0.00047935
0.78923759 0.44816301 0.00047898
0.82728564 0.44816301 0.00047935
0.86459403 0.44816301 0.00047898
0.90121551 0.44816301 0.00047898
0.91886608 0.44816301 0.00047898
0.91886608 0.44816301 0.00047898
0.91886608 0.44816301 0.00047946
0.91886608 0.44816301 0.00047953
0.91886608 0.44816301 0.00047898
0.91886608 0.44816301 0.00047898
0.91886608 0.44816301 0.00047961
0.91886608 0.44816301 0.00047971
0.91886608 0.44816301 0.00047898
0.91886608 0.44816301 0.00047898
0.91886608 0.44816301 0.00047983
0.91886608 0.44816301 0.00047898
0.00047924 0.49553873 0.00047898
0.00047924 0.49553873 0.00047898
0.00047924 0.49553873 0.00047898
0.09683869 0.49553873 0.00047898
0.16963850 0.49553873 0.00047898
0.23366293 0.49553873 0.00047898
0.29227176 0.49553873 0.00047898
0.34701692 0.49553873 0.00047898
0.39878905 0.49553873 0.00047898
0.44816301 0.49553873 0.00047898
0.49553873 0.49553873 0.00047898
0.54120943 0.49553873 0.00047898
0.58539866 0.49553873 0.00047898
0.62828203 0.49553873 0.00047898
0.67000085 0.49553873 0.00047898
0.71067107 0.49553873 0.00047898
0.75038939 0.49553873 0.00047898
0.78923759 0.49553873 0.00047935
0.82728564 0.49553873 0.00047898
0.86459403 0.49553873 0.00047898
0.90121551 0.49553873 0.00047898
0.91886608 0.49553873 0.00047898
0.91886608 0.49553873 0.00047946
0.91886608 0.49553873 0.00047898
0.91886608 0.49553873 0.00047898
0.91886608 0.49553873 0.00047953
0.91886608 0.49553873 0.00047898
0.91886608 0.49553873 0.00047898
0.91886608 0.49553873 0.00047898
0.91886608 0.49553873 0.00047898
0.91886608 0.49553873 0.00047898
0.91886608 0.49553873 0.00047898
0.91886608 0.49553873 0.00047997
0.00047929 0.54120943 0.00047898
0.00047929 0.54120943 0.00047898
0.00047929 0.54120943 0.00047898
0.09683869 0.54120943 0.00047898
0.16963850 0.54120943 0.00047898
0.23366293 0.54120943 0.00047898
0.29227176 0.54120943 0.00047898
0.34701692 0.54120943 0.00047898
0.39878905 0.54120943 0.00047898
0.44816301 0.54120943 0.00047898
0.49553873 0.54120943 0.00047898
0.54120943 0.54120943 0.00047923
0.58539866 0.54120943 0.00047898
0.62828203 0.54120943 0.00047898
0.67000085 0.54120943 0.00047927
0.71067107 0.54120943 0.00047898
0.75038939 0.54120943 0.00047898
0.78923759 0.54120943 0.00047898
0.82728564 0.54120943 0.00047935
0.86459403 0.54120943 0.00047898
0.90121551 0.54120943 0.00047940
0.91886608 0.54120943 0.00047898
0.91886608 0.54120943 0.00047898
0.91886608 0.54120943 0.00047946
0.91886608 0.54120943 0.00047898
0.91886608 0.54120943 0.00047953
0.91886608 0.54120943 0.00047898
0.91886608 0.54120943 0.00047961
0.91886608 0.54120943 0.00047971
0.91886608 0.54120943 0.00047898
0.91886608 0.54120943 0.00047898
0.91886608 0.54120943 0.00047983
0.91886608 0.54120943 0.00047898
0.00047928 0.58539866 0.00047923
0.00047928 0.58539866 0.00047923
0.00047928 0.58539866 0.00047923
0.09683869 0.58539866 0.00047923
0.16963850 0.58539866 0.00047923
0.23366293 0.58539866 0.00047927
0.29227176 0.58539866 0.00047927
0.34701692 0.58539866 0.00047898
0.39878905 0.58539866 0.00047898
0.44816301 0.58539866 0.00047923
0.49553873 0.58539866 0.00047898
0.54120943 0.58539866 0.00047898
0.58539866 0.58539866 0.00047927
0.62828203 0.58539866 0.00047898
0.67000085 0.58539866 0.00047898
0.71067107 0.58539866 0.00047898
0.75038939 0.58539866 0.00047931
0.78923759 0.58539866 0.00047898
0.82728564 0.58539866 0.00047898
0.86459403 0.58539866 0.00047898
0.90121551 0.58539866 0.00047898
0.91886608 0.58539866 0.00047898
0.91886608 0.58539866 0.00047898
0.91886608 0.58539866 0.00047898
0.91886608 0.58539866 0.00047898
0.91886608 0.58539866 0.00047898
0.91886608 0.58539866 0.00047898
0.91886608 0.58539866 0.00047898
0.91886608 0.58539866 0.00047898
0.91886608 0.58539866 0.00047898
0.91886608 0.58539866 0.00047898
0.91886608 0.58539866 0.00047898
0.91886608 0.58539866 0.00047997
0.00047916 0.62828203 0.00047898
0.00047916 0.62828203 0.00047898
0.00047916 0.62828203 0.00047898
0.09683869 0.62828203 0.00047927
0.16963850 0.62828203 0.00047898
0.23366293 0.62828203 0.00047898
0.29227176 0.62828203 0.00047898
0.34701692 0.62828203 0.00047898
0.39878905 0.62828203 0.00047898
0.44816301 0.62828203 0.00047898
0.49553873 0.62828203 0.00047927
0.54120943 0.62828203 0.00047898
0.58539866 0.62828203 0.00047898
0.62828203 0.62828203 0.00047931
0.67000085 0.62828203 0.00047898
0.71067107 0.62828203 0.00047898
0.75038939 0.62828203 0.00047898
0.78923759 0.62828203 0.00047898
0.82728564 0.62828203 0.00047935
0.86459403 0.62828203 0.00047940
0.90121551 0.62828203 0.00047898
0.91886608 0.62828203 0.00047898
0.91886608 0.62828203 0.00047898
0.91886608 0.62828203 0.00047946
0.91886608 0.62828203 0.00047898
0.91886608 0.62828203 0.00047898
0.91886608 0.62828203 0.00047898
0.91886608 0.62828203 0.00047898
0.91886608 0.62828203 0.00047898
0.91886608 0.62828203 0.00047898
0.91886608 0.62828203 0.00047898
0.91886608 0.62828203 0.00047898
0.91886608 0.62828203 0.00047997
0.00047924 0.67000085 0.00047898
0.00047924 0.67000085 0.00047898
0.00047924 0.67000085 0.00047898
0.09683869 0.67000085 0.00047898
0.16963850 0.67000085 0.00047898
0.23366293 0.67000085 0.00047898
0.29227176 0.67000085 0.00047898
0.34701692 0.67000085 0.00047927
0.39878905 0.67000085 0.00047898
0.44816301 0.67000085 0.00047898
0.49553873 0.67000085 0.00047927
0.54120943 0.67000085 0.00047898
0.58539866 0.67000085 0.00047898
0.62828203 0.67000085 0.00047898
0.67000085 0.67000085 0.00047898
0.71067107 0.67000085 0.00047931
0.75038939 0.67000085 0.00047898
0.78923759 0.67000085 0.00047935
0.82728564 0.67000085 0.00047898
0.86459403 0.67000085 0.00047898
0.90121551 0.67000085 0.00047898
0.91886608 0.67000085 0.00047898
0.91886608 0.67000085 0.00047898
0.91886608 0.67000085 0.00047898
0.91886608 0.67000085 0.00047898
0.91886608 0.67000085 0.00047898
0.91886608 0.67000085 0.00047898
0.91886608 0.67000085 0.00047898
0.91886608 0.67000085 0.00047971
0.91886608 0.67000085 0.00047898
0.91886608 0.67000085 0.00047898
0.91886608 0.67000085 0.00047983
0.91886608 0.67000085 0.00047898
0.00047935 0.71067107 0.00047898
0.00047935 0.71067107 0.00047898
0.00047935 0.71067107 0.00047898
0.09683869 0.71067107 0.00047898
0.16963850 0.71067107 0.00047898
0.23366293 0.71067107 0.00047898
0.29227176 0.71067107 0.00047898
0.34701692 0.71067107 0.00047898
0.39878905 0.71067107 0.00047898
0.44816301 0.71067107 0.00047898
0.49553873 0.71067107 0.00047898
0.54120943 0.71067107 0.00047898
0.58539866 0.71067107 0.00047898
0.62828203 0.71067107 0.00047898
0.67000085 0.71067107 0.00047898
0.71067107 0.71067107 0.00047898
0.75038939 0.71067107 0.00047898
0.78923759 0.71067107 0.00047898
0.82728564 0.71067107 0.00047898
0.86459403 0.71067107 0.00047898
0.90121551 0.71067107 0.00047898
0.91886608 0.71067107 0.00047898
0.91886608 0.71067107 0.00047953
0.91886608 0.71067107 0.00047898
0.91886608 0.71067107 0.00047898
0.91886608 0.71067107 0.00047898
0.91886608 0.71067107 0.00047898
0.91886608 0.71067107 0.00047898
0.91886608 0.71067107 0.00047898
0.91886608 0.71067107 0.00047898
0.91886608 0.71067107 0.00047898
0.91886608 0.71067107 0.00047898
0.91886608 0.71067107 0.00047997
0.00047898 0.75038939 0.00047898
0.00047898 0.75038939 0.00047898
0.00047898 0.75038939 0.00047898
0.09683869 0.75038939 0.00047898
0.16963850 0.75038939 0.00047931
0.23366293 0.75038939 0.00047898
0.29227176 0.75038939 0.00047898
0.34701692 0.75038939 0.00047898
0.39878905 0.75038939 0.00047898
0.44816301 0.75038939 0.00047898
0.49553873 0.75038939 0.00047898
0.54120943 0.75038939 0.00047898
0.58539866 0.75038939 0.00047898
0.62828203 0.75038939 0.00047898
0.67000085 0.75038939 0.00047898
0.71067107 0.75038939 0.00047935
0.75038939 0.75038939 0.00047898
0.78923759 0.75038939 0.00047935
0.82728564 0.75038939 0.00047898
0.86459403 0.75038939 0.00047940
0.90121551 0.75038939 0.00047898
0.91886608 0.75038939 0.00047898
0.91886608 0.75038939 0.00047898
0.91886608 0.75038939 0.00047898
0.91886608 0.75038939 0.00047898
0.91886608 0.75038939 0.00047953
0.91886608 0.75038939 0.00047898
0.91886608 0.75038939 0.00047898
0.91886608 0.75038939 0.00047898
0.91886608 0.75038939 0.00047898
0.91886608 0.75038939 0.00047898
0.91886608 0.75038939 0.00047898
0.91886608 0.75038939 0.00047898
0.00047940 0.78923759 0.00047898
0.00047940 0.78923759 0.00047898
0.00047940 0.78923759 0.00047898
0.09683869 0.78923759 0.00047898
0.16963850 0.78923759 0.00047898
0.23366293 0.78923759 0.00047898
0.29227176 0.78923759 0.00047898
0.34701692 0.78923759 0.00047935
0.39878905 0.78923759 0.00047898
0.44816301 0.78923759 0.00047935
0.49553873 0.78923759 0.00047935
0.54120943 0.78923759 0.00047898
0.58539866 0.78923759 0.00047898
0.62828203 0.78923759 0.00047898
0.67000085 0.78923759 0.00047898
0.71067107 0.78923759 0.00047898
0.75038939 0.78923759 0.00047935
0.78923759 0.78923759 0.00047940
0.82728564 0.78923759 0.00047898
0.86459403 0.78923759 0.00047898
0.90121551 0.78923759 0.00047898
0.91886608 0.78923759 0.00047898
0.91886608 0.78923759 0.00047898
0.91886608 0.78923759 0.00047898
0.91886608 0.78923759 0.00047953
0.91886608 0.78923759 0.00047898
0.91886608 0.78923759 0.00047898
0.91886608 0.78923759 0.00047961
0.91886608 0.78923759 0.00047898
0.91886608 0.78923759 0.00047898
0.91886608 0.78923759 0.00047898
0.91886608 0.78923759 0.00047898
0.91886608 0.78923759 0.00047898
0.00047936 0.82728564 0.00047898
0.00047936 0.82728564 0.00047898
0.00047936 0.82728564 0.00047898
0.09683869 0.82728564 0.00047898
0.16963850 0.82728564 0.00047898
0.23366293 0.82728564 0.00047898
0.29227176 0.82728564 0.00047898
0.34701692 0.82728564 0.00047898
0.39878905 0.82728564 0.00047898
0.44816301 0.82728564 0.00047898
0.49553873 0.82728564 0.00047898
0.54120943 0.82728564 0.00047898
0.58539866 0.82728564 0.00047898
0.62828203 0.82728564 0.00047898
0.67000085 0.82728564 0.00047898
0.71067107 0.82728564 0.00047898
0.75038939 0.82728564 0.00047898
0.78923759 0.82728564 0.00047898
0.82728564 0.82728564 0.00047940
0.86459403 0.82728564 0.00047940
0.90121551 0.82728564 0.00047898
0.91886608 0.82728564 0.00047898
0.91886608 0.82728564 0.00047898
0.91886608 0.82728564 0.00047898
0.91886608 0.82728564 0.00047898
0.91886608 0.82728564 0.00047898
0.91886608 0.82728564 0.00047898
0.91886608 0.82728564 0.00047961
0.91886608 0.82728564 0.00047898
0.91886608 0.82728564 0.00047898
0.91886608 0.82728564 0.00047898
0.91886608 0.82728564 0.00047898
0.91886608 0.82728564 0.00047997
0.00047946 0.86459403 0.00047898
0.00047946 0.86459403 0.00047898
0.00047946 0.86459403 0.00047898
0.09683869 0.86459403 0.00047898
0.16963850 0.86459403 0.00047898
0.23366293 0.86459403 0.00047898
0.29227176 0.86459403 0.00047898
0.34701692 0.86459403 0.00047898
0.39878905 0.86459403 0.00047898
0.44816301 0.86459403 0.00047898
0.49553873 0.86459403 0.00047898
0.54120943 0.86459403 0.00047940
0.58539866 0.86459403 0.00047898
0.62828203 0.86459403 0.00047898
0.67000085 0.86459403 0.00047898
0.71067107 0.86459403 0.00047940
0.75038939 0.86459403 0.00047940
0.78923759 0.86459403 0.00047898
0.82728564 0.86459403 0.00047898
0.86459403 0.86459403 0.00047898
0.90121551 0.86459403 0.00047898
0.91886608 0.86459403 0.00047898
0.91886608 0.86459403 0.00047898
0.91886608 0.86459403 0.00047898
0.91886608 0.86459403 0.00047898
0.91886608 0.86459403 0.00047898
0.91886608 0.86459403 0.00047971
0.91886608 0.86459403 0.00047898
0.91886608 0.86459403 0.00047971
0.91886608 0.86459403 0.00047898
0.91886608 0.86459403 0.00047898
0.91886608 0.86459403 0.00047983
0.91886608 0.86459403 0.00047898
0.00047951 0.90121551 0.00047898
0.00047951 0.90121551 0.00047898
0.00047951 0.90121551 0.00047898
0.09683869 0.90121551 0.00047898
0.16963850 0.90121551 0.00047898
0.23366293 0.90121551 0.00047898
0.29227176 0.90121551 0.00047898
0.34701692 0.90121551 0.00047898
0.39878905 0.90121551 0.00047940
0.44816301 0.90121551 0.00047898
0.49553873 0.90121551 0.00047940
0.54120943 0.90121551 0.00047898
0.58539866 0.90121551 0.00047898
0.62828203 0.90121551 0.00047898
0.67000085 0.90121551 0.00047898
0.71067107 0.90121551 0.00047898
0.75038939 0.90121551 0.00047898
0.78923759 0.90121551 0.00047898
0.82728564 0.90121551 0.00047898
0.86459403 0.90121551 0.00047898
0.90121551 0.90121551 0.00047898
0.91886608 0.90121551 0.00047898
0.91886608 0.90121551 0.00047953
0.91886608 0.90121551 0.00047953
0.91886608 0.90121551 0.00047898
0.91886608 0.90121551 0.00047898
0.91886608 0.90121551 0.00047898
0.91886608 0.90121551 0.00047898
0.91886608 0.90121551 0.00047898
0.91886608 0.90121551 0.00047898
0.91886608 0.90121551 0.00047983
0.91886608 0.90121551 0.00047983
0.91886608 0.90121551 0.00047898
0.00047945 0.91886608 0.00047898
0.00047945 0.91886608 0.00047898
0.00047945 0.91886608 0.00047898
0.09683869 0.91886608 0.00047898
0.16963850 0.91886608 0.00047898
0.23366293 0.91886608 0.00047898
0.29227176 0.91886608 0.00047898
0.34701692 0.91886608 0.00047898
0.39878905 0.91886608 0.00047898
0.44816301 0.91886608 0.00047898
0.49553873 0.91886608 0.00047898
0.54120943 0.91886608 0.00047898
0.58539866 0.91886608 0.00047898
0.62828203 0.91886608 0.00047898
0.67000085 0.91886608 0.00047898
0.71067107 0.91886608 0.00047898
0.75038939 0.91886608 0.00047898
0.78923759 0.91886608 0.00047946
0.82728564 0.91886608 0.00047898
0.86459403 0.91886608 0.00047898
0.90121551 0.91886608 0.00047946
0.91886608 0.91886608 0.00047898
0.91886608 0.91886608 0.00047898
0.91886608 0.91886608 0.00047898
0.91886608 0.91886608 0.00047898
0.91886608 0.91886608 0.00047898
0.91886608 0.91886608 0.00047898
