src/ffmpeg_scripts/luts/luminance_-1p67.cube
TITLE "luminance_-1p67"
LUT_3D_SIZE 33
# PQ (EOTF Only)/Rec2020 -> PQ (EOTF Only)/Rec2020, CineEI Shift -1.67, Black Level 0.00% IRE, Input 109% -> Output 109% - Created with LUTCalc v4.01 by Ben Turley October 2020
0.06256172 0.06256172 0.06256172
0.06256172 0.06256172 0.06256172
0.06256172 0.06256172 0.06256172
0.08038860 0.06256172 0.06256172
0.10056658 0.06256177 0.06256172
0.12210140 0.06256172 0.06256172
0.14466633 0.06256172 0.06256172
0.16808201 0.06256179 0.06256179
0.19223202 0.06256179 0.06256172
0.21703355 0.06256172 0.06256172
0.24242407 0.06256182 0.06256172
0.26835442 0.06256183 0.06256182
0.29478474 0.06256172 0.06256172
0.32168191 0.06256172 0.06256184
0.34901793 0.06256172 0.06256172
0.37676873 0.06256172 0.06256185
0.40491336 0.06256172 0.06256172
0.43343340 0.06256172 0.06256172
0.46231251 0.06256172 0.06256189
0.49153604 0.06256188 0.06256172
0.52109081 0.06256187 0.06256172
0.55096485 0.06256172 0.06256172
0.58114727 0.06256172 0.06256172
0.61162808 0.06256172 0.06256172
0.64239808 0.06256172 0.06256172
0.67344879 0.06256172 0.06256172
0.70477233 0.06256201 0.06256172
0.73636138 0.06256172 0.06256172
0.76820911 0.06256203 0.06256204
0.80030912 0.06256202 0.06256172
0.83265541 0.06256205 0.06256172
0.86524234 0.06256200 0.06256172
0.89806460 0.06256211 0.06256213
0.06256172 0.06256172 0.06256172
0.06256172 0.06256172 0.06256172
0.06256172 0.06256172 0.06256172
0.08038860 0.06256172 0.06256172
0.10056658 0.06256177 0.06256172
0.12210140 0.06256172 0.06256172
0.14466633 0.06256172 0.06256172
0.16808201 0.06256179 0.06256179
0.19223202 0.06256179 0.06256172
0.21703355 0.06256172 0.06256172
0.24242407 0.06256182 0.06256172
0.26835442 0.06256183 0.06256182
0.29478474 0.06256172 0.06256172
0.32168191 0.06256172 0.06256184
0.34901793 0.06256172 0.06256172
0.37676873 0.06256172 0.06256185
0.40491336 0.06256172 0.06256172
0.43343340 0.06256172 0.06256172
0.46231251 0.06256172 0.06256189
0.49153604 0.06256188 0.06256172
0.52109081 0.06256187 0.06256172
0.55096485 0.06256172 0.06256172
0.58114727 0.06256172 0.06256172
0.61162808 0.06256172 0.06256172
0.64239808 0.06256172 0.06256172
0.67344879 0.06256172 0.06256172
0.70477233 0.06256201 0.06256172
0.73636138 0.06256172 0.06256172
0.76820911 0.06256203 0.06256204
0.80030912 0.06256202 0.06256172
0.83265541 0.06256205 0.06256172
0.86524234 0.06256200 0.06256172
0.89806460 0.06256211 0.06256213
0.06256172 0.06256172 0.06256172
0.06256172 0.06256172 0.06256172
0.06256172 0.06256172 0.06256172
0.08038860 0.06256172 0.06256172
0.10056658 0.06256177 0.06256172
0.12210140 0.06256172 0.06256172
0.14466633 0.06256172 0.06256172
0.16808201 0.06256179 0.06256179
0.19223202 0.06256179 0.06256172
0.21703355 0.06256172 0.06256172
0.24242407 0.06256182 0.06256172
0.26835442 0.06256183 0.06256182
0.29478474 0.06256172 0.06256172
0.32168191 0.06256172 0.06256184
0.34901793 0.06256172 0.06256172
0.37676873 0.06256172 0.06256185
0.40491336 0.06256172 0.06256172
0.43343340 0.06256172 0.06256172
0.46231251 0.06256172 0.06256189
0.49153604 0.06256188 0.06256172
0.52109081 0.06256187 0.06256172
0.55096485 0.06256172 0.06256172
0.58114727 0.06256172 0.06256172
0.61162808 0.06256172 0.06256172
0.64239808 0.06256172 0.06256172
0.67344879 0.06256172 0.06256172
0.70477233 0.06256201 0.06256172
0.73636138 0.06256172 0.06256172
0.76820911 0.06256203 0.06256204
0.80030912 0.06256202 0.06256172
0.83265541 0.06256205 0.06256172
0.86524234 0.06256200 0.06256172
0.89806460 0.06256211 0.06256213
0.06256177 0.08038860 0.06256172
0.06256177 0.08038860 0.06256172
0.06256177 0.08038860 0.06256172
0.08038860 0.08038860 0.06256172
0.10056658 0.08038860 0.06256172
0.12210140 0.08038860 0.06256172
0.14466633 0.08038860 0.06256172
0.16808201 0.08038860 0.06256172
0.19223202 0.08038860 0.06256172
0.21703355 0.08038860 0.06256172
0.24242407 0.08038860 0.06256172
0.26835442 0.08038860 0.06256172
0.29478474 0.08038860 0.06256172
0.32168191 0.08038860 0.06256185
0.34901793 0.08038860 0.06256172
0.37676873 0.08038860 0.06256172
0.40491336 0.08038860 0.06256187
0.43343340 0.08038860 0.06256172
0.46231251 0.08038860 0.06256172
0.49153604 0.08038860 0.06256172
0.52109081 0.08038860 0.06256191
0.55096485 0.08038860 0.06256172
0.58114727 0.08038860 0.06256172
0.61162808 0.08038860 0.06256197
0.64239808 0.08038860 0.06256172
0.67344879 0.08038860 0.06256172
0.70477233 0.08038860 0.06256172
0.73636138 0.08038860 0.06256172
0.76820911 0.08038860 0.06256172
0.80030912 0.08038860 0.06256172
0.83265541 0.08038860 0.06256208
0.86524234 0.08038860 0.06256208
0.89806460 0.08038860 0.06256172
0.06256178 0.10056658 0.06256172
0.06256178 0.10056658 0.06256172
0.06256178 0.10056658 0.06256172
0.08038860 0.10056658 0.06256172
0.10056658 0.10056658 0.06256172
0.12210140 0.10056658 0.06256172
0.14466633 0.10056658 0.06256179
0.16808201 0.10056658 0.06256179
0.19223202 0.10056658 0.06256172
0.21703355 0.10056658 0.06256172
0.24242407 0.10056658 0.06256172
0.26835442 0.10056658 0.06256182
0.29478474 0.10056658 0.06256184
0.32168191 0.10056658 0.06256172
0.34901793 0.10056658 0.06256185
0.37676873 0.10056658 0.06256172
0.40491336 0.10056658 0.06256172
0.43343340 0.10056658 0.06256172
0.46231251 0.10056658 0.06256172
0.49153604 0.10056658 0.06256172
0.52109081 0.10056658 0.06256172
0.55096485 0.10056658 0.06256172
0.58114727 0.10056658 0.06256172
0.61162808 0.10056658 0.06256172
0.64239808 0.10056658 0.06256172
0.67344879 0.10056658 0.06256172
0.70477233 0.10056658 0.06256172
0.73636138 0.10056658 0.06256204
0.76820911 0.10056658 0.06256204
0.80030912 0.10056658 0.06256172
0.83265541 0.10056658 0.06256208
0.86524234 0.10056658 0.06256172
0.89806460 0.10056658 0.06256213
0.06256177 0.12210140 0.06256178
0.06256177 0.12210140 0.06256178
0.06256177 0.12210140 0.06256178
0.08038860 0.12210140 0.06256172
0.10056658 0.12210140 0.06256172
0.12210140 0.12210140 0.06256172
0.14466633 0.12210140 0.06256179
0.16808201 0.12210140 0.06256172
0.19223202 0.12210140 0.06256172
0.21703355 0.12210140 0.06256181
0.24242407 0.12210140 0.06256172
0.26835442 0.12210140 0.06256172
0.29478474 0.12210140 0.06256172
0.32168191 0.12210140 0.06256172
0.34901793 0.12210140 0.06256185
0.37676873 0.12210140 0.06256172
0.40491336 0.12210140 0.06256172
0.43343340 0.12210140 0.06256172
0.46231251 0.12210140 0.06256172
0.49153604 0.12210140 0.06256172
0.52109081 0.12210140 0.06256172
0.55096485 0.12210140 0.06256172
0.58114727 0.12210140 0.06256172
0.61162808 0.12210140 0.06256172
0.64239808 0.12210140 0.06256197
0.67344879 0.12210140 0.06256172
0.70477233 0.12210140 0.06256200
0.73636138 0.12210140 0.06256172
0.76820911 0.12210140 0.06256172
0.80030912 0.12210140 0.06256172
0.83265541 0.12210140 0.06256172
0.86524234 0.12210140 0.06256172
0.89806460 0.12210140 0.06256213
0.06256179 0.14466633 0.06256172
0.06256179 0.14466633 0.06256172
0.06256179 0.14466633 0.06256172
0.08038860 0.14466633 0.06256172
0.10056658 0.14466633 0.06256172
0.12210140 0.14466633 0.06256172
0.14466633 0.14466633 0.06256172
0.16808201 0.14466633 0.06256180
0.19223202 0.14466633 0.06256172
0.21703355 0.14466633 0.06256181
0.24242407 0.14466633 0.06256172
0.26835442 0.14466633 0.06256172
0.29478474 0.14466633 0.06256172
0.32168191 0.14466633 0.06256184
0.34901793 0.14466633 0.06256185
0.37676873 0.14466633 0.06256172
0.40491336 0.14466633 0.06256172
0.43343340 0.14466633 0.06256187
0.46231251 0.14466633 0.06256172
0.49153604 0.14466633 0.06256172
0.52109081 0.14466633 0.06256172
0.55096485 0.14466633 0.06256172
0.58114727 0.14466633 0.06256194
0.61162808 0.14466633 0.06256172
0.64239808 0.14466633 0.06256172
0.67344879 0.14466633 0.06256172
0.70477233 0.14466633 0.06256172
0.73636138 0.14466633 0.06256204
0.76820911 0.14466633 0.06256204
0.80030912 0.14466633 0.06256172
0.83265541 0.14466633 0.06256208
0.86524234 0.14466633 0.06256172
0.89806460 0.14466633 0.06256172
0.06256180 0.16808201 0.06256172
0.06256180 0.16808201 0.06256172
0.06256180 0.16808201 0.06256172
0.08038860 0.16808201 0.06256172
0.10056658 0.16808201 0.06256172
0.12210140 0.16808201 0.06256172
0.14466633 0.16808201 0.06256172
0.16808201 0.16808201 0.06256172
0.19223202 0.16808201 0.06256172
0.21703355 0.16808201 0.06256172
0.24242407 0.16808201 0.06256172
0.26835442 0.16808201 0.06256172
0.29478474 0.16808201 0.06256172
0.32168191 0.16808201 0.06256172
0.34901793 0.16808201 0.06256185
0.37676873 0.16808201 0.06256172
0.40491336 0.16808201 0.06256172
0.43343340 0.16808201 0.06256172
0.46231251 0.16808201 0.06256189
0.49153604 0.16808201 0.06256172
0.52109081 0.16808201 0.06256172
0.55096485 0.16808201 0.06256172
0.58114727 0.16808201 0.06256172
0.61162808 0.16808201 0.06256194
0.64239808 0.16808201 0.06256172
0.67344879 0.16808201 0.06256172
0.70477233 0.16808201 0.06256172
0.73636138 0.16808201 0.06256172
0.76820911 0.16808201 0.06256172
0.80030912 0.16808201 0.06256172
0.83265541 0.16808201 0.06256172
0.86524234 0.16808201 0.06256172
0.89806460 0.16808201 0.06256172
0.06256181 0.19223202 0.06256172
0.06256181 0.19223202 0.06256172
0.06256181 0.19223202 0.06256172
0.08038860 0.19223202 0.06256172
0.10056658 0.19223202 0.06256172
0.12210140 0.19223202 0.06256172
0.14466633 0.19223202 0.06256172
0.16808201 0.19223202 0.06256172
0.19223202 0.19223202 0.06256172
0.21703355 0.19223202 0.06256172
0.24242407 0.19223202 0.06256172
0.26835442 0.19223202 0.06256172
0.29478474 0.19223202 0.06256172
0.32168191 0.19223202 0.06256184
0.34901793 0.19223202 0.06256185
0.37676873 0.19223202 0.06256185
0.40491336 0.19223202 0.06256187
0.43343340 0.19223202 0.06256172
0.46231251 0.19223202 0.06256172
0.49153604 0.19223202 0.06256172
0.52109081 0.19223202 0.06256172
0.55096485 0.19223202 0.06256172
0.58114727 0.19223202 0.06256172
0.61162808 0.19223202 0.06256194
0.64239808 0.19223202 0.06256197
0.67344879 0.19223202 0.06256197
0.70477233 0.19223202 0.06256172
0.73636138 0.19223202 0.06256172
0.76820911 0.19223202 0.06256172
0.80030912 0.19223202 0.06256172
0.83265541 0.19223202 0.06256172
0.86524234 0.19223202 0.06256172
0.89806460 0.19223202 0.06256172
0.06256182 0.21703355 0.06256172
0.06256182 0.21703355 0.06256172
0.06256182 0.21703355 0.06256172
0.08038860 0.21703355 0.06256172
0.10056658 0.21703355 0.06256172
0.12210140 0.21703355 0.06256172
0.14466633 0.21703355 0.06256172
0.16808201 0.21703355 0.06256172
0.19223202 0.21703355 0.06256172
0.21703355 0.21703355 0.06256172
0.24242407 0.21703355 0.06256172
0.26835442 0.21703355 0.06256172
0.29478474 0.21703355 0.06256185
0.32168191 0.21703355 0.06256185
0.34901793 0.21703355 0.06256172
0.37676873 0.21703355 0.06256172
0.40491336 0.21703355 0.06256189
0.43343340 0.21703355 0.06256172
0.46231251 0.21703355 0.06256189
0.49153604 0.21703355 0.06256172
0.52109081 0.21703355 0.06256172
0.55096485 0.21703355 0.06256172
0.58114727 0.21703355 0.06256172
0.61162808 0.21703355 0.06256194
0.64239808 0.21703355 0.06256197
0.67344879 0.21703355 0.06256172
0.70477233 0.21703355 0.06256172
0.73636138 0.21703355 0.06256200
0.76820911 0.21703355 0.06256204
0.80030912 0.21703355 0.06256172
0.83265541 0.21703355 0.06256172
0.86524234 0.21703355 0.06256208
0.89806460 0.21703355 0.06256172
0.06256184 0.24242407 0.06256172
0.06256184 0.24242407 0.06256172
0.06256184 0.24242407 0.06256172
0.08038860 0.24242407 0.06256172
0.10056658 0.24242407 0.06256172
0.12210140 0.24242407 0.06256172
0.14466633 0.24242407 0.06256172
0.16808201 0.24242407 0.06256172
0.19223202 0.24242407 0.06256172
0.21703355 0.24242407 0.06256172
0.24242407 0.24242407 0.06256172
0.26835442 0.24242407 0.06256172
0.29478474 0.24242407 0.06256172
0.32168191 0.24242407 0.06256172
0.34901793 0.24242407 0.06256172
0.37676873 0.24242407 0.06256172
0.40491336 0.24242407 0.06256172
0.43343340 0.24242407 0.06256189
0.46231251 0.24242407 0.06256172
0.49153604 0.24242407 0.06256172
0.52109081 0.24242407 0.06256172
0.55096485 0.24242407 0.06256172
0.58114727 0.24242407 0.06256194
0.61162808 0.24242407 0.06256172
0.64239808 0.24242407 0.06256172
0.67344879 0.24242407 0.06256197
0.70477233 0.24242407 0.06256172
0.73636138 0.24242407 0.06256172
0.76820911 0.24242407 0.06256172
0.80030912 0.24242407 0.06256172
0.83265541 0.24242407 0.06256172
0.86524234 0.24242407 0.06256172
0.89806460 0.24242407 0.06256213
0.06256186 0.26835442 0.06256172
0.06256186 0.26835442 0.06256172
0.06256186 0.26835442 0.06256172
0.08038860 0.26835442 0.06256172
0.10056658 0.26835442 0.06256172
0.12210140 0.26835442 0.06256172
0.14466633 0.26835442 0.06256172
0.16808201 0.26835442 0.06256172
0.19223202 0.26835442 0.06256172
0.21703355 0.26835442 0.06256172
0.24242407 0.26835442 0.06256172
0.26835442 0.26835442 0.06256184
0.29478474 0.26835442 0.06256172
0.32168191 0.26835442 0.06256172
0.34901793 0.26835442 0.06256185
0.37676873 0.26835442 0.06256172
0.40491336 0.26835442 0.06256172
0.43343340 0.26835442 0.06256172
0.46231251 0.26835442 0.06256189
0.49153604 0.26835442 0.06256172
0.52109081 0.26835442 0.06256191
0.55096485 0.26835442 0.06256172
0.58114727 0.26835442 0.06256172
0.61162808 0.26835442 0.06256194
0.64239808 0.26835442 0.06256172
0.67344879 0.26835442 0.06256197
0.70477233 0.26835442 0.06256172
0.73636138 0.26835442 0.06256200
0.76820911 0.26835442 0.06256204
0.80030912 0.26835442 0.06256172
0.83265541 0.26835442 0.06256172
0.86524234 0.26835442 0.06256208
0.89806460 0.26835442 0.06256172
0.06256186 0.29478474 0.06256184
0.06256186 0.29478474 0.06256184
0.06256186 0.29478474 0.06256184
0.08038860 0.29478474 0.06256184
0.10056658 0.29478474 0.06256184
0.12210140 0.29478474 0.06256185
0.14466633 0.29478474 0.06256185
0.16808201 0.29478474 0.06256172
0.19223202 0.29478474 0.06256172
0.21703355 0.29478474 0.06256184
0.24242407 0.29478474 0.06256172
0.26835442 0.29478474 0.06256172
0.29478474 0.29478474 0.06256185
0.32168191 0.29478474 0.06256172
0.34901793 0.29478474 0.06256172
0.37676873 0.29478474 0.06256172
0.40491336 0.29478474 0.06256187
0.43343340 0.29478474 0.06256172
0.46231251 0.29478474 0.06256172
0.49153604 0.29478474 0.06256172
0.52109081 0.29478474 0.06256172
0.55096485 0.29478474 0.06256172
0.58114727 0.29478474 0.06256172
0.61162808 0.29478474 0.06256172
0.64239808 0.29478474 0.06256172
0.67344879 0.29478474 0.06256172
0.70477233 0.29478474 0.06256172
0.73636138 0.29478474 0.06256172
0.76820911 0.29478474 0.06256172
0.80030912 0.29478474 0.06256172
0.83265541 0.29478474 0.06256172
0.86524234 0.29478474 0.06256172
0.89806460 0.29478474 0.06256213
0.06256180 0.32168191 0.06256172
0.06256180 0.32168191 0.06256172
0.06256180 0.32168191 0.06256172
0.08038860 0.32168191 0.06256185
0.10056658 0.32168191 0.06256172
0.12210140 0.32168191 0.06256172
0.14466633 0.32168191 0.06256172
0.16808201 0.32168191 0.06256172
0.19223202 0.32168191 0.06256172
0.21703355 0.32168191 0.06256172
0.24242407 0.32168191 0.06256185
0.26835442 0.32168191 0.06256172
0.29478474 0.32168191 0.06256172
0.32168191 0.32168191 0.06256187
0.34901793 0.32168191 0.06256172
0.37676873 0.32168191 0.06256172
0.40491336 0.32168191 0.06256172
0.43343340 0.32168191 0.06256172
0.46231251 0.32168191 0.06256189
0.49153604 0.32168191 0.06256191
0.52109081 0.32168191 0.06256172
0.55096485 0.32168191 0.06256172
0.58114727 0.32168191 0.06256172
0.61162808 0.32168191 0.06256194
0.64239808 0.32168191 0.06256172
0.67344879 0.32168191 0.06256172
0.70477233 0.32168191 0.06256172
0.73636138 0.32168191 0.06256172
0.76820911 0.32168191 0.06256172
0.80030912 0.32168191 0.06256172
0.83265541 0.32168191 0.06256172
0.86524234 0.32168191 0.06256172
0.89806460 0.32168191 0.06256213
0.06256184 0.34901793 0.06256172
0.06256184 0.34901793 0.06256172
0.06256184 0.34901793 0.06256172
0.08038860 0.34901793 0.06256172
0.10056658 0.34901793 0.06256172
0.12210140 0.34901793 0.06256172
0.14466633 0.34901793 0.06256172
0.16808201 0.34901793 0.06256185
0.19223202 0.34901793 0.06256172
0.21703355 0.34901793 0.06256172
0.24242407 0.34901793 0.06256185
0.26835442 0.34901793 0.06256172
0.29478474 0.34901793 0.06256172
0.32168191 0.34901793 0.06256172
0.34901793 0.34901793 0.06256172
0.37676873 0.34901793 0.06256187
0.40491336 0.34901793 0.06256172
0.43343340 0.34901793 0.06256189
0.46231251 0.34901793 0.06256172
0.49153604 0.34901793 0.06256172
0.52109081 0.34901793 0.06256172
0.55096485 0.34901793 0.06256172
0.58114727 0.34901793 0.06256172
0.61162808 0.34901793 0.06256172
0.64239808 0.34901793 0.06256172
0.67344879 0.34901793 0.06256172
0.70477233 0.34901793 0.06256172
0.73636138 0.34901793 0.06256172
0.76820911 0.34901793 0.06256204
0.80030912 0.34901793 0.06256172
0.83265541 0.34901793 0.06256172
0.86524234 0.34901793 0.06256208
0.89806460 0.34901793 0.06256172
0.06256189 0.37676873 0.06256172
0.06256189 0.37676873 0.06256172
0.06256189 0.37676873 0.06256172
0.08038860 0.37676873 0.06256172
0.10056658 0.37676873 0.06256172
0.12210140 0.37676873 0.06256172
0.14466633 0.37676873 0.06256172
0.16808201 0.37676873 0.06256172
0.19223202 0.37676873 0.06256172
0.21703355 0.37676873 0.06256172
0.24242407 0.37676873 0.06256172
0.26835442 0.37676873 0.06256172
0.29478474 0.37676873 0.06256172
0.32168191 0.37676873 0.06256172
0.34901793 0.37676873 0.06256172
0.37676873 0.37676873 0.06256172
0.40491336 0.37676873 0.06256172
0.43343340 0.37676873 0.06256172
0.46231251 0.37676873 0.06256172
0.49153604 0.37676873 0.06256172
0.52109081 0.37676873 0.06256172
0.55096485 0.37676873 0.06256172
0.58114727 0.37676873 0.06256197
0.61162808 0.37676873 0.06256172
0.64239808 0.37676873 0.06256172
0.67344879 0.37676873 0.06256172
0.70477233 0.37676873 0.06256172
0.73636138 0.37676873 0.06256172
0.76820911 0.37676873 0.06256172
0.80030912 0.37676873 0.06256172
0.83265541 0.37676873 0.06256172
0.86524234 0.37676873 0.06256172
0.89806460 0.37676873 0.06256213
0.06256172 0.40491336 0.06256172
0.06256172 0.40491336 0.06256172
0.06256172 0.40491336 0.06256172
0.08038860 0.40491336 0.06256172
0.10056658 0.40491336 0.06256187
0.12210140 0.40491336 0.06256172
0.14466633 0.40491336 0.06256172
0.16808201 0.40491336 0.06256172
0.19223202 0.40491336 0.06256172
0.21703355 0.40491336 0.06256172
0.24242407 0.40491336 0.06256172
0.26835442 0.40491336 0.06256172
0.29478474 0.40491336 0.06256172
0.32168191 0.40491336 0.06256172
0.34901793 0.40491336 0.06256172
0.37676873 0.40491336 0.06256189
0.40491336 0.40491336 0.06256172
0.43343340 0.40491336 0.06256189
0.46231251 0.40491336 0.06256172
0.49153604 0.40491336 0.06256191
0.52109081 0.40491336 0.06256172
0.55096485 0.40491336 0.06256172
0.58114727 0.40491336 0.06256172
0.61162808 0.40491336 0.06256172
0.64239808 0.40491336 0.06256172
0.67344879 0.40491336 0.06256197
0.70477233 0.40491336 0.06256172
0.73636138 0.40491336 0.06256172
0.76820911 0.40491336 0.06256172
0.80030912 0.40491336 0.06256172
0.83265541 0.40491336 0.06256172
0.86524234 0.40491336 0.06256172
0.89806460 0.40491336 0.06256172
0.06256191 0.43343340 0.06256172
0.06256191 0.43343340 0.06256172
0.06256191 0.43343340 0.06256172
0.08038860 0.43343340 0.06256172
0.10056658 0.43343340 0.06256172
0.12210140 0.43343340 0.06256172
0.14466633 0.43343340 0.06256172
0.16808201 0.43343340 0.06256189
0.19223202 0.43343340 0.06256172
0.21703355 0.43343340 0.06256189
0.24242407 0.43343340 0.06256189
0.26835442 0.43343340 0.06256172
0.29478474 0.43343340 0.06256172
0.32168191 0.43343340 0.06256172
0.34901793 0.43343340 0.06256172
0.37676873 0.43343340 0.06256172
0.40491336 0.43343340 0.06256189
0.43343340 0.43343340 0.06256191
0.46231251 0.43343340 0.06256172
0.49153604 0.43343340 0.06256172
0.52109081 0.43343340 0.06256172
0.55096485 0.43343340 0.06256172
0.58114727 0.43343340 0.06256172
0.61162808 0.43343340 0.06256172
0.64239808 0.43343340 0.06256197
0.67344879 0.43343340 0.06256172
0.70477233 0.43343340 0.06256172
0.73636138 0.43343340 0.06256200
0.76820911 0.43343340 0.06256172
0.80030912 0.43343340 0.06256172
0.83265541 0.43343340 0.06256172
0.86524234 0.43343340 0.06256172
0.89806460 0.43343340 0.06256172
0.06256189 0.46231251 0.06256172
0.06256189 0.46231251 0.06256172
0.06256189 0.46231251 0.06256172
0.08038860 0.46231251 0.06256172
0.10056658 0.46231251 0.06256172
0.12210140 0.46231251 0.06256172
0.14466633 0.46231251 0.06256172
0.16808201 0.46231251 0.06256172
0.19223202 0.46231251 0.06256172
0.21703355 0.46231251 0.06256172
0.24242407 0.46231251 0.06256172
0.26835442 0.46231251 0.06256172
0.29478474 0.46231251 0.06256172
0.32168191 0.46231251 0.06256172
0.34901793 0.46231251 0.06256172
0.37676873 0.46231251 0.06256172
0.40491336 0.46231251 0.06256172
0.43343340 0.46231251 0.06256172
0.46231251 0.46231251 0.06256191
0.49153604 0.46231251 0.06256191
0.52109081 0.46231251 0.06256172
0.55096485 0.46231251 0.06256172
0.58114727 0.46231251 0.06256172
0.61162808 0.46231251 0.06256172
0.64239808 0.46231251 0.06256172
0.67344879 0.46231251 0.06256172
0.70477233 0.46231251 0.06256172
0.73636138 0.46231251 0.06256200
0.76820911 0.46231251 0.06256172
0.80030912 0.46231251 0.06256172
0.83265541 0.46231251 0.06256172
0.86524234 0.46231251 0.06256172
0.89806460 0.46231251 0.06256213
0.06256194 0.49153604 0.06256172
0.06256194 0.49153604 0.06256172
0.06256194 0.49153604 0.06256172
0.08038860 0.49153604 0.06256172
0.10056658 0.49153604 0.06256172
0.12210140 0.49153604 0.06256172
0.14466633 0.49153604 0.06256172
0.16808201 0.49153604 0.06256172
0.19223202 0.49153604 0.06256172
0.21703355 0.49153604 0.06256172
0.24242407 0.49153604 0.06256172
0.26835442 0.49153604 0.06256191
0.29478474 0.49153604 0.06256172
0.32168191 0.49153604 0.06256172
0.34901793 0.49153604 0.06256172
0.37676873 0.49153604 0.06256191
0.40491336 0.49153604 0.06256191
0.43343340 0.49153604 0.06256172
0.46231251 0.49153604 0.06256172
0.49153604 0.49153604 0.06256172
0.52109081 0.49153604 0.06256172
0.55096485 0.49153604 0.06256172
0.58114727 0.49153604 0.06256172
0.61162808 0.49153604 0.06256172
0.64239808 0.49153604 0.06256172
0.67344879 0.49153604 0.06256172
0.70477233 0.49153604 0.06256204
0.73636138 0.49153604 0.06256172
0.76820911 0.49153604 0.06256204
0.80030912 0.49153604 0.06256172
0.83265541 0.49153604 0.06256172
0.86524234 0.49153604 0.06256208
0.89806460 0.49153604 0.06256172
0.06256196 0.52109081 0.06256172
0.06256196 0.52109081 0.06256172
0.06256196 0.52109081 0.06256172
0.08038860 0.52109081 0.06256172
0.10056658 0.52109081 0.06256172
0.12210140 0.52109081 0.06256172
0.14466633 0.52109081 0.06256172
0.16808201 0.52109081 0.06256172
0.19223202 0.52109081 0.06256191
0.21703355 0.52109081 0.06256172
0.24242407 0.52109081 0.06256191
0.26835442 0.52109081 0.06256172
0.29478474 0.52109081 0.06256172
0.32168191 0.52109081 0.06256172
0.34901793 0.52109081 0.06256172
0.37676873 0.52109081 0.06256172
0.40491336 0.52109081 0.06256172
0.43343340 0.52109081 0.06256172
0.46231251 0.52109081 0.06256172
0.49153604 0.52109081 0.06256172
0.52109081 0.52109081 0.06256172
0.55096485 0.52109081 0.06256172
0.58114727 0.52109081 0.06256197
0.61162808 0.52109081 0.06256197
0.64239808 0.52109081 0.06256172
0.67344879 0.52109081 0.06256172
0.70477233 0.52109081 0.06256172
0.73636138 0.52109081 0.06256172
0.76820911 0.52109081 0.06256172
0.80030912 0.52109081 0.06256172
0.83265541 0.52109081 0.06256208
0.86524234 0.52109081 0.06256208
0.89806460 0.52109081 0.06256172
0.06256193 0.55096485 0.06256172
0.06256193 0.55096485 0.06256172
0.06256193 0.55096485 0.06256172
0.08038860 0.55096485 0.06256172
0.10056658 0.55096485 0.06256172
0.12210140 0.55096485 0.06256172
0.14466633 0.55096485 0.06256172
0.16808201 0.55096485 0.06256172
0.19223202 0.55096485 0.06256172
0.21703355 0.55096485 0.06256172
0.24242407 0.55096485 0.06256172
0.26835442 0.55096485 0.06256172
0.29478474 0.55096485 0.06256172
0.32168191 0.55096485 0.06256172
0.34901793 0.55096485 0.06256172
0.37676873 0.55096485 0.06256172
0.40491336 0.55096485 0.06256172
0.43343340 0.55096485 0.06256194
0.46231251 0.55096485 0.06256172
0.49153604 0.55096485 0.06256172
0.52109081 0.55096485 0.06256194
0.55096485 0.55096485 0.06256172
0.58114727 0.55096485 0.06256172
0.61162808 0.55096485 0.06256172
0.64239808 0.55096485 0.06256172
0.67344879 0.55096485 0.06256172
0.70477233 0.55096485 0.06256172
