src/ffmpeg_scripts/luts/luminance_-4p00.cube
TITLE "luminance_-4p00"
LUT_3D_SIZE 9
# PQ (EOTF Only)/Rec2020 -> PQ (EOTF Only)/Rec2020, CineEI Shift -4.00, Black Level 0.00% IRE, Input 109% -> Output 109% - Created with LUTCalc v4.01 by Ben Turley October 2020
0.06256172 0.06256172 0.06256172
0.08012003 0.06256175 0.06256172
0.13409177 0.06256172 0.06256172
0.20515952 0.06256172 0.06256172
0.29029128 0.06256184 0.06256184
0.38800817 0.06256172 0.06256172
0.49739275 0.06256172 0.06256172
0.61780803 0.06256191 0.06256172
0.74878104 0.06256198 0.06256172
0.06256177 0.08012003 0.06256172
0.08012003 0.08012003 0.06256172
0.13409177 0.08012003 0.06256172
0.20515952 0.08012003 0.06256172
0.29029128 0.08012003 0.06256172
0.38800817 0.08012003 0.06256172
0.49739275 0.08012003 0.06256172
0.61780803 0.08012003 0.06256197
0.74878104 0.08012003 0.06256172
0.06256172 0.13409177 0.06256172
0.08012003 0.13409177 0.06256172
0.13409177 0.13409177 0.06256172
0.20515952 0.13409177 0.06256172
0.29029128 0.13409177 0.06256172
0.38800817 0.13409177 0.06256172
0.49739275 0.13409177 0.06256172
0.61780803 0.13409177 0.06256172
0.74878104 0.13409177 0.06256172
0.06256182 0.20515952 0.06256181
0.08012003 0.20515952 0.06256172
0.13409177 0.20515952 0.06256172
0.20515952 0.20515952 0.06256182
0.29029128 0.20515952 0.06256172
0.38800817 0.20515952 0.06256172
0.49739275 0.20515952 0.06256172
0.61780803 0.20515952 0.06256172
0.74878104 0.20515952 0.06256172
0.06256183 0.29029128 0.06256172
0.08012003 0.29029128 0.06256172
0.13409177 0.29029128 0.06256172
0.20515952 0.29029128 0.06256172
0.29029128 0.29029128 0.06256172
0.38800817 0.29029128 0.06256172
0.49739275 0.29029128 0.06256172
0.61780803 0.29029128 0.06256172
0.74878104 0.29029128 0.06256172
0.06256189 0.38800817 0.06256172
0.08012003 0.38800817 0.06256172
0.13409177 0.38800817 0.06256172
0.20515952 0.38800817 0.06256172
0.29029128 0.38800817 0.06256172
0.38800817 0.38800817 0.06256172
0.49739275 0.38800817 0.06256172
0.61780803 0.38800817 0.06256172
0.74878104 0.38800817 0.06256172
0.06256192 0.49739275 0.06256172
0.08012003 0.49739275 0.06256172
0.13409177 0.49739275 0.06256172
0.20515952 0.49739275 0.06256172
0.29029128 0.49739275 0.06256172
0.38800817 0.49739275 0.06256191
0.49739275 0.49739275 0.06256172
0.61780803 0.49739275 0.06256172
0.74878104 0.49739275 0.06256204
0.06256200 0.61780803 0.06256172
0.08012003 0.61780803 0.06256172
0.13409177 0.61780803 0.06256172
0.20515952 0.61780803 0.06256172
0.29029128 0.61780803 0.06256172
0.38800817 0.61780803 0.06256172
0.49739275 0.61780803 0.06256172
0.61780803 0.61780803 0.06256172
0.74878104 0.61780803 0.06256172
0.06256208 0.74878104 0.06256172
0.08012003 0.74878104 0.06256204
0.13409177 0.74878104 0.06256204
0.20515952 0.74878104 0.06256172
0.29029128 0.74878104 0.06256172
0.38800817 0.74878104 0.06256172
0.49739275 0.74878104 0.06256172
0.61780803 0.74878104 0.06256204
0.74878104 0.74878104 0.06256172
0.06256172 0.06256177 0.08012003
0.08012003 0.06256177 0.08012003
0.13409177 0.06256172 0.08012003
0.20515952 0.06256172 0.08012003
0.29029128 0.06256172 0.08012003
0.38800817 0.06256172 0.08012003
0.49739275 0.06256189 0.08012003
0.61780803 0.06256195 0.08012003
0.74878104 0.06256172 0.08012003
0.06256177 0.08012003 0.08012003
0.08012003 0.08012003 0.08012003
0.13409177 0.08012003 0.08012003
0.20515952 0.08012003 0.08012003
0.29029128 0.08012003 0.08012003
0.38800817 0.08012003 0.08012003
0.49739275 0.08012003 0.08012003
0.61780803 0.08012003 0.08012003
0.74878104 0.08012003 0.08012003
0.06256179 0.13409177 0.08012003
0.08012003 0.13409177 0.08012003
0.13409177 0.13409177 0.08012003
0.20515952 0.13409177 0.08012003
0.29029128 0.13409177 0.08012003
0.38800817 0.13409177 0.08012003
0.49739275 0.13409177 0.08012003
0.61780803 0.13409177 0.08012003
0.74878104 0.13409177 0.08012003
0.06256182 0.20515952 0.08012003
0.08012003 0.20515952 0.08012003
0.13409177 0.20515952 0.08012003
0.20515952 0.20515952 0.08012003
0.29029128 0.20515952 0.08012003
0.38800817 0.20515952 0.08012003
0.49739275 0.20515952 0.08012003
0.61780803 0.20515952 0.08012003
0.74878104 0.20515952 0.08012003
0.06256181 0.29029128 0.08012003
0.08012003 0.29029128 0.08012003
0.13409177 0.29029128 0.08012003
0.20515952 0.29029128 0.08012003
0.29029128 0.29029128 0.08012003
0.38800817 0.29029128 0.08012003
0.49739275 0.29029128 0.08012003
0.61780803 0.29029128 0.08012003
0.74878104 0.29029128 0.08012003
0.06256188 0.38800817 0.08012003
0.08012003 0.38800817 0.08012003
0.13409177 0.38800817 0.08012003
0.20515952 0.38800817 0.08012003
0.29029128 0.38800817 0.08012003
0.38800817 0.38800817 0.08012003
0.49739275 0.38800817 0.08012003
0.61780803 0.38800817 0.08012003
0.74878104 0.38800817 0.08012003
0.06256193 0.49739275 0.08012003
0.08012003 0.49739275 0.08012003
0.13409177 0.49739275 0.08012003
0.20515952 0.49739275 0.08012003
0.29029128 0.49739275 0.08012003
0.38800817 0.49739275 0.08012003
0.49739275 0.49739275 0.08012003
0.61780803 0.49739275 0.08012003
0.74878104 0.49739275 0.08012003
0.06256195 0.61780803 0.08012003
0.08012003 0.61780803 0.08012003
0.13409177 0.61780803 0.08012003
0.20515952 0.61780803 0.08012003
0.29029128 0.61780803 0.08012003
0.38800817 0.61780803 0.08012003
0.49739275 0.61780803 0.08012003
0.61780803 0.61780803 0.08012003
0.74878104 0.61780803 0.08012003
0.06256207 0.74878104 0.08012003
0.08012003 0.74878104 0.08012003
0.13409177 0.74878104 0.08012003
0.20515952 0.74878104 0.08012003
0.29029128 0.74878104 0.08012003
0.38800817 0.74878104 0.08012003
0.49739275 0.74878104 0.08012003
0.61780803 0.74878104 0.08012003
0.74878104 0.74878104 0.08012003
0.06256172 0.06256180 0.13409177
0.08012003 0.06256180 0.13409177
0.13409177 0.06256180 0.13409177
0.20515952 0.06256172 0.13409177
0.29029128 0.06256182 0.13409177
0.38800817 0.06256187 0.13409177
0.49739275 0.06256189 0.13409177
0.61780803 0.06256196 0.13409177
0.74878104 0.06256197 0.13409177
0.06256172 0.08012003 0.13409177
0.08012003 0.08012003 0.13409177
0.13409177 0.08012003 0.13409177
0.20515952 0.08012003 0.13409177
0.29029128 0.08012003 0.13409177
0.38800817 0.08012003 0.13409177
0.49739275 0.08012003 0.13409177
0.61780803 0.08012003 0.13409177
0.74878104 0.08012003 0.13409177
0.06256172 0.13409177 0.13409177
0.08012003 0.13409177 0.13409177
0.13409177 0.13409177 0.13409177
0.20515952 0.13409177 0.13409177
0.29029128 0.13409177 0.13409177
0.38800817 0.13409177 0.13409177
0.49739275 0.13409177 0.13409177
0.61780803 0.13409177 0.13409177
0.74878104 0.13409177 0.13409177
0.06256182 0.20515952 0.13409177
0.08012003 0.20515952 0.13409177
0.13409177 0.20515952 0.13409177
0.20515952 0.20515952 0.13409177
0.29029128 0.20515952 0.13409177
0.38800817 0.20515952 0.13409177
0.49739275 0.20515952 0.13409177
0.61780803 0.20515952 0.13409177
0.74878104 0.20515952 0.13409177
0.06256184 0.29029128 0.13409177
0.08012003 0.29029128 0.13409177
0.13409177 0.29029128 0.13409177
0.20515952 0.29029128 0.13409177
0.29029128 0.29029128 0.13409177
0.38800817 0.29029128 0.13409177
0.49739275 0.29029128 0.13409177
0.61780803 0.29029128 0.13409177
0.74878104 0.29029128 0.13409177
0.06256190 0.38800817 0.13409177
0.08012003 0.38800817 0.13409177
0.13409177 0.38800817 0.13409177
0.20515952 0.38800817 0.13409177
0.29029128 0.38800817 0.13409177
0.38800817 0.38800817 0.13409177
0.49739275 0.38800817 0.13409177
0.61780803 0.38800817 0.13409177
0.74878104 0.38800817 0.13409177
0.06256193 0.49739275 0.13409177
0.08012003 0.49739275 0.13409177
0.13409177 0.49739275 0.13409177
0.20515952 0.49739275 0.13409177
0.29029128 0.49739275 0.13409177
0.38800817 0.49739275 0.13409177
0.49739275 0.49739275 0.13409177
0.61780803 0.49739275 0.13409177
0.74878104 0.49739275 0.13409177
0.06256201 0.61780803 0.13409177
0.08012003 0.61780803 0.13409177
0.13409177 0.61780803 0.13409177
0.20515952 0.61780803 0.13409177
0.29029128 0.61780803 0.13409177
0.38800817 0.61780803 0.13409177
0.49739275 0.61780803 0.13409177
0.61780803 0.61780803 0.13409177
0.74878104 0.61780803 0.13409177
0.06256207 0.74878104 0.13409177
0.08012003 0.74878104 0.13409177
0.13409177 0.74878104 0.13409177
0.20515952 0.74878104 0.13409177
0.29029128 0.74878104 0.13409177
0.38800817 0.74878104 0.13409177
0.49739275 0.74878104 0.13409177
0.61780803 0.74878104 0.13409177
0.74878104 0.74878104 0.13409177
0.06256172 0.06256184 0.20515952
0.08012003 0.06256184 0.20515952
0.13409177 0.06256172 0.20515952
0.20515952 0.06256185 0.20515952
0.29029128 0.06256184 0.20515952
0.38800817 0.06256187 0.20515952
0.49739275 0.06256189 0.20515952
0.61780803 0.06256172 0.20515952
0.74878104 0.06256204 0.20515952
0.06256172 0.08012003 0.20515952
0.08012003 0.08012003 0.20515952
0.13409177 0.08012003 0.20515952
0.20515952 0.08012003 0.20515952
0.29029128 0.08012003 0.20515952
0.38800817 0.08012003 0.20515952
0.49739275 0.08012003 0.20515952
0.61780803 0.08012003 0.20515952
0.74878104 0.08012003 0.20515952
0.06256172 0.13409177 0.20515952
0.08012003 0.13409177 0.20515952
0.13409177 0.13409177 0.20515952
0.20515952 0.13409177 0.20515952
0.29029128 0.13409177 0.20515952
0.38800817 0.13409177 0.20515952
0.49739275 0.13409177 0.20515952
0.61780803 0.13409177 0.20515952
0.74878104 0.13409177 0.20515952
0.06256172 0.20515952 0.20515952
0.08012003 0.20515952 0.20515952
0.13409177 0.20515952 0.20515952
0.20515952 0.20515952 0.20515952
0.29029128 0.20515952 0.20515952
0.38800817 0.20515952 0.20515952
0.49739275 0.20515952 0.20515952
0.61780803 0.20515952 0.20515952
0.74878104 0.20515952 0.20515952
0.06256172 0.29029128 0.20515952
0.08012003 0.29029128 0.20515952
0.13409177 0.29029128 0.20515952
0.20515952 0.29029128 0.20515952
0.29029128 0.29029128 0.20515952
0.38800817 0.29029128 0.20515952
0.49739275 0.29029128 0.20515952
0.61780803 0.29029128 0.20515952
0.74878104 0.29029128 0.20515952
0.06256187 0.38800817 0.20515952
0.08012003 0.38800817 0.20515952
0.13409177 0.38800817 0.20515952
0.20515952 0.38800817 0.20515952
0.29029128 0.38800817 0.20515952
0.38800817 0.38800817 0.20515952
0.49739275 0.38800817 0.20515952
0.61780803 0.38800817 0.20515952
0.74878104 0.38800817 0.20515952
0.06256193 0.49739275 0.20515952
0.08012003 0.49739275 0.20515952
0.13409177 0.49739275 0.20515952
0.20515952 0.49739275 0.20515952
0.29029128 0.49739275 0.20515952
0.38800817 0.49739275 0.20515952
0.49739275 0.49739275 0.20515952
0.61780803 0.49739275 0.20515952
0.74878104 0.49739275 0.20515952
0.06256197 0.61780803 0.20515952
0.08012003 0.61780803 0.20515952
0.13409177 0.61780803 0.20515952
0.20515952 0.61780803 0.20515952
0.29029128 0.61780803 0.20515952
0.38800817 0.61780803 0.20515952
0.49739275 0.61780803 0.20515952
0.61780803 0.61780803 0.20515952
0.74878104 0.61780803 0.20515952
0.06256207 0.74878104 0.20515952
0.08012003 0.74878104 0.20515952
0.13409177 0.74878104 0.20515952
0.20515952 0.74878104 0.20515952
0.29029128 0.74878104 0.20515952
0.38800817 0.74878104 0.20515952
0.49739275 0.74878104 0.20515952
0.61780803 0.74878104 0.20515952
0.74878104 0.74878104 0.20515952
0.06256172 0.06256187 0.29029128
0.08012003 0.06256189 0.29029128
0.13409177 0.06256187 0.29029128
0.20515952 0.06256172 0.29029128
0.29029128 0.06256187 0.29029128
0.38800817 0.06256172 0.29029128
0.49739275 0.06256191 0.29029128
0.61780803 0.06256197 0.29029128
0.74878104 0.06256209 0.29029128
0.06256185 0.08012003 0.29029128
0.08012003 0.08012003 0.29029128
0.13409177 0.08012003 0.29029128
0.20515952 0.08012003 0.29029128
0.29029128 0.08012003 0.29029128
0.38800817 0.08012003 0.29029128
0.49739275 0.08012003 0.29029128
0.61780803 0.08012003 0.29029128
0.74878104 0.08012003 0.29029128
0.06256172 0.13409177 0.29029128
0.08012003 0.13409177 0.29029128
0.13409177 0.13409177 0.29029128
0.20515952 0.13409177 0.29029128
0.29029128 0.13409177 0.29029128
0.38800817 0.13409177 0.29029128
0.49739275 0.13409177 0.29029128
0.61780803 0.13409177 0.29029128
0.74878104 0.13409177 0.29029128
0.06256172 0.20515952 0.29029128
0.08012003 0.20515952 0.29029128
0.13409177 0.20515952 0.29029128
0.20515952 0.20515952 0.29029128
0.29029128 0.20515952 0.29029128
0.38800817 0.20515952 0.29029128
0.49739275 0.20515952 0.29029128
0.61780803 0.20515952 0.29029128
0.74878104 0.20515952 0.29029128
0.06256172 0.29029128 0.29029128
0.08012003 0.29029128 0.29029128
0.13409177 0.29029128 0.29029128
0.20515952 0.29029128 0.29029128
0.29029128 0.29029128 0.29029128
0.38800817 0.29029128 0.29029128
0.49739275 0.29029128 0.29029128
0.61780803 0.29029128 0.29029128
0.74878104 0.29029128 0.29029128
0.06256187 0.38800817 0.29029128
0.08012003 0.38800817 0.29029128
0.13409177 0.38800817 0.29029128
0.20515952 0.38800817 0.29029128
0.29029128 0.38800817 0.29029128
0.38800817 0.38800817 0.29029128
0.49739275 0.38800817 0.29029128
0.61780803 0.38800817 0.29029128
0.74878104 0.38800817 0.29029128
0.06256196 0.49739275 0.29029128
0.08012003 0.49739275 0.29029128
0.13409177 0.49739275 0.29029128
0.20515952 0.49739275 0.29029128
0.29029128 0.49739275 0.29029128
0.38800817 0.49739275 0.29029128
0.49739275 0.49739275 0.29029128
0.61780803 0.49739275 0.29029128
0.74878104 0.49739275 0.29029128
0.06256198 0.61780803 0.29029128
0.08012003 0.61780803 0.29029128
0.13409177 0.61780803 0.29029128
0.20515952 0.61780803 0.29029128
0.29029128 0.61780803 0.29029128
0.38800817 0.61780803 0.29029128
0.49739275 0.61780803 0.29029128
0.61780803 0.61780803 0.29029128
0.74878104 0.61780803 0.29029128
0.06256172 0.74878104 0.29029128
0.08012003 0.74878104 0.29029128
0.13409177 0.74878104 0.29029128
0.20515952 0.74878104 0.29029128
0.29029128 0.74878104 0.29029128
0.38800817 0.74878104 0.29029128
0.49739275 0.74878104 0.29029128
0.61780803 0.74878104 0.29029128
0.74878104 0.74878104 0.29029128
0.06256172 0.06256194 0.38800817
0.08012003 0.06256194 0.38800817
0.13409177 0.06256194 0.38800817
0.20515952 0.06256191 0.38800817
0.29029128 0.06256195 0.38800817
0.38800817 0.06256191 0.38800817
0.49739275 0.06256191 0.38800817
0.61780803 0.06256197 0.38800817
0.74878104 0.06256172 0.38800817
0.06256172 0.08012003 0.38800817
0.08012003 0.08012003 0.38800817
0.13409177 0.08012003 0.38800817
0.20515952 0.08012003 0.38800817
0.29029128 0.08012003 0.38800817
0.38800817 0.08012003 0.38800817
0.49739275 0.08012003 0.38800817
0.61780803 0.08012003 0.38800817
0.74878104 0.08012003 0.38800817
0.06256189 0.13409177 0.38800817
0.08012003 0.13409177 0.38800817
0.13409177 0.13409177 0.38800817
0.20515952 0.13409177 0.38800817
0.29029128 0.13409177 0.38800817
0.38800817 0.13409177 0.38800817
0.49739275 0.13409177 0.38800817
0.61780803 0.13409177 0.38800817
0.74878104 0.13409177 0.38800817
0.06256172 0.20515952 0.38800817
0.08012003 0.20515952 0.38800817
0.13409177 0.20515952 0.38800817
0.20515952 0.20515952 0.38800817
0.29029128 0.20515952 0.38800817
0.38800817 0.20515952 0.38800817
0.49739275 0.20515952 0.38800817
0.61780803 0.20515952 0.38800817
0.74878104 0.20515952 0.38800817
0.06256172 0.29029128 0.38800817
0.08012003 0.29029128 0.38800817
0.13409177 0.29029128 0.38800817
0.20515952 0.29029128 0.38800817
0.29029128 0.29029128 0.38800817
0.38800817 0.29029128 0.38800817
0.49739275 0.29029128 0.38800817
0.61780803 0.29029128 0.38800817
0.74878104 0.29029128 0.38800817
0.06256189 0.38800817 0.38800817
0.08012003 0.38800817 0.38800817
0.13409177 0.38800817 0.38800817
0.20515952 0.38800817 0.38800817
0.29029128 0.38800817 0.38800817
0.38800817 0.38800817 0.38800817
0.49739275 0.38800817 0.38800817
0.61780803 0.38800817 0.38800817
0.74878104 0.38800817 0.38800817
0.06256193 0.49739275 0.38800817
0.08012003 0.49739275 0.38800817
0.13409177 0.49739275 0.38800817
0.20515952 0.49739275 0.38800817
0.29029128 0.49739275 0.38800817
0.38800817 0.49739275 0.38800817
0.49739275 0.49739275 0.38800817
0.61780803 0.49739275 0.38800817
0.74878104 0.49739275 0.38800817
0.06256197 0.61780803 0.38800817
0.08012003 0.61780803 0.38800817
0.13409177 0.61780803 0.38800817
0.20515952 0.61780803 0.38800817
0.29029128 0.61780803 0.38800817
0.38800817 0.61780803 0.38800817
0.49739275 0.61780803 0.38800817
0.61780803 0.61780803 0.38800817
0.74878104 0.61780803 0.38800817
0.06256209 0.74878104 0.38800817
0.08012003 0.74878104 0.38800817
0.13409177 0.74878104 0.38800817
0.20515952 0.74878104 0.38800817
0.29029128 0.74878104 0.38800817
0.38800817 0.74878104 0.38800817
0.49739275 0.74878104 0.38800817
0.61780803 0.74878104 0.38800817
0.74878104 0.74878104 0.38800817
0.06256172 0.06256197 0.49739275
0.08012003 0.06256197 0.49739275
0.13409177 0.06256197 0.49739275
0.20515952 0.06256197 0.49739275
0.29029128 0.06256197 0.49739275
0.38800817 0.06256197 0.49739275
0.49739275 0.06256197 0.49739275
0.61780803 0.06256172 0.49739275
0.74878104 0.06256172 0.49739275
0.06256172 0.08012003 0.49739275
0.08012003 0.08012003 0.49739275
0.13409177 0.08012003 0.49739275
0.20515952 0.08012003 0.49739275
0.29029128 0.08012003 0.49739275
0.38800817 0.08012003 0.49739275
0.49739275 0.08012003 0.49739275
0.61780803 0.08012003 0.49739275
0.74878104 0.08012003 0.49739275
0.06256172 0.13409177 0.49739275
0.08012003 0.13409177 0.49739275
0.13409177 0.13409177 0.49739275
0.20515952 0.13409177 0.49739275
0.29029128 0.13409177 0.49739275
0.38800817 0.13409177 0.49739275
0.49739275 0.13409177 0.49739275
0.61780803 0.13409177 0.49739275
0.74878104 0.13409177 0.49739275
0.06256172 0.20515952 0.49739275
0.08012003 0.20515952 0.49739275
0.13409177 0.20515952 0.49739275
0.20515952 0.20515952 0.49739275
0.29029128 0.20515952 0.49739275
0.38800817 0.20515952 0.49739275
0.49739275 0.20515952 0.49739275
0.61780803 0.20515952 0.49739275
0.74878104 0.20515952 0.49739275
0.06256172 0.29029128 0.49739275
0.08012003 0.29029128 0.49739275
0.13409177 0.29029128 0.49739275
0.20515952 0.29029128 0.49739275
0.29029128 0.29029128 0.49739275
0.38800817 0.29029128 0.49739275
0.49739275 0.29029128 0.49739275
0.61780803 0.29029128 0.49739275
0.74878104 0.29029128 0.49739275
0.06256172 0.38800817 0.49739275
0.08012003 0.38800817 0.49739275
0.13409177 0.38800817 0.49739275
0.20515952 0.38800817 0.49739275
0.29029128 0.38800817 0.49739275
0.38800817 0.38800817 0.49739275
0.49739275 0.38800817 0.49739275
0.61780803 0.38800817 0.49739275
0.74878104 0.38800817 0.49739275
0.06256172 0.49739275 0.49739275
0.08012003 0.49739275 0.49739275
0.13409177 0.49739275 0.49739275
0.20515952 0.49739275 0.49739275
0.29029128 0.49739275 0.49739275
0.38800817 0.49739275 0.49739275
0.49739275 0.49739275 0.49739275
0.61780803 0.49739275 0.49739275
0.74878104 0.49739275 0.49739275
0.06256194 0.61780803 0.49739275
0.08012003 0.61780803 0.49739275
0.13409177 0.61780803 0.49739275
0.20515952 0.61780803 0.49739275
0.29029128 0.61780803 0.49739275
0.38800817 0.61780803 0.49739275
0.49739275 0.61780803 0.49739275
0.61780803 0.61780803 0.49739275
0.74878104 0.61780803 0.49739275
0.06256201 0.74878104 0.49739275
0.08012003 0.74878104 0.49739275
0.13409177 0.74878104 0.49739275
0.20515952 0.74878104 0.49739275
0.29029128 0.74878104 0.49739275
0.38800817 0.74878104 0.49739275
0.49739275 0.74878104 0.49739275
0.61780803 0.74878104 0.49739275
0.74878104 0.74878104 0.49739275
0.06256172 0.06256208 0.61780803
0.08012003 0.06256204 0.61780803
0.13409177 0.06256208 0.61780803
0.20515952 0.06256204 0.61780803
0.29029128 0.06256204 0.61780803
0.38800817 0.06256204 0.61780803
0.49739275 0.06256204 0.61780803
0.61780803 0.06256211 0.61780803
0.74878104 0.06256213 0.61780803
0.06256172 0.08012003 0.61780803
0.08012003 0.08012003 0.61780803
0.13409177 0.08012003 0.61780803
0.20515952 0.08012003 0.61780803
0.29029128 0.08012003 0.61780803
0.38800817 0.08012003 0.61780803
0.49739275 0.08012003 0.61780803
0.61780803 0.08012003 0.61780803
0.74878104 0.08012003 0.61780803
0.06256172 0.13409177 0.61780803
0.08012003 0.13409177 0.61780803
0.13409177 0.13409177 0.61780803
0.20515952 0.13409177 0.61780803
0.29029128 0.13409177 0.61780803
0.38800817 0.13409177 0.61780803
0.49739275 0.13409177 0.61780803
0.61780803 0.13409177 0.61780803
0.74878104 0.13409177 0.61780803
0.06256172 0.20515952 0.61780803
0.08012003 0.20515952 0.61780803
0.13409177 0.20515952 0.61780803
0.20515952 0.20515952 0.61780803
0.29029128 0.20515952 0.61780803
0.38800817 0.20515952 0.61780803
0.49739275 0.20515952 0.61780803
0.61780803 0.20515952 0.61780803
0.74878104 0.20515952 0.61780803
0.06256172 0.29029128 0.61780803
0.08012003 0.29029128 0.61780803
0.13409177 0.29029128 0.61780803
0.20515952 0.29029128 0.61780803
0.29029128 0.29029128 0.61780803
0.38800817 0.29029128 0.61780803
0.49739275 0.29029128 0.61780803
0.61780803 0.29029128 0.61780803
0.74878104 0.29029128 0.61780803
0.06256172 0.38800817 0.61780803
0.08012003 0.38800817 0.61780803
0.13409177 0.38800817 0.61780803
0.20515952 0.38800817 0.61780803
0.29029128 0.38800817 0.61780803
0.38800817 0.38800817 0.61780803
0.49739275 0.38800817 0.61780803
0.61780803 0.38800817 0.61780803
0.74878104 0.38800817 0.61780803
0.06256172 0.49739275 0.61780803
0.08012003 0.49739275 0.61780803
0.13409177 0.49739275 0.61780803
0.20515952 0.49739275 0.61780803
0.29029128 0.49739275 0.61780803
0.38800817 0.49739275 0.61780803
0.49739275 0.49739275 0.61780803
0.61780803 0.49739275 0.61780803
0.74878104 0.49739275 0.61780803
0.06256172 0.61780803 0.61780803
0.08012003 0.61780803 0.61780803
0.13409177 0.61780803 0.61780803
0.20515952 0.61780803 0.61780803
0.29029128 0.61780803 0.61780803
0.38800817 0.61780803 0.61780803
0.49739275 0.61780803 0.61780803
0.61780803 0.61780803 0.61780803
0.74878104 0.61780803 0.61780803
0.06256211 0.74878104 0.61780803
0.08012003 0.74878104 0.61780803
0.13409177 0.74878104 0.61780803
0.20515952 0.74878104 0.61780803
0.29029128 0.74878104 0.61780803
0.38800817 0.74878104 0.61780803
0.49739275 0.74878104 0.61780803
0.61780803 0.74878104 0.61780803
0.74878104 0.74878104 0.61780803
0.06256172 0.06256213 0.74878104
0.08012003 0.06256172 0.74878104
0.13409177 0.06256213 0.74878104
0.20515952 0.06256213 0.74878104
0.29029128 0.06256219 0.74878104
0.38800817 0.06256213 0.74878104
0.49739275 0.06256219 0.74878104
0.61780803 0.06256219 0.74878104
0.74878104 0.06256172 0.74878104
0.06256172 0.08012003 0.74878104
0.08012003 0.08012003 0.74878104
0.13409177 0.08012003 0.74878104
0.20515952 0.08012003 0.74878104
0.29029128 0.08012003 0.74878104
0.38800817 0.08012003 0.74878104
0.49739275 0.08012003 0.74878104
0.61780803 0.08012003 0.74878104
0.74878104 0.08012003 0.74878104
0.06256172 0.13409177 0.74878104
0.08012003 0.13409177 0.74878104
0.13409177 0.13409177 0.74878104
0.20515952 0.13409177 0.74878104
0.29029128 0.13409177 0.74878104
0.38800817 0.13409177 0.74878104
0.49739275 0.13409177 0.74878104
0.61780803 0.13409177 0.74878104
0.74878104 0.13409177 0.74878104
0.06256172 0.20515952 0.74878104
0.08012003 0.20515952 0.74878104
0.13409177 0.20515952 0.74878104
0.20515952 0.20515952 0.74878104
0.29029128 0.20515952 0.74878104
0.38800817 0.20515952 0.74878104
0.49739275 0.20515952 0.74878104
0.61780803 0.20515952 0.74878104
0.74878104 0.20515952 0.74878104
0.06256172 0.29029128 0.74878104
0.08012003 0.29029128 0.74878104
0.13409177 0.29029128 0.74878104
0.20515952 0.29029128 0.74878104
0.29029128 0.29029128 0.74878104
0.38800817 0.29029128 0.74878104
0.49739275 0.29029128 0.74878104
0.61780803 0.29029128 0.74878104
0.74878104 0.29029128 0.74878104
0.06256172 0.38800817 0.74878104
0.08012003 0.38800817 0.74878104
0.13409177 0.38800817 0.74878104
0.20515952 0.38800817 0.74878104
0.29029128 0.38800817 0.74878104
0.38800817 0.38800817 0.74878104
0.49739275 0.38800817 0.74878104
0.61780803 0.38800817 0.74878104
0.74878104 0.38800817 0.74878104
0.06256208 0.49739275 0.74878104
0.08012003 0.49739275 0.74878104
0.13409177 0.49739275 0.74878104
0.20515952 0.49739275 0.74878104
0.29029128 0.49739275 0.74878104
0.38800817 0.49739275 0.74878104
0.49739275 0.49739275 0.74878104
0.61780803 0.49739275 0.74878104
0.74878104 0.49739275 0.74878104
0.06256172 0.61780803 0.74878104
0.08012003 0.61780803 0.74878104
0.13409177 0.61780803 0.74878104
0.20515952 0.61780803 0.74878104
0.29029128 0.61780803 0.74878104
0.38800817 0.61780803 0.74878104
0.49739275 0.61780803 0.74878104
0.61780803 0.61780803 0.74878104
0.74878104 0.61780803 0.74878104
0.06256208 0.74878104 0.74878104
0.08012003 0.74878104 0.74878104
0.13409177 0.74878104 0.74878104
0.20515952 0.74878104 0.74878104
0.29029128 0.74878104 0.74878104
0.38800817 0.74878104 0.74878104
0.49739275 0.74878104 0.74878104
0.61780803 0.74878104 0.74878104
0.74878104 0.74878104 0.74878104
