src/ffmpeg_scripts/luts/luminance_4p00.cube
TITLE "luminance_4p00"
LUT_3D_SIZE 9
# PQ (EOTF Only)/Rec2020 -> PQ (EOTF Only)/Rec2020, CineEI Shift 4.00, Black Level 0.00% IRE, Input 109% -> Output 109% - Created with LUTCalc v4.01 by Ben Turley October 2020
0.06256172 0.06256172 0.06256172
0.23167916 0.06256172 0.06256172
0.44323389 0.06256188 0.06256172
0.60920373 0.06256172 0.06256194
0.75283115 0.06256206 0.06256204
0.88213130 0.06256200 0.06256172
0.91886608 0.06256172 0.06256172
0.91886608 0.06256172 0.06256172
0.91886608 0.06256285 0.06256272
0.06256185 0.23167916 0.06256172
0.23167916 0.23167916 0.06256172
0.44323389 0.23167916 0.06256172
0.60920373 0.23167916 0.06256194
0.75283115 0.23167916 0.06256172
0.88213130 0.23167916 0.06256172
0.91886608 0.23167916 0.06256172
0.91886608 0.23167916 0.06256172
0.91886608 0.23167916 0.06256272
0.06256172 0.44323389 0.06256172
0.23167916 0.44323389 0.06256189
0.44323389 0.44323389 0.06256172
0.60920373 0.44323389 0.06256172
0.75283115 0.44323389 0.06256172
0.88213130 0.44323389 0.06256172
0.91886608 0.44323389 0.06256227
0.91886608 0.44323389 0.06256172
0.91886608 0.44323389 0.06256172
0.06256198 0.60920373 0.06256172
0.23167916 0.60920373 0.06256172
0.44323389 0.60920373 0.06256172
0.60920373 0.60920373 0.06256172
0.75283115 0.60920373 0.06256172
0.88213130 0.60920373 0.06256213
0.91886608 0.60920373 0.06256172
0.91886608 0.60920373 0.06256245
0.91886608 0.60920373 0.06256172
0.06256199 0.75283115 0.06256172
0.23167916 0.75283115 0.06256172
0.44323389 0.75283115 0.06256172
0.60920373 0.75283115 0.06256172
0.75283115 0.75283115 0.06256172
0.88213130 0.75283115 0.06256172
0.91886608 0.75283115 0.06256172
0.91886608 0.75283115 0.06256172
0.91886608 0.75283115 0.06256172
0.06256172 0.88213130 0.06256172
0.23167916 0.88213130 0.06256172
0.44323389 0.88213130 0.06256172
0.60920373 0.88213130 0.06256172
0.75283115 0.88213130 0.06256213
0.88213130 0.88213130 0.06256219
0.91886608 0.88213130 0.06256172
0.91886608 0.88213130 0.06256172
0.91886608 0.88213130 0.06256172
0.06256228 0.91886608 0.06256172
0.23167916 0.91886608 0.06256172
0.44323389 0.91886608 0.06256172
0.60920373 0.91886608 0.06256172
0.75283115 0.91886608 0.06256172
0.88213130 0.91886608 0.06256227
0.91886608 0.91886608 0.06256172
0.91886608 0.91886608 0.06256172
0.91886608 0.91886608 0.06256272
0.06256254 0.91886608 0.06256172
0.23167916 0.91886608 0.06256172
0.44323389 0.91886608 0.06256172
0.60920373 0.91886608 0.06256172
0.75283115 0.91886608 0.06256172
0.88213130 0.91886608 0.06256172
0.91886608 0.91886608 0.06256172
0.91886608 0.91886608 0.06256172
0.91886608 0.91886608 0.06256272
0.06256285 0.91886608 0.06256172
0.23167916 0.91886608 0.06256272
0.44323389 0.91886608 0.06256172
0.60920373 0.91886608 0.06256172
0.75283115 0.91886608 0.06256172
0.88213130 0.91886608 0.06256172
0.91886608 0.91886608 0.06256172
0.91886608 0.91886608 0.06256272
0.91886608 0.91886608 0.06256172
0.06256172 0.06256185 0.23167916
0.23167916 0.06256187 0.23167916
0.44323389 0.06256189 0.23167916
0.60920373 0.06256191 0.23167916
0.75283115 0.06256172 0.23167916
0.88213130 0.06256200 0.23167916
0.91886608 0.06256225 0.23167916
0.91886608 0.06256172 0.23167916
0.91886608 0.06256274 0.23167916
0.06256172 0.23167916 0.23167916
0.23167916 0.23167916 0.23167916
0.44323389 0.23167916 0.23167916
0.60920373 0.23167916 0.23167916
0.75283115 0.23167916 0.23167916
0.88213130 0.23167916 0.23167916
0.91886608 0.23167916 0.23167916
0.91886608 0.23167916 0.23167916
0.91886608 0.23167916 0.23167916
0.06256188 0.44323389 0.23167916
0.23167916 0.44323389 0.23167916
0.44323389 0.44323389 0.23167916
0.60920373 0.44323389 0.23167916
0.75283115 0.44323389 0.23167916
0.88213130 0.44323389 0.23167916
0.91886608 0.44323389 0.23167916
0.91886608 0.44323389 0.23167916
0.91886608 0.44323389 0.23167916
0.06256198 0.60920373 0.23167916
0.23167916 0.60920373 0.23167916
0.44323389 0.60920373 0.23167916
0.60920373 0.60920373 0.23167916
0.75283115 0.60920373 0.23167916
0.88213130 0.60920373 0.23167916
0.91886608 0.60920373 0.23167916
0.91886608 0.60920373 0.23167916
0.91886608 0.60920373 0.23167916
0.06256172 0.75283115 0.23167916
0.23167916 0.75283115 0.23167916
0.44323389 0.75283115 0.23167916
0.60920373 0.75283115 0.23167916
0.75283115 0.75283115 0.23167916
0.88213130 0.75283115 0.23167916
0.91886608 0.75283115 0.23167916
0.91886608 0.75283115 0.23167916
0.91886608 0.75283115 0.23167916
0.06256215 0.88213130 0.23167916
0.23167916 0.88213130 0.23167916
0.44323389 0.88213130 0.23167916
0.60920373 0.88213130 0.23167916
0.75283115 0.88213130 0.23167916
0.88213130 0.88213130 0.23167916
0.91886608 0.88213130 0.23167916
0.91886608 0.88213130 0.23167916
0.91886608 0.88213130 0.23167916
0.06256231 0.91886608 0.23167916
0.23167916 0.91886608 0.23167916
0.44323389 0.91886608 0.23167916
0.60920373 0.91886608 0.23167916
0.75283115 0.91886608 0.23167916
0.88213130 0.91886608 0.23167916
0.91886608 0.91886608 0.23167916
0.91886608 0.91886608 0.23167916
0.91886608 0.91886608 0.23167916
0.06256260 0.91886608 0.23167916
0.23167916 0.91886608 0.23167916
0.44323389 0.91886608 0.23167916
0.60920373 0.91886608 0.23167916
0.75283115 0.91886608 0.23167916
0.88213130 0.91886608 0.23167916
0.91886608 0.91886608 0.23167916
0.91886608 0.91886608 0.23167916
0.91886608 0.91886608 0.23167916
0.06256172 0.91886608 0.23167916
0.23167916 0.91886608 0.23167916
0.44323389 0.91886608 0.23167916
0.60920373 0.91886608 0.23167916
0.75283115 0.91886608 0.23167916
0.88213130 0.91886608 0.23167916
0.91886608 0.91886608 0.23167916
0.91886608 0.91886608 0.23167916
0.91886608 0.91886608 0.23167916
0.06256172 0.06256172 0.44323389
0.23167916 0.06256194 0.44323389
0.44323389 0.06256194 0.44323389
0.60920373 0.06256197 0.44323389
0.75283115 0.06256197 0.44323389
0.88213130 0.06256215 0.44323389
0.91886608 0.06256225 0.44323389
0.91886608 0.06256227 0.44323389
0.91886608 0.06256261 0.44323389
0.06256172 0.23167916 0.44323389
0.23167916 0.23167916 0.44323389
0.44323389 0.23167916 0.44323389
0.60920373 0.23167916 0.44323389
0.75283115 0.23167916 0.44323389
0.88213130 0.23167916 0.44323389
0.91886608 0.23167916 0.44323389
0.91886608 0.23167916 0.44323389
0.91886608 0.23167916 0.44323389
0.06256191 0.44323389 0.44323389
0.23167916 0.44323389 0.44323389
0.44323389 0.44323389 0.44323389
0.60920373 0.44323389 0.44323389
0.75283115 0.44323389 0.44323389
0.88213130 0.44323389 0.44323389
0.91886608 0.44323389 0.44323389
0.91886608 0.44323389 0.44323389
0.91886608 0.44323389 0.44323389
0.06256195 0.60920373 0.44323389
0.23167916 0.60920373 0.44323389
0.44323389 0.60920373 0.44323389
0.60920373 0.60920373 0.44323389
0.75283115 0.60920373 0.44323389
0.88213130 0.60920373 0.44323389
0.91886608 0.60920373 0.44323389
0.91886608 0.60920373 0.44323389
0.91886608 0.60920373 0.44323389
0.06256203 0.75283115 0.44323389
0.23167916 0.75283115 0.44323389
0.44323389 0.75283115 0.44323389
0.60920373 0.75283115 0.44323389
0.75283115 0.75283115 0.44323389
0.88213130 0.75283115 0.44323389
0.91886608 0.75283115 0.44323389
0.91886608 0.75283115 0.44323389
0.91886608 0.75283115 0.44323389
0.06256221 0.88213130 0.44323389
0.23167916 0.88213130 0.44323389
0.44323389 0.88213130 0.44323389
0.60920373 0.88213130 0.44323389
0.75283115 0.88213130 0.44323389
0.88213130 0.88213130 0.44323389
0.91886608 0.88213130 0.44323389
0.91886608 0.88213130 0.44323389
0.91886608 0.88213130 0.44323389
0.06256229 0.91886608 0.44323389
0.23167916 0.91886608 0.44323389
0.44323389 0.91886608 0.44323389
0.60920373 0.91886608 0.44323389
0.75283115 0.91886608 0.44323389
0.88213130 0.91886608 0.44323389
0.91886608 0.91886608 0.44323389
0.91886608 0.91886608 0.44323389
0.91886608 0.91886608 0.44323389
0.06256259 0.91886608 0.44323389
0.23167916 0.91886608 0.44323389
0.44323389 0.91886608 0.44323389
0.60920373 0.91886608 0.44323389
0.75283115 0.91886608 0.44323389
0.88213130 0.91886608 0.44323389
0.91886608 0.91886608 0.44323389
0.91886608 0.91886608 0.44323389
0.91886608 0.91886608 0.44323389
0.06256280 0.91886608 0.44323389
0.23167916 0.91886608 0.44323389
0.44323389 0.91886608 0.44323389
0.60920373 0.91886608 0.44323389
0.75283115 0.91886608 0.44323389
0.88213130 0.91886608 0.44323389
0.91886608 0.91886608 0.44323389
0.91886608 0.91886608 0.44323389
0.91886608 0.91886608 0.44323389
0.06256172 0.06256172 0.60920373
0.23167916 0.06256204 0.60920373
0.44323389 0.06256172 0.60920373
0.60920373 0.06256204 0.60920373
0.75283115 0.06256204 0.60920373
0.88213130 0.06256208 0.60920373
0.91886608 0.06256219 0.60920373
0.91886608 0.06256172 0.60920373
0.91886608 0.06256281 0.60920373
0.06256172 0.23167916 0.60920373
0.23167916 0.23167916 0.60920373
0.44323389 0.23167916 0.60920373
0.60920373 0.23167916 0.60920373
0.75283115 0.23167916 0.60920373
0.88213130 0.23167916 0.60920373
0.91886608 0.23167916 0.60920373
0.91886608 0.23167916 0.60920373
0.91886608 0.23167916 0.60920373
0.06256172 0.44323389 0.60920373
0.23167916 0.44323389 0.60920373
0.44323389 0.44323389 0.60920373
0.60920373 0.44323389 0.60920373
0.75283115 0.44323389 0.60920373
0.88213130 0.44323389 0.60920373
0.91886608 0.44323389 0.60920373
0.91886608 0.44323389 0.60920373
0.91886608 0.44323389 0.60920373
0.06256200 0.60920373 0.60920373
0.23167916 0.60920373 0.60920373
0.44323389 0.60920373 0.60920373
0.60920373 0.60920373 0.60920373
0.75283115 0.60920373 0.60920373
0.88213130 0.60920373 0.60920373
0.91886608 0.60920373 0.60920373
0.91886608 0.60920373 0.60920373
0.91886608 0.60920373 0.60920373
0.06256200 0.75283115 0.60920373
0.23167916 0.75283115 0.60920373
0.44323389 0.75283115 0.60920373
0.60920373 0.75283115 0.60920373
0.75283115 0.75283115 0.60920373
0.88213130 0.75283115 0.60920373
0.91886608 0.75283115 0.60920373
0.91886608 0.75283115 0.60920373
0.91886608 0.75283115 0.60920373
0.06256206 0.88213130 0.60920373
0.23167916 0.88213130 0.60920373
0.44323389 0.88213130 0.60920373
0.60920373 0.88213130 0.60920373
0.75283115 0.88213130 0.60920373
0.88213130 0.88213130 0.60920373
0.91886608 0.88213130 0.60920373
0.91886608 0.88213130 0.60920373
0.91886608 0.88213130 0.60920373
0.06256242 0.91886608 0.60920373
0.23167916 0.91886608 0.60920373
0.44323389 0.91886608 0.60920373
0.60920373 0.91886608 0.60920373
0.75283115 0.91886608 0.60920373
0.88213130 0.91886608 0.60920373
0.91886608 0.91886608 0.60920373
0.91886608 0.91886608 0.60920373
0.91886608 0.91886608 0.60920373
0.06256264 0.91886608 0.60920373
0.23167916 0.91886608 0.60920373
0.44323389 0.91886608 0.60920373
0.60920373 0.91886608 0.60920373
0.75283115 0.91886608 0.60920373
0.88213130 0.91886608 0.60920373
0.91886608 0.91886608 0.60920373
0.91886608 0.91886608 0.60920373
0.91886608 0.91886608 0.60920373
0.06256172 0.91886608 0.60920373
0.23167916 0.91886608 0.60920373
0.44323389 0.91886608 0.60920373
0.60920373 0.91886608 0.60920373
0.75283115 0.91886608 0.60920373
0.88213130 0.91886608 0.60920373
0.91886608 0.91886608 0.60920373
0.91886608 0.91886608 0.60920373
0.91886608 0.91886608 0.60920373
0.06256172 0.06256213 0.75283115
0.23167916 0.06256219 0.75283115
0.44323389 0.06256172 0.75283115
0.60920373 0.06256172 0.75283115
0.75283115 0.06256213 0.75283115
0.88213130 0.06256172 0.75283115
0.91886608 0.06256219 0.75283115
0.91886608 0.06256245 0.75283115
0.91886608 0.06256296 0.75283115
0.06256172 0.23167916 0.75283115
0.23167916 0.23167916 0.75283115
0.44323389 0.23167916 0.75283115
0.60920373 0.23167916 0.75283115
0.75283115 0.23167916 0.75283115
0.88213130 0.23167916 0.75283115
0.91886608 0.23167916 0.75283115
0.91886608 0.23167916 0.75283115
0.91886608 0.23167916 0.75283115
0.06256172 0.44323389 0.75283115
0.23167916 0.44323389 0.75283115
0.44323389 0.44323389 0.75283115
0.60920373 0.44323389 0.75283115
0.75283115 0.44323389 0.75283115
0.88213130 0.44323389 0.75283115
0.91886608 0.44323389 0.75283115
0.91886608 0.44323389 0.75283115
0.91886608 0.44323389 0.75283115
0.06256208 0.60920373 0.75283115
0.23167916 0.60920373 0.75283115
0.44323389 0.60920373 0.75283115
0.60920373 0.60920373 0.75283115
0.75283115 0.60920373 0.75283115
0.88213130 0.60920373 0.75283115
0.91886608 0.60920373 0.75283115
0.91886608 0.60920373 0.75283115
0.91886608 0.60920373 0.75283115
0.06256172 0.75283115 0.75283115
0.23167916 0.75283115 0.75283115
0.44323389 0.75283115 0.75283115
0.60920373 0.75283115 0.75283115
0.75283115 0.75283115 0.75283115
0.88213130 0.75283115 0.75283115
0.91886608 0.75283115 0.75283115
0.91886608 0.75283115 0.75283115
0.91886608 0.75283115 0.75283115
0.06256172 0.88213130 0.75283115
0.23167916 0.88213130 0.75283115
0.44323389 0.88213130 0.75283115
0.60920373 0.88213130 0.75283115
0.75283115 0.88213130 0.75283115
0.88213130 0.88213130 0.75283115
0.91886608 0.88213130 0.75283115
0.91886608 0.88213130 0.75283115
0.91886608 0.88213130 0.75283115
0.06256238 0.91886608 0.75283115
0.23167916 0.91886608 0.75283115
0.44323389 0.91886608 0.75283115
0.60920373 0.91886608 0.75283115
0.75283115 0.91886608 0.75283115
0.88213130 0.91886608 0.75283115
0.91886608 0.91886608 0.75283115
0.91886608 0.91886608 0.75283115
0.91886608 0.91886608 0.75283115
0.06256265 0.91886608 0.75283115
0.23167916 0.91886608 0.75283115
0.44323389 0.91886608 0.75283115
0.60920373 0.91886608 0.75283115
0.75283115 0.91886608 0.75283115
0.88213130 0.91886608 0.75283115
0.91886608 0.91886608 0.75283115
0.91886608 0.91886608 0.75283115
0.91886608 0.91886608 0.75283115
0.06256172 0.91886608 0.75283115
0.23167916 0.91886608 0.75283115
0.44323389 0.91886608 0.75283115
0.60920373 0.91886608 0.75283115
0.75283115 0.91886608 0.75283115
0.88213130 0.91886608 0.75283115
0.91886608 0.91886608 0.75283115
0.91886608 0.91886608 0.75283115
0.91886608 0.91886608 0.75283115
0.06256172 0.06256235 0.88213130
0.23167916 0.06256235 0.88213130
0.44323389 0.06256235 0.88213130
0.60920373 0.06256227 0.88213130
0.75283115 0.06256241 0.88213130
0.88213130 0.06256235 0.88213130
0.91886608 0.06256227 0.88213130
0.91886608 0.06256172 0.88213130
0.91886608 0.06256172 0.88213130
0.06256172 0.23167916 0.88213130
0.23167916 0.23167916 0.88213130
0.44323389 0.23167916 0.88213130
0.60920373 0.23167916 0.88213130
0.75283115 0.23167916 0.88213130
0.88213130 0.23167916 0.88213130
0.91886608 0.23167916 0.88213130
0.91886608 0.23167916 0.88213130
0.91886608 0.23167916 0.88213130
0.06256172 0.44323389 0.88213130
0.23167916 0.44323389 0.88213130
0.44323389 0.44323389 0.88213130
0.60920373 0.44323389 0.88213130
0.75283115 0.44323389 0.88213130
0.88213130 0.44323389 0.88213130
0.91886608 0.44323389 0.88213130
0.91886608 0.44323389 0.88213130
0.91886608 0.44323389 0.88213130
0.06256172 0.60920373 0.88213130
0.23167916 0.60920373 0.88213130
0.44323389 0.60920373 0.88213130
0.60920373 0.60920373 0.88213130
0.75283115 0.60920373 0.88213130
0.88213130 0.60920373 0.88213130
0.91886608 0.60920373 0.88213130
0.91886608 0.60920373 0.88213130
0.91886608 0.60920373 0.88213130
0.06256172 0.75283115 0.88213130
0.23167916 0.75283115 0.88213130
0.44323389 0.75283115 0.88213130
0.60920373 0.75283115 0.88213130
0.75283115 0.75283115 0.88213130
0.88213130 0.75283115 0.88213130
0.91886608 0.75283115 0.88213130
0.91886608 0.75283115 0.88213130
0.91886608 0.75283115 0.88213130
0.06256219 0.88213130 0.88213130
0.23167916 0.88213130 0.88213130
0.44323389 0.88213130 0.88213130
0.60920373 0.88213130 0.88213130
0.75283115 0.88213130 0.88213130
0.88213130 0.88213130 0.88213130
0.91886608 0.88213130 0.88213130
0.91886608 0.88213130 0.88213130
0.91886608 0.88213130 0.88213130
0.06256231 0.91886608 0.88213130
0.23167916 0.91886608 0.88213130
0.44323389 0.91886608 0.88213130
0.60920373 0.91886608 0.88213130
0.75283115 0.91886608 0.88213130
0.88213130 0.91886608 0.88213130
0.91886608 0.91886608 0.88213130
0.91886608 0.91886608 0.88213130
0.91886608 0.91886608 0.88213130
0.06256259 0.91886608 0.88213130
0.23167916 0.91886608 0.88213130
0.44323389 0.91886608 0.88213130
0.60920373 0.91886608 0.88213130
0.75283115 0.91886608 0.88213130
0.88213130 0.91886608 0.88213130
0.91886608 0.91886608 0.88213130
0.91886608 0.91886608 0.88213130
0.91886608 0.91886608 0.88213130
0.06256311 0.91886608 0.88213130
0.23167916 0.91886608 0.88213130
0.44323389 0.91886608 0.88213130
0.60920373 0.91886608 0.88213130
0.75283115 0.91886608 0.88213130
0.88213130 0.91886608 0.88213130
0.91886608 0.91886608 0.88213130
0.91886608 0.91886608 0.88213130
0.91886608 0.91886608 0.88213130
0.06256172 0.06256245 0.91886608
0.23167916 0.06256245 0.91886608
0.44323389 0.06256245 0.91886608
0.60920373 0.06256245 0.91886608
0.75283115 0.06256245 0.91886608
0.88213130 0.06256172 0.91886608
0.91886608 0.06256245 0.91886608
0.91886608 0.06256172 0.91886608
0.91886608 0.06256172 0.91886608
0.06256172 0.23167916 0.91886608
0.23167916 0.23167916 0.91886608
0.44323389 0.23167916 0.91886608
0.60920373 0.23167916 0.91886608
0.75283115 0.23167916 0.91886608
0.88213130 0.23167916 0.91886608
0.91886608 0.23167916 0.91886608
0.91886608 0.23167916 0.91886608
0.91886608 0.23167916 0.91886608
0.06256172 0.44323389 0.91886608
0.23167916 0.44323389 0.91886608
0.44323389 0.44323389 0.91886608
0.60920373 0.44323389 0.91886608
0.75283115 0.44323389 0.91886608
0.88213130 0.44323389 0.91886608
0.91886608 0.44323389 0.91886608
0.91886608 0.44323389 0.91886608
0.91886608 0.44323389 0.91886608
0.06256172 0.60920373 0.91886608
0.23167916 0.60920373 0.91886608
0.44323389 0.60920373 0.91886608
0.60920373 0.60920373 0.91886608
0.75283115 0.60920373 0.91886608
0.88213130 0.60920373 0.91886608
0.91886608 0.60920373 0.91886608
0.91886608 0.60920373 0.91886608
0.91886608 0.60920373 0.91886608
0.06256172 0.75283115 0.91886608
0.23167916 0.75283115 0.91886608
0.44323389 0.75283115 0.91886608
0.60920373 0.75283115 0.91886608
0.75283115 0.75283115 0.91886608
0.88213130 0.75283115 0.91886608
0.91886608 0.75283115 0.91886608
0.91886608 0.75283115 0.91886608
0.91886608 0.75283115 0.91886608
0.06256172 0.88213130 0.91886608
0.23167916 0.88213130 0.91886608
0.44323389 0.88213130 0.91886608
0.60920373 0.88213130 0.91886608
0.75283115 0.88213130 0.91886608
0.88213130 0.88213130 0.91886608
0.91886608 0.88213130 0.91886608
0.91886608 0.88213130 0.91886608
0.91886608 0.88213130 0.91886608
0.06256172 0.91886608 0.91886608
0.23167916 0.91886608 0.91886608
0.44323389 0.91886608 0.91886608
0.60920373 0.91886608 0.91886608
0.75283115 0.91886608 0.91886608
0.88213130 0.91886608 0.91886608
0.91886608 0.91886608 0.91886608
0.91886608 0.91886608 0.91886608
0.91886608 0.91886608 0.91886608
0.06256235 0.91886608 0.91886608
0.23167916 0.91886608 0.91886608
0.44323389 0.91886608 0.91886608
0.60920373 0.91886608 0.91886608
0.75283115 0.91886608 0.91886608
0.88213130 0.91886608 0.91886608
0.91886608 0.91886608 0.91886608
0.91886608 0.91886608 0.91886608
0.91886608 0.91886608 0.91886608
0.06256287 0.91886608 0.91886608
0.23167916 0.91886608 0.91886608
0.44323389 0.91886608 0.91886608
0.60920373 0.91886608 0.91886608
0.75283115 0.91886608 0.91886608
0.88213130 0.91886608 0.91886608
0.91886608 0.91886608 0.91886608
0.91886608 0.91886608 0.91886608
0.91886608 0.91886608 0.91886608
0.06256172 0.06256301 0.91886608
0.23167916 0.06256289 0.91886608
0.44323389 0.06256289 0.91886608
0.60920373 0.06256289 0.91886608
0.75283115 0.06256272 0.91886608
0.88213130 0.06256289 0.91886608
0.91886608 0.06256272 0.91886608
0.91886608 0.06256272 0.91886608
0.91886608 0.06256311 0.91886608
0.06256172 0.23167916 0.91886608
0.23167916 0.23167916 0.91886608
0.44323389 0.23167916 0.91886608
0.60920373 0.23167916 0.91886608
0.75283115 0.23167916 0.91886608
0.88213130 0.23167916 0.91886608
0.91886608 0.23167916 0.91886608
0.91886608 0.23167916 0.91886608
0.91886608 0.23167916 0.91886608
0.06256172 0.44323389 0.91886608
0.23167916 0.44323389 0.91886608
0.44323389 0.44323389 0.91886608
0.60920373 0.44323389 0.91886608
0.75283115 0.44323389 0.91886608
0.88213130 0.44323389 0.91886608
0.91886608 0.44323389 0.91886608
0.91886608 0.44323389 0.91886608
0.91886608 0.44323389 0.91886608
0.06256172 0.60920373 0.91886608
0.23167916 0.60920373 0.91886608
0.44323389 0.60920373 0.91886608
0.60920373 0.60920373 0.91886608
0.75283115 0.60920373 0.91886608
0.88213130 0.60920373 0.91886608
0.91886608 0.60920373 0.91886608
0.91886608 0.60920373 0.91886608
0.91886608 0.60920373 0.91886608
0.06256172 0.75283115 0.91886608
0.23167916 0.75283115 0.91886608
0.44323389 0.75283115 0.91886608
0.60920373 0.75283115 0.91886608
0.75283115 0.75283115 0.91886608
0.88213130 0.75283115 0.91886608
0.91886608 0.75283115 0.91886608
0.91886608 0.75283115 0.91886608
0.91886608 0.75283115 0.91886608
0.06256257 0.88213130 0.91886608
0.23167916 0.88213130 0.91886608
0.44323389 0.88213130 0.91886608
0.60920373 0.88213130 0.91886608
0.75283115 0.88213130 0.91886608
0.88213130 0.88213130 0.91886608
0.91886608 0.88213130 0.91886608
0.91886608 0.88213130 0.91886608
0.91886608 0.88213130 0.91886608
0.06256172 0.91886608 0.91886608
0.23167916 0.91886608 0.91886608
0.44323389 0.91886608 0.91886608
0.60920373 0.91886608 0.91886608
0.75283115 0.91886608 0.91886608
0.88213130 0.91886608 0.91886608
0.91886608 0.91886608 0.91886608
0.91886608 0.91886608 0.91886608
0.91886608 0.91886608 0.91886608
0.06256172 0.91886608 0.91886608
0.23167916 0.91886608 0.91886608
0.44323389 0.91886608 0.91886608
0.60920373 0.91886608 0.91886608
0.75283115 0.91886608 0.91886608
0.88213130 0.91886608 0.91886608
0.91886608 0.91886608 0.91886608
0.91886608 0.91886608 0.91886608
0.91886608 0.91886608 0.91886608
0.06256272 0.91886608 0.91886608
0.23167916 0.91886608 0.91886608
0.44323389 0.91886608 0.91886608
0.60920373 0.91886608 0.91886608
0.75283115 0.91886608 0.91886608
0.88213130 0.91886608 0.91886608
0.91886608 0.91886608 0.91886608
0.91886608 0.91886608 0.91886608
0.91886608 0.91886608 0.91886608
0.06256172 0.06256337 0.91886608
0.23167916 0.06256311 0.91886608
0.44323389 0.06256337 0.91886608
0.60920373 0.06256337 0.91886608
0.75283115 0.06256337 0.91886608
0.88213130 0.06256337 0.91886608
0.91886608 0.06256337 0.91886608
0.91886608 0.06256311 0.91886608
0.91886608 0.06256172 0.91886608
0.06256289 0.23167916 0.91886608
0.23167916 0.23167916 0.91886608
0.44323389 0.23167916 0.91886608
0.60920373 0.23167916 0.91886608
0.75283115 0.23167916 0.91886608
0.88213130 0.23167916 0.91886608
0.91886608 0.23167916 0.91886608
0.91886608 0.23167916 0.91886608
0.91886608 0.23167916 0.91886608
0.06256172 0.44323389 0.91886608
0.23167916 0.44323389 0.91886608
0.44323389 0.44323389 0.91886608
0.60920373 0.44323389 0.91886608
0.75283115 0.44323389 0.91886608
0.88213130 0.44323389 0.91886608
0.91886608 0.44323389 0.91886608
0.91886608 0.44323389 0.91886608
0.91886608 0.44323389 0.91886608
0.06256172 0.60920373 0.91886608
0.23167916 0.60920373 0.91886608
0.44323389 0.60920373 0.91886608
0.60920373 0.60920373 0.91886608
0.75283115 0.60920373 0.91886608
0.88213130 0.60920373 0.91886608
0.91886608 0.60920373 0.91886608
0.91886608 0.60920373 0.91886608
0.91886608 0.60920373 0.91886608
0.06256172 0.75283115 0.91886608
0.23167916 0.75283115 0.91886608
0.44323389 0.75283115 0.91886608
0.60920373 0.75283115 0.91886608
0.75283115 0.75283115 0.91886608
0.88213130 0.75283115 0.91886608
0.91886608 0.75283115 0.91886608
0.91886608 0.75283115 0.91886608
0.91886608 0.75283115 0.91886608
0.06256172 0.88213130 0.91886608
0.23167916 0.88213130 0.91886608
0.44323389 0.88213130 0.91886608
0.60920373 0.88213130 0.91886608
0.75283115 0.88213130 0.91886608
0.88213130 0.88213130 0.91886608
0.91886608 0.88213130 0.91886608
0.91886608 0.88213130 0.91886608
0.91886608 0.88213130 0.91886608
0.06256172 0.91886608 0.91886608
0.23167916 0.91886608 0.91886608
0.44323389 0.91886608 0.91886608
0.60920373 0.91886608 0.91886608
0.75283115 0.91886608 0.91886608
0.88213130 0.91886608 0.91886608
0.91886608 0.91886608 0.91886608
0.91886608 0.91886608 0.91886608
0.91886608 0.91886608 0.91886608
0.06256172 0.91886608 0.91886608
0.23167916 0.91886608 0.91886608
0.44323389 0.91886608 0.91886608
0.60920373 0.91886608 0.91886608
0.75283115 0.91886608 0.91886608
0.88213130 0.91886608 0.91886608
0.91886608 0.91886608 0.91886608
0.91886608 0.91886608 0.91886608
0.91886608 0.91886608 0.91886608
0.06256289 0.91886608 0.91886608
0.23167916 0.91886608 0.91886608
0.44323389 0.91886608 0.91886608
0.60920373 0.91886608 0.91886608
0.75283115 0.91886608 0.91886608
0.88213130 0.91886608 0.91886608
0.91886608 0.91886608 0.91886608
0.91886608 0.91886608 0.91886608
0.91886608 0.91886608 0.91886608
