src/ffmpeg_scripts/luts/luminance_-3p00.cube
TITLE "luminance_-3p00"
LUT_3D_SIZE 33
# PQ (EOTF Only)/Rec2020 -> PQ (EOTF Only)/Rec2020, CineEI Shift -3.00, Black Level 0.00% IRE, Input 109% -> Output 109% - Created with LUTCalc v4.01 by Ben Turley October 2020
0.06256172 0.06256172 0.06256172
0.06256172 0.06256172 0.06256172
0.06256172 0.06256172 0.06256172
0.07362397 0.06256175 0.06256172
0.08726722 0.06256175 0.06256172
0.10258454 0.06256172 0.06256172
0.11924804 0.06256178 0.06256178
0.13707150 0.06256177 0.06256172
0.15593102 0.06256172 0.06256172
0.17573673 0.06256172 0.06256179
0.19641969 0.06256172 0.06256172
0.21792486 0.06256182 0.06256172
0.24020710 0.06256172 0.06256172
0.26322846 0.06256182 0.06256182
0.28695653 0.06256172 0.06256172
0.31136319 0.06256172 0.06256172
0.33642376 0.06256187 0.06256172
0.36211634 0.06256172 0.06256172
0.38842137 0.06256188 0.06256172
0.41532121 0.06256172 0.06256172
0.44279985 0.06256188 0.06256172
0.47084269 0.06256187 0.06256172
0.49943634 0.06256193 0.06256191
0.52856846 0.06256172 0.06256172
0.55822764 0.06256192 0.06256172
0.58840327 0.06256172 0.06256172
0.61908547 0.06256172 0.06256172
0.65026502 0.06256194 0.06256172
0.68193325 0.06256172 0.06256172
0.71408204 0.06256201 0.06256172
0.74670373 0.06256172 0.06256172
0.77979106 0.06256202 0.06256172
0.81333722 0.06256209 0.06256208
0.06256172 0.06256172 0.06256172
0.06256172 0.06256172 0.06256172
0.06256172 0.06256172 0.06256172
0.07362397 0.06256175 0.06256172
0.08726722 0.06256175 0.06256172
0.10258454 0.06256172 0.06256172
0.11924804 0.06256178 0.06256178
0.13707150 0.06256177 0.06256172
0.15593102 0.06256172 0.06256172
0.17573673 0.06256172 0.06256179
0.19641969 0.06256172 0.06256172
0.21792486 0.06256182 0.06256172
0.24020710 0.06256172 0.06256172
0.26322846 0.06256182 0.06256182
0.28695653 0.06256172 0.06256172
0.31136319 0.06256172 0.06256172
0.33642376 0.06256187 0.06256172
0.36211634 0.06256172 0.06256172
0.38842137 0.06256188 0.06256172
0.41532121 0.06256172 0.06256172
0.44279985 0.06256188 0.06256172
0.47084269 0.06256187 0.06256172
0.49943634 0.06256193 0.06256191
0.52856846 0.06256172 0.06256172
0.55822764 0.06256192 0.06256172
0.58840327 0.06256172 0.06256172
0.61908547 0.06256172 0.06256172
0.65026502 0.06256194 0.06256172
0.68193325 0.06256172 0.06256172
0.71408204 0.06256201 0.06256172
0.74670373 0.06256172 0.06256172
0.77979106 0.06256202 0.06256172
0.81333722 0.06256209 0.06256208
0.06256172 0.06256172 0.06256172
0.06256172 0.06256172 0.06256172
0.06256172 0.06256172 0.06256172
0.07362397 0.06256175 0.06256172
0.08726722 0.06256175 0.06256172
0.10258454 0.06256172 0.06256172
0.11924804 0.06256178 0.06256178
0.13707150 0.06256177 0.06256172
0.15593102 0.06256172 0.06256172
0.17573673 0.06256172 0.06256179
0.19641969 0.06256172 0.06256172
0.21792486 0.06256182 0.06256172
0.24020710 0.06256172 0.06256172
0.26322846 0.06256182 0.06256182
0.28695653 0.06256172 0.06256172
0.31136319 0.06256172 0.06256172
0.33642376 0.06256187 0.06256172
0.36211634 0.06256172 0.06256172
0.38842137 0.06256188 0.06256172
0.41532121 0.06256172 0.06256172
0.44279985 0.06256188 0.06256172
0.47084269 0.06256187 0.06256172
0.49943634 0.06256193 0.06256191
0.52856846 0.06256172 0.06256172
0.55822764 0.06256192 0.06256172
0.58840327 0.06256172 0.06256172
0.61908547 0.06256172 0.06256172
0.65026502 0.06256194 0.06256172
0.68193325 0.06256172 0.06256172
0.71408204 0.06256201 0.06256172
0.74670373 0.06256172 0.06256172
0.77979106 0.06256202 0.06256172
0.81333722 0.06256209 0.06256208
0.06256176 0.07362397 0.06256172
0.06256176 0.07362397 0.06256172
0.06256176 0.07362397 0.06256172
0.07362397 0.07362397 0.06256172
0.08726722 0.07362397 0.06256172
0.10258454 0.07362397 0.06256172
0.11924804 0.07362397 0.06256172
0.13707150 0.07362397 0.06256172
0.15593102 0.07362397 0.06256172
0.17573673 0.07362397 0.06256172
0.19641969 0.07362397 0.06256172
0.21792486 0.07362397 0.06256172
0.24020710 0.07362397 0.06256172
0.26322846 0.07362397 0.06256172
0.28695653 0.07362397 0.06256172
0.31136319 0.07362397 0.06256172
0.33642376 0.07362397 0.06256185
0.36211634 0.07362397 0.06256172
0.38842137 0.07362397 0.06256172
0.41532121 0.07362397 0.06256172
0.44279985 0.07362397 0.06256172
0.47084269 0.07362397 0.06256172
0.49943634 0.07362397 0.06256172
0.52856846 0.07362397 0.06256191
0.55822764 0.07362397 0.06256172
0.58840327 0.07362397 0.06256172
0.61908547 0.07362397 0.06256172
0.65026502 0.07362397 0.06256172
0.68193325 0.07362397 0.06256200
0.71408204 0.07362397 0.06256172
0.74670373 0.07362397 0.06256204
0.77979106 0.07362397 0.06256204
0.81333722 0.07362397 0.06256172
0.06256177 0.08726722 0.06256172
0.06256177 0.08726722 0.06256172
0.06256177 0.08726722 0.06256172
0.07362397 0.08726722 0.06256172
0.08726722 0.08726722 0.06256172
0.10258454 0.08726722 0.06256172
0.11924804 0.08726722 0.06256178
0.13707150 0.08726722 0.06256179
0.15593102 0.08726722 0.06256172
0.17573673 0.08726722 0.06256172
0.19641969 0.08726722 0.06256172
0.21792486 0.08726722 0.06256181
0.24020710 0.08726722 0.06256172
0.26322846 0.08726722 0.06256172
0.28695653 0.08726722 0.06256172
0.31136319 0.08726722 0.06256172
0.33642376 0.08726722 0.06256172
0.36211634 0.08726722 0.06256172
0.38842137 0.08726722 0.06256172
0.41532121 0.08726722 0.06256172
0.44279985 0.08726722 0.06256172
0.47084269 0.08726722 0.06256172
0.49943634 0.08726722 0.06256172
0.52856846 0.08726722 0.06256191
0.55822764 0.08726722 0.06256172
0.58840327 0.08726722 0.06256172
0.61908547 0.08726722 0.06256197
0.65026502 0.08726722 0.06256172
0.68193325 0.08726722 0.06256200
0.71408204 0.08726722 0.06256172
0.74670373 0.08726722 0.06256172
0.77979106 0.08726722 0.06256172
0.81333722 0.08726722 0.06256172
0.06256177 0.10258454 0.06256172
0.06256177 0.10258454 0.06256172
0.06256177 0.10258454 0.06256172
0.07362397 0.10258454 0.06256172
0.08726722 0.10258454 0.06256172
0.10258454 0.10258454 0.06256172
0.11924804 0.10258454 0.06256178
0.13707150 0.10258454 0.06256172
0.15593102 0.10258454 0.06256172
0.17573673 0.10258454 0.06256172
0.19641969 0.10258454 0.06256172
0.21792486 0.10258454 0.06256172
0.24020710 0.10258454 0.06256172
0.26322846 0.10258454 0.06256172
0.28695653 0.10258454 0.06256172
0.31136319 0.10258454 0.06256172
0.33642376 0.10258454 0.06256172
0.36211634 0.10258454 0.06256172
0.38842137 0.10258454 0.06256172
0.41532121 0.10258454 0.06256172
0.44279985 0.10258454 0.06256172
0.47084269 0.10258454 0.06256172
0.49943634 0.10258454 0.06256172
0.52856846 0.10258454 0.06256172
0.55822764 0.10258454 0.06256172
0.58840327 0.10258454 0.06256172
0.61908547 0.10258454 0.06256172
0.65026502 0.10258454 0.06256172
0.68193325 0.10258454 0.06256172
0.71408204 0.10258454 0.06256172
0.74670373 0.10258454 0.06256172
0.77979106 0.10258454 0.06256172
0.81333722 0.10258454 0.06256172
0.06256178 0.11924804 0.06256172
0.06256178 0.11924804 0.06256172
0.06256178 0.11924804 0.06256172
0.07362397 0.11924804 0.06256172
0.08726722 0.11924804 0.06256172
0.10258454 0.11924804 0.06256172
0.11924804 0.11924804 0.06256172
0.13707150 0.11924804 0.06256172
0.15593102 0.11924804 0.06256172
0.17573673 0.11924804 0.06256172
0.19641969 0.11924804 0.06256180
0.21792486 0.11924804 0.06256172
0.24020710 0.11924804 0.06256172
0.26322846 0.11924804 0.06256182
0.28695653 0.11924804 0.06256172
0.31136319 0.11924804 0.06256172
0.33642376 0.11924804 0.06256172
0.36211634 0.11924804 0.06256172
0.38842137 0.11924804 0.06256172
0.41532121 0.11924804 0.06256172
0.44279985 0.11924804 0.06256172
0.47084269 0.11924804 0.06256172
0.49943634 0.11924804 0.06256191
0.52856846 0.11924804 0.06256172
0.55822764 0.11924804 0.06256172
0.58840327 0.11924804 0.06256172
0.61908547 0.11924804 0.06256172
0.65026502 0.11924804 0.06256197
0.68193325 0.11924804 0.06256200
0.71408204 0.11924804 0.06256172
0.74670373 0.11924804 0.06256172
0.77979106 0.11924804 0.06256172
0.81333722 0.11924804 0.06256172
0.06256180 0.13707150 0.06256179
0.06256180 0.13707150 0.06256179
0.06256180 0.13707150 0.06256179
0.07362397 0.13707150 0.06256172
0.08726722 0.13707150 0.06256172
0.10258454 0.13707150 0.06256179
0.11924804 0.13707150 0.06256172
0.13707150 0.13707150 0.06256172
0.15593102 0.13707150 0.06256172
0.17573673 0.13707150 0.06256172
0.19641969 0.13707150 0.06256181
0.21792486 0.13707150 0.06256172
0.24020710 0.13707150 0.06256172
0.26322846 0.13707150 0.06256172
0.28695653 0.13707150 0.06256184
0.31136319 0.13707150 0.06256172
0.33642376 0.13707150 0.06256185
0.36211634 0.13707150 0.06256172
0.38842137 0.13707150 0.06256172
0.41532121 0.13707150 0.06256172
0.44279985 0.13707150 0.06256172
0.47084269 0.13707150 0.06256172
0.49943634 0.13707150 0.06256191
0.52856846 0.13707150 0.06256191
0.55822764 0.13707150 0.06256172
0.58840327 0.13707150 0.06256172
0.61908547 0.13707150 0.06256172
0.65026502 0.13707150 0.06256172
0.68193325 0.13707150 0.06256172
0.71408204 0.13707150 0.06256172
0.74670373 0.13707150 0.06256172
0.77979106 0.13707150 0.06256172
0.81333722 0.13707150 0.06256208
0.06256172 0.15593102 0.06256172
0.06256172 0.15593102 0.06256172
0.06256172 0.15593102 0.06256172
0.07362397 0.15593102 0.06256172
0.08726722 0.15593102 0.06256172
0.10258454 0.15593102 0.06256172
0.11924804 0.15593102 0.06256172
0.13707150 0.15593102 0.06256172
0.15593102 0.15593102 0.06256172
0.17573673 0.15593102 0.06256172
0.19641969 0.15593102 0.06256172
0.21792486 0.15593102 0.06256172
0.24020710 0.15593102 0.06256172
0.26322846 0.15593102 0.06256182
0.28695653 0.15593102 0.06256172
0.31136319 0.15593102 0.06256172
0.33642376 0.15593102 0.06256172
0.36211634 0.15593102 0.06256172
0.38842137 0.15593102 0.06256172
0.41532121 0.15593102 0.06256172
0.44279985 0.15593102 0.06256172
0.47084269 0.15593102 0.06256172
0.49943634 0.15593102 0.06256172
0.52856846 0.15593102 0.06256172
0.55822764 0.15593102 0.06256172
0.58840327 0.15593102 0.06256172
0.61908547 0.15593102 0.06256197
0.65026502 0.15593102 0.06256172
0.68193325 0.15593102 0.06256172
0.71408204 0.15593102 0.06256172
0.74670373 0.15593102 0.06256172
0.77979106 0.15593102 0.06256172
0.81333722 0.15593102 0.06256172
0.06256182 0.17573673 0.06256172
0.06256182 0.17573673 0.06256172
0.06256182 0.17573673 0.06256172
0.07362397 0.17573673 0.06256172
0.08726722 0.17573673 0.06256172
0.10258454 0.17573673 0.06256180
0.11924804 0.17573673 0.06256172
0.13707150 0.17573673 0.06256172
0.15593102 0.17573673 0.06256180
0.17573673 0.17573673 0.06256181
0.19641969 0.17573673 0.06256172
0.21792486 0.17573673 0.06256181
0.24020710 0.17573673 0.06256172
0.26322846 0.17573673 0.06256184
0.28695653 0.17573673 0.06256172
0.31136319 0.17573673 0.06256172
0.33642376 0.17573673 0.06256185
0.36211634 0.17573673 0.06256172
0.38842137 0.17573673 0.06256187
0.41532121 0.17573673 0.06256172
0.44279985 0.17573673 0.06256172
0.47084269 0.17573673 0.06256172
0.49943634 0.17573673 0.06256172
0.52856846 0.17573673 0.06256172
0.55822764 0.17573673 0.06256194
0.58840327 0.17573673 0.06256172
0.61908547 0.17573673 0.06256172
0.65026502 0.17573673 0.06256172
0.68193325 0.17573673 0.06256172
0.71408204 0.17573673 0.06256172
0.74670373 0.17573673 0.06256204
0.77979106 0.17573673 0.06256172
0.81333722 0.17573673 0.06256172
0.06256184 0.19641969 0.06256172
0.06256184 0.19641969 0.06256172
0.06256184 0.19641969 0.06256172
0.07362397 0.19641969 0.06256172
0.08726722 0.19641969 0.06256172
0.10258454 0.19641969 0.06256172
0.11924804 0.19641969 0.06256172
0.13707150 0.19641969 0.06256172
0.15593102 0.19641969 0.06256172
0.17573673 0.19641969 0.06256172
0.19641969 0.19641969 0.06256172
0.21792486 0.19641969 0.06256172
0.24020710 0.19641969 0.06256172
0.26322846 0.19641969 0.06256172
0.28695653 0.19641969 0.06256172
0.31136319 0.19641969 0.06256184
0.33642376 0.19641969 0.06256185
0.36211634 0.19641969 0.06256185
0.38842137 0.19641969 0.06256172
0.41532121 0.19641969 0.06256172
0.44279985 0.19641969 0.06256172
0.47084269 0.19641969 0.06256172
0.49943634 0.19641969 0.06256172
0.52856846 0.19641969 0.06256191
0.55822764 0.19641969 0.06256172
0.58840327 0.19641969 0.06256172
0.61908547 0.19641969 0.06256172
0.65026502 0.19641969 0.06256172
0.68193325 0.19641969 0.06256200
0.71408204 0.19641969 0.06256172
0.74670373 0.19641969 0.06256204
0.77979106 0.19641969 0.06256172
0.81333722 0.19641969 0.06256172
0.06256182 0.21792486 0.06256172
0.06256182 0.21792486 0.06256172
0.06256182 0.21792486 0.06256172
0.07362397 0.21792486 0.06256172
0.08726722 0.21792486 0.06256172
0.10258454 0.21792486 0.06256172
0.11924804 0.21792486 0.06256181
0.13707150 0.21792486 0.06256172
0.15593102 0.21792486 0.06256181
0.17573673 0.21792486 0.06256172
0.19641969 0.21792486 0.06256172
0.21792486 0.21792486 0.06256172
0.24020710 0.21792486 0.06256172
0.26322846 0.21792486 0.06256172
0.28695653 0.21792486 0.06256172
0.31136319 0.21792486 0.06256185
0.33642376 0.21792486 0.06256172
0.36211634 0.21792486 0.06256172
0.38842137 0.21792486 0.06256172
0.41532121 0.21792486 0.06256172
0.44279985 0.21792486 0.06256172
0.47084269 0.21792486 0.06256172
0.49943634 0.21792486 0.06256191
0.52856846 0.21792486 0.06256191
0.55822764 0.21792486 0.06256172
0.58840327 0.21792486 0.06256194
0.61908547 0.21792486 0.06256172
0.65026502 0.21792486 0.06256172
0.68193325 0.21792486 0.06256200
0.71408204 0.21792486 0.06256172
0.74670373 0.21792486 0.06256172
0.77979106 0.21792486 0.06256172
0.81333722 0.21792486 0.06256172
0.06256183 0.24020710 0.06256182
0.06256183 0.24020710 0.06256182
0.06256183 0.24020710 0.06256182
0.07362397 0.24020710 0.06256182
0.08726722 0.24020710 0.06256172
0.10258454 0.24020710 0.06256182
0.11924804 0.24020710 0.06256182
0.13707150 0.24020710 0.06256182
0.15593102 0.24020710 0.06256172
0.17573673 0.24020710 0.06256182
0.19641969 0.24020710 0.06256172
0.21792486 0.24020710 0.06256172
0.24020710 0.24020710 0.06256184
0.26322846 0.24020710 0.06256172
0.28695653 0.24020710 0.06256172
0.31136319 0.24020710 0.06256172
0.33642376 0.24020710 0.06256172
0.36211634 0.24020710 0.06256172
0.38842137 0.24020710 0.06256172
0.41532121 0.24020710 0.06256172
0.44279985 0.24020710 0.06256172
0.47084269 0.24020710 0.06256172
0.49943634 0.24020710 0.06256172
0.52856846 0.24020710 0.06256172
0.55822764 0.24020710 0.06256172
0.58840327 0.24020710 0.06256172
0.61908547 0.24020710 0.06256197
0.65026502 0.24020710 0.06256197
0.68193325 0.24020710 0.06256200
0.71408204 0.24020710 0.06256172
0.74670373 0.24020710 0.06256172
0.77979106 0.24020710 0.06256172
0.81333722 0.24020710 0.06256172
0.06256185 0.26322846 0.06256172
0.06256185 0.26322846 0.06256172
0.06256185 0.26322846 0.06256172
0.07362397 0.26322846 0.06256182
0.08726722 0.26322846 0.06256172
0.10258454 0.26322846 0.06256172
0.11924804 0.26322846 0.06256182
0.13707150 0.26322846 0.06256172
0.15593102 0.26322846 0.06256172
0.17573673 0.26322846 0.06256184
0.19641969 0.26322846 0.06256172
0.21792486 0.26322846 0.06256184
0.24020710 0.26322846 0.06256172
0.26322846 0.26322846 0.06256184
0.28695653 0.26322846 0.06256172
0.31136319 0.26322846 0.06256172
0.33642376 0.26322846 0.06256172
0.36211634 0.26322846 0.06256172
0.38842137 0.26322846 0.06256172
0.41532121 0.26322846 0.06256187
0.44279985 0.26322846 0.06256172
0.47084269 0.26322846 0.06256172
0.49943634 0.26322846 0.06256172
0.52856846 0.26322846 0.06256191
0.55822764 0.26322846 0.06256172
0.58840327 0.26322846 0.06256194
0.61908547 0.26322846 0.06256172
0.65026502 0.26322846 0.06256172
0.68193325 0.26322846 0.06256172
0.71408204 0.26322846 0.06256172
0.74670373 0.26322846 0.06256204
0.77979106 0.26322846 0.06256172
0.81333722 0.26322846 0.06256208
0.06256185 0.28695653 0.06256172
0.06256185 0.28695653 0.06256172
0.06256185 0.28695653 0.06256172
0.07362397 0.28695653 0.06256172
0.08726722 0.28695653 0.06256172
0.10258454 0.28695653 0.06256172
0.11924804 0.28695653 0.06256172
0.13707150 0.28695653 0.06256172
0.15593102 0.28695653 0.06256172
0.17573673 0.28695653 0.06256172
0.19641969 0.28695653 0.06256172
0.21792486 0.28695653 0.06256172
0.24020710 0.28695653 0.06256172
0.26322846 0.28695653 0.06256172
0.28695653 0.28695653 0.06256172
0.31136319 0.28695653 0.06256172
0.33642376 0.28695653 0.06256172
0.36211634 0.28695653 0.06256187
0.38842137 0.28695653 0.06256172
0.41532121 0.28695653 0.06256172
0.44279985 0.28695653 0.06256172
0.47084269 0.28695653 0.06256172
0.49943634 0.28695653 0.06256172
0.52856846 0.28695653 0.06256172
0.55822764 0.28695653 0.06256172
0.58840327 0.28695653 0.06256172
0.61908547 0.28695653 0.06256172
0.65026502 0.28695653 0.06256172
0.68193325 0.28695653 0.06256172
0.71408204 0.28695653 0.06256172
0.74670373 0.28695653 0.06256172
0.77979106 0.28695653 0.06256172
0.81333722 0.28695653 0.06256208
0.06256187 0.31136319 0.06256172
0.06256187 0.31136319 0.06256172
0.06256187 0.31136319 0.06256172
0.07362397 0.31136319 0.06256172
0.08726722 0.31136319 0.06256172
0.10258454 0.31136319 0.06256172
0.11924804 0.31136319 0.06256172
0.13707150 0.31136319 0.06256172
0.15593102 0.31136319 0.06256172
0.17573673 0.31136319 0.06256172
0.19641969 0.31136319 0.06256172
0.21792486 0.31136319 0.06256172
0.24020710 0.31136319 0.06256172
0.26322846 0.31136319 0.06256172
0.28695653 0.31136319 0.06256172
0.31136319 0.31136319 0.06256185
0.33642376 0.31136319 0.06256172
0.36211634 0.31136319 0.06256172
0.38842137 0.31136319 0.06256172
0.41532121 0.31136319 0.06256172
0.44279985 0.31136319 0.06256172
0.47084269 0.31136319 0.06256172
0.49943634 0.31136319 0.06256172
0.52856846 0.31136319 0.06256172
0.55822764 0.31136319 0.06256172
0.58840327 0.31136319 0.06256172
0.61908547 0.31136319 0.06256172
0.65026502 0.31136319 0.06256172
0.68193325 0.31136319 0.06256172
0.71408204 0.31136319 0.06256172
0.74670373 0.31136319 0.06256172
0.77979106 0.31136319 0.06256172
0.81333722 0.31136319 0.06256172
0.06256172 0.33642376 0.06256172
0.06256172 0.33642376 0.06256172
0.06256172 0.33642376 0.06256172
0.07362397 0.33642376 0.06256172
0.08726722 0.33642376 0.06256172
0.10258454 0.33642376 0.06256172
0.11924804 0.33642376 0.06256172
0.13707150 0.33642376 0.06256172
0.15593102 0.33642376 0.06256172
0.17573673 0.33642376 0.06256172
0.19641969 0.33642376 0.06256172
0.21792486 0.33642376 0.06256172
0.24020710 0.33642376 0.06256172
0.26322846 0.33642376 0.06256172
0.28695653 0.33642376 0.06256172
0.31136319 0.33642376 0.06256172
0.33642376 0.33642376 0.06256172
0.36211634 0.33642376 0.06256187
0.38842137 0.33642376 0.06256172
0.41532121 0.33642376 0.06256172
0.44279985 0.33642376 0.06256172
0.47084269 0.33642376 0.06256172
0.49943634 0.33642376 0.06256191
0.52856846 0.33642376 0.06256191
0.55822764 0.33642376 0.06256172
0.58840327 0.33642376 0.06256194
0.61908547 0.33642376 0.06256172
0.65026502 0.33642376 0.06256172
0.68193325 0.33642376 0.06256172
0.71408204 0.33642376 0.06256172
0.74670373 0.33642376 0.06256204
0.77979106 0.33642376 0.06256172
0.81333722 0.33642376 0.06256172
0.06256189 0.36211634 0.06256187
0.06256189 0.36211634 0.06256187
0.06256189 0.36211634 0.06256187
0.07362397 0.36211634 0.06256187
0.08726722 0.36211634 0.06256187
0.10258454 0.36211634 0.06256172
0.11924804 0.36211634 0.06256172
0.13707150 0.36211634 0.06256172
0.15593102 0.36211634 0.06256172
0.17573673 0.36211634 0.06256172
0.19641969 0.36211634 0.06256172
0.21792486 0.36211634 0.06256187
0.24020710 0.36211634 0.06256172
0.26322846 0.36211634 0.06256187
0.28695653 0.36211634 0.06256172
0.31136319 0.36211634 0.06256172
0.33642376 0.36211634 0.06256172
0.36211634 0.36211634 0.06256187
0.38842137 0.36211634 0.06256189
0.41532121 0.36211634 0.06256172
0.44279985 0.36211634 0.06256172
0.47084269 0.36211634 0.06256172
0.49943634 0.36211634 0.06256172
0.52856846 0.36211634 0.06256191
0.55822764 0.36211634 0.06256172
0.58840327 0.36211634 0.06256172
0.61908547 0.36211634 0.06256172
0.65026502 0.36211634 0.06256172
0.68193325 0.36211634 0.06256200
0.71408204 0.36211634 0.06256172
0.74670373 0.36211634 0.06256172
0.77979106 0.36211634 0.06256172
0.81333722 0.36211634 0.06256208
0.06256190 0.38842137 0.06256172
0.06256190 0.38842137 0.06256172
0.06256190 0.38842137 0.06256172
0.07362397 0.38842137 0.06256172
0.08726722 0.38842137 0.06256172
0.10258454 0.38842137 0.06256172
0.11924804 0.38842137 0.06256172
0.13707150 0.38842137 0.06256172
0.15593102 0.38842137 0.06256172
0.17573673 0.38842137 0.06256172
0.19641969 0.38842137 0.06256172
0.21792486 0.38842137 0.06256172
0.24020710 0.38842137 0.06256172
0.26322846 0.38842137 0.06256172
0.28695653 0.38842137 0.06256187
0.31136319 0.38842137 0.06256172
0.33642376 0.38842137 0.06256172
0.36211634 0.38842137 0.06256172
0.38842137 0.38842137 0.06256172
0.41532121 0.38842137 0.06256172
0.44279985 0.38842137 0.06256172
0.47084269 0.38842137 0.06256172
0.49943634 0.38842137 0.06256172
0.52856846 0.38842137 0.06256172
0.55822764 0.38842137 0.06256172
0.58840327 0.38842137 0.06256197
0.61908547 0.38842137 0.06256172
0.65026502 0.38842137 0.06256172
0.68193325 0.38842137 0.06256200
0.71408204 0.38842137 0.06256172
0.74670373 0.38842137 0.06256172
0.77979106 0.38842137 0.06256172
0.81333722 0.38842137 0.06256172
0.06256188 0.41532121 0.06256172
0.06256188 0.41532121 0.06256172
0.06256188 0.41532121 0.06256172
0.07362397 0.41532121 0.06256172
0.08726722 0.41532121 0.06256172
0.10258454 0.41532121 0.06256172
0.11924804 0.41532121 0.06256172
0.13707150 0.41532121 0.06256172
0.15593102 0.41532121 0.06256172
0.17573673 0.41532121 0.06256172
0.19641969 0.41532121 0.06256172
0.21792486 0.41532121 0.06256172
0.24020710 0.41532121 0.06256172
0.26322846 0.41532121 0.06256172
0.28695653 0.41532121 0.06256172
0.31136319 0.41532121 0.06256172
0.33642376 0.41532121 0.06256172
0.36211634 0.41532121 0.06256172
0.38842137 0.41532121 0.06256172
0.41532121 0.41532121 0.06256172
0.44279985 0.41532121 0.06256172
0.47084269 0.41532121 0.06256172
0.49943634 0.41532121 0.06256172
0.52856846 0.41532121 0.06256172
0.55822764 0.41532121 0.06256172
0.58840327 0.41532121 0.06256172
0.61908547 0.41532121 0.06256197
0.65026502 0.41532121 0.06256197
0.68193325 0.41532121 0.06256200
0.71408204 0.41532121 0.06256172
0.74670373 0.41532121 0.06256172
0.77979106 0.41532121 0.06256172
0.81333722 0.41532121 0.06256208
0.06256184 0.44279985 0.06256172
0.06256184 0.44279985 0.06256172
0.06256184 0.44279985 0.06256172
0.07362397 0.44279985 0.06256172
0.08726722 0.44279985 0.06256172
0.10258454 0.44279985 0.06256172
0.11924804 0.44279985 0.06256172
0.13707150 0.44279985 0.06256172
0.15593102 0.44279985 0.06256172
0.17573673 0.44279985 0.06256172
0.19641969 0.44279985 0.06256172
0.21792486 0.44279985 0.06256172
0.24020710 0.44279985 0.06256172
0.26322846 0.44279985 0.06256172
0.28695653 0.44279985 0.06256172
0.31136319 0.44279985 0.06256172
0.33642376 0.44279985 0.06256189
0.36211634 0.44279985 0.06256172
0.38842137 0.44279985 0.06256172
0.41532121 0.44279985 0.06256172
0.44279985 0.44279985 0.06256172
0.47084269 0.44279985 0.06256172
0.49943634 0.44279985 0.06256172
0.52856846 0.44279985 0.06256194
0.55822764 0.44279985 0.06256172
0.58840327 0.44279985 0.06256172
0.61908547 0.44279985 0.06256172
0.65026502 0.44279985 0.06256172
0.68193325 0.44279985 0.06256172
0.71408204 0.44279985 0.06256172
0.74670373 0.44279985 0.06256172
0.77979106 0.44279985 0.06256204
0.81333722 0.44279985 0.06256172
0.06256192 0.47084269 0.06256172
0.06256192 0.47084269 0.06256172
0.06256192 0.47084269 0.06256172
0.07362397 0.47084269 0.06256172
0.08726722 0.47084269 0.06256172
0.10258454 0.47084269 0.06256191
0.11924804 0.47084269 0.06256172
0.13707150 0.47084269 0.06256172
0.15593102 0.47084269 0.06256172
0.17573673 0.47084269 0.06256191
0.19641969 0.47084269 0.06256172
0.21792486 0.47084269 0.06256172
0.24020710 0.47084269 0.06256172
0.26322846 0.47084269 0.06256172
0.28695653 0.47084269 0.06256191
0.31136319 0.47084269 0.06256172
0.33642376 0.47084269 0.06256172
0.36211634 0.47084269 0.06256172
0.38842137 0.47084269 0.06256172
0.41532121 0.47084269 0.06256172
0.44279985 0.47084269 0.06256172
0.47084269 0.47084269 0.06256172
0.49943634 0.47084269 0.06256172
0.52856846 0.47084269 0.06256172
0.55822764 0.47084269 0.06256172
0.58840327 0.47084269 0.06256194
0.61908547 0.47084269 0.06256172
