src/ffmpeg_scripts/luts/luminance-unclipped_-1p67.cube
TITLE "luminance-unclipped_-1p67"
LUT_3D_SIZE 5
# PQ (EOTF Only)/Rec2020 -> PQ (EOTF Only)/Rec2020, CineEI Shift -1.67, Black Level -7.25% IRE, Input 109% -> Output 109% - Created with LUTCalc v4.01 by Ben Turley October 2020
0.00047898 0.00047898 0.00047898
0.15075079 0.00047906 0.00047898
0.39722209 0.00047898 0.00047898
0.67243745 0.00047898 0.00047898
0.91886608 0.00047944 0.00047946
0.00047909 0.15075079 0.00047898
0.15075079 0.15075079 0.00047898
0.39722209 0.15075079 0.00047916
0.67243745 0.15075079 0.00047927
0.91886608 0.15075079 0.00047898
0.00047898 0.39722209 0.00047898
0.15075079 0.39722209 0.00047898
0.39722209 0.39722209 0.00047898
0.67243745 0.39722209 0.00047898
0.91886608 0.39722209 0.00047898
0.00047930 0.67243745 0.00047898
0.15075079 0.67243745 0.00047898
0.39722209 0.67243745 0.00047898
0.67243745 0.67243745 0.00047898
0.91886608 0.67243745 0.00047953
0.00047951 0.91886608 0.00047898
0.15075079 0.91886608 0.00047946
0.39722209 0.91886608 0.00047898
0.67243745 0.91886608 0.00047946
0.91886608 0.91886608 0.00047898
0.00047898 0.00047912 0.15075079
0.15075079 0.00047898 0.15075079
0.39722209 0.00047914 0.15075079
0.67243745 0.00047898 0.15075079
0.91886608 0.00047935 0.15075079
0.00047898 0.15075079 0.15075079
0.15075079 0.15075079 0.15075079
0.39722209 0.15075079 0.15075079
0.67243745 0.15075079 0.15075079
0.91886608 0.15075079 0.15075079
0.00047916 0.39722209 0.15075079
0.15075079 0.39722209 0.15075079
0.39722209 0.39722209 0.15075079
0.67243745 0.39722209 0.15075079
0.91886608 0.39722209 0.15075079
0.00047898 0.67243745 0.15075079
0.15075079 0.67243745 0.15075079
0.39722209 0.67243745 0.15075079
0.67243745 0.67243745 0.15075079
0.91886608 0.67243745 0.15075079
0.00047948 0.91886608 0.15075079
0.15075079 0.91886608 0.15075079
0.39722209 0.91886608 0.15075079
0.67243745 0.91886608 0.15075079
0.91886608 0.91886608 0.15075079
0.00047898 0.00047923 0.39722209
0.15075079 0.00047898 0.39722209
0.39722209 0.00047923 0.39722209
0.67243745 0.00047898 0.39722209
0.91886608 0.00047940 0.39722209
0.00047898 0.15075079 0.39722209
0.15075079 0.15075079 0.39722209
0.39722209 0.15075079 0.39722209
0.67243745 0.15075079 0.39722209
0.91886608 0.15075079 0.39722209
0.00047898 0.39722209 0.39722209
0.15075079 0.39722209 0.39722209
0.39722209 0.39722209 0.39722209
0.67243745 0.39722209 0.39722209
0.91886608 0.39722209 0.39722209
0.00047932 0.67243745 0.39722209
0.15075079 0.67243745 0.39722209
0.39722209 0.67243745 0.39722209
0.67243745 0.67243745 0.39722209
0.91886608 0.67243745 0.39722209
0.00047898 0.91886608 0.39722209
0.15075079 0.91886608 0.39722209
0.39722209 0.91886608 0.39722209
0.67243745 0.91886608 0.39722209
0.91886608 0.91886608 0.39722209
0.00047898 0.00047935 0.67243745
0.15075079 0.00047898 0.67243745
0.39722209 0.00047935 0.67243745
0.67243745 0.00047940 0.67243745
0.91886608 0.00047898 0.67243745
0.00047898 0.15075079 0.67243745
0.15075079 0.15075079 0.67243745
0.39722209 0.15075079 0.67243745
0.67243745 0.15075079 0.67243745
0.91886608 0.15075079 0.67243745
0.00047898 0.39722209 0.67243745
0.15075079 0.39722209 0.67243745
0.39722209 0.39722209 0.67243745
0.67243745 0.39722209 0.67243745
0.91886608 0.39722209 0.67243745
0.00047898 0.67243745 0.67243745
0.15075079 0.67243745 0.67243745
0.39722209 0.67243745 0.67243745
0.67243745 0.67243745 0.67243745
0.91886608 0.67243745 0.67243745
0.00047950 0.91886608 0.67243745
0.15075079 0.91886608 0.67243745
0.39722209 0.91886608 0.67243745
0.67243745 0.91886608 0.67243745
0.91886608 0.91886608 0.67243745
0.00047953 0.00047971 0.91886608
0.15075079 0.00047971 0.91886608
0.39722209 0.00047978 0.91886608
0.67243745 0.00047961 0.91886608
0.91886608 0.00047971 0.91886608
0.00047898 0.15075079 0.91886608
0.15075079 0.15075079 0.91886608
0.39722209 0.15075079 0.91886608
0.67243745 0.15075079 0.91886608
0.91886608 0.15075079 0.91886608
0.00047898 0.39722209 0.91886608
0.15075079 0.39722209 0.91886608
0.39722209 0.39722209 0.91886608
0.67243745 0.39722209 0.91886608
0.91886608 0.39722209 0.91886608
0.00047898 0.67243745 0.91886608
0.15075079 0.67243745 0.91886608
0.39722209 0.67243745 0.91886608
0.67243745 0.67243745 0.91886608
0.91886608 0.67243745 0.91886608
0.00047953 0.91886608 0.91886608
0.15075079 0.91886608 0.91886608
0.39722209 0.91886608 0.91886608
0.67243745 0.91886608 0.91886608
0.91886608 0.91886608 0.91886608
