src/ffmpeg_scripts/luts/luminance_-2p33.cube
TITLE "luminance_-2p33"
LUT_3D_SIZE 9
# PQ (EOTF Only)/Rec2020 -> PQ (EOTF Only)/Rec2020, CineEI Shift -2.33, Black Level 0.00% IRE, Input 109% -> Output 109% - Created with LUTCalc v4.01 by Ben Turley October 2020
0.06256172 0.06256172 0.06256172
0.09331494 0.06256172 0.06256172
0.17301417 0.06256172 0.06256172
0.26638560 0.06256172 0.06256182
0.36972684 0.06256189 0.06256185
0.48128088 0.06256187 0.06256172
0.59997014 0.06256172 0.06256172
0.72504970 0.06256201 0.06256172
0.85596642 0.06256200 0.06256172
0.06256178 0.09331494 0.06256172
0.09331494 0.09331494 0.06256172
0.17301417 0.09331494 0.06256172
0.26638560 0.09331494 0.06256172
0.36972684 0.09331494 0.06256172
0.48128088 0.09331494 0.06256172
0.59997014 0.09331494 0.06256194
0.72504970 0.09331494 0.06256200
0.85596642 0.09331494 0.06256208
0.06256180 0.17301417 0.06256172
0.09331494 0.17301417 0.06256172
0.17301417 0.17301417 0.06256172
0.26638560 0.17301417 0.06256172
0.36972684 0.17301417 0.06256185
0.48128088 0.17301417 0.06256172
0.59997014 0.17301417 0.06256172
0.72504970 0.17301417 0.06256200
0.85596642 0.17301417 0.06256172
0.06256172 0.26638560 0.06256182
0.09331494 0.26638560 0.06256182
0.17301417 0.26638560 0.06256172
0.26638560 0.26638560 0.06256184
0.36972684 0.26638560 0.06256172
0.48128088 0.26638560 0.06256172
0.59997014 0.26638560 0.06256172
0.72504970 0.26638560 0.06256204
0.85596642 0.26638560 0.06256172
0.06256172 0.36972684 0.06256172
0.09331494 0.36972684 0.06256187
0.17301417 0.36972684 0.06256172
0.26638560 0.36972684 0.06256172
0.36972684 0.36972684 0.06256172
0.48128088 0.36972684 0.06256172
0.59997014 0.36972684 0.06256172
0.72504970 0.36972684 0.06256172
0.85596642 0.36972684 0.06256172
0.06256189 0.48128088 0.06256172
0.09331494 0.48128088 0.06256172
0.17301417 0.48128088 0.06256191
0.26638560 0.48128088 0.06256172
0.36972684 0.48128088 0.06256172
0.48128088 0.48128088 0.06256172
0.59997014 0.48128088 0.06256172
0.72504970 0.48128088 0.06256172
0.85596642 0.48128088 0.06256172
0.06256201 0.59997014 0.06256172
0.09331494 0.59997014 0.06256172
0.17301417 0.59997014 0.06256197
0.26638560 0.59997014 0.06256172
0.36972684 0.59997014 0.06256172
0.48128088 0.59997014 0.06256172
0.59997014 0.59997014 0.06256197
0.72504970 0.59997014 0.06256204
0.85596642 0.59997014 0.06256213
0.06256201 0.72504970 0.06256172
0.09331494 0.72504970 0.06256204
0.17301417 0.72504970 0.06256172
0.26638560 0.72504970 0.06256172
0.36972684 0.72504970 0.06256172
0.48128088 0.72504970 0.06256172
0.59997014 0.72504970 0.06256172
0.72504970 0.72504970 0.06256172
0.85596642 0.72504970 0.06256172
0.06256214 0.85596642 0.06256172
0.09331494 0.85596642 0.06256172
0.17301417 0.85596642 0.06256213
0.26638560 0.85596642 0.06256213
0.36972684 0.85596642 0.06256172
0.48128088 0.85596642 0.06256172
0.59997014 0.85596642 0.06256213
0.72504970 0.85596642 0.06256213
0.85596642 0.85596642 0.06256172
0.06256172 0.06256178 0.09331494
0.09331494 0.06256179 0.09331494
0.17301417 0.06256172 0.09331494
0.26638560 0.06256172 0.09331494
0.36972684 0.06256188 0.09331494
0.48128088 0.06256172 0.09331494
0.59997014 0.06256172 0.09331494
0.72504970 0.06256202 0.09331494
0.85596642 0.06256200 0.09331494
0.06256172 0.09331494 0.09331494
0.09331494 0.09331494 0.09331494
0.17301417 0.09331494 0.09331494
0.26638560 0.09331494 0.09331494
0.36972684 0.09331494 0.09331494
0.48128088 0.09331494 0.09331494
0.59997014 0.09331494 0.09331494
0.72504970 0.09331494 0.09331494
0.85596642 0.09331494 0.09331494
0.06256181 0.17301417 0.09331494
0.09331494 0.17301417 0.09331494
0.17301417 0.17301417 0.09331494
0.26638560 0.17301417 0.09331494
0.36972684 0.17301417 0.09331494
0.48128088 0.17301417 0.09331494
0.59997014 0.17301417 0.09331494
0.72504970 0.17301417 0.09331494
0.85596642 0.17301417 0.09331494
0.06256182 0.26638560 0.09331494
0.09331494 0.26638560 0.09331494
0.17301417 0.26638560 0.09331494
0.26638560 0.26638560 0.09331494
0.36972684 0.26638560 0.09331494
0.48128088 0.26638560 0.09331494
0.59997014 0.26638560 0.09331494
0.72504970 0.26638560 0.09331494
0.85596642 0.26638560 0.09331494
0.06256191 0.36972684 0.09331494
0.09331494 0.36972684 0.09331494
0.17301417 0.36972684 0.09331494
0.26638560 0.36972684 0.09331494
0.36972684 0.36972684 0.09331494
0.48128088 0.36972684 0.09331494
0.59997014 0.36972684 0.09331494
0.72504970 0.36972684 0.09331494
0.85596642 0.36972684 0.09331494
0.06256172 0.48128088 0.09331494
0.09331494 0.48128088 0.09331494
0.17301417 0.48128088 0.09331494
0.26638560 0.48128088 0.09331494
0.36972684 0.48128088 0.09331494
0.48128088 0.48128088 0.09331494
0.59997014 0.48128088 0.09331494
0.72504970 0.48128088 0.09331494
0.85596642 0.48128088 0.09331494
0.06256198 0.59997014 0.09331494
0.09331494 0.59997014 0.09331494
0.17301417 0.59997014 0.09331494
0.26638560 0.59997014 0.09331494
0.36972684 0.59997014 0.09331494
0.48128088 0.59997014 0.09331494
0.59997014 0.59997014 0.09331494
0.72504970 0.59997014 0.09331494
0.85596642 0.59997014 0.09331494
0.06256202 0.72504970 0.09331494
0.09331494 0.72504970 0.09331494
0.17301417 0.72504970 0.09331494
0.26638560 0.72504970 0.09331494
0.36972684 0.72504970 0.09331494
0.48128088 0.72504970 0.09331494
0.59997014 0.72504970 0.09331494
0.72504970 0.72504970 0.09331494
0.85596642 0.72504970 0.09331494
0.06256197 0.85596642 0.09331494
0.09331494 0.85596642 0.09331494
0.17301417 0.85596642 0.09331494
0.26638560 0.85596642 0.09331494
0.36972684 0.85596642 0.09331494
0.48128088 0.85596642 0.09331494
0.59997014 0.85596642 0.09331494
0.72504970 0.85596642 0.09331494
0.85596642 0.85596642 0.09331494
0.06256180 0.06256182 0.17301417
0.09331494 0.06256172 0.17301417
0.17301417 0.06256182 0.17301417
0.26638560 0.06256172 0.17301417
0.36972684 0.06256188 0.17301417
0.48128088 0.06256172 0.17301417
0.59997014 0.06256194 0.17301417
0.72504970 0.06256203 0.17301417
0.85596642 0.06256214 0.17301417
0.06256172 0.09331494 0.17301417
0.09331494 0.09331494 0.17301417
0.17301417 0.09331494 0.17301417
0.26638560 0.09331494 0.17301417
0.36972684 0.09331494 0.17301417
0.48128088 0.09331494 0.17301417
0.59997014 0.09331494 0.17301417
0.72504970 0.09331494 0.17301417
0.85596642 0.09331494 0.17301417
0.06256181 0.17301417 0.17301417
0.09331494 0.17301417 0.17301417
0.17301417 0.17301417 0.17301417
0.26638560 0.17301417 0.17301417
0.36972684 0.17301417 0.17301417
0.48128088 0.17301417 0.17301417
0.59997014 0.17301417 0.17301417
0.72504970 0.17301417 0.17301417
0.85596642 0.17301417 0.17301417
0.06256185 0.26638560 0.17301417
0.09331494 0.26638560 0.17301417
0.17301417 0.26638560 0.17301417
0.26638560 0.26638560 0.17301417
0.36972684 0.26638560 0.17301417
0.48128088 0.26638560 0.17301417
0.59997014 0.26638560 0.17301417
0.72504970 0.26638560 0.17301417
0.85596642 0.26638560 0.17301417
0.06256189 0.36972684 0.17301417
0.09331494 0.36972684 0.17301417
0.17301417 0.36972684 0.17301417
0.26638560 0.36972684 0.17301417
0.36972684 0.36972684 0.17301417
0.48128088 0.36972684 0.17301417
0.59997014 0.36972684 0.17301417
0.72504970 0.36972684 0.17301417
0.85596642 0.36972684 0.17301417
0.06256194 0.48128088 0.17301417
0.09331494 0.48128088 0.17301417
0.17301417 0.48128088 0.17301417
0.26638560 0.48128088 0.17301417
0.36972684 0.48128088 0.17301417
0.48128088 0.48128088 0.17301417
0.59997014 0.48128088 0.17301417
0.72504970 0.48128088 0.17301417
0.85596642 0.48128088 0.17301417
0.06256172 0.59997014 0.17301417
0.09331494 0.59997014 0.17301417
0.17301417 0.59997014 0.17301417
0.26638560 0.59997014 0.17301417
0.36972684 0.59997014 0.17301417
0.48128088 0.59997014 0.17301417
0.59997014 0.59997014 0.17301417
0.72504970 0.59997014 0.17301417
0.85596642 0.59997014 0.17301417
0.06256208 0.72504970 0.17301417
0.09331494 0.72504970 0.17301417
0.17301417 0.72504970 0.17301417
0.26638560 0.72504970 0.17301417
0.36972684 0.72504970 0.17301417
0.48128088 0.72504970 0.17301417
0.59997014 0.72504970 0.17301417
0.72504970 0.72504970 0.17301417
0.85596642 0.72504970 0.17301417
0.06256172 0.85596642 0.17301417
0.09331494 0.85596642 0.17301417
0.17301417 0.85596642 0.17301417
0.26638560 0.85596642 0.17301417
0.36972684 0.85596642 0.17301417
0.48128088 0.85596642 0.17301417
0.59997014 0.85596642 0.17301417
0.72504970 0.85596642 0.17301417
0.85596642 0.85596642 0.17301417
0.06256172 0.06256172 0.26638560
0.09331494 0.06256187 0.26638560
0.17301417 0.06256187 0.26638560
0.26638560 0.06256190 0.26638560
0.36972684 0.06256189 0.26638560
0.48128088 0.06256187 0.26638560
0.59997014 0.06256172 0.26638560
0.72504970 0.06256172 0.26638560
0.85596642 0.06256172 0.26638560
0.06256172 0.09331494 0.26638560
0.09331494 0.09331494 0.26638560
0.17301417 0.09331494 0.26638560
0.26638560 0.09331494 0.26638560
0.36972684 0.09331494 0.26638560
0.48128088 0.09331494 0.26638560
0.59997014 0.09331494 0.26638560
0.72504970 0.09331494 0.26638560
0.85596642 0.09331494 0.26638560
0.06256172 0.17301417 0.26638560
0.09331494 0.17301417 0.26638560
0.17301417 0.17301417 0.26638560
0.26638560 0.17301417 0.26638560
0.36972684 0.17301417 0.26638560
0.48128088 0.17301417 0.26638560
0.59997014 0.17301417 0.26638560
0.72504970 0.17301417 0.26638560
0.85596642 0.17301417 0.26638560
0.06256185 0.26638560 0.26638560
0.09331494 0.26638560 0.26638560
0.17301417 0.26638560 0.26638560
0.26638560 0.26638560 0.26638560
0.36972684 0.26638560 0.26638560
0.48128088 0.26638560 0.26638560
0.59997014 0.26638560 0.26638560
0.72504970 0.26638560 0.26638560
0.85596642 0.26638560 0.26638560
0.06256172 0.36972684 0.26638560
0.09331494 0.36972684 0.26638560
0.17301417 0.36972684 0.26638560
0.26638560 0.36972684 0.26638560
0.36972684 0.36972684 0.26638560
0.48128088 0.36972684 0.26638560
0.59997014 0.36972684 0.26638560
0.72504970 0.36972684 0.26638560
0.85596642 0.36972684 0.26638560
0.06256195 0.48128088 0.26638560
0.09331494 0.48128088 0.26638560
0.17301417 0.48128088 0.26638560
0.26638560 0.48128088 0.26638560
0.36972684 0.48128088 0.26638560
0.48128088 0.48128088 0.26638560
0.59997014 0.48128088 0.26638560
0.72504970 0.48128088 0.26638560
0.85596642 0.48128088 0.26638560
0.06256201 0.59997014 0.26638560
0.09331494 0.59997014 0.26638560
0.17301417 0.59997014 0.26638560
0.26638560 0.59997014 0.26638560
0.36972684 0.59997014 0.26638560
0.48128088 0.59997014 0.26638560
0.59997014 0.59997014 0.26638560
0.72504970 0.59997014 0.26638560
0.85596642 0.59997014 0.26638560
0.06256172 0.72504970 0.26638560
0.09331494 0.72504970 0.26638560
0.17301417 0.72504970 0.26638560
0.26638560 0.72504970 0.26638560
0.36972684 0.72504970 0.26638560
0.48128088 0.72504970 0.26638560
0.59997014 0.72504970 0.26638560
0.72504970 0.72504970 0.26638560
0.85596642 0.72504970 0.26638560
0.06256211 0.85596642 0.26638560
0.09331494 0.85596642 0.26638560
0.17301417 0.85596642 0.26638560
0.26638560 0.85596642 0.26638560
0.36972684 0.85596642 0.26638560
0.48128088 0.85596642 0.26638560
0.59997014 0.85596642 0.26638560
0.72504970 0.85596642 0.26638560
0.85596642 0.85596642 0.26638560
0.06256187 0.06256191 0.36972684
0.09331494 0.06256194 0.36972684
0.17301417 0.06256172 0.36972684
0.26638560 0.06256172 0.36972684
0.36972684 0.06256172 0.36972684
0.48128088 0.06256172 0.36972684
0.59997014 0.06256197 0.36972684
0.72504970 0.06256202 0.36972684
0.85596642 0.06256213 0.36972684
0.06256172 0.09331494 0.36972684
0.09331494 0.09331494 0.36972684
0.17301417 0.09331494 0.36972684
0.26638560 0.09331494 0.36972684
0.36972684 0.09331494 0.36972684
0.48128088 0.09331494 0.36972684
0.59997014 0.09331494 0.36972684
0.72504970 0.09331494 0.36972684
0.85596642 0.09331494 0.36972684
0.06256172 0.17301417 0.36972684
0.09331494 0.17301417 0.36972684
0.17301417 0.17301417 0.36972684
0.26638560 0.17301417 0.36972684
0.36972684 0.17301417 0.36972684
0.48128088 0.17301417 0.36972684
0.59997014 0.17301417 0.36972684
0.72504970 0.17301417 0.36972684
0.85596642 0.17301417 0.36972684
0.06256172 0.26638560 0.36972684
0.09331494 0.26638560 0.36972684
0.17301417 0.26638560 0.36972684
0.26638560 0.26638560 0.36972684
0.36972684 0.26638560 0.36972684
0.48128088 0.26638560 0.36972684
0.59997014 0.26638560 0.36972684
0.72504970 0.26638560 0.36972684
0.85596642 0.26638560 0.36972684
0.06256172 0.36972684 0.36972684
0.09331494 0.36972684 0.36972684
0.17301417 0.36972684 0.36972684
0.26638560 0.36972684 0.36972684
0.36972684 0.36972684 0.36972684
0.48128088 0.36972684 0.36972684
0.59997014 0.36972684 0.36972684
0.72504970 0.36972684 0.36972684
0.85596642 0.36972684 0.36972684
0.06256189 0.48128088 0.36972684
0.09331494 0.48128088 0.36972684
0.17301417 0.48128088 0.36972684
0.26638560 0.48128088 0.36972684
0.36972684 0.48128088 0.36972684
0.48128088 0.48128088 0.36972684
0.59997014 0.48128088 0.36972684
0.72504970 0.48128088 0.36972684
0.85596642 0.48128088 0.36972684
0.06256197 0.59997014 0.36972684
0.09331494 0.59997014 0.36972684
0.17301417 0.59997014 0.36972684
0.26638560 0.59997014 0.36972684
0.36972684 0.59997014 0.36972684
0.48128088 0.59997014 0.36972684
0.59997014 0.59997014 0.36972684
0.72504970 0.59997014 0.36972684
0.85596642 0.59997014 0.36972684
0.06256213 0.72504970 0.36972684
0.09331494 0.72504970 0.36972684
0.17301417 0.72504970 0.36972684
0.26638560 0.72504970 0.36972684
0.36972684 0.72504970 0.36972684
0.48128088 0.72504970 0.36972684
0.59997014 0.72504970 0.36972684
0.72504970 0.72504970 0.36972684
0.85596642 0.72504970 0.36972684
0.06256172 0.85596642 0.36972684
0.09331494 0.85596642 0.36972684
0.17301417 0.85596642 0.36972684
0.26638560 0.85596642 0.36972684
0.36972684 0.85596642 0.36972684
0.48128088 0.85596642 0.36972684
0.59997014 0.85596642 0.36972684
0.72504970 0.85596642 0.36972684
0.85596642 0.85596642 0.36972684
0.06256191 0.06256200 0.48128088
0.09331494 0.06256200 0.48128088
0.17301417 0.06256200 0.48128088
0.26638560 0.06256197 0.48128088
0.36972684 0.06256202 0.48128088
0.48128088 0.06256172 0.48128088
0.59997014 0.06256172 0.48128088
0.72504970 0.06256202 0.48128088
0.85596642 0.06256172 0.48128088
0.06256172 0.09331494 0.48128088
0.09331494 0.09331494 0.48128088
0.17301417 0.09331494 0.48128088
0.26638560 0.09331494 0.48128088
0.36972684 0.09331494 0.48128088
0.48128088 0.09331494 0.48128088
0.59997014 0.09331494 0.48128088
0.72504970 0.09331494 0.48128088
0.85596642 0.09331494 0.48128088
0.06256191 0.17301417 0.48128088
0.09331494 0.17301417 0.48128088
0.17301417 0.17301417 0.48128088
0.26638560 0.17301417 0.48128088
0.36972684 0.17301417 0.48128088
0.48128088 0.17301417 0.48128088
0.59997014 0.17301417 0.48128088
0.72504970 0.17301417 0.48128088
0.85596642 0.17301417 0.48128088
0.06256172 0.26638560 0.48128088
0.09331494 0.26638560 0.48128088
0.17301417 0.26638560 0.48128088
0.26638560 0.26638560 0.48128088
0.36972684 0.26638560 0.48128088
0.48128088 0.26638560 0.48128088
0.59997014 0.26638560 0.48128088
0.72504970 0.26638560 0.48128088
0.85596642 0.26638560 0.48128088
0.06256191 0.36972684 0.48128088
0.09331494 0.36972684 0.48128088
0.17301417 0.36972684 0.48128088
0.26638560 0.36972684 0.48128088
0.36972684 0.36972684 0.48128088
0.48128088 0.36972684 0.48128088
0.59997014 0.36972684 0.48128088
0.72504970 0.36972684 0.48128088
0.85596642 0.36972684 0.48128088
0.06256172 0.48128088 0.48128088
0.09331494 0.48128088 0.48128088
0.17301417 0.48128088 0.48128088
0.26638560 0.48128088 0.48128088
0.36972684 0.48128088 0.48128088
0.48128088 0.48128088 0.48128088
0.59997014 0.48128088 0.48128088
0.72504970 0.48128088 0.48128088
0.85596642 0.48128088 0.48128088
0.06256201 0.59997014 0.48128088
0.09331494 0.59997014 0.48128088
0.17301417 0.59997014 0.48128088
0.26638560 0.59997014 0.48128088
0.36972684 0.59997014 0.48128088
0.48128088 0.59997014 0.48128088
0.59997014 0.59997014 0.48128088
0.72504970 0.59997014 0.48128088
0.85596642 0.59997014 0.48128088
0.06256202 0.72504970 0.48128088
0.09331494 0.72504970 0.48128088
0.17301417 0.72504970 0.48128088
0.26638560 0.72504970 0.48128088
0.36972684 0.72504970 0.48128088
0.48128088 0.72504970 0.48128088
0.59997014 0.72504970 0.48128088
0.72504970 0.72504970 0.48128088
0.85596642 0.72504970 0.48128088
0.06256217 0.85596642 0.48128088
0.09331494 0.85596642 0.48128088
0.17301417 0.85596642 0.48128088
0.26638560 0.85596642 0.48128088
0.36972684 0.85596642 0.48128088
0.48128088 0.85596642 0.48128088
0.59997014 0.85596642 0.48128088
0.72504970 0.85596642 0.48128088
0.85596642 0.85596642 0.48128088
0.06256172 0.06256204 0.59997014
0.09331494 0.06256204 0.59997014
0.17301417 0.06256172 0.59997014
0.26638560 0.06256208 0.59997014
0.36972684 0.06256204 0.59997014
0.48128088 0.06256204 0.59997014
0.59997014 0.06256172 0.59997014
0.72504970 0.06256172 0.59997014
0.85596642 0.06256172 0.59997014
0.06256172 0.09331494 0.59997014
0.09331494 0.09331494 0.59997014
0.17301417 0.09331494 0.59997014
0.26638560 0.09331494 0.59997014
0.36972684 0.09331494 0.59997014
0.48128088 0.09331494 0.59997014
0.59997014 0.09331494 0.59997014
0.72504970 0.09331494 0.59997014
0.85596642 0.09331494 0.59997014
0.06256172 0.17301417 0.59997014
0.09331494 0.17301417 0.59997014
0.17301417 0.17301417 0.59997014
0.26638560 0.17301417 0.59997014
0.36972684 0.17301417 0.59997014
0.48128088 0.17301417 0.59997014
0.59997014 0.17301417 0.59997014
0.72504970 0.17301417 0.59997014
0.85596642 0.17301417 0.59997014
0.06256172 0.26638560 0.59997014
0.09331494 0.26638560 0.59997014
0.17301417 0.26638560 0.59997014
0.26638560 0.26638560 0.59997014
0.36972684 0.26638560 0.59997014
0.48128088 0.26638560 0.59997014
0.59997014 0.26638560 0.59997014
0.72504970 0.26638560 0.59997014
0.85596642 0.26638560 0.59997014
0.06256172 0.36972684 0.59997014
0.09331494 0.36972684 0.59997014
0.17301417 0.36972684 0.59997014
0.26638560 0.36972684 0.59997014
0.36972684 0.36972684 0.59997014
0.48128088 0.36972684 0.59997014
0.59997014 0.36972684 0.59997014
0.72504970 0.36972684 0.59997014
0.85596642 0.36972684 0.59997014
0.06256172 0.48128088 0.59997014
0.09331494 0.48128088 0.59997014
0.17301417 0.48128088 0.59997014
0.26638560 0.48128088 0.59997014
0.36972684 0.48128088 0.59997014
0.48128088 0.48128088 0.59997014
0.59997014 0.48128088 0.59997014
0.72504970 0.48128088 0.59997014
0.85596642 0.48128088 0.59997014
0.06256172 0.59997014 0.59997014
0.09331494 0.59997014 0.59997014
0.17301417 0.59997014 0.59997014
0.26638560 0.59997014 0.59997014
0.36972684 0.59997014 0.59997014
0.48128088 0.59997014 0.59997014
0.59997014 0.59997014 0.59997014
0.72504970 0.59997014 0.59997014
0.85596642 0.59997014 0.59997014
0.06256200 0.72504970 0.59997014
0.09331494 0.72504970 0.59997014
0.17301417 0.72504970 0.59997014
0.26638560 0.72504970 0.59997014
0.36972684 0.72504970 0.59997014
0.48128088 0.72504970 0.59997014
0.59997014 0.72504970 0.59997014
0.72504970 0.72504970 0.59997014
0.85596642 0.72504970 0.59997014
0.06256213 0.85596642 0.59997014
0.09331494 0.85596642 0.59997014
0.17301417 0.85596642 0.59997014
0.26638560 0.85596642 0.59997014
0.36972684 0.85596642 0.59997014
0.48128088 0.85596642 0.59997014
0.59997014 0.85596642 0.59997014
0.72504970 0.85596642 0.59997014
0.85596642 0.85596642 0.59997014
0.06256172 0.06256219 0.72504970
0.09331494 0.06256213 0.72504970
0.17301417 0.06256213 0.72504970
0.26638560 0.06256213 0.72504970
0.36972684 0.06256172 0.72504970
0.48128088 0.06256213 0.72504970
0.59997014 0.06256172 0.72504970
0.72504970 0.06256213 0.72504970
0.85596642 0.06256227 0.72504970
0.06256172 0.09331494 0.72504970
0.09331494 0.09331494 0.72504970
0.17301417 0.09331494 0.72504970
0.26638560 0.09331494 0.72504970
0.36972684 0.09331494 0.72504970
0.48128088 0.09331494 0.72504970
0.59997014 0.09331494 0.72504970
0.72504970 0.09331494 0.72504970
0.85596642 0.09331494 0.72504970
0.06256172 0.17301417 0.72504970
0.09331494 0.17301417 0.72504970
0.17301417 0.17301417 0.72504970
0.26638560 0.17301417 0.72504970
0.36972684 0.17301417 0.72504970
0.48128088 0.17301417 0.72504970
0.59997014 0.17301417 0.72504970
0.72504970 0.17301417 0.72504970
0.85596642 0.17301417 0.72504970
0.06256172 0.26638560 0.72504970
0.09331494 0.26638560 0.72504970
0.17301417 0.26638560 0.72504970
0.26638560 0.26638560 0.72504970
0.36972684 0.26638560 0.72504970
0.48128088 0.26638560 0.72504970
0.59997014 0.26638560 0.72504970
0.72504970 0.26638560 0.72504970
0.85596642 0.26638560 0.72504970
0.06256172 0.36972684 0.72504970
0.09331494 0.36972684 0.72504970
0.17301417 0.36972684 0.72504970
0.26638560 0.36972684 0.72504970
0.36972684 0.36972684 0.72504970
0.48128088 0.36972684 0.72504970
0.59997014 0.36972684 0.72504970
0.72504970 0.36972684 0.72504970
0.85596642 0.36972684 0.72504970
0.06256172 0.48128088 0.72504970
0.09331494 0.48128088 0.72504970
0.17301417 0.48128088 0.72504970
0.26638560 0.48128088 0.72504970
0.36972684 0.48128088 0.72504970
0.48128088 0.48128088 0.72504970
0.59997014 0.48128088 0.72504970
0.72504970 0.48128088 0.72504970
0.85596642 0.48128088 0.72504970
0.06256172 0.59997014 0.72504970
0.09331494 0.59997014 0.72504970
0.17301417 0.59997014 0.72504970
0.26638560 0.59997014 0.72504970
0.36972684 0.59997014 0.72504970
0.48128088 0.59997014 0.72504970
0.59997014 0.59997014 0.72504970
0.72504970 0.59997014 0.72504970
0.85596642 0.59997014 0.72504970
0.06256204 0.72504970 0.72504970
0.09331494 0.72504970 0.72504970
0.17301417 0.72504970 0.72504970
0.26638560 0.72504970 0.72504970
0.36972684 0.72504970 0.72504970
0.48128088 0.72504970 0.72504970
0.59997014 0.72504970 0.72504970
0.72504970 0.72504970 0.72504970
0.85596642 0.72504970 0.72504970
0.06256219 0.85596642 0.72504970
0.09331494 0.85596642 0.72504970
0.17301417 0.85596642 0.72504970
0.26638560 0.85596642 0.72504970
0.36972684 0.85596642 0.72504970
0.48128088 0.85596642 0.72504970
0.59997014 0.85596642 0.72504970
0.72504970 0.85596642 0.72504970
0.85596642 0.85596642 0.72504970
0.06256172 0.06256235 0.85596642
0.09331494 0.06256172 0.85596642
0.17301417 0.06256235 0.85596642
0.26638560 0.06256227 0.85596642
0.36972684 0.06256227 0.85596642
0.48128088 0.06256227 0.85596642
0.59997014 0.06256227 0.85596642
0.72504970 0.06256172 0.85596642
0.85596642 0.06256227 0.85596642
0.06256213 0.09331494 0.85596642
0.09331494 0.09331494 0.85596642
0.17301417 0.09331494 0.85596642
0.26638560 0.09331494 0.85596642
0.36972684 0.09331494 0.85596642
0.48128088 0.09331494 0.85596642
0.59997014 0.09331494 0.85596642
0.72504970 0.09331494 0.85596642
0.85596642 0.09331494 0.85596642
0.06256172 0.17301417 0.85596642
0.09331494 0.17301417 0.85596642
0.17301417 0.17301417 0.85596642
0.26638560 0.17301417 0.85596642
0.36972684 0.17301417 0.85596642
0.48128088 0.17301417 0.85596642
0.59997014 0.17301417 0.85596642
0.72504970 0.17301417 0.85596642
0.85596642 0.17301417 0.85596642
0.06256172 0.26638560 0.85596642
0.09331494 0.26638560 0.85596642
0.17301417 0.26638560 0.85596642
0.26638560 0.26638560 0.85596642
0.36972684 0.26638560 0.85596642
0.48128088 0.26638560 0.85596642
0.59997014 0.26638560 0.85596642
0.72504970 0.26638560 0.85596642
0.85596642 0.26638560 0.85596642
0.06256172 0.36972684 0.85596642
0.09331494 0.36972684 0.85596642
0.17301417 0.36972684 0.85596642
0.26638560 0.36972684 0.85596642
0.36972684 0.36972684 0.85596642
0.48128088 0.36972684 0.85596642
0.59997014 0.36972684 0.85596642
0.72504970 0.36972684 0.85596642
0.85596642 0.36972684 0.85596642
0.06256172 0.48128088 0.85596642
0.09331494 0.48128088 0.85596642
0.17301417 0.48128088 0.85596642
0.26638560 0.48128088 0.85596642
0.36972684 0.48128088 0.85596642
0.48128088 0.48128088 0.85596642
0.59997014 0.48128088 0.85596642
0.72504970 0.48128088 0.85596642
0.85596642 0.48128088 0.85596642
0.06256172 0.59997014 0.85596642
0.09331494 0.59997014 0.85596642
0.17301417 0.59997014 0.85596642
0.26638560 0.59997014 0.85596642
0.36972684 0.59997014 0.85596642
0.48128088 0.59997014 0.85596642
0.59997014 0.59997014 0.85596642
0.72504970 0.59997014 0.85596642
0.85596642 0.59997014 0.85596642
0.06256172 0.72504970 0.85596642
0.09331494 0.72504970 0.85596642
0.17301417 0.72504970 0.85596642
0.26638560 0.72504970 0.85596642
0.36972684 0.72504970 0.85596642
0.48128088 0.72504970 0.85596642
0.59997014 0.72504970 0.85596642
0.72504970 0.72504970 0.85596642
0.85596642 0.72504970 0.85596642
0.06256219 0.85596642 0.85596642
0.09331494 0.85596642 0.85596642
0.17301417 0.85596642 0.85596642
0.26638560 0.85596642 0.85596642
0.36972684 0.85596642 0.85596642
0.48128088 0.85596642 0.85596642
0.59997014 0.85596642 0.85596642
0.72504970 0.85596642 0.85596642
0.85596642 0.85596642 0.85596642
