src/ffmpeg_scripts/luts/luminance_-4p00.cube
TITLE "luminance_-4p00"
LUT_3D_SIZE 33
# PQ (EOTF Only)/Rec2020 -> PQ (EOTF Only)/Rec2020, CineEI Shift -4.00, Black Level 0.00% IRE, Input 109% -> Output 109% - Created with LUTCalc v4.01 by Ben Turley October 2020
0.06256172 0.06256172 0.06256172
0.06256172 0.06256172 0.06256172
0.06256172 0.06256172 0.06256172
0.07017873 0.06256175 0.06256172
0.08012003 0.06256175 0.06256172
0.09169507 0.06256172 0.06256172
0.10464120 0.06256172 0.06256177
0.11880723 0.06256177 0.06256172
0.13409177 0.06256172 0.06256172
0.15042084 0.06256172 0.06256179
0.16773752 0.06256180 0.06256172
0.18599623 0.06256180 0.06256172
0.20515952 0.06256172 0.06256172
0.22519589 0.06256181 0.06256181
0.24607841 0.06256172 0.06256172
0.26778370 0.06256172 0.06256172
0.29029128 0.06256184 0.06256184
0.31358297 0.06256181 0.06256184
0.33764253 0.06256172 0.06256172
0.36245535 0.06256172 0.06256172
0.38800817 0.06256172 0.06256172
0.41428894 0.06256172 0.06256172
0.44128661 0.06256184 0.06256189
0.46899101 0.06256172 0.06256172
0.49739275 0.06256172 0.06256172
0.52648314 0.06256172 0.06256172
0.55625410 0.06256191 0.06256172
0.58669808 0.06256191 0.06256172
0.61780803 0.06256191 0.06256172
0.64957733 0.06256198 0.06256172
0.68199978 0.06256172 0.06256172
0.71506952 0.06256198 0.06256172
0.74878104 0.06256198 0.06256172
0.06256172 0.06256172 0.06256172
0.06256172 0.06256172 0.06256172
0.06256172 0.06256172 0.06256172
0.07017873 0.06256175 0.06256172
0.08012003 0.06256175 0.06256172
0.09169507 0.06256172 0.06256172
0.10464120 0.06256172 0.06256177
0.11880723 0.06256177 0.06256172
0.13409177 0.06256172 0.06256172
0.15042084 0.06256172 0.06256179
0.16773752 0.06256180 0.06256172
0.18599623 0.06256180 0.06256172
0.20515952 0.06256172 0.06256172
0.22519589 0.06256181 0.06256181
0.24607841 0.06256172 0.06256172
0.26778370 0.06256172 0.06256172
0.29029128 0.06256184 0.06256184
0.31358297 0.06256181 0.06256184
0.33764253 0.06256172 0.06256172
0.36245535 0.06256172 0.06256172
0.38800817 0.06256172 0.06256172
0.41428894 0.06256172 0.06256172
0.44128661 0.06256184 0.06256189
0.46899101 0.06256172 0.06256172
0.49739275 0.06256172 0.06256172
0.52648314 0.06256172 0.06256172
0.55625410 0.06256191 0.06256172
0.58669808 0.06256191 0.06256172
0.61780803 0.06256191 0.06256172
0.64957733 0.06256198 0.06256172
0.68199978 0.06256172 0.06256172
0.71506952 0.06256198 0.06256172
0.74878104 0.06256198 0.06256172
0.06256172 0.06256172 0.06256172
0.06256172 0.06256172 0.06256172
0.06256172 0.06256172 0.06256172
0.07017873 0.06256175 0.06256172
0.08012003 0.06256175 0.06256172
0.09169507 0.06256172 0.06256172
0.10464120 0.06256172 0.06256177
0.11880723 0.06256177 0.06256172
0.13409177 0.06256172 0.06256172
0.15042084 0.06256172 0.06256179
0.16773752 0.06256180 0.06256172
0.18599623 0.06256180 0.06256172
0.20515952 0.06256172 0.06256172
0.22519589 0.06256181 0.06256181
0.24607841 0.06256172 0.06256172
0.26778370 0.06256172 0.06256172
0.29029128 0.06256184 0.06256184
0.31358297 0.06256181 0.06256184
0.33764253 0.06256172 0.06256172
0.36245535 0.06256172 0.06256172
0.38800817 0.06256172 0.06256172
0.41428894 0.06256172 0.06256172
0.44128661 0.06256184 0.06256189
0.46899101 0.06256172 0.06256172
0.49739275 0.06256172 0.06256172
0.52648314 0.06256172 0.06256172
0.55625410 0.06256191 0.06256172
0.58669808 0.06256191 0.06256172
0.61780803 0.06256191 0.06256172
0.64957733 0.06256198 0.06256172
0.68199978 0.06256172 0.06256172
0.71506952 0.06256198 0.06256172
0.74878104 0.06256198 0.06256172
0.06256175 0.07017873 0.06256172
0.06256175 0.07017873 0.06256172
0.06256175 0.07017873 0.06256172
0.07017873 0.07017873 0.06256172
0.08012003 0.07017873 0.06256172
0.09169507 0.07017873 0.06256172
0.10464120 0.07017873 0.06256172
0.11880723 0.07017873 0.06256172
0.13409177 0.07017873 0.06256172
0.15042084 0.07017873 0.06256172
0.16773752 0.07017873 0.06256172
0.18599623 0.07017873 0.06256172
0.20515952 0.07017873 0.06256172
0.22519589 0.07017873 0.06256172
0.24607841 0.07017873 0.06256172
0.26778370 0.07017873 0.06256172
0.29029128 0.07017873 0.06256172
0.31358297 0.07017873 0.06256172
0.33764253 0.07017873 0.06256172
0.36245535 0.07017873 0.06256172
0.38800817 0.07017873 0.06256172
0.41428894 0.07017873 0.06256172
0.44128661 0.07017873 0.06256172
0.46899101 0.07017873 0.06256189
0.49739275 0.07017873 0.06256172
0.52648314 0.07017873 0.06256172
0.55625410 0.07017873 0.06256172
0.58669808 0.07017873 0.06256172
0.61780803 0.07017873 0.06256172
0.64957733 0.07017873 0.06256172
0.68199978 0.07017873 0.06256200
0.71506952 0.07017873 0.06256200
0.74878104 0.07017873 0.06256172
0.06256177 0.08012003 0.06256172
0.06256177 0.08012003 0.06256172
0.06256177 0.08012003 0.06256172
0.07017873 0.08012003 0.06256172
0.08012003 0.08012003 0.06256172
0.09169507 0.08012003 0.06256172
0.10464120 0.08012003 0.06256172
0.11880723 0.08012003 0.06256178
0.13409177 0.08012003 0.06256172
0.15042084 0.08012003 0.06256172
0.16773752 0.08012003 0.06256172
0.18599623 0.08012003 0.06256180
0.20515952 0.08012003 0.06256172
0.22519589 0.08012003 0.06256172
0.24607841 0.08012003 0.06256172
0.26778370 0.08012003 0.06256172
0.29029128 0.08012003 0.06256172
0.31358297 0.08012003 0.06256172
0.33764253 0.08012003 0.06256172
0.36245535 0.08012003 0.06256172
0.38800817 0.08012003 0.06256172
0.41428894 0.08012003 0.06256172
0.44128661 0.08012003 0.06256172
0.46899101 0.08012003 0.06256189
0.49739275 0.08012003 0.06256172
0.52648314 0.08012003 0.06256172
0.55625410 0.08012003 0.06256172
0.58669808 0.08012003 0.06256172
0.61780803 0.08012003 0.06256197
0.64957733 0.08012003 0.06256172
0.68199978 0.08012003 0.06256172
0.71506952 0.08012003 0.06256172
0.74878104 0.08012003 0.06256172
0.06256177 0.09169507 0.06256172
0.06256177 0.09169507 0.06256172
0.06256177 0.09169507 0.06256172
0.07017873 0.09169507 0.06256172
0.08012003 0.09169507 0.06256177
0.09169507 0.09169507 0.06256172
0.10464120 0.09169507 0.06256172
0.11880723 0.09169507 0.06256172
0.13409177 0.09169507 0.06256172
0.15042084 0.09169507 0.06256172
0.16773752 0.09169507 0.06256179
0.18599623 0.09169507 0.06256172
0.20515952 0.09169507 0.06256172
0.22519589 0.09169507 0.06256172
0.24607841 0.09169507 0.06256182
0.26778370 0.09169507 0.06256172
0.29029128 0.09169507 0.06256172
0.31358297 0.09169507 0.06256172
0.33764253 0.09169507 0.06256172
0.36245535 0.09169507 0.06256172
0.38800817 0.09169507 0.06256172
0.41428894 0.09169507 0.06256172
0.44128661 0.09169507 0.06256189
0.46899101 0.09169507 0.06256172
0.49739275 0.09169507 0.06256172
0.52648314 0.09169507 0.06256172
0.55625410 0.09169507 0.06256172
0.58669808 0.09169507 0.06256172
0.61780803 0.09169507 0.06256172
0.64957733 0.09169507 0.06256172
0.68199978 0.09169507 0.06256172
0.71506952 0.09169507 0.06256172
0.74878104 0.09169507 0.06256204
0.06256177 0.10464120 0.06256172
0.06256177 0.10464120 0.06256172
0.06256177 0.10464120 0.06256172
0.07017873 0.10464120 0.06256172
0.08012003 0.10464120 0.06256172
0.09169507 0.10464120 0.06256172
0.10464120 0.10464120 0.06256178
0.11880723 0.10464120 0.06256172
0.13409177 0.10464120 0.06256172
0.15042084 0.10464120 0.06256172
0.16773752 0.10464120 0.06256172
0.18599623 0.10464120 0.06256172
0.20515952 0.10464120 0.06256172
0.22519589 0.10464120 0.06256181
0.24607841 0.10464120 0.06256172
0.26778370 0.10464120 0.06256172
0.29029128 0.10464120 0.06256172
0.31358297 0.10464120 0.06256172
0.33764253 0.10464120 0.06256172
0.36245535 0.10464120 0.06256172
0.38800817 0.10464120 0.06256172
0.41428894 0.10464120 0.06256172
0.44128661 0.10464120 0.06256189
0.46899101 0.10464120 0.06256172
0.49739275 0.10464120 0.06256172
0.52648314 0.10464120 0.06256172
0.55625410 0.10464120 0.06256172
0.58669808 0.10464120 0.06256194
0.61780803 0.10464120 0.06256172
0.64957733 0.10464120 0.06256172
0.68199978 0.10464120 0.06256200
0.71506952 0.10464120 0.06256172
0.74878104 0.10464120 0.06256172
0.06256179 0.11880723 0.06256178
0.06256179 0.11880723 0.06256178
0.06256179 0.11880723 0.06256178
0.07017873 0.11880723 0.06256172
0.08012003 0.11880723 0.06256172
0.09169507 0.11880723 0.06256178
0.10464120 0.11880723 0.06256172
0.11880723 0.11880723 0.06256172
0.13409177 0.11880723 0.06256172
0.15042084 0.11880723 0.06256172
0.16773752 0.11880723 0.06256179
0.18599623 0.11880723 0.06256172
0.20515952 0.11880723 0.06256172
0.22519589 0.11880723 0.06256172
0.24607841 0.11880723 0.06256182
0.26778370 0.11880723 0.06256182
0.29029128 0.11880723 0.06256184
0.31358297 0.11880723 0.06256172
0.33764253 0.11880723 0.06256185
0.36245535 0.11880723 0.06256172
0.38800817 0.11880723 0.06256172
0.41428894 0.11880723 0.06256172
0.44128661 0.11880723 0.06256189
0.46899101 0.11880723 0.06256189
0.49739275 0.11880723 0.06256172
0.52648314 0.11880723 0.06256172
0.55625410 0.11880723 0.06256172
0.58669808 0.11880723 0.06256172
0.61780803 0.11880723 0.06256172
0.64957733 0.11880723 0.06256172
0.68199978 0.11880723 0.06256172
0.71506952 0.11880723 0.06256172
0.74878104 0.11880723 0.06256172
0.06256172 0.13409177 0.06256172
0.06256172 0.13409177 0.06256172
0.06256172 0.13409177 0.06256172
0.07017873 0.13409177 0.06256179
0.08012003 0.13409177 0.06256172
0.09169507 0.13409177 0.06256172
0.10464120 0.13409177 0.06256172
0.11880723 0.13409177 0.06256172
0.13409177 0.13409177 0.06256172
0.15042084 0.13409177 0.06256172
0.16773752 0.13409177 0.06256172
0.18599623 0.13409177 0.06256172
0.20515952 0.13409177 0.06256172
0.22519589 0.13409177 0.06256181
0.24607841 0.13409177 0.06256172
0.26778370 0.13409177 0.06256172
0.29029128 0.13409177 0.06256172
0.31358297 0.13409177 0.06256184
0.33764253 0.13409177 0.06256172
0.36245535 0.13409177 0.06256172
0.38800817 0.13409177 0.06256172
0.41428894 0.13409177 0.06256172
0.44128661 0.13409177 0.06256172
0.46899101 0.13409177 0.06256172
0.49739275 0.13409177 0.06256172
0.52648314 0.13409177 0.06256172
0.55625410 0.13409177 0.06256172
0.58669808 0.13409177 0.06256172
0.61780803 0.13409177 0.06256172
0.64957733 0.13409177 0.06256172
0.68199978 0.13409177 0.06256172
0.71506952 0.13409177 0.06256172
0.74878104 0.13409177 0.06256172
0.06256181 0.15042084 0.06256172
0.06256181 0.15042084 0.06256172
0.06256181 0.15042084 0.06256172
0.07017873 0.15042084 0.06256172
0.08012003 0.15042084 0.06256172
0.09169507 0.15042084 0.06256179
0.10464120 0.15042084 0.06256172
0.11880723 0.15042084 0.06256172
0.13409177 0.15042084 0.06256179
0.15042084 0.15042084 0.06256172
0.16773752 0.15042084 0.06256180
0.18599623 0.15042084 0.06256180
0.20515952 0.15042084 0.06256172
0.22519589 0.15042084 0.06256181
0.24607841 0.15042084 0.06256172
0.26778370 0.15042084 0.06256172
0.29029128 0.15042084 0.06256184
0.31358297 0.15042084 0.06256172
0.33764253 0.15042084 0.06256172
0.36245535 0.15042084 0.06256172
0.38800817 0.15042084 0.06256172
0.41428894 0.15042084 0.06256172
0.44128661 0.15042084 0.06256172
0.46899101 0.15042084 0.06256172
0.49739275 0.15042084 0.06256191
0.52648314 0.15042084 0.06256172
0.55625410 0.15042084 0.06256172
0.58669808 0.15042084 0.06256172
0.61780803 0.15042084 0.06256172
0.64957733 0.15042084 0.06256172
0.68199978 0.15042084 0.06256200
0.71506952 0.15042084 0.06256172
0.74878104 0.15042084 0.06256172
0.06256183 0.16773752 0.06256172
0.06256183 0.16773752 0.06256172
0.06256183 0.16773752 0.06256172
0.07017873 0.16773752 0.06256172
0.08012003 0.16773752 0.06256172
0.09169507 0.16773752 0.06256172
0.10464120 0.16773752 0.06256172
0.11880723 0.16773752 0.06256172
0.13409177 0.16773752 0.06256172
0.15042084 0.16773752 0.06256172
0.16773752 0.16773752 0.06256172
0.18599623 0.16773752 0.06256172
0.20515952 0.16773752 0.06256172
0.22519589 0.16773752 0.06256172
0.24607841 0.16773752 0.06256172
0.26778370 0.16773752 0.06256172
0.29029128 0.16773752 0.06256184
0.31358297 0.16773752 0.06256184
0.33764253 0.16773752 0.06256172
0.36245535 0.16773752 0.06256172
0.38800817 0.16773752 0.06256172
0.41428894 0.16773752 0.06256172
0.44128661 0.16773752 0.06256172
0.46899101 0.16773752 0.06256189
0.49739275 0.16773752 0.06256172
0.52648314 0.16773752 0.06256172
0.55625410 0.16773752 0.06256172
0.58669808 0.16773752 0.06256172
0.61780803 0.16773752 0.06256172
0.64957733 0.16773752 0.06256172
0.68199978 0.16773752 0.06256200
0.71506952 0.16773752 0.06256172
0.74878104 0.16773752 0.06256172
0.06256181 0.18599623 0.06256172
0.06256181 0.18599623 0.06256172
0.06256181 0.18599623 0.06256172
0.07017873 0.18599623 0.06256172
0.08012003 0.18599623 0.06256172
0.09169507 0.18599623 0.06256172
0.10464120 0.18599623 0.06256172
0.11880723 0.18599623 0.06256172
0.13409177 0.18599623 0.06256172
0.15042084 0.18599623 0.06256172
0.16773752 0.18599623 0.06256172
0.18599623 0.18599623 0.06256172
0.20515952 0.18599623 0.06256172
0.22519589 0.18599623 0.06256172
0.24607841 0.18599623 0.06256182
0.26778370 0.18599623 0.06256172
0.29029128 0.18599623 0.06256172
0.31358297 0.18599623 0.06256172
0.33764253 0.18599623 0.06256172
0.36245535 0.18599623 0.06256172
0.38800817 0.18599623 0.06256172
0.41428894 0.18599623 0.06256172
0.44128661 0.18599623 0.06256172
0.46899101 0.18599623 0.06256189
0.49739275 0.18599623 0.06256172
0.52648314 0.18599623 0.06256191
0.55625410 0.18599623 0.06256172
0.58669808 0.18599623 0.06256172
0.61780803 0.18599623 0.06256172
0.64957733 0.18599623 0.06256172
0.68199978 0.18599623 0.06256172
0.71506952 0.18599623 0.06256172
0.74878104 0.18599623 0.06256172
0.06256182 0.20515952 0.06256181
0.06256182 0.20515952 0.06256181
0.06256182 0.20515952 0.06256181
0.07017873 0.20515952 0.06256181
0.08012003 0.20515952 0.06256172
0.09169507 0.20515952 0.06256181
0.10464120 0.20515952 0.06256181
0.11880723 0.20515952 0.06256181
0.13409177 0.20515952 0.06256172
0.15042084 0.20515952 0.06256172
0.16773752 0.20515952 0.06256172
0.18599623 0.20515952 0.06256172
0.20515952 0.20515952 0.06256182
0.22519589 0.20515952 0.06256172
0.24607841 0.20515952 0.06256172
0.26778370 0.20515952 0.06256172
0.29029128 0.20515952 0.06256172
0.31358297 0.20515952 0.06256184
0.33764253 0.20515952 0.06256172
0.36245535 0.20515952 0.06256172
0.38800817 0.20515952 0.06256172
0.41428894 0.20515952 0.06256172
0.44128661 0.20515952 0.06256172
0.46899101 0.20515952 0.06256172
0.49739275 0.20515952 0.06256172
0.52648314 0.20515952 0.06256172
0.55625410 0.20515952 0.06256194
0.58669808 0.20515952 0.06256194
0.61780803 0.20515952 0.06256172
0.64957733 0.20515952 0.06256172
0.68199978 0.20515952 0.06256172
0.71506952 0.20515952 0.06256172
0.74878104 0.20515952 0.06256172
0.06256183 0.22519589 0.06256172
0.06256183 0.22519589 0.06256172
0.06256183 0.22519589 0.06256172
0.07017873 0.22519589 0.06256181
0.08012003 0.22519589 0.06256172
0.09169507 0.22519589 0.06256172
0.10464120 0.22519589 0.06256172
0.11880723 0.22519589 0.06256172
0.13409177 0.22519589 0.06256172
0.15042084 0.22519589 0.06256182
0.16773752 0.22519589 0.06256172
0.18599623 0.22519589 0.06256172
0.20515952 0.22519589 0.06256172
0.22519589 0.22519589 0.06256182
0.24607841 0.22519589 0.06256172
0.26778370 0.22519589 0.06256172
0.29029128 0.22519589 0.06256172
0.31358297 0.22519589 0.06256172
0.33764253 0.22519589 0.06256172
0.36245535 0.22519589 0.06256185
0.38800817 0.22519589 0.06256172
0.41428894 0.22519589 0.06256172
0.44128661 0.22519589 0.06256172
0.46899101 0.22519589 0.06256172
0.49739275 0.22519589 0.06256172
0.52648314 0.22519589 0.06256191
0.55625410 0.22519589 0.06256172
0.58669808 0.22519589 0.06256172
0.61780803 0.22519589 0.06256172
0.64957733 0.22519589 0.06256172
0.68199978 0.22519589 0.06256200
0.71506952 0.22519589 0.06256172
0.74878104 0.22519589 0.06256172
0.06256172 0.24607841 0.06256182
0.06256172 0.24607841 0.06256182
0.06256172 0.24607841 0.06256182
0.07017873 0.24607841 0.06256172
0.08012003 0.24607841 0.06256172
0.09169507 0.24607841 0.06256172
0.10464120 0.24607841 0.06256172
0.11880723 0.24607841 0.06256172
0.13409177 0.24607841 0.06256172
0.15042084 0.24607841 0.06256172
0.16773752 0.24607841 0.06256172
0.18599623 0.24607841 0.06256172
0.20515952 0.24607841 0.06256172
0.22519589 0.24607841 0.06256184
0.24607841 0.24607841 0.06256172
0.26778370 0.24607841 0.06256172
0.29029128 0.24607841 0.06256172
0.31358297 0.24607841 0.06256172
0.33764253 0.24607841 0.06256172
0.36245535 0.24607841 0.06256172
0.38800817 0.24607841 0.06256172
0.41428894 0.24607841 0.06256172
0.44128661 0.24607841 0.06256172
0.46899101 0.24607841 0.06256172
0.49739275 0.24607841 0.06256172
0.52648314 0.24607841 0.06256172
0.55625410 0.24607841 0.06256172
0.58669808 0.24607841 0.06256172
0.61780803 0.24607841 0.06256172
0.64957733 0.24607841 0.06256172
0.68199978 0.24607841 0.06256172
0.71506952 0.24607841 0.06256172
0.74878104 0.24607841 0.06256204
0.06256186 0.26778370 0.06256172
0.06256186 0.26778370 0.06256172
0.06256186 0.26778370 0.06256172
0.07017873 0.26778370 0.06256172
0.08012003 0.26778370 0.06256172
0.09169507 0.26778370 0.06256172
0.10464120 0.26778370 0.06256172
0.11880723 0.26778370 0.06256172
0.13409177 0.26778370 0.06256172
0.15042084 0.26778370 0.06256172
0.16773752 0.26778370 0.06256172
0.18599623 0.26778370 0.06256172
0.20515952 0.26778370 0.06256172
0.22519589 0.26778370 0.06256172
0.24607841 0.26778370 0.06256172
0.26778370 0.26778370 0.06256172
0.29029128 0.26778370 0.06256172
0.31358297 0.26778370 0.06256172
0.33764253 0.26778370 0.06256172
0.36245535 0.26778370 0.06256172
0.38800817 0.26778370 0.06256172
0.41428894 0.26778370 0.06256172
0.44128661 0.26778370 0.06256172
0.46899101 0.26778370 0.06256172
0.49739275 0.26778370 0.06256191
0.52648314 0.26778370 0.06256172
0.55625410 0.26778370 0.06256172
0.58669808 0.26778370 0.06256172
0.61780803 0.26778370 0.06256197
0.64957733 0.26778370 0.06256172
0.68199978 0.26778370 0.06256172
0.71506952 0.26778370 0.06256172
0.74878104 0.26778370 0.06256172
0.06256183 0.29029128 0.06256172
0.06256183 0.29029128 0.06256172
0.06256183 0.29029128 0.06256172
0.07017873 0.29029128 0.06256172
0.08012003 0.29029128 0.06256172
0.09169507 0.29029128 0.06256172
0.10464120 0.29029128 0.06256172
0.11880723 0.29029128 0.06256172
0.13409177 0.29029128 0.06256172
0.15042084 0.29029128 0.06256172
0.16773752 0.29029128 0.06256172
0.18599623 0.29029128 0.06256172
0.20515952 0.29029128 0.06256172
0.22519589 0.29029128 0.06256172
0.24607841 0.29029128 0.06256172
0.26778370 0.29029128 0.06256172
0.29029128 0.29029128 0.06256172
0.31358297 0.29029128 0.06256185
0.33764253 0.29029128 0.06256172
0.36245535 0.29029128 0.06256172
0.38800817 0.29029128 0.06256172
0.41428894 0.29029128 0.06256172
0.44128661 0.29029128 0.06256172
0.46899101 0.29029128 0.06256172
0.49739275 0.29029128 0.06256172
0.52648314 0.29029128 0.06256172
0.55625410 0.29029128 0.06256172
0.58669808 0.29029128 0.06256172
0.61780803 0.29029128 0.06256172
0.64957733 0.29029128 0.06256172
0.68199978 0.29029128 0.06256200
0.71506952 0.29029128 0.06256172
0.74878104 0.29029128 0.06256172
0.06256183 0.31358297 0.06256172
0.06256183 0.31358297 0.06256172
0.06256183 0.31358297 0.06256172
0.07017873 0.31358297 0.06256172
0.08012003 0.31358297 0.06256185
0.09169507 0.31358297 0.06256172
0.10464120 0.31358297 0.06256172
0.11880723 0.31358297 0.06256172
0.13409177 0.31358297 0.06256172
0.15042084 0.31358297 0.06256172
0.16773752 0.31358297 0.06256172
0.18599623 0.31358297 0.06256172
0.20515952 0.31358297 0.06256172
0.22519589 0.31358297 0.06256185
0.24607841 0.31358297 0.06256172
0.26778370 0.31358297 0.06256172
0.29029128 0.31358297 0.06256172
0.31358297 0.31358297 0.06256172
0.33764253 0.31358297 0.06256172
0.36245535 0.31358297 0.06256172
0.38800817 0.31358297 0.06256172
0.41428894 0.31358297 0.06256172
0.44128661 0.31358297 0.06256172
0.46899101 0.31358297 0.06256172
0.49739275 0.31358297 0.06256172
0.52648314 0.31358297 0.06256191
0.55625410 0.31358297 0.06256172
0.58669808 0.31358297 0.06256172
0.61780803 0.31358297 0.06256197
0.64957733 0.31358297 0.06256172
0.68199978 0.31358297 0.06256172
0.71506952 0.31358297 0.06256172
0.74878104 0.31358297 0.06256172
0.06256186 0.33764253 0.06256172
0.06256186 0.33764253 0.06256172
0.06256186 0.33764253 0.06256172
0.07017873 0.33764253 0.06256172
0.08012003 0.33764253 0.06256172
0.09169507 0.33764253 0.06256172
0.10464120 0.33764253 0.06256172
0.11880723 0.33764253 0.06256172
0.13409177 0.33764253 0.06256172
0.15042084 0.33764253 0.06256172
0.16773752 0.33764253 0.06256172
0.18599623 0.33764253 0.06256172
0.20515952 0.33764253 0.06256172
0.22519589 0.33764253 0.06256172
0.24607841 0.33764253 0.06256172
0.26778370 0.33764253 0.06256172
0.29029128 0.33764253 0.06256172
0.31358297 0.33764253 0.06256172
0.33764253 0.33764253 0.06256172
0.36245535 0.33764253 0.06256172
0.38800817 0.33764253 0.06256172
0.41428894 0.33764253 0.06256172
0.44128661 0.33764253 0.06256189
0.46899101 0.33764253 0.06256172
0.49739275 0.33764253 0.06256172
0.52648314 0.33764253 0.06256172
0.55625410 0.33764253 0.06256172
0.58669808 0.33764253 0.06256172
0.61780803 0.33764253 0.06256197
0.64957733 0.33764253 0.06256172
0.68199978 0.33764253 0.06256172
0.71506952 0.33764253 0.06256172
0.74878104 0.33764253 0.06256172
0.06256186 0.36245535 0.06256172
0.06256186 0.36245535 0.06256172
0.06256186 0.36245535 0.06256172
0.07017873 0.36245535 0.06256172
0.08012003 0.36245535 0.06256172
0.09169507 0.36245535 0.06256172
0.10464120 0.36245535 0.06256172
0.11880723 0.36245535 0.06256172
0.13409177 0.36245535 0.06256172
0.15042084 0.36245535 0.06256172
0.16773752 0.36245535 0.06256172
0.18599623 0.36245535 0.06256172
0.20515952 0.36245535 0.06256172
0.22519589 0.36245535 0.06256172
0.24607841 0.36245535 0.06256172
0.26778370 0.36245535 0.06256187
0.29029128 0.36245535 0.06256172
0.31358297 0.36245535 0.06256172
0.33764253 0.36245535 0.06256187
0.36245535 0.36245535 0.06256172
0.38800817 0.36245535 0.06256172
0.41428894 0.36245535 0.06256172
0.44128661 0.36245535 0.06256172
0.46899101 0.36245535 0.06256172
0.49739275 0.36245535 0.06256172
0.52648314 0.36245535 0.06256172
0.55625410 0.36245535 0.06256194
0.58669808 0.36245535 0.06256172
0.61780803 0.36245535 0.06256197
0.64957733 0.36245535 0.06256172
0.68199978 0.36245535 0.06256172
0.71506952 0.36245535 0.06256172
0.74878104 0.36245535 0.06256204
0.06256189 0.38800817 0.06256172
0.06256189 0.38800817 0.06256172
0.06256189 0.38800817 0.06256172
0.07017873 0.38800817 0.06256172
0.08012003 0.38800817 0.06256172
0.09169507 0.38800817 0.06256187
0.10464120 0.38800817 0.06256172
0.11880723 0.38800817 0.06256172
0.13409177 0.38800817 0.06256172
0.15042084 0.38800817 0.06256187
0.16773752 0.38800817 0.06256172
0.18599623 0.38800817 0.06256172
0.20515952 0.38800817 0.06256172
0.22519589 0.38800817 0.06256172
0.24607841 0.38800817 0.06256172
0.26778370 0.38800817 0.06256172
0.29029128 0.38800817 0.06256172
0.31358297 0.38800817 0.06256172
0.33764253 0.38800817 0.06256172
0.36245535 0.38800817 0.06256172
0.38800817 0.38800817 0.06256172
0.41428894 0.38800817 0.06256172
0.44128661 0.38800817 0.06256172
0.46899101 0.38800817 0.06256191
0.49739275 0.38800817 0.06256172
0.52648314 0.38800817 0.06256172
0.55625410 0.38800817 0.06256194
0.58669808 0.38800817 0.06256172
0.61780803 0.38800817 0.06256172
0.64957733 0.38800817 0.06256172
0.68199978 0.38800817 0.06256172
0.71506952 0.38800817 0.06256172
0.74878104 0.38800817 0.06256172
0.06256190 0.41428894 0.06256172
0.06256190 0.41428894 0.06256172
0.06256190 0.41428894 0.06256172
0.07017873 0.41428894 0.06256172
0.08012003 0.41428894 0.06256172
0.09169507 0.41428894 0.06256172
0.10464120 0.41428894 0.06256172
0.11880723 0.41428894 0.06256172
0.13409177 0.41428894 0.06256172
0.15042084 0.41428894 0.06256172
0.16773752 0.41428894 0.06256172
0.18599623 0.41428894 0.06256172
0.20515952 0.41428894 0.06256172
0.22519589 0.41428894 0.06256172
0.24607841 0.41428894 0.06256172
0.26778370 0.41428894 0.06256172
0.29029128 0.41428894 0.06256172
0.31358297 0.41428894 0.06256172
0.33764253 0.41428894 0.06256172
0.36245535 0.41428894 0.06256172
0.38800817 0.41428894 0.06256172
0.41428894 0.41428894 0.06256172
0.44128661 0.41428894 0.06256172
0.46899101 0.41428894 0.06256172
0.49739275 0.41428894 0.06256172
0.52648314 0.41428894 0.06256172
0.55625410 0.41428894 0.06256172
