src/ffmpeg_scripts/luts/luminance-unclipped_1p67.cube
TITLE "luminance-unclipped_1p67"
LUT_3D_SIZE 33
# PQ (EOTF Only)/Rec2020 -> PQ (EOTF Only)/Rec2020, CineEI Shift 1.67, Black Level -7.25% IRE, Input 109% -> Output 109% - Created with LUTCalc v4.01 by Ben Turley October 2020
0.00047898 0.00047898 0.00047898
0.00047898 0.00047898 0.00047898
0.00047898 0.00047898 0.00047898
0.06091457 0.00047904 0.00047898
0.11379047 0.00047907 0.00047898
0.16333402 0.00047898 0.00047898
0.21068032 0.00047909 0.00047909
0.25638565 0.00047898 0.00047898
0.30078275 0.00047898 0.00047898
0.34409349 0.00047898 0.00047898
0.38647640 0.00047898 0.00047898
0.42805045 0.00047916 0.00047916
0.46890816 0.00047898 0.00047898
0.50912353 0.00047898 0.00047898
0.54875709 0.00047918 0.00047898
0.58785922 0.00047898 0.00047898
0.62647255 0.00047920 0.00047927
0.66463354 0.00047920 0.00047927
0.70237380 0.00047928 0.00047898
0.73972092 0.00047939 0.00047898
0.77669923 0.00047898 0.00047898
0.81333032 0.00047898 0.00047898
0.84963350 0.00047898 0.00047898
0.88562609 0.00047898 0.00047898
0.91886608 0.00047898 0.00047898
0.91886608 0.00047931 0.00047898
0.91886608 0.00047944 0.00047898
0.91886608 0.00047950 0.00047898
0.91886608 0.00047898 0.00047953
0.91886608 0.00047950 0.00047898
0.91886608 0.00047898 0.00047898
0.91886608 0.00047898 0.00047898
0.91886608 0.00047989 0.00047971
0.00047898 0.00047898 0.00047898
0.00047898 0.00047898 0.00047898
0.00047898 0.00047898 0.00047898
0.06091457 0.00047904 0.00047898
0.11379047 0.00047907 0.00047898
0.16333402 0.00047898 0.00047898
0.21068032 0.00047909 0.00047909
0.25638565 0.00047898 0.00047898
0.30078275 0.00047898 0.00047898
0.34409349 0.00047898 0.00047898
0.38647640 0.00047898 0.00047898
0.42805045 0.00047916 0.00047916
0.46890816 0.00047898 0.00047898
0.50912353 0.00047898 0.00047898
0.54875709 0.00047918 0.00047898
0.58785922 0.00047898 0.00047898
0.62647255 0.00047920 0.00047927
0.66463354 0.00047920 0.00047927
0.70237380 0.00047928 0.00047898
0.73972092 0.00047939 0.00047898
0.77669923 0.00047898 0.00047898
0.81333032 0.00047898 0.00047898
0.84963350 0.00047898 0.00047898
0.88562609 0.00047898 0.00047898
0.91886608 0.00047898 0.00047898
0.91886608 0.00047931 0.00047898
0.91886608 0.00047944 0.00047898
0.91886608 0.00047950 0.00047898
0.91886608 0.00047898 0.00047953
0.91886608 0.00047950 0.00047898
0.91886608 0.00047898 0.00047898
0.91886608 0.00047898 0.00047898
0.91886608 0.00047989 0.00047971
0.00047898 0.00047898 0.00047898
0.00047898 0.00047898 0.00047898
0.00047898 0.00047898 0.00047898
0.06091457 0.00047904 0.00047898
0.11379047 0.00047907 0.00047898
0.16333402 0.00047898 0.00047898
0.21068032 0.00047909 0.00047909
0.25638565 0.00047898 0.00047898
0.30078275 0.00047898 0.00047898
0.34409349 0.00047898 0.00047898
0.38647640 0.00047898 0.00047898
0.42805045 0.00047916 0.00047916
0.46890816 0.00047898 0.00047898
0.50912353 0.00047898 0.00047898
0.54875709 0.00047918 0.00047898
0.58785922 0.00047898 0.00047898
0.62647255 0.00047920 0.00047927
0.66463354 0.00047920 0.00047927
0.70237380 0.00047928 0.00047898
0.73972092 0.00047939 0.00047898
0.77669923 0.00047898 0.00047898
0.81333032 0.00047898 0.00047898
0.84963350 0.00047898 0.00047898
0.88562609 0.00047898 0.00047898
0.91886608 0.00047898 0.00047898
0.91886608 0.00047931 0.00047898
0.91886608 0.00047944 0.00047898
0.91886608 0.00047950 0.00047898
0.91886608 0.00047898 0.00047953
0.91886608 0.00047950 0.00047898
0.91886608 0.00047898 0.00047898
0.91886608 0.00047898 0.00047898
0.91886608 0.00047989 0.00047971
0.00047907 0.06091457 0.00047898
0.00047907 0.06091457 0.00047898
0.00047907 0.06091457 0.00047898
0.06091457 0.06091457 0.00047906
0.11379047 0.06091457 0.00047898
0.16333402 0.06091457 0.00047898
0.21068032 0.06091457 0.00047898
0.25638565 0.06091457 0.00047898
0.30078275 0.06091457 0.00047898
0.34409349 0.06091457 0.00047914
0.38647640 0.06091457 0.00047898
0.42805045 0.06091457 0.00047898
0.46890816 0.06091457 0.00047898
0.50912353 0.06091457 0.00047898
0.54875709 0.06091457 0.00047920
0.58785922 0.06091457 0.00047898
0.62647255 0.06091457 0.00047898
0.66463354 0.06091457 0.00047898
0.70237380 0.06091457 0.00047898
0.73972092 0.06091457 0.00047898
0.77669923 0.06091457 0.00047931
0.81333032 0.06091457 0.00047898
0.84963350 0.06091457 0.00047935
0.88562609 0.06091457 0.00047940
0.91886608 0.06091457 0.00047898
0.91886608 0.06091457 0.00047898
0.91886608 0.06091457 0.00047898
0.91886608 0.06091457 0.00047898
0.91886608 0.06091457 0.00047898
0.91886608 0.06091457 0.00047898
0.91886608 0.06091457 0.00047961
0.91886608 0.06091457 0.00047971
0.91886608 0.06091457 0.00047983
0.00047909 0.11379047 0.00047898
0.00047909 0.11379047 0.00047898
0.00047909 0.11379047 0.00047898
0.06091457 0.11379047 0.00047898
0.11379047 0.11379047 0.00047898
0.16333402 0.11379047 0.00047898
0.21068032 0.11379047 0.00047910
0.25638565 0.11379047 0.00047914
0.30078275 0.11379047 0.00047898
0.34409349 0.11379047 0.00047914
0.38647640 0.11379047 0.00047898
0.42805045 0.11379047 0.00047898
0.46890816 0.11379047 0.00047898
0.50912353 0.11379047 0.00047898
0.54875709 0.11379047 0.00047920
0.58785922 0.11379047 0.00047898
0.62647255 0.11379047 0.00047898
0.66463354 0.11379047 0.00047927
0.70237380 0.11379047 0.00047898
0.73972092 0.11379047 0.00047898
0.77669923 0.11379047 0.00047898
0.81333032 0.11379047 0.00047898
0.84963350 0.11379047 0.00047898
0.88562609 0.11379047 0.00047940
0.91886608 0.11379047 0.00047898
0.91886608 0.11379047 0.00047898
0.91886608 0.11379047 0.00047946
0.91886608 0.11379047 0.00047898
0.91886608 0.11379047 0.00047953
0.91886608 0.11379047 0.00047898
0.91886608 0.11379047 0.00047898
0.91886608 0.11379047 0.00047898
0.91886608 0.11379047 0.00047898
0.00047898 0.16333402 0.00047898
0.00047898 0.16333402 0.00047898
0.00047898 0.16333402 0.00047898
0.06091457 0.16333402 0.00047898
0.11379047 0.16333402 0.00047898
0.16333402 0.16333402 0.00047898
0.21068032 0.16333402 0.00047912
0.25638565 0.16333402 0.00047898
0.30078275 0.16333402 0.00047898
0.34409349 0.16333402 0.00047914
0.38647640 0.16333402 0.00047898
0.42805045 0.16333402 0.00047898
0.46890816 0.16333402 0.00047898
0.50912353 0.16333402 0.00047920
0.54875709 0.16333402 0.00047898
0.58785922 0.16333402 0.00047923
0.62647255 0.16333402 0.00047898
0.66463354 0.16333402 0.00047898
0.70237380 0.16333402 0.00047898
0.73972092 0.16333402 0.00047898
0.77669923 0.16333402 0.00047931
0.81333032 0.16333402 0.00047935
0.84963350 0.16333402 0.00047898
0.88562609 0.16333402 0.00047898
0.91886608 0.16333402 0.00047898
0.91886608 0.16333402 0.00047898
0.91886608 0.16333402 0.00047898
0.91886608 0.16333402 0.00047953
0.91886608 0.16333402 0.00047953
0.91886608 0.16333402 0.00047898
0.91886608 0.16333402 0.00047898
0.91886608 0.16333402 0.00047898
0.91886608 0.16333402 0.00047971
0.00047907 0.21068032 0.00047898
0.00047907 0.21068032 0.00047898
0.00047907 0.21068032 0.00047898
0.06091457 0.21068032 0.00047898
0.11379047 0.21068032 0.00047898
0.16333402 0.21068032 0.00047898
0.21068032 0.21068032 0.00047898
0.25638565 0.21068032 0.00047912
0.30078275 0.21068032 0.00047898
0.34409349 0.21068032 0.00047898
0.38647640 0.21068032 0.00047898
0.42805045 0.21068032 0.00047918
0.46890816 0.21068032 0.00047898
0.50912353 0.21068032 0.00047920
0.54875709 0.21068032 0.00047923
0.58785922 0.21068032 0.00047898
0.62647255 0.21068032 0.00047898
0.66463354 0.21068032 0.00047927
0.70237380 0.21068032 0.00047898
0.73972092 0.21068032 0.00047898
0.77669923 0.21068032 0.00047898
0.81333032 0.21068032 0.00047898
0.84963350 0.21068032 0.00047935
0.88562609 0.21068032 0.00047940
0.91886608 0.21068032 0.00047898
0.91886608 0.21068032 0.00047898
0.91886608 0.21068032 0.00047898
0.91886608 0.21068032 0.00047898
0.91886608 0.21068032 0.00047953
0.91886608 0.21068032 0.00047898
0.91886608 0.21068032 0.00047961
0.91886608 0.21068032 0.00047898
0.91886608 0.21068032 0.00047898
0.00047914 0.25638565 0.00047898
0.00047914 0.25638565 0.00047898
0.00047914 0.25638565 0.00047898
0.06091457 0.25638565 0.00047898
0.11379047 0.25638565 0.00047898
0.16333402 0.25638565 0.00047898
0.21068032 0.25638565 0.00047898
0.25638565 0.25638565 0.00047898
0.30078275 0.25638565 0.00047898
0.34409349 0.25638565 0.00047898
0.38647640 0.25638565 0.00047918
0.42805045 0.25638565 0.00047898
0.46890816 0.25638565 0.00047918
0.50912353 0.25638565 0.00047898
0.54875709 0.25638565 0.00047920
0.58785922 0.25638565 0.00047923
0.62647255 0.25638565 0.00047898
0.66463354 0.25638565 0.00047898
0.70237380 0.25638565 0.00047927
0.73972092 0.25638565 0.00047898
0.77669923 0.25638565 0.00047898
0.81333032 0.25638565 0.00047898
0.84963350 0.25638565 0.00047898
0.88562609 0.25638565 0.00047898
0.91886608 0.25638565 0.00047898
0.91886608 0.25638565 0.00047946
0.91886608 0.25638565 0.00047898
0.91886608 0.25638565 0.00047898
0.91886608 0.25638565 0.00047898
0.91886608 0.25638565 0.00047898
0.91886608 0.25638565 0.00047898
0.91886608 0.25638565 0.00047898
0.91886608 0.25638565 0.00047898
0.00047898 0.30078275 0.00047898
0.00047898 0.30078275 0.00047898
0.00047898 0.30078275 0.00047898
0.06091457 0.30078275 0.00047914
0.11379047 0.30078275 0.00047898
0.16333402 0.30078275 0.00047898
0.21068032 0.30078275 0.00047898
0.25638565 0.30078275 0.00047898
0.30078275 0.30078275 0.00047898
0.34409349 0.30078275 0.00047898
0.38647640 0.30078275 0.00047898
0.42805045 0.30078275 0.00047898
0.46890816 0.30078275 0.00047898
0.50912353 0.30078275 0.00047898
0.54875709 0.30078275 0.00047898
0.58785922 0.30078275 0.00047898
0.62647255 0.30078275 0.00047923
0.66463354 0.30078275 0.00047898
0.70237380 0.30078275 0.00047898
0.73972092 0.30078275 0.00047898
0.77669923 0.30078275 0.00047898
0.81333032 0.30078275 0.00047898
0.84963350 0.30078275 0.00047935
0.88562609 0.30078275 0.00047898
0.91886608 0.30078275 0.00047898
0.91886608 0.30078275 0.00047946
0.91886608 0.30078275 0.00047898
0.91886608 0.30078275 0.00047953
0.91886608 0.30078275 0.00047898
0.91886608 0.30078275 0.00047898
0.91886608 0.30078275 0.00047898
0.91886608 0.30078275 0.00047898
0.91886608 0.30078275 0.00047898
0.00047917 0.34409349 0.00047898
0.00047917 0.34409349 0.00047898
0.00047917 0.34409349 0.00047898
0.06091457 0.34409349 0.00047898
0.11379047 0.34409349 0.00047898
0.16333402 0.34409349 0.00047898
0.21068032 0.34409349 0.00047898
0.25638565 0.34409349 0.00047898
0.30078275 0.34409349 0.00047898
0.34409349 0.34409349 0.00047898
0.38647640 0.34409349 0.00047898
0.42805045 0.34409349 0.00047918
0.46890816 0.34409349 0.00047898
0.50912353 0.34409349 0.00047920
0.54875709 0.34409349 0.00047898
0.58785922 0.34409349 0.00047898
0.62647255 0.34409349 0.00047927
0.66463354 0.34409349 0.00047927
0.70237380 0.34409349 0.00047927
0.73972092 0.34409349 0.00047898
0.77669923 0.34409349 0.00047898
0.81333032 0.34409349 0.00047898
0.84963350 0.34409349 0.00047898
0.88562609 0.34409349 0.00047898
0.91886608 0.34409349 0.00047940
0.91886608 0.34409349 0.00047946
0.91886608 0.34409349 0.00047898
0.91886608 0.34409349 0.00047898
0.91886608 0.34409349 0.00047953
0.91886608 0.34409349 0.00047898
0.91886608 0.34409349 0.00047961
0.91886608 0.34409349 0.00047898
0.91886608 0.34409349 0.00047898
0.00047919 0.38647640 0.00047898
0.00047919 0.38647640 0.00047898
0.00047919 0.38647640 0.00047898
0.06091457 0.38647640 0.00047898
0.11379047 0.38647640 0.00047898
0.16333402 0.38647640 0.00047898
0.21068032 0.38647640 0.00047898
0.25638565 0.38647640 0.00047898
0.30078275 0.38647640 0.00047898
0.34409349 0.38647640 0.00047898
0.38647640 0.38647640 0.00047898
0.42805045 0.38647640 0.00047898
0.46890816 0.38647640 0.00047898
0.50912353 0.38647640 0.00047898
0.54875709 0.38647640 0.00047898
0.58785922 0.38647640 0.00047898
0.62647255 0.38647640 0.00047923
0.66463354 0.38647640 0.00047898
0.70237380 0.38647640 0.00047898
0.73972092 0.38647640 0.00047898
0.77669923 0.38647640 0.00047898
0.81333032 0.38647640 0.00047898
0.84963350 0.38647640 0.00047898
0.88562609 0.38647640 0.00047898
0.91886608 0.38647640 0.00047898
0.91886608 0.38647640 0.00047898
0.91886608 0.38647640 0.00047898
0.91886608 0.38647640 0.00047898
0.91886608 0.38647640 0.00047898
0.91886608 0.38647640 0.00047898
0.91886608 0.38647640 0.00047898
0.91886608 0.38647640 0.00047898
0.91886608 0.38647640 0.00047898
0.00047917 0.42805045 0.00047898
0.00047917 0.42805045 0.00047898
0.00047917 0.42805045 0.00047898
0.06091457 0.42805045 0.00047898
0.11379047 0.42805045 0.00047898
0.16333402 0.42805045 0.00047898
0.21068032 0.42805045 0.00047898
0.25638565 0.42805045 0.00047898
0.30078275 0.42805045 0.00047898
0.34409349 0.42805045 0.00047898
0.38647640 0.42805045 0.00047898
0.42805045 0.42805045 0.00047898
0.46890816 0.42805045 0.00047898
0.50912353 0.42805045 0.00047898
0.54875709 0.42805045 0.00047898
0.58785922 0.42805045 0.00047898
0.62647255 0.42805045 0.00047898
0.66463354 0.42805045 0.00047898
0.70237380 0.42805045 0.00047927
0.73972092 0.42805045 0.00047898
0.77669923 0.42805045 0.00047898
0.81333032 0.42805045 0.00047898
0.84963350 0.42805045 0.00047898
0.88562609 0.42805045 0.00047898
0.91886608 0.42805045 0.00047898
0.91886608 0.42805045 0.00047946
0.91886608 0.42805045 0.00047898
0.91886608 0.42805045 0.00047898
0.91886608 0.42805045 0.00047898
0.91886608 0.42805045 0.00047898
0.91886608 0.42805045 0.00047961
0.91886608 0.42805045 0.00047898
0.91886608 0.42805045 0.00047898
0.00047922 0.46890816 0.00047920
0.00047922 0.46890816 0.00047920
0.00047922 0.46890816 0.00047920
0.06091457 0.46890816 0.00047918
0.11379047 0.46890816 0.00047898
0.16333402 0.46890816 0.00047920
0.21068032 0.46890816 0.00047898
0.25638565 0.46890816 0.00047920
0.30078275 0.46890816 0.00047898
0.34409349 0.46890816 0.00047898
0.38647640 0.46890816 0.00047898
0.42805045 0.46890816 0.00047898
0.46890816 0.46890816 0.00047923
0.50912353 0.46890816 0.00047898
0.54875709 0.46890816 0.00047898
0.58785922 0.46890816 0.00047898
0.62647255 0.46890816 0.00047898
0.66463354 0.46890816 0.00047898
0.70237380 0.46890816 0.00047898
0.73972092 0.46890816 0.00047898
0.77669923 0.46890816 0.00047898
0.81333032 0.46890816 0.00047935
0.84963350 0.46890816 0.00047935
0.88562609 0.46890816 0.00047898
0.91886608 0.46890816 0.00047898
0.91886608 0.46890816 0.00047898
0.91886608 0.46890816 0.00047946
0.91886608 0.46890816 0.00047898
0.91886608 0.46890816 0.00047953
0.91886608 0.46890816 0.00047898
0.91886608 0.46890816 0.00047961
0.91886608 0.46890816 0.00047898
0.91886608 0.46890816 0.00047898
0.00047921 0.50912353 0.00047898
0.00047921 0.50912353 0.00047898
0.00047921 0.50912353 0.00047898
0.06091457 0.50912353 0.00047920
0.11379047 0.50912353 0.00047898
0.16333402 0.50912353 0.00047898
0.21068032 0.50912353 0.00047920
0.25638565 0.50912353 0.00047898
0.30078275 0.50912353 0.00047898
0.34409349 0.50912353 0.00047898
0.38647640 0.50912353 0.00047920
0.42805045 0.50912353 0.00047898
0.46890816 0.50912353 0.00047898
0.50912353 0.50912353 0.00047898
0.54875709 0.50912353 0.00047898
0.58785922 0.50912353 0.00047898
0.62647255 0.50912353 0.00047898
0.66463354 0.50912353 0.00047898
0.70237380 0.50912353 0.00047931
0.73972092 0.50912353 0.00047898
0.77669923 0.50912353 0.00047898
0.81333032 0.50912353 0.00047898
0.84963350 0.50912353 0.00047898
0.88562609 0.50912353 0.00047898
0.91886608 0.50912353 0.00047898
0.91886608 0.50912353 0.00047898
0.91886608 0.50912353 0.00047946
0.91886608 0.50912353 0.00047953
0.91886608 0.50912353 0.00047898
0.91886608 0.50912353 0.00047898
0.91886608 0.50912353 0.00047898
0.91886608 0.50912353 0.00047898
0.91886608 0.50912353 0.00047898
0.00047922 0.54875709 0.00047898
0.00047922 0.54875709 0.00047898
0.00047922 0.54875709 0.00047898
0.06091457 0.54875709 0.00047898
0.11379047 0.54875709 0.00047898
0.16333402 0.54875709 0.00047898
0.21068032 0.54875709 0.00047923
0.25638565 0.54875709 0.00047898
0.30078275 0.54875709 0.00047923
0.34409349 0.54875709 0.00047898
0.38647640 0.54875709 0.00047898
0.42805045 0.54875709 0.00047923
0.46890816 0.54875709 0.00047898
0.50912353 0.54875709 0.00047923
0.54875709 0.54875709 0.00047898
0.58785922 0.54875709 0.00047927
0.62647255 0.54875709 0.00047927
0.66463354 0.54875709 0.00047927
0.70237380 0.54875709 0.00047898
0.73972092 0.54875709 0.00047898
0.77669923 0.54875709 0.00047898
0.81333032 0.54875709 0.00047898
0.84963350 0.54875709 0.00047935
0.88562609 0.54875709 0.00047898
0.91886608 0.54875709 0.00047940
0.91886608 0.54875709 0.00047898
0.91886608 0.54875709 0.00047898
0.91886608 0.54875709 0.00047953
0.91886608 0.54875709 0.00047898
0.91886608 0.54875709 0.00047898
0.91886608 0.54875709 0.00047898
0.91886608 0.54875709 0.00047898
0.91886608 0.54875709 0.00047971
0.00047930 0.58785922 0.00047898
0.00047930 0.58785922 0.00047898
0.00047930 0.58785922 0.00047898
0.06091457 0.58785922 0.00047898
0.11379047 0.58785922 0.00047898
0.16333402 0.58785922 0.00047898
0.21068032 0.58785922 0.00047898
0.25638565 0.58785922 0.00047898
0.30078275 0.58785922 0.00047898
0.34409349 0.58785922 0.00047898
0.38647640 0.58785922 0.00047898
0.42805045 0.58785922 0.00047898
0.46890816 0.58785922 0.00047898
0.50912353 0.58785922 0.00047898
0.54875709 0.58785922 0.00047898
0.58785922 0.58785922 0.00047898
0.62647255 0.58785922 0.00047898
0.66463354 0.58785922 0.00047898
0.70237380 0.58785922 0.00047931
0.73972092 0.58785922 0.00047898
0.77669923 0.58785922 0.00047898
0.81333032 0.58785922 0.00047898
0.84963350 0.58785922 0.00047935
0.88562609 0.58785922 0.00047898
0.91886608 0.58785922 0.00047898
0.91886608 0.58785922 0.00047898
0.91886608 0.58785922 0.00047898
0.91886608 0.58785922 0.00047953
0.91886608 0.58785922 0.00047898
0.91886608 0.58785922 0.00047898
0.91886608 0.58785922 0.00047961
0.91886608 0.58785922 0.00047898
0.91886608 0.58785922 0.00047971
0.00047898 0.62647255 0.00047898
0.00047898 0.62647255 0.00047898
0.00047898 0.62647255 0.00047898
0.06091457 0.62647255 0.00047898
0.11379047 0.62647255 0.00047898
0.16333402 0.62647255 0.00047898
0.21068032 0.62647255 0.00047898
0.25638565 0.62647255 0.00047898
0.30078275 0.62647255 0.00047898
0.34409349 0.62647255 0.00047898
0.38647640 0.62647255 0.00047898
0.42805045 0.62647255 0.00047898
0.46890816 0.62647255 0.00047898
0.50912353 0.62647255 0.00047898
0.54875709 0.62647255 0.00047927
0.58785922 0.62647255 0.00047898
0.62647255 0.62647255 0.00047898
0.66463354 0.62647255 0.00047898
0.70237380 0.62647255 0.00047898
0.73972092 0.62647255 0.00047898
0.77669923 0.62647255 0.00047898
0.81333032 0.62647255 0.00047898
0.84963350 0.62647255 0.00047940
0.88562609 0.62647255 0.00047898
0.91886608 0.62647255 0.00047940
0.91886608 0.62647255 0.00047898
0.91886608 0.62647255 0.00047898
0.91886608 0.62647255 0.00047953
0.91886608 0.62647255 0.00047898
0.91886608 0.62647255 0.00047898
0.91886608 0.62647255 0.00047898
0.91886608 0.62647255 0.00047898
0.91886608 0.62647255 0.00047898
0.00047932 0.66463354 0.00047898
0.00047932 0.66463354 0.00047898
0.00047932 0.66463354 0.00047898
0.06091457 0.66463354 0.00047898
0.11379047 0.66463354 0.00047898
0.16333402 0.66463354 0.00047898
0.21068032 0.66463354 0.00047898
0.25638565 0.66463354 0.00047898
0.30078275 0.66463354 0.00047898
0.34409349 0.66463354 0.00047898
0.38647640 0.66463354 0.00047927
0.42805045 0.66463354 0.00047927
0.46890816 0.66463354 0.00047898
0.50912353 0.66463354 0.00047927
0.54875709 0.66463354 0.00047898
0.58785922 0.66463354 0.00047898
0.62647255 0.66463354 0.00047898
0.66463354 0.66463354 0.00047898
0.70237380 0.66463354 0.00047898
0.73972092 0.66463354 0.00047898
0.77669923 0.66463354 0.00047898
0.81333032 0.66463354 0.00047898
0.84963350 0.66463354 0.00047898
0.88562609 0.66463354 0.00047898
0.91886608 0.66463354 0.00047898
0.91886608 0.66463354 0.00047898
0.91886608 0.66463354 0.00047946
0.91886608 0.66463354 0.00047953
0.91886608 0.66463354 0.00047953
0.91886608 0.66463354 0.00047898
0.91886608 0.66463354 0.00047898
0.91886608 0.66463354 0.00047898
0.91886608 0.66463354 0.00047898
0.00047923 0.70237380 0.00047931
0.00047923 0.70237380 0.00047931
0.00047923 0.70237380 0.00047931
0.06091457 0.70237380 0.00047898
0.11379047 0.70237380 0.00047898
0.16333402 0.70237380 0.00047898
0.21068032 0.70237380 0.00047898
0.25638565 0.70237380 0.00047898
0.30078275 0.70237380 0.00047898
0.34409349 0.70237380 0.00047898
0.38647640 0.70237380 0.00047898
0.42805045 0.70237380 0.00047898
0.46890816 0.70237380 0.00047898
0.50912353 0.70237380 0.00047898
0.54875709 0.70237380 0.00047898
0.58785922 0.70237380 0.00047898
0.62647255 0.70237380 0.00047931
0.66463354 0.70237380 0.00047898
0.70237380 0.70237380 0.00047898
0.73972092 0.70237380 0.00047898
0.77669923 0.70237380 0.00047898
0.81333032 0.70237380 0.00047898
0.84963350 0.70237380 0.00047898
0.88562609 0.70237380 0.00047898
0.91886608 0.70237380 0.00047898
0.91886608 0.70237380 0.00047898
0.91886608 0.70237380 0.00047898
0.91886608 0.70237380 0.00047953
0.91886608 0.70237380 0.00047898
0.91886608 0.70237380 0.00047898
0.91886608 0.70237380 0.00047898
0.91886608 0.70237380 0.00047898
0.91886608 0.70237380 0.00047971
0.00047936 0.73972092 0.00047898
0.00047936 0.73972092 0.00047898
0.00047936 0.73972092 0.00047898
0.06091457 0.73972092 0.00047898
0.11379047 0.73972092 0.00047898
0.16333402 0.73972092 0.00047898
0.21068032 0.73972092 0.00047898
0.25638565 0.73972092 0.00047898
0.30078275 0.73972092 0.00047898
0.34409349 0.73972092 0.00047898
0.38647640 0.73972092 0.00047898
0.42805045 0.73972092 0.00047931
0.46890816 0.73972092 0.00047898
0.50912353 0.73972092 0.00047898
0.54875709 0.73972092 0.00047898
0.58785922 0.73972092 0.00047898
0.62647255 0.73972092 0.00047898
0.66463354 0.73972092 0.00047898
0.70237380 0.73972092 0.00047935
0.73972092 0.73972092 0.00047898
0.77669923 0.73972092 0.00047898
0.81333032 0.73972092 0.00047898
0.84963350 0.73972092 0.00047898
0.88562609 0.73972092 0.00047898
0.91886608 0.73972092 0.00047898
0.91886608 0.73972092 0.00047898
0.91886608 0.73972092 0.00047946
0.91886608 0.73972092 0.00047953
0.91886608 0.73972092 0.00047953
0.91886608 0.73972092 0.00047898
0.91886608 0.73972092 0.00047898
0.91886608 0.73972092 0.00047898
0.91886608 0.73972092 0.00047971
0.00047932 0.77669923 0.00047898
0.00047932 0.77669923 0.00047898
0.00047932 0.77669923 0.00047898
0.06091457 0.77669923 0.00047898
0.11379047 0.77669923 0.00047898
0.16333402 0.77669923 0.00047898
0.21068032 0.77669923 0.00047935
0.25638565 0.77669923 0.00047898
0.30078275 0.77669923 0.00047898
0.34409349 0.77669923 0.00047898
0.38647640 0.77669923 0.00047935
0.42805045 0.77669923 0.00047935
0.46890816 0.77669923 0.00047898
0.50912353 0.77669923 0.00047935
0.54875709 0.77669923 0.00047898
0.58785922 0.77669923 0.00047898
0.62647255 0.77669923 0.00047935
0.66463354 0.77669923 0.00047898
0.70237380 0.77669923 0.00047940
0.73972092 0.77669923 0.00047898
0.77669923 0.77669923 0.00047898
0.81333032 0.77669923 0.00047898
0.84963350 0.77669923 0.00047940
0.88562609 0.77669923 0.00047898
0.91886608 0.77669923 0.00047946
0.91886608 0.77669923 0.00047898
0.91886608 0.77669923 0.00047898
0.91886608 0.77669923 0.00047898
0.91886608 0.77669923 0.00047898
0.91886608 0.77669923 0.00047961
0.91886608 0.77669923 0.00047961
0.91886608 0.77669923 0.00047898
0.91886608 0.77669923 0.00047898
0.00047928 0.81333032 0.00047898
0.00047928 0.81333032 0.00047898
0.00047928 0.81333032 0.00047898
0.06091457 0.81333032 0.00047898
0.11379047 0.81333032 0.00047935
0.16333402 0.81333032 0.00047935
0.21068032 0.81333032 0.00047898
0.25638565 0.81333032 0.00047898
0.30078275 0.81333032 0.00047935
0.34409349 0.81333032 0.00047898
0.38647640 0.81333032 0.00047940
0.42805045 0.81333032 0.00047898
0.46890816 0.81333032 0.00047898
0.50912353 0.81333032 0.00047935
0.54875709 0.81333032 0.00047935
0.58785922 0.81333032 0.00047898
0.62647255 0.81333032 0.00047898
0.66463354 0.81333032 0.00047935
0.70237380 0.81333032 0.00047898
0.73972092 0.81333032 0.00047898
0.77669923 0.81333032 0.00047898
0.81333032 0.81333032 0.00047898
0.84963350 0.81333032 0.00047898
0.88562609 0.81333032 0.00047898
0.91886608 0.81333032 0.00047898
0.91886608 0.81333032 0.00047898
0.91886608 0.81333032 0.00047898
