src/ffmpeg_scripts/luts/luminance-unclipped_-0p67.cube
TITLE "luminance-unclipped_-0p67"
LUT_3D_SIZE 9
# PQ (EOTF Only)/Rec2020 -> PQ (EOTF Only)/Rec2020, CineEI Shift -0.67, Black Level -7.25% IRE, Input 109% -> Output 109% - Created with LUTCalc v4.01 by Ben Turley October 2020
0.00047898 0.00047898 0.00047898
0.06014427 0.00047905 0.00047898
0.18896359 0.00047908 0.00047898
0.32361656 0.00047898 0.00047898
0.46206066 0.00047914 0.00047918
0.60339924 0.00047898 0.00047898
0.74710993 0.00047898 0.00047898
0.89284566 0.00047898 0.00047898
0.91886608 0.00047953 0.00047953
0.00047907 0.06014427 0.00047898
0.06014427 0.06014427 0.00047898
0.18896359 0.06014427 0.00047898
0.32361656 0.06014427 0.00047914
0.46206066 0.06014427 0.00047898
0.60339924 0.06014427 0.00047898
0.74710993 0.06014427 0.00047898
0.89284566 0.06014427 0.00047946
0.91886608 0.06014427 0.00047953
0.00047898 0.18896359 0.00047898
0.06014427 0.18896359 0.00047898
0.18896359 0.18896359 0.00047898
0.32361656 0.18896359 0.00047898
0.46206066 0.18896359 0.00047918
0.60339924 0.18896359 0.00047898
0.74710993 0.18896359 0.00047898
0.89284566 0.18896359 0.00047898
0.91886608 0.18896359 0.00047898
0.00047913 0.32361656 0.00047914
0.06014427 0.32361656 0.00047914
0.18896359 0.32361656 0.00047898
0.32361656 0.32361656 0.00047898
0.46206066 0.32361656 0.00047918
0.60339924 0.32361656 0.00047898
0.74710993 0.32361656 0.00047898
0.89284566 0.32361656 0.00047898
0.91886608 0.32361656 0.00047953
0.00047898 0.46206066 0.00047918
0.06014427 0.46206066 0.00047918
0.18896359 0.46206066 0.00047898
0.32361656 0.46206066 0.00047898
0.46206066 0.46206066 0.00047898
0.60339924 0.46206066 0.00047898
0.74710993 0.46206066 0.00047898
0.89284566 0.46206066 0.00047898
0.91886608 0.46206066 0.00047898
0.00047925 0.60339924 0.00047898
0.06014427 0.60339924 0.00047923
0.18896359 0.60339924 0.00047927
0.32361656 0.60339924 0.00047898
0.46206066 0.60339924 0.00047898
0.60339924 0.60339924 0.00047898
0.74710993 0.60339924 0.00047898
0.89284566 0.60339924 0.00047898
0.91886608 0.60339924 0.00047898
0.00047935 0.74710993 0.00047898
0.06014427 0.74710993 0.00047898
0.18896359 0.74710993 0.00047898
0.32361656 0.74710993 0.00047898
0.46206066 0.74710993 0.00047898
0.60339924 0.74710993 0.00047898
0.74710993 0.74710993 0.00047935
0.89284566 0.74710993 0.00047940
0.91886608 0.74710993 0.00047961
0.00047944 0.89284566 0.00047898
0.06014427 0.89284566 0.00047898
0.18896359 0.89284566 0.00047898
0.32361656 0.89284566 0.00047898
0.46206066 0.89284566 0.00047898
0.60339924 0.89284566 0.00047898
0.74710993 0.89284566 0.00047898
0.89284566 0.89284566 0.00047898
0.91886608 0.89284566 0.00047953
0.00047960 0.91886608 0.00047898
0.06014427 0.91886608 0.00047953
0.18896359 0.91886608 0.00047898
0.32361656 0.91886608 0.00047898
0.46206066 0.91886608 0.00047898
0.60339924 0.91886608 0.00047898
0.74710993 0.91886608 0.00047898
0.89284566 0.91886608 0.00047898
0.91886608 0.91886608 0.00047898
0.00047898 0.00047898 0.06014427
0.06014427 0.00047907 0.06014427
0.18896359 0.00047898 0.06014427
0.32361656 0.00047898 0.06014427
0.46206066 0.00047916 0.06014427
0.60339924 0.00047898 0.06014427
0.74710993 0.00047898 0.06014427
0.89284566 0.00047939 0.06014427
0.91886608 0.00047898 0.06014427
0.00047898 0.06014427 0.06014427
0.06014427 0.06014427 0.06014427
0.18896359 0.06014427 0.06014427
0.32361656 0.06014427 0.06014427
0.46206066 0.06014427 0.06014427
0.60339924 0.06014427 0.06014427
0.74710993 0.06014427 0.06014427
0.89284566 0.06014427 0.06014427
0.91886608 0.06014427 0.06014427
0.00047908 0.18896359 0.06014427
0.06014427 0.18896359 0.06014427
0.18896359 0.18896359 0.06014427
0.32361656 0.18896359 0.06014427
0.46206066 0.18896359 0.06014427
0.60339924 0.18896359 0.06014427
0.74710993 0.18896359 0.06014427
0.89284566 0.18896359 0.06014427
0.91886608 0.18896359 0.06014427
0.00047911 0.32361656 0.06014427
0.06014427 0.32361656 0.06014427
0.18896359 0.32361656 0.06014427
0.32361656 0.32361656 0.06014427
0.46206066 0.32361656 0.06014427
0.60339924 0.32361656 0.06014427
0.74710993 0.32361656 0.06014427
0.89284566 0.32361656 0.06014427
0.91886608 0.32361656 0.06014427
0.00047914 0.46206066 0.06014427
0.06014427 0.46206066 0.06014427
0.18896359 0.46206066 0.06014427
0.32361656 0.46206066 0.06014427
0.46206066 0.46206066 0.06014427
0.60339924 0.46206066 0.06014427
0.74710993 0.46206066 0.06014427
0.89284566 0.46206066 0.06014427
0.91886608 0.46206066 0.06014427
0.00047924 0.60339924 0.06014427
0.06014427 0.60339924 0.06014427
0.18896359 0.60339924 0.06014427
0.32361656 0.60339924 0.06014427
0.46206066 0.60339924 0.06014427
0.60339924 0.60339924 0.06014427
0.74710993 0.60339924 0.06014427
0.89284566 0.60339924 0.06014427
0.91886608 0.60339924 0.06014427
0.00047938 0.74710993 0.06014427
0.06014427 0.74710993 0.06014427
0.18896359 0.74710993 0.06014427
0.32361656 0.74710993 0.06014427
0.46206066 0.74710993 0.06014427
0.60339924 0.74710993 0.06014427
0.74710993 0.74710993 0.06014427
0.89284566 0.74710993 0.06014427
0.91886608 0.74710993 0.06014427
0.00047943 0.89284566 0.06014427
0.06014427 0.89284566 0.06014427
0.18896359 0.89284566 0.06014427
0.32361656 0.89284566 0.06014427
0.46206066 0.89284566 0.06014427
0.60339924 0.89284566 0.06014427
0.74710993 0.89284566 0.06014427
0.89284566 0.89284566 0.06014427
0.91886608 0.89284566 0.06014427
0.00047968 0.91886608 0.06014427
0.06014427 0.91886608 0.06014427
0.18896359 0.91886608 0.06014427
0.32361656 0.91886608 0.06014427
0.46206066 0.91886608 0.06014427
0.60339924 0.91886608 0.06014427
0.74710993 0.91886608 0.06014427
0.89284566 0.91886608 0.06014427
0.91886608 0.91886608 0.06014427
0.00047898 0.00047914 0.18896359
0.06014427 0.00047898 0.18896359
0.18896359 0.00047914 0.18896359
0.32361656 0.00047914 0.18896359
0.46206066 0.00047898 0.18896359
0.60339924 0.00047898 0.18896359
0.74710993 0.00047931 0.18896359
0.89284566 0.00047949 0.18896359
0.91886608 0.00047946 0.18896359
0.00047898 0.06014427 0.18896359
0.06014427 0.06014427 0.18896359
0.18896359 0.06014427 0.18896359
0.32361656 0.06014427 0.18896359
0.46206066 0.06014427 0.18896359
0.60339924 0.06014427 0.18896359
0.74710993 0.06014427 0.18896359
0.89284566 0.06014427 0.18896359
0.91886608 0.06014427 0.18896359
0.00047898 0.18896359 0.18896359
0.06014427 0.18896359 0.18896359
0.18896359 0.18896359 0.18896359
0.32361656 0.18896359 0.18896359
0.46206066 0.18896359 0.18896359
0.60339924 0.18896359 0.18896359
0.74710993 0.18896359 0.18896359
0.89284566 0.18896359 0.18896359
0.91886608 0.18896359 0.18896359
0.00047916 0.32361656 0.18896359
0.06014427 0.32361656 0.18896359
0.18896359 0.32361656 0.18896359
0.32361656 0.32361656 0.18896359
0.46206066 0.32361656 0.18896359
0.60339924 0.32361656 0.18896359
0.74710993 0.32361656 0.18896359
0.89284566 0.32361656 0.18896359
0.91886608 0.32361656 0.18896359
0.00047919 0.46206066 0.18896359
0.06014427 0.46206066 0.18896359
0.18896359 0.46206066 0.18896359
0.32361656 0.46206066 0.18896359
0.46206066 0.46206066 0.18896359
0.60339924 0.46206066 0.18896359
0.74710993 0.46206066 0.18896359
0.89284566 0.46206066 0.18896359
0.91886608 0.46206066 0.18896359
0.00047926 0.60339924 0.18896359
0.06014427 0.60339924 0.18896359
0.18896359 0.60339924 0.18896359
0.32361656 0.60339924 0.18896359
0.46206066 0.60339924 0.18896359
0.60339924 0.60339924 0.18896359
0.74710993 0.60339924 0.18896359
0.89284566 0.60339924 0.18896359
0.91886608 0.60339924 0.18896359
0.00047920 0.74710993 0.18896359
0.06014427 0.74710993 0.18896359
0.18896359 0.74710993 0.18896359
0.32361656 0.74710993 0.18896359
0.46206066 0.74710993 0.18896359
0.60339924 0.74710993 0.18896359
0.74710993 0.74710993 0.18896359
0.89284566 0.74710993 0.18896359
0.91886608 0.74710993 0.18896359
0.00047947 0.89284566 0.18896359
0.06014427 0.89284566 0.18896359
0.18896359 0.89284566 0.18896359
0.32361656 0.89284566 0.18896359
0.46206066 0.89284566 0.18896359
0.60339924 0.89284566 0.18896359
0.74710993 0.89284566 0.18896359
0.89284566 0.89284566 0.18896359
0.91886608 0.89284566 0.18896359
0.00047969 0.91886608 0.18896359
0.06014427 0.91886608 0.18896359
0.18896359 0.91886608 0.18896359
0.32361656 0.91886608 0.18896359
0.46206066 0.91886608 0.18896359
0.60339924 0.91886608 0.18896359
0.74710993 0.91886608 0.18896359
0.89284566 0.91886608 0.18896359
0.91886608 0.91886608 0.18896359
0.00047916 0.00047920 0.32361656
0.06014427 0.00047918 0.32361656
0.18896359 0.00047920 0.32361656
0.32361656 0.00047922 0.32361656
0.46206066 0.00047923 0.32361656
0.60339924 0.00047929 0.32361656
0.74710993 0.00047898 0.32361656
0.89284566 0.00047898 0.32361656
0.91886608 0.00047953 0.32361656
0.00047898 0.06014427 0.32361656
0.06014427 0.06014427 0.32361656
0.18896359 0.06014427 0.32361656
0.32361656 0.06014427 0.32361656
0.46206066 0.06014427 0.32361656
0.60339924 0.06014427 0.32361656
0.74710993 0.06014427 0.32361656
0.89284566 0.06014427 0.32361656
0.91886608 0.06014427 0.32361656
0.00047898 0.18896359 0.32361656
0.06014427 0.18896359 0.32361656
0.18896359 0.18896359 0.32361656
0.32361656 0.18896359 0.32361656
0.46206066 0.18896359 0.32361656
0.60339924 0.18896359 0.32361656
0.74710993 0.18896359 0.32361656
0.89284566 0.18896359 0.32361656
0.91886608 0.18896359 0.32361656
0.00047918 0.32361656 0.32361656
0.06014427 0.32361656 0.32361656
0.18896359 0.32361656 0.32361656
0.32361656 0.32361656 0.32361656
0.46206066 0.32361656 0.32361656
0.60339924 0.32361656 0.32361656
0.74710993 0.32361656 0.32361656
0.89284566 0.32361656 0.32361656
0.91886608 0.32361656 0.32361656
0.00047920 0.46206066 0.32361656
0.06014427 0.46206066 0.32361656
0.18896359 0.46206066 0.32361656
0.32361656 0.46206066 0.32361656
0.46206066 0.46206066 0.32361656
0.60339924 0.46206066 0.32361656
0.74710993 0.46206066 0.32361656
0.89284566 0.46206066 0.32361656
0.91886608 0.46206066 0.32361656
0.00047929 0.60339924 0.32361656
0.06014427 0.60339924 0.32361656
0.18896359 0.60339924 0.32361656
0.32361656 0.60339924 0.32361656
0.46206066 0.60339924 0.32361656
0.60339924 0.60339924 0.32361656
0.74710993 0.60339924 0.32361656
0.89284566 0.60339924 0.32361656
0.91886608 0.60339924 0.32361656
0.00047936 0.74710993 0.32361656
0.06014427 0.74710993 0.32361656
0.18896359 0.74710993 0.32361656
0.32361656 0.74710993 0.32361656
0.46206066 0.74710993 0.32361656
0.60339924 0.74710993 0.32361656
0.74710993 0.74710993 0.32361656
0.89284566 0.74710993 0.32361656
0.91886608 0.74710993 0.32361656
0.00047898 0.89284566 0.32361656
0.06014427 0.89284566 0.32361656
0.18896359 0.89284566 0.32361656
0.32361656 0.89284566 0.32361656
0.46206066 0.89284566 0.32361656
0.60339924 0.89284566 0.32361656
0.74710993 0.89284566 0.32361656
0.89284566 0.89284566 0.32361656
0.91886608 0.89284566 0.32361656
0.00047898 0.91886608 0.32361656
0.06014427 0.91886608 0.32361656
0.18896359 0.91886608 0.32361656
0.32361656 0.91886608 0.32361656
0.46206066 0.91886608 0.32361656
0.60339924 0.91886608 0.32361656
0.74710993 0.91886608 0.32361656
0.89284566 0.91886608 0.32361656
0.91886608 0.91886608 0.32361656
0.00047898 0.00047898 0.46206066
0.06014427 0.00047931 0.46206066
0.18896359 0.00047898 0.46206066
0.32361656 0.00047927 0.46206066
0.46206066 0.00047898 0.46206066
0.60339924 0.00047898 0.46206066
0.74710993 0.00047898 0.46206066
0.89284566 0.00047940 0.46206066
0.91886608 0.00047950 0.46206066
0.00047898 0.06014427 0.46206066
0.06014427 0.06014427 0.46206066
0.18896359 0.06014427 0.46206066
0.32361656 0.06014427 0.46206066
0.46206066 0.06014427 0.46206066
0.60339924 0.06014427 0.46206066
0.74710993 0.06014427 0.46206066
0.89284566 0.06014427 0.46206066
0.91886608 0.06014427 0.46206066
0.00047898 0.18896359 0.46206066
0.06014427 0.18896359 0.46206066
0.18896359 0.18896359 0.46206066
0.32361656 0.18896359 0.46206066
0.46206066 0.18896359 0.46206066
0.60339924 0.18896359 0.46206066
0.74710993 0.18896359 0.46206066
0.89284566 0.18896359 0.46206066
0.91886608 0.18896359 0.46206066
0.00047920 0.32361656 0.46206066
0.06014427 0.32361656 0.46206066
0.18896359 0.32361656 0.46206066
0.32361656 0.32361656 0.46206066
0.46206066 0.32361656 0.46206066
0.60339924 0.32361656 0.46206066
0.74710993 0.32361656 0.46206066
0.89284566 0.32361656 0.46206066
0.91886608 0.32361656 0.46206066
0.00047898 0.46206066 0.46206066
0.06014427 0.46206066 0.46206066
0.18896359 0.46206066 0.46206066
0.32361656 0.46206066 0.46206066
0.46206066 0.46206066 0.46206066
0.60339924 0.46206066 0.46206066
0.74710993 0.46206066 0.46206066
0.89284566 0.46206066 0.46206066
0.91886608 0.46206066 0.46206066
0.00047929 0.60339924 0.46206066
0.06014427 0.60339924 0.46206066
0.18896359 0.60339924 0.46206066
0.32361656 0.60339924 0.46206066
0.46206066 0.60339924 0.46206066
0.60339924 0.60339924 0.46206066
0.74710993 0.60339924 0.46206066
0.89284566 0.60339924 0.46206066
0.91886608 0.60339924 0.46206066
0.00047938 0.74710993 0.46206066
0.06014427 0.74710993 0.46206066
0.18896359 0.74710993 0.46206066
0.32361656 0.74710993 0.46206066
0.46206066 0.74710993 0.46206066
0.60339924 0.74710993 0.46206066
0.74710993 0.74710993 0.46206066
0.89284566 0.74710993 0.46206066
0.91886608 0.74710993 0.46206066
0.00047948 0.89284566 0.46206066
0.06014427 0.89284566 0.46206066
0.18896359 0.89284566 0.46206066
0.32361656 0.89284566 0.46206066
0.46206066 0.89284566 0.46206066
0.60339924 0.89284566 0.46206066
0.74710993 0.89284566 0.46206066
0.89284566 0.89284566 0.46206066
0.91886608 0.89284566 0.46206066
0.00047898 0.91886608 0.46206066
0.06014427 0.91886608 0.46206066
0.18896359 0.91886608 0.46206066
0.32361656 0.91886608 0.46206066
0.46206066 0.91886608 0.46206066
0.60339924 0.91886608 0.46206066
0.74710993 0.91886608 0.46206066
0.89284566 0.91886608 0.46206066
0.91886608 0.91886608 0.46206066
0.00047898 0.00047940 0.60339924
0.06014427 0.00047935 0.60339924
0.18896359 0.00047940 0.60339924
0.32361656 0.00047935 0.60339924
0.46206066 0.00047944 0.60339924
0.60339924 0.00047940 0.60339924
0.74710993 0.00047935 0.60339924
0.89284566 0.00047898 0.60339924
0.91886608 0.00047898 0.60339924
0.00047898 0.06014427 0.60339924
0.06014427 0.06014427 0.60339924
0.18896359 0.06014427 0.60339924
0.32361656 0.06014427 0.60339924
0.46206066 0.06014427 0.60339924
0.60339924 0.06014427 0.60339924
0.74710993 0.06014427 0.60339924
0.89284566 0.06014427 0.60339924
0.91886608 0.06014427 0.60339924
0.00047927 0.18896359 0.60339924
0.06014427 0.18896359 0.60339924
0.18896359 0.18896359 0.60339924
0.32361656 0.18896359 0.60339924
0.46206066 0.18896359 0.60339924
0.60339924 0.18896359 0.60339924
0.74710993 0.18896359 0.60339924
0.89284566 0.18896359 0.60339924
0.91886608 0.18896359 0.60339924
0.00047927 0.32361656 0.60339924
0.06014427 0.32361656 0.60339924
0.18896359 0.32361656 0.60339924
0.32361656 0.32361656 0.60339924
0.46206066 0.32361656 0.60339924
0.60339924 0.32361656 0.60339924
0.74710993 0.32361656 0.60339924
0.89284566 0.32361656 0.60339924
0.91886608 0.32361656 0.60339924
0.00047898 0.46206066 0.60339924
0.06014427 0.46206066 0.60339924
0.18896359 0.46206066 0.60339924
0.32361656 0.46206066 0.60339924
0.46206066 0.46206066 0.60339924
0.60339924 0.46206066 0.60339924
0.74710993 0.46206066 0.60339924
0.89284566 0.46206066 0.60339924
0.91886608 0.46206066 0.60339924
0.00047927 0.60339924 0.60339924
0.06014427 0.60339924 0.60339924
0.18896359 0.60339924 0.60339924
0.32361656 0.60339924 0.60339924
0.46206066 0.60339924 0.60339924
0.60339924 0.60339924 0.60339924
0.74710993 0.60339924 0.60339924
0.89284566 0.60339924 0.60339924
0.91886608 0.60339924 0.60339924
0.00047940 0.74710993 0.60339924
0.06014427 0.74710993 0.60339924
0.18896359 0.74710993 0.60339924
0.32361656 0.74710993 0.60339924
0.46206066 0.74710993 0.60339924
0.60339924 0.74710993 0.60339924
0.74710993 0.74710993 0.60339924
0.89284566 0.74710993 0.60339924
0.91886608 0.74710993 0.60339924
0.00047931 0.89284566 0.60339924
0.06014427 0.89284566 0.60339924
0.18896359 0.89284566 0.60339924
0.32361656 0.89284566 0.60339924
0.46206066 0.89284566 0.60339924
0.60339924 0.89284566 0.60339924
0.74710993 0.89284566 0.60339924
0.89284566 0.89284566 0.60339924
0.91886608 0.89284566 0.60339924
0.00047967 0.91886608 0.60339924
0.06014427 0.91886608 0.60339924
0.18896359 0.91886608 0.60339924
0.32361656 0.91886608 0.60339924
0.46206066 0.91886608 0.60339924
0.60339924 0.91886608 0.60339924
0.74710993 0.91886608 0.60339924
0.89284566 0.91886608 0.60339924
0.91886608 0.91886608 0.60339924
0.00047898 0.00047940 0.74710993
0.06014427 0.00047950 0.74710993
0.18896359 0.00047898 0.74710993
0.32361656 0.00047946 0.74710993
0.46206066 0.00047950 0.74710993
0.60339924 0.00047898 0.74710993
0.74710993 0.00047953 0.74710993
0.89284566 0.00047898 0.74710993
0.91886608 0.00047898 0.74710993
0.00047898 0.06014427 0.74710993
0.06014427 0.06014427 0.74710993
0.18896359 0.06014427 0.74710993
0.32361656 0.06014427 0.74710993
0.46206066 0.06014427 0.74710993
0.60339924 0.06014427 0.74710993
0.74710993 0.06014427 0.74710993
0.89284566 0.06014427 0.74710993
0.91886608 0.06014427 0.74710993
0.00047898 0.18896359 0.74710993
0.06014427 0.18896359 0.74710993
0.18896359 0.18896359 0.74710993
0.32361656 0.18896359 0.74710993
0.46206066 0.18896359 0.74710993
0.60339924 0.18896359 0.74710993
0.74710993 0.18896359 0.74710993
0.89284566 0.18896359 0.74710993
0.91886608 0.18896359 0.74710993
0.00047898 0.32361656 0.74710993
0.06014427 0.32361656 0.74710993
0.18896359 0.32361656 0.74710993
0.32361656 0.32361656 0.74710993
0.46206066 0.32361656 0.74710993
0.60339924 0.32361656 0.74710993
0.74710993 0.32361656 0.74710993
0.89284566 0.32361656 0.74710993
0.91886608 0.32361656 0.74710993
0.00047898 0.46206066 0.74710993
0.06014427 0.46206066 0.74710993
0.18896359 0.46206066 0.74710993
0.32361656 0.46206066 0.74710993
0.46206066 0.46206066 0.74710993
0.60339924 0.46206066 0.74710993
0.74710993 0.46206066 0.74710993
0.89284566 0.46206066 0.74710993
0.91886608 0.46206066 0.74710993
0.00047898 0.60339924 0.74710993
0.06014427 0.60339924 0.74710993
0.18896359 0.60339924 0.74710993
0.32361656 0.60339924 0.74710993
0.46206066 0.60339924 0.74710993
0.60339924 0.60339924 0.74710993
0.74710993 0.60339924 0.74710993
0.89284566 0.60339924 0.74710993
0.91886608 0.60339924 0.74710993
0.00047898 0.74710993 0.74710993
0.06014427 0.74710993 0.74710993
0.18896359 0.74710993 0.74710993
0.32361656 0.74710993 0.74710993
0.46206066 0.74710993 0.74710993
0.60339924 0.74710993 0.74710993
0.74710993 0.74710993 0.74710993
0.89284566 0.74710993 0.74710993
0.91886608 0.74710993 0.74710993
0.00047898 0.89284566 0.74710993
0.06014427 0.89284566 0.74710993
0.18896359 0.89284566 0.74710993
0.32361656 0.89284566 0.74710993
0.46206066 0.89284566 0.74710993
0.60339924 0.89284566 0.74710993
0.74710993 0.89284566 0.74710993
0.89284566 0.89284566 0.74710993
0.91886608 0.89284566 0.74710993
0.00047960 0.91886608 0.74710993
0.06014427 0.91886608 0.74710993
0.18896359 0.91886608 0.74710993
0.32361656 0.91886608 0.74710993
0.46206066 0.91886608 0.74710993
0.60339924 0.91886608 0.74710993
0.74710993 0.91886608 0.74710993
0.89284566 0.91886608 0.74710993
0.91886608 0.91886608 0.74710993
0.00047898 0.00047961 0.89284566
0.06014427 0.00047953 0.89284566
0.18896359 0.00047961 0.89284566
0.32361656 0.00047961 0.89284566
0.46206066 0.00047898 0.89284566
0.60339924 0.00047961 0.89284566
0.74710993 0.00047961 0.89284566
0.89284566 0.00047953 0.89284566
0.91886608 0.00047961 0.89284566
0.00047898 0.06014427 0.89284566
0.06014427 0.06014427 0.89284566
0.18896359 0.06014427 0.89284566
0.32361656 0.06014427 0.89284566
0.46206066 0.06014427 0.89284566
0.60339924 0.06014427 0.89284566
0.74710993 0.06014427 0.89284566
0.89284566 0.06014427 0.89284566
0.91886608 0.06014427 0.89284566
0.00047898 0.18896359 0.89284566
0.06014427 0.18896359 0.89284566
0.18896359 0.18896359 0.89284566
0.32361656 0.18896359 0.89284566
0.46206066 0.18896359 0.89284566
0.60339924 0.18896359 0.89284566
0.74710993 0.18896359 0.89284566
0.89284566 0.18896359 0.89284566
0.91886608 0.18896359 0.89284566
0.00047898 0.32361656 0.89284566
0.06014427 0.32361656 0.89284566
0.18896359 0.32361656 0.89284566
0.32361656 0.32361656 0.89284566
0.46206066 0.32361656 0.89284566
0.60339924 0.32361656 0.89284566
0.74710993 0.32361656 0.89284566
0.89284566 0.32361656 0.89284566
0.91886608 0.32361656 0.89284566
0.00047898 0.46206066 0.89284566
0.06014427 0.46206066 0.89284566
0.18896359 0.46206066 0.89284566
0.32361656 0.46206066 0.89284566
0.46206066 0.46206066 0.89284566
0.60339924 0.46206066 0.89284566
0.74710993 0.46206066 0.89284566
0.89284566 0.46206066 0.89284566
0.91886608 0.46206066 0.89284566
0.00047946 0.60339924 0.89284566
0.06014427 0.60339924 0.89284566
0.18896359 0.60339924 0.89284566
0.32361656 0.60339924 0.89284566
0.46206066 0.60339924 0.89284566
0.60339924 0.60339924 0.89284566
0.74710993 0.60339924 0.89284566
0.89284566 0.60339924 0.89284566
0.91886608 0.60339924 0.89284566
0.00047898 0.74710993 0.89284566
0.06014427 0.74710993 0.89284566
0.18896359 0.74710993 0.89284566
0.32361656 0.74710993 0.89284566
0.46206066 0.74710993 0.89284566
0.60339924 0.74710993 0.89284566
0.74710993 0.74710993 0.89284566
0.89284566 0.74710993 0.89284566
0.91886608 0.74710993 0.89284566
0.00047898 0.89284566 0.89284566
0.06014427 0.89284566 0.89284566
0.18896359 0.89284566 0.89284566
0.32361656 0.89284566 0.89284566
0.46206066 0.89284566 0.89284566
0.60339924 0.89284566 0.89284566
0.74710993 0.89284566 0.89284566
0.89284566 0.89284566 0.89284566
0.91886608 0.89284566 0.89284566
0.00047971 0.91886608 0.89284566
0.06014427 0.91886608 0.89284566
0.18896359 0.91886608 0.89284566
0.32361656 0.91886608 0.89284566
0.46206066 0.91886608 0.89284566
0.60339924 0.91886608 0.89284566
0.74710993 0.91886608 0.89284566
0.89284566 0.91886608 0.89284566
0.91886608 0.91886608 0.89284566
0.00047961 0.00047991 0.91886608
0.06014427 0.00047983 0.91886608
0.18896359 0.00047983 0.91886608
0.32361656 0.00047983 0.91886608
0.46206066 0.00047983 0.91886608
0.60339924 0.00047971 0.91886608
0.74710993 0.00047971 0.91886608
0.89284566 0.00047898 0.91886608
0.91886608 0.00047898 0.91886608
0.00047961 0.06014427 0.91886608
0.06014427 0.06014427 0.91886608
0.18896359 0.06014427 0.91886608
0.32361656 0.06014427 0.91886608
0.46206066 0.06014427 0.91886608
0.60339924 0.06014427 0.91886608
0.74710993 0.06014427 0.91886608
0.89284566 0.06014427 0.91886608
0.91886608 0.06014427 0.91886608
0.00047961 0.18896359 0.91886608
0.06014427 0.18896359 0.91886608
0.18896359 0.18896359 0.91886608
0.32361656 0.18896359 0.91886608
0.46206066 0.18896359 0.91886608
0.60339924 0.18896359 0.91886608
0.74710993 0.18896359 0.91886608
0.89284566 0.18896359 0.91886608
0.91886608 0.18896359 0.91886608
0.00047898 0.32361656 0.91886608
0.06014427 0.32361656 0.91886608
0.18896359 0.32361656 0.91886608
0.32361656 0.32361656 0.91886608
0.46206066 0.32361656 0.91886608
0.60339924 0.32361656 0.91886608
0.74710993 0.32361656 0.91886608
0.89284566 0.32361656 0.91886608
0.91886608 0.32361656 0.91886608
0.00047898 0.46206066 0.91886608
0.06014427 0.46206066 0.91886608
0.18896359 0.46206066 0.91886608
0.32361656 0.46206066 0.91886608
0.46206066 0.46206066 0.91886608
0.60339924 0.46206066 0.91886608
0.74710993 0.46206066 0.91886608
0.89284566 0.46206066 0.91886608
0.91886608 0.46206066 0.91886608
0.00047898 0.60339924 0.91886608
0.06014427 0.60339924 0.91886608
0.18896359 0.60339924 0.91886608
0.32361656 0.60339924 0.91886608
0.46206066 0.60339924 0.91886608
0.60339924 0.60339924 0.91886608
0.74710993 0.60339924 0.91886608
0.89284566 0.60339924 0.91886608
0.91886608 0.60339924 0.91886608
0.00047898 0.74710993 0.91886608
0.06014427 0.74710993 0.91886608
0.18896359 0.74710993 0.91886608
0.32361656 0.74710993 0.91886608
0.46206066 0.74710993 0.91886608
0.60339924 0.74710993 0.91886608
0.74710993 0.74710993 0.91886608
0.89284566 0.74710993 0.91886608
0.91886608 0.74710993 0.91886608
0.00047898 0.89284566 0.91886608
0.06014427 0.89284566 0.91886608
0.18896359 0.89284566 0.91886608
0.32361656 0.89284566 0.91886608
0.46206066 0.89284566 0.91886608
0.60339924 0.89284566 0.91886608
0.74710993 0.89284566 0.91886608
0.89284566 0.89284566 0.91886608
0.91886608 0.89284566 0.91886608
0.00047961 0.91886608 0.91886608
0.06014427 0.91886608 0.91886608
0.18896359 0.91886608 0.91886608
0.32361656 0.91886608 0.91886608
0.46206066 0.91886608 0.91886608
0.60339924 0.91886608 0.91886608
0.74710993 0.91886608 0.91886608
0.89284566 0.91886608 0.91886608
0.91886608 0.91886608 0.91886608
