src/ffmpeg_scripts/luts/luminance_3p67.cube
TITLE "luminance_3p67"
LUT_3D_SIZE 5
# PQ (EOTF Only)/Rec2020 -> PQ (EOTF Only)/Rec2020, CineEI Shift 3.67, Black Level 0.00% IRE, Input 109% -> Output 109% - Created with LUTCalc v4.01 by Ben Turley October 2020
0.06256172 0.06256172 0.06256172
0.42454652 0.06256172 0.06256172
0.73124562 0.06256208 0.06256200
0.91886608 0.06256172 0.06256172
0.91886608 0.06256235 0.06256172
0.06256189 0.42454652 0.06256172
0.42454652 0.42454652 0.06256172
0.73124562 0.42454652 0.06256200
0.91886608 0.42454652 0.06256172
0.91886608 0.42454652 0.06256172
0.06256172 0.73124562 0.06256172
0.42454652 0.73124562 0.06256172
0.73124562 0.73124562 0.06256172
0.91886608 0.73124562 0.06256172
0.91886608 0.73124562 0.06256172
0.06256238 0.91886608 0.06256172
0.42454652 0.91886608 0.06256227
0.73124562 0.91886608 0.06256172
0.91886608 0.91886608 0.06256227
0.91886608 0.91886608 0.06256272
0.06256273 0.91886608 0.06256172
0.42454652 0.91886608 0.06256272
0.73124562 0.91886608 0.06256172
0.91886608 0.91886608 0.06256272
0.91886608 0.91886608 0.06256172
0.06256189 0.06256194 0.42454652
0.42454652 0.06256194 0.42454652
0.73124562 0.06256206 0.42454652
0.91886608 0.06256219 0.42454652
0.91886608 0.06256274 0.42454652
0.06256191 0.42454652 0.42454652
0.42454652 0.42454652 0.42454652
0.73124562 0.42454652 0.42454652
0.91886608 0.42454652 0.42454652
0.91886608 0.42454652 0.42454652
0.06256208 0.73124562 0.42454652
0.42454652 0.73124562 0.42454652
0.73124562 0.73124562 0.42454652
0.91886608 0.73124562 0.42454652
0.91886608 0.73124562 0.42454652
0.06256172 0.91886608 0.42454652
0.42454652 0.91886608 0.42454652
0.73124562 0.91886608 0.42454652
0.91886608 0.91886608 0.42454652
0.91886608 0.91886608 0.42454652
0.06256172 0.91886608 0.42454652
0.42454652 0.91886608 0.42454652
0.73124562 0.91886608 0.42454652
0.91886608 0.91886608 0.42454652
0.91886608 0.91886608 0.42454652
0.06256204 0.06256213 0.73124562
0.42454652 0.06256172 0.73124562
0.73124562 0.06256172 0.73124562
0.91886608 0.06256227 0.73124562
0.91886608 0.06256272 0.73124562
0.06256172 0.42454652 0.73124562
0.42454652 0.42454652 0.73124562
0.73124562 0.42454652 0.73124562
0.91886608 0.42454652 0.73124562
0.91886608 0.42454652 0.73124562
0.06256172 0.73124562 0.73124562
0.42454652 0.73124562 0.73124562
0.73124562 0.73124562 0.73124562
0.91886608 0.73124562 0.73124562
0.91886608 0.73124562 0.73124562
0.06256228 0.91886608 0.73124562
0.42454652 0.91886608 0.73124562
0.73124562 0.91886608 0.73124562
0.91886608 0.91886608 0.73124562
0.91886608 0.91886608 0.73124562
0.06256172 0.91886608 0.73124562
0.42454652 0.91886608 0.73124562
0.73124562 0.91886608 0.73124562
0.91886608 0.91886608 0.73124562
0.91886608 0.91886608 0.73124562
0.06256172 0.06256245 0.91886608
0.42454652 0.06256172 0.91886608
0.73124562 0.06256245 0.91886608
0.91886608 0.06256172 0.91886608
0.91886608 0.06256172 0.91886608
0.06256172 0.42454652 0.91886608
0.42454652 0.42454652 0.91886608
0.73124562 0.42454652 0.91886608
0.91886608 0.42454652 0.91886608
0.91886608 0.42454652 0.91886608
0.06256172 0.73124562 0.91886608
0.42454652 0.73124562 0.91886608
0.73124562 0.73124562 0.91886608
0.91886608 0.73124562 0.91886608
0.91886608 0.73124562 0.91886608
0.06256172 0.91886608 0.91886608
0.42454652 0.91886608 0.91886608
0.73124562 0.91886608 0.91886608
0.91886608 0.91886608 0.91886608
0.91886608 0.91886608 0.91886608
0.06256272 0.91886608 0.91886608
0.42454652 0.91886608 0.91886608
0.73124562 0.91886608 0.91886608
0.91886608 0.91886608 0.91886608
0.91886608 0.91886608 0.91886608
0.06256172 0.06256337 0.91886608
0.42454652 0.06256337 0.91886608
0.73124562 0.06256311 0.91886608
0.91886608 0.06256311 0.91886608
0.91886608 0.06256311 0.91886608
0.06256172 0.42454652 0.91886608
0.42454652 0.42454652 0.91886608
0.73124562 0.42454652 0.91886608
0.91886608 0.42454652 0.91886608
0.91886608 0.42454652 0.91886608
0.06256172 0.73124562 0.91886608
0.42454652 0.73124562 0.91886608
0.73124562 0.73124562 0.91886608
0.91886608 0.73124562 0.91886608
0.91886608 0.73124562 0.91886608
0.06256172 0.91886608 0.91886608
0.42454652 0.91886608 0.91886608
0.73124562 0.91886608 0.91886608
0.91886608 0.91886608 0.91886608
0.91886608 0.91886608 0.91886608
0.06256289 0.91886608 0.91886608
0.42454652 0.91886608 0.91886608
0.73124562 0.91886608 0.91886608
0.91886608 0.91886608 0.91886608
0.91886608 0.91886608 0.91886608
