src/ffmpeg_scripts/luts/luminance_0-Native.cube
TITLE "luminance_0-Native"
LUT_3D_SIZE 9
# PQ (EOTF Only)/Rec2020 -> PQ (EOTF Only)/Rec2020, CineEI Shift 0.00, Black Level 0.00% IRE, Input 109% -> Output 109% - Created with LUTCalc v4.01 by Ben Turley October 2020
0.06256172 0.06256172 0.06256172
0.12500000 0.06256177 0.06256172
0.25000000 0.06256172 0.06256172
0.37500000 0.06256172 0.06256172
0.50000000 0.06256193 0.06256172
0.62500000 0.06256195 0.06256172
0.75000000 0.06256201 0.06256172
0.87500000 0.06256172 0.06256172
0.91886608 0.06256228 0.06256227
0.06256179 0.12500000 0.06256172
0.12500000 0.12500000 0.06256172
0.25000000 0.12500000 0.06256172
0.37500000 0.12500000 0.06256172
0.50000000 0.12500000 0.06256172
0.62500000 0.12500000 0.06256172
0.75000000 0.12500000 0.06256172
0.87500000 0.12500000 0.06256213
0.91886608 0.12500000 0.06256172
0.06256172 0.25000000 0.06256172
0.12500000 0.25000000 0.06256172
0.25000000 0.25000000 0.06256172
0.37500000 0.25000000 0.06256172
0.50000000 0.25000000 0.06256172
0.62500000 0.25000000 0.06256172
0.75000000 0.25000000 0.06256172
0.87500000 0.25000000 0.06256172
0.91886608 0.25000000 0.06256172
0.06256188 0.37500000 0.06256187
0.12500000 0.37500000 0.06256172
0.25000000 0.37500000 0.06256172
0.37500000 0.37500000 0.06256189
0.50000000 0.37500000 0.06256172
0.62500000 0.37500000 0.06256172
0.75000000 0.37500000 0.06256172
0.87500000 0.37500000 0.06256213
0.91886608 0.37500000 0.06256172
0.06256172 0.50000000 0.06256172
0.12500000 0.50000000 0.06256172
0.25000000 0.50000000 0.06256172
0.37500000 0.50000000 0.06256172
0.50000000 0.50000000 0.06256172
0.62500000 0.50000000 0.06256172
0.75000000 0.50000000 0.06256172
0.87500000 0.50000000 0.06256172
0.91886608 0.50000000 0.06256172
0.06256189 0.62500000 0.06256172
0.12500000 0.62500000 0.06256172
0.25000000 0.62500000 0.06256172
0.37500000 0.62500000 0.06256172
0.50000000 0.62500000 0.06256197
0.62500000 0.62500000 0.06256172
0.75000000 0.62500000 0.06256172
0.87500000 0.62500000 0.06256172
0.91886608 0.62500000 0.06256172
0.06256205 0.75000000 0.06256172
0.12500000 0.75000000 0.06256172
0.25000000 0.75000000 0.06256172
0.37500000 0.75000000 0.06256172
0.50000000 0.75000000 0.06256172
0.62500000 0.75000000 0.06256204
0.75000000 0.75000000 0.06256172
0.87500000 0.75000000 0.06256213
0.91886608 0.75000000 0.06256227
0.06256226 0.87500000 0.06256172
0.12500000 0.87500000 0.06256172
0.25000000 0.87500000 0.06256172
0.37500000 0.87500000 0.06256172
0.50000000 0.87500000 0.06256172
0.62500000 0.87500000 0.06256172
0.75000000 0.87500000 0.06256172
0.87500000 0.87500000 0.06256172
0.91886608 0.87500000 0.06256172
0.06256235 0.91886608 0.06256172
0.12500000 0.91886608 0.06256172
0.25000000 0.91886608 0.06256172
0.37500000 0.91886608 0.06256172
0.50000000 0.91886608 0.06256172
0.62500000 0.91886608 0.06256172
0.75000000 0.91886608 0.06256172
0.87500000 0.91886608 0.06256172
0.91886608 0.91886608 0.06256172
0.06256172 0.06256181 0.12500000
0.12500000 0.06256180 0.12500000
0.25000000 0.06256172 0.12500000
0.37500000 0.06256172 0.12500000
0.50000000 0.06256194 0.12500000
0.62500000 0.06256172 0.12500000
0.75000000 0.06256197 0.12500000
0.87500000 0.06256206 0.12500000
0.91886608 0.06256219 0.12500000
0.06256179 0.12500000 0.12500000
0.12500000 0.12500000 0.12500000
0.25000000 0.12500000 0.12500000
0.37500000 0.12500000 0.12500000
0.50000000 0.12500000 0.12500000
0.62500000 0.12500000 0.12500000
0.75000000 0.12500000 0.12500000
0.87500000 0.12500000 0.12500000
0.91886608 0.12500000 0.12500000
0.06256183 0.25000000 0.12500000
0.12500000 0.25000000 0.12500000
0.25000000 0.25000000 0.12500000
0.37500000 0.25000000 0.12500000
0.50000000 0.25000000 0.12500000
0.62500000 0.25000000 0.12500000
0.75000000 0.25000000 0.12500000
0.87500000 0.25000000 0.12500000
0.91886608 0.25000000 0.12500000
0.06256188 0.37500000 0.12500000
0.12500000 0.37500000 0.12500000
0.25000000 0.37500000 0.12500000
0.37500000 0.37500000 0.12500000
0.50000000 0.37500000 0.12500000
0.62500000 0.37500000 0.12500000
0.75000000 0.37500000 0.12500000
0.87500000 0.37500000 0.12500000
0.91886608 0.37500000 0.12500000
0.06256194 0.50000000 0.12500000
0.12500000 0.50000000 0.12500000
0.25000000 0.50000000 0.12500000
0.37500000 0.50000000 0.12500000
0.50000000 0.50000000 0.12500000
0.62500000 0.50000000 0.12500000
0.75000000 0.50000000 0.12500000
0.87500000 0.50000000 0.12500000
0.91886608 0.50000000 0.12500000
0.06256198 0.62500000 0.12500000
0.12500000 0.62500000 0.12500000
0.25000000 0.62500000 0.12500000
0.37500000 0.62500000 0.12500000
0.50000000 0.62500000 0.12500000
0.62500000 0.62500000 0.12500000
0.75000000 0.62500000 0.12500000
0.87500000 0.62500000 0.12500000
0.91886608 0.62500000 0.12500000
0.06256207 0.75000000 0.12500000
0.12500000 0.75000000 0.12500000
0.25000000 0.75000000 0.12500000
0.37500000 0.75000000 0.12500000
0.50000000 0.75000000 0.12500000
0.62500000 0.75000000 0.12500000
0.75000000 0.75000000 0.12500000
0.87500000 0.75000000 0.12500000
0.91886608 0.75000000 0.12500000
0.06256222 0.87500000 0.12500000
0.12500000 0.87500000 0.12500000
0.25000000 0.87500000 0.12500000
0.37500000 0.87500000 0.12500000
0.50000000 0.87500000 0.12500000
0.62500000 0.87500000 0.12500000
0.75000000 0.87500000 0.12500000
0.87500000 0.87500000 0.12500000
0.91886608 0.87500000 0.12500000
0.06256232 0.91886608 0.12500000
0.12500000 0.91886608 0.12500000
0.25000000 0.91886608 0.12500000
0.37500000 0.91886608 0.12500000
0.50000000 0.91886608 0.12500000
0.62500000 0.91886608 0.12500000
0.75000000 0.91886608 0.12500000
0.87500000 0.91886608 0.12500000
0.91886608 0.91886608 0.12500000
0.06256172 0.06256172 0.25000000
0.12500000 0.06256172 0.25000000
0.25000000 0.06256185 0.25000000
0.37500000 0.06256172 0.25000000
0.50000000 0.06256191 0.25000000
0.62500000 0.06256195 0.25000000
0.75000000 0.06256197 0.25000000
0.87500000 0.06256172 0.25000000
0.91886608 0.06256228 0.25000000
0.06256172 0.12500000 0.25000000
0.12500000 0.12500000 0.25000000
0.25000000 0.12500000 0.25000000
0.37500000 0.12500000 0.25000000
0.50000000 0.12500000 0.25000000
0.62500000 0.12500000 0.25000000
0.75000000 0.12500000 0.25000000
0.87500000 0.12500000 0.25000000
0.91886608 0.12500000 0.25000000
0.06256172 0.25000000 0.25000000
0.12500000 0.25000000 0.25000000
0.25000000 0.25000000 0.25000000
0.37500000 0.25000000 0.25000000
0.50000000 0.25000000 0.25000000
0.62500000 0.25000000 0.25000000
0.75000000 0.25000000 0.25000000
0.87500000 0.25000000 0.25000000
0.91886608 0.25000000 0.25000000
0.06256189 0.37500000 0.25000000
0.12500000 0.37500000 0.25000000
0.25000000 0.37500000 0.25000000
0.37500000 0.37500000 0.25000000
0.50000000 0.37500000 0.25000000
0.62500000 0.37500000 0.25000000
0.75000000 0.37500000 0.25000000
0.87500000 0.37500000 0.25000000
0.91886608 0.37500000 0.25000000
0.06256192 0.50000000 0.25000000
0.12500000 0.50000000 0.25000000
0.25000000 0.50000000 0.25000000
0.37500000 0.50000000 0.25000000
0.50000000 0.50000000 0.25000000
0.62500000 0.50000000 0.25000000
0.75000000 0.50000000 0.25000000
0.87500000 0.50000000 0.25000000
0.91886608 0.50000000 0.25000000
0.06256201 0.62500000 0.25000000
0.12500000 0.62500000 0.25000000
0.25000000 0.62500000 0.25000000
0.37500000 0.62500000 0.25000000
0.50000000 0.62500000 0.25000000
0.62500000 0.62500000 0.25000000
0.75000000 0.62500000 0.25000000
0.87500000 0.62500000 0.25000000
0.91886608 0.62500000 0.25000000
0.06256206 0.75000000 0.25000000
0.12500000 0.75000000 0.25000000
0.25000000 0.75000000 0.25000000
0.37500000 0.75000000 0.25000000
0.50000000 0.75000000 0.25000000
0.62500000 0.75000000 0.25000000
0.75000000 0.75000000 0.25000000
0.87500000 0.75000000 0.25000000
0.91886608 0.75000000 0.25000000
0.06256228 0.87500000 0.25000000
0.12500000 0.87500000 0.25000000
0.25000000 0.87500000 0.25000000
0.37500000 0.87500000 0.25000000
0.50000000 0.87500000 0.25000000
0.62500000 0.87500000 0.25000000
0.75000000 0.87500000 0.25000000
0.87500000 0.87500000 0.25000000
0.91886608 0.87500000 0.25000000
0.06256232 0.91886608 0.25000000
0.12500000 0.91886608 0.25000000
0.25000000 0.91886608 0.25000000
0.37500000 0.91886608 0.25000000
0.50000000 0.91886608 0.25000000
0.62500000 0.91886608 0.25000000
0.75000000 0.91886608 0.25000000
0.87500000 0.91886608 0.25000000
0.91886608 0.91886608 0.25000000
0.06256172 0.06256191 0.37500000
0.12500000 0.06256172 0.37500000
0.25000000 0.06256172 0.37500000
0.37500000 0.06256194 0.37500000
0.50000000 0.06256172 0.37500000
0.62500000 0.06256200 0.37500000
0.75000000 0.06256197 0.37500000
0.87500000 0.06256172 0.37500000
0.91886608 0.06256225 0.37500000
0.06256172 0.12500000 0.37500000
0.12500000 0.12500000 0.37500000
0.25000000 0.12500000 0.37500000
0.37500000 0.12500000 0.37500000
0.50000000 0.12500000 0.37500000
0.62500000 0.12500000 0.37500000
0.75000000 0.12500000 0.37500000
0.87500000 0.12500000 0.37500000
0.91886608 0.12500000 0.37500000
0.06256172 0.25000000 0.37500000
0.12500000 0.25000000 0.37500000
0.25000000 0.25000000 0.37500000
0.37500000 0.25000000 0.37500000
0.50000000 0.25000000 0.37500000
0.62500000 0.25000000 0.37500000
0.75000000 0.25000000 0.37500000
0.87500000 0.25000000 0.37500000
0.91886608 0.25000000 0.37500000
0.06256189 0.37500000 0.37500000
0.12500000 0.37500000 0.37500000
0.25000000 0.37500000 0.37500000
0.37500000 0.37500000 0.37500000
0.50000000 0.37500000 0.37500000
0.62500000 0.37500000 0.37500000
0.75000000 0.37500000 0.37500000
0.87500000 0.37500000 0.37500000
0.91886608 0.37500000 0.37500000
0.06256193 0.50000000 0.37500000
0.12500000 0.50000000 0.37500000
0.25000000 0.50000000 0.37500000
0.37500000 0.50000000 0.37500000
0.50000000 0.50000000 0.37500000
0.62500000 0.50000000 0.37500000
0.75000000 0.50000000 0.37500000
0.87500000 0.50000000 0.37500000
0.91886608 0.50000000 0.37500000
0.06256196 0.62500000 0.37500000
0.12500000 0.62500000 0.37500000
0.25000000 0.62500000 0.37500000
0.37500000 0.62500000 0.37500000
0.50000000 0.62500000 0.37500000
0.62500000 0.62500000 0.37500000
0.75000000 0.62500000 0.37500000
0.87500000 0.62500000 0.37500000
0.91886608 0.62500000 0.37500000
0.06256206 0.75000000 0.37500000
0.12500000 0.75000000 0.37500000
0.25000000 0.75000000 0.37500000
0.37500000 0.75000000 0.37500000
0.50000000 0.75000000 0.37500000
0.62500000 0.75000000 0.37500000
0.75000000 0.75000000 0.37500000
0.87500000 0.75000000 0.37500000
0.91886608 0.75000000 0.37500000
0.06256224 0.87500000 0.37500000
0.12500000 0.87500000 0.37500000
0.25000000 0.87500000 0.37500000
0.37500000 0.87500000 0.37500000
0.50000000 0.87500000 0.37500000
0.62500000 0.87500000 0.37500000
0.75000000 0.87500000 0.37500000
0.87500000 0.87500000 0.37500000
0.91886608 0.87500000 0.37500000
0.06256233 0.91886608 0.37500000
0.12500000 0.91886608 0.37500000
0.25000000 0.91886608 0.37500000
0.37500000 0.91886608 0.37500000
0.50000000 0.91886608 0.37500000
0.62500000 0.91886608 0.37500000
0.75000000 0.91886608 0.37500000
0.87500000 0.91886608 0.37500000
0.91886608 0.91886608 0.37500000
0.06256172 0.06256172 0.50000000
0.12500000 0.06256197 0.50000000
0.25000000 0.06256197 0.50000000
0.37500000 0.06256172 0.50000000
0.50000000 0.06256200 0.50000000
0.62500000 0.06256172 0.50000000
0.75000000 0.06256204 0.50000000
0.87500000 0.06256211 0.50000000
0.91886608 0.06256234 0.50000000
0.06256172 0.12500000 0.50000000
0.12500000 0.12500000 0.50000000
0.25000000 0.12500000 0.50000000
0.37500000 0.12500000 0.50000000
0.50000000 0.12500000 0.50000000
0.62500000 0.12500000 0.50000000
0.75000000 0.12500000 0.50000000
0.87500000 0.12500000 0.50000000
0.91886608 0.12500000 0.50000000
0.06256172 0.25000000 0.50000000
0.12500000 0.25000000 0.50000000
0.25000000 0.25000000 0.50000000
0.37500000 0.25000000 0.50000000
0.50000000 0.25000000 0.50000000
0.62500000 0.25000000 0.50000000
0.75000000 0.25000000 0.50000000
0.87500000 0.25000000 0.50000000
0.91886608 0.25000000 0.50000000
0.06256172 0.37500000 0.50000000
0.12500000 0.37500000 0.50000000
0.25000000 0.37500000 0.50000000
0.37500000 0.37500000 0.50000000
0.50000000 0.37500000 0.50000000
0.62500000 0.37500000 0.50000000
0.75000000 0.37500000 0.50000000
0.87500000 0.37500000 0.50000000
0.91886608 0.37500000 0.50000000
0.06256172 0.50000000 0.50000000
0.12500000 0.50000000 0.50000000
0.25000000 0.50000000 0.50000000
0.37500000 0.50000000 0.50000000
0.50000000 0.50000000 0.50000000
0.62500000 0.50000000 0.50000000
0.75000000 0.50000000 0.50000000
0.87500000 0.50000000 0.50000000
0.91886608 0.50000000 0.50000000
0.06256201 0.62500000 0.50000000
0.12500000 0.62500000 0.50000000
0.25000000 0.62500000 0.50000000
0.37500000 0.62500000 0.50000000
0.50000000 0.62500000 0.50000000
0.62500000 0.62500000 0.50000000
0.75000000 0.62500000 0.50000000
0.87500000 0.62500000 0.50000000
0.91886608 0.62500000 0.50000000
0.06256215 0.75000000 0.50000000
0.12500000 0.75000000 0.50000000
0.25000000 0.75000000 0.50000000
0.37500000 0.75000000 0.50000000
0.50000000 0.75000000 0.50000000
0.62500000 0.75000000 0.50000000
0.75000000 0.75000000 0.50000000
0.87500000 0.75000000 0.50000000
0.91886608 0.75000000 0.50000000
0.06256224 0.87500000 0.50000000
0.12500000 0.87500000 0.50000000
0.25000000 0.87500000 0.50000000
0.37500000 0.87500000 0.50000000
0.50000000 0.87500000 0.50000000
0.62500000 0.87500000 0.50000000
0.75000000 0.87500000 0.50000000
0.87500000 0.87500000 0.50000000
0.91886608 0.87500000 0.50000000
0.06256234 0.91886608 0.50000000
0.12500000 0.91886608 0.50000000
0.25000000 0.91886608 0.50000000
0.37500000 0.91886608 0.50000000
0.50000000 0.91886608 0.50000000
0.62500000 0.91886608 0.50000000
0.75000000 0.91886608 0.50000000
0.87500000 0.91886608 0.50000000
0.91886608 0.91886608 0.50000000
0.06256172 0.06256204 0.62500000
0.12500000 0.06256204 0.62500000
0.25000000 0.06256208 0.62500000
0.37500000 0.06256204 0.62500000
0.50000000 0.06256208 0.62500000
0.62500000 0.06256211 0.62500000
0.75000000 0.06256172 0.62500000
0.87500000 0.06256208 0.62500000
0.91886608 0.06256172 0.62500000
0.06256172 0.12500000 0.62500000
0.12500000 0.12500000 0.62500000
0.25000000 0.12500000 0.62500000
0.37500000 0.12500000 0.62500000
0.50000000 0.12500000 0.62500000
0.62500000 0.12500000 0.62500000
0.75000000 0.12500000 0.62500000
0.87500000 0.12500000 0.62500000
0.91886608 0.12500000 0.62500000
0.06256200 0.25000000 0.62500000
0.12500000 0.25000000 0.62500000
0.25000000 0.25000000 0.62500000
0.37500000 0.25000000 0.62500000
0.50000000 0.25000000 0.62500000
0.62500000 0.25000000 0.62500000
0.75000000 0.25000000 0.62500000
0.87500000 0.25000000 0.62500000
0.91886608 0.25000000 0.62500000
0.06256172 0.37500000 0.62500000
0.12500000 0.37500000 0.62500000
0.25000000 0.37500000 0.62500000
0.37500000 0.37500000 0.62500000
0.50000000 0.37500000 0.62500000
0.62500000 0.37500000 0.62500000
0.75000000 0.37500000 0.62500000
0.87500000 0.37500000 0.62500000
0.91886608 0.37500000 0.62500000
0.06256172 0.50000000 0.62500000
0.12500000 0.50000000 0.62500000
0.25000000 0.50000000 0.62500000
0.37500000 0.50000000 0.62500000
0.50000000 0.50000000 0.62500000
0.62500000 0.50000000 0.62500000
0.75000000 0.50000000 0.62500000
0.87500000 0.50000000 0.62500000
0.91886608 0.50000000 0.62500000
0.06256200 0.62500000 0.62500000
0.12500000 0.62500000 0.62500000
0.25000000 0.62500000 0.62500000
0.37500000 0.62500000 0.62500000
0.50000000 0.62500000 0.62500000
0.62500000 0.62500000 0.62500000
0.75000000 0.62500000 0.62500000
0.87500000 0.62500000 0.62500000
0.91886608 0.62500000 0.62500000
0.06256211 0.75000000 0.62500000
0.12500000 0.75000000 0.62500000
0.25000000 0.75000000 0.62500000
0.37500000 0.75000000 0.62500000
0.50000000 0.75000000 0.62500000
0.62500000 0.75000000 0.62500000
0.75000000 0.75000000 0.62500000
0.87500000 0.75000000 0.62500000
0.91886608 0.75000000 0.62500000
0.06256223 0.87500000 0.62500000
0.12500000 0.87500000 0.62500000
0.25000000 0.87500000 0.62500000
0.37500000 0.87500000 0.62500000
0.50000000 0.87500000 0.62500000
0.62500000 0.87500000 0.62500000
0.75000000 0.87500000 0.62500000
0.87500000 0.87500000 0.62500000
0.91886608 0.87500000 0.62500000
0.06256246 0.91886608 0.62500000
0.12500000 0.91886608 0.62500000
0.25000000 0.91886608 0.62500000
0.37500000 0.91886608 0.62500000
0.50000000 0.91886608 0.62500000
0.62500000 0.91886608 0.62500000
0.75000000 0.91886608 0.62500000
0.87500000 0.91886608 0.62500000
0.91886608 0.91886608 0.62500000
0.06256172 0.06256172 0.75000000
0.12500000 0.06256172 0.75000000
0.25000000 0.06256172 0.75000000
0.37500000 0.06256213 0.75000000
0.50000000 0.06256172 0.75000000
0.62500000 0.06256172 0.75000000
0.75000000 0.06256172 0.75000000
0.87500000 0.06256172 0.75000000
0.91886608 0.06256172 0.75000000
0.06256172 0.12500000 0.75000000
0.12500000 0.12500000 0.75000000
0.25000000 0.12500000 0.75000000
0.37500000 0.12500000 0.75000000
0.50000000 0.12500000 0.75000000
0.62500000 0.12500000 0.75000000
0.75000000 0.12500000 0.75000000
0.87500000 0.12500000 0.75000000
0.91886608 0.12500000 0.75000000
0.06256172 0.25000000 0.75000000
0.12500000 0.25000000 0.75000000
0.25000000 0.25000000 0.75000000
0.37500000 0.25000000 0.75000000
0.50000000 0.25000000 0.75000000
0.62500000 0.25000000 0.75000000
0.75000000 0.25000000 0.75000000
0.87500000 0.25000000 0.75000000
0.91886608 0.25000000 0.75000000
0.06256172 0.37500000 0.75000000
0.12500000 0.37500000 0.75000000
0.25000000 0.37500000 0.75000000
0.37500000 0.37500000 0.75000000
0.50000000 0.37500000 0.75000000
0.62500000 0.37500000 0.75000000
0.75000000 0.37500000 0.75000000
0.87500000 0.37500000 0.75000000
0.91886608 0.37500000 0.75000000
0.06256172 0.50000000 0.75000000
0.12500000 0.50000000 0.75000000
0.25000000 0.50000000 0.75000000
0.37500000 0.50000000 0.75000000
0.50000000 0.50000000 0.75000000
0.62500000 0.50000000 0.75000000
0.75000000 0.50000000 0.75000000
0.87500000 0.50000000 0.75000000
0.91886608 0.50000000 0.75000000
0.06256172 0.62500000 0.75000000
0.12500000 0.62500000 0.75000000
0.25000000 0.62500000 0.75000000
0.37500000 0.62500000 0.75000000
0.50000000 0.62500000 0.75000000
0.62500000 0.62500000 0.75000000
0.75000000 0.62500000 0.75000000
0.87500000 0.62500000 0.75000000
0.91886608 0.62500000 0.75000000
0.06256172 0.75000000 0.75000000
0.12500000 0.75000000 0.75000000
0.25000000 0.75000000 0.75000000
0.37500000 0.75000000 0.75000000
0.50000000 0.75000000 0.75000000
0.62500000 0.75000000 0.75000000
0.75000000 0.75000000 0.75000000
0.87500000 0.75000000 0.75000000
0.91886608 0.75000000 0.75000000
0.06256219 0.87500000 0.75000000
0.12500000 0.87500000 0.75000000
0.25000000 0.87500000 0.75000000
0.37500000 0.87500000 0.75000000
0.50000000 0.87500000 0.75000000
0.62500000 0.87500000 0.75000000
0.75000000 0.87500000 0.75000000
0.87500000 0.87500000 0.75000000
0.91886608 0.87500000 0.75000000
0.06256237 0.91886608 0.75000000
0.12500000 0.91886608 0.75000000
0.25000000 0.91886608 0.75000000
0.37500000 0.91886608 0.75000000
0.50000000 0.91886608 0.75000000
0.62500000 0.91886608 0.75000000
0.75000000 0.91886608 0.75000000
0.87500000 0.91886608 0.75000000
0.91886608 0.91886608 0.75000000
0.06256172 0.06256235 0.87500000
0.12500000 0.06256227 0.87500000
0.25000000 0.06256227 0.87500000
0.37500000 0.06256235 0.87500000
0.50000000 0.06256172 0.87500000
0.62500000 0.06256172 0.87500000
0.75000000 0.06256227 0.87500000
0.87500000 0.06256235 0.87500000
0.91886608 0.06256235 0.87500000
0.06256172 0.12500000 0.87500000
0.12500000 0.12500000 0.87500000
0.25000000 0.12500000 0.87500000
0.37500000 0.12500000 0.87500000
0.50000000 0.12500000 0.87500000
0.62500000 0.12500000 0.87500000
0.75000000 0.12500000 0.87500000
0.87500000 0.12500000 0.87500000
0.91886608 0.12500000 0.87500000
0.06256172 0.25000000 0.87500000
0.12500000 0.25000000 0.87500000
0.25000000 0.25000000 0.87500000
0.37500000 0.25000000 0.87500000
0.50000000 0.25000000 0.87500000
0.62500000 0.25000000 0.87500000
0.75000000 0.25000000 0.87500000
0.87500000 0.25000000 0.87500000
0.91886608 0.25000000 0.87500000
0.06256172 0.37500000 0.87500000
0.12500000 0.37500000 0.87500000
0.25000000 0.37500000 0.87500000
0.37500000 0.37500000 0.87500000
0.50000000 0.37500000 0.87500000
0.62500000 0.37500000 0.87500000
0.75000000 0.37500000 0.87500000
0.87500000 0.37500000 0.87500000
0.91886608 0.37500000 0.87500000
0.06256172 0.50000000 0.87500000
0.12500000 0.50000000 0.87500000
0.25000000 0.50000000 0.87500000
0.37500000 0.50000000 0.87500000
0.50000000 0.50000000 0.87500000
0.62500000 0.50000000 0.87500000
0.75000000 0.50000000 0.87500000
0.87500000 0.50000000 0.87500000
0.91886608 0.50000000 0.87500000
0.06256172 0.62500000 0.87500000
0.12500000 0.62500000 0.87500000
0.25000000 0.62500000 0.87500000
0.37500000 0.62500000 0.87500000
0.50000000 0.62500000 0.87500000
0.62500000 0.62500000 0.87500000
0.75000000 0.62500000 0.87500000
0.87500000 0.62500000 0.87500000
0.91886608 0.62500000 0.87500000
0.06256172 0.75000000 0.87500000
0.12500000 0.75000000 0.87500000
0.25000000 0.75000000 0.87500000
0.37500000 0.75000000 0.87500000
0.50000000 0.75000000 0.87500000
0.62500000 0.75000000 0.87500000
0.75000000 0.75000000 0.87500000
0.87500000 0.75000000 0.87500000
0.91886608 0.75000000 0.87500000
0.06256172 0.87500000 0.87500000
0.12500000 0.87500000 0.87500000
0.25000000 0.87500000 0.87500000
0.37500000 0.87500000 0.87500000
0.50000000 0.87500000 0.87500000
0.62500000 0.87500000 0.87500000
0.75000000 0.87500000 0.87500000
0.87500000 0.87500000 0.87500000
0.91886608 0.87500000 0.87500000
0.06256247 0.91886608 0.87500000
0.12500000 0.91886608 0.87500000
0.25000000 0.91886608 0.87500000
0.37500000 0.91886608 0.87500000
0.50000000 0.91886608 0.87500000
0.62500000 0.91886608 0.87500000
0.75000000 0.91886608 0.87500000
0.87500000 0.91886608 0.87500000
0.91886608 0.91886608 0.87500000
0.06256172 0.06256172 0.91886608
0.12500000 0.06256172 0.91886608
0.25000000 0.06256257 0.91886608
0.37500000 0.06256245 0.91886608
0.50000000 0.06256245 0.91886608
0.62500000 0.06256245 0.91886608
0.75000000 0.06256245 0.91886608
0.87500000 0.06256245 0.91886608
0.91886608 0.06256245 0.91886608
0.06256172 0.12500000 0.91886608
0.12500000 0.12500000 0.91886608
0.25000000 0.12500000 0.91886608
0.37500000 0.12500000 0.91886608
0.50000000 0.12500000 0.91886608
0.62500000 0.12500000 0.91886608
0.75000000 0.12500000 0.91886608
0.87500000 0.12500000 0.91886608
0.91886608 0.12500000 0.91886608
0.06256172 0.25000000 0.91886608
0.12500000 0.25000000 0.91886608
0.25000000 0.25000000 0.91886608
0.37500000 0.25000000 0.91886608
0.50000000 0.25000000 0.91886608
0.62500000 0.25000000 0.91886608
0.75000000 0.25000000 0.91886608
0.87500000 0.25000000 0.91886608
0.91886608 0.25000000 0.91886608
0.06256235 0.37500000 0.91886608
0.12500000 0.37500000 0.91886608
0.25000000 0.37500000 0.91886608
0.37500000 0.37500000 0.91886608
0.50000000 0.37500000 0.91886608
0.62500000 0.37500000 0.91886608
0.75000000 0.37500000 0.91886608
0.87500000 0.37500000 0.91886608
0.91886608 0.37500000 0.91886608
0.06256172 0.50000000 0.91886608
0.12500000 0.50000000 0.91886608
0.25000000 0.50000000 0.91886608
0.37500000 0.50000000 0.91886608
0.50000000 0.50000000 0.91886608
0.62500000 0.50000000 0.91886608
0.75000000 0.50000000 0.91886608
0.87500000 0.50000000 0.91886608
0.91886608 0.50000000 0.91886608
0.06256172 0.62500000 0.91886608
0.12500000 0.62500000 0.91886608
0.25000000 0.62500000 0.91886608
0.37500000 0.62500000 0.91886608
0.50000000 0.62500000 0.91886608
0.62500000 0.62500000 0.91886608
0.75000000 0.62500000 0.91886608
0.87500000 0.62500000 0.91886608
0.91886608 0.62500000 0.91886608
0.06256172 0.75000000 0.91886608
0.12500000 0.75000000 0.91886608
0.25000000 0.75000000 0.91886608
0.37500000 0.75000000 0.91886608
0.50000000 0.75000000 0.91886608
0.62500000 0.75000000 0.91886608
0.75000000 0.75000000 0.91886608
0.87500000 0.75000000 0.91886608
0.91886608 0.75000000 0.91886608
0.06256172 0.87500000 0.91886608
0.12500000 0.87500000 0.91886608
0.25000000 0.87500000 0.91886608
0.37500000 0.87500000 0.91886608
0.50000000 0.87500000 0.91886608
0.62500000 0.87500000 0.91886608
0.75000000 0.87500000 0.91886608
0.87500000 0.87500000 0.91886608
0.91886608 0.87500000 0.91886608
0.06256235 0.91886608 0.91886608
0.12500000 0.91886608 0.91886608
0.25000000 0.91886608 0.91886608
0.37500000 0.91886608 0.91886608
0.50000000 0.91886608 0.91886608
0.62500000 0.91886608 0.91886608
0.75000000 0.91886608 0.91886608
0.87500000 0.91886608 0.91886608
0.91886608 0.91886608 0.91886608
