src/ffmpeg_scripts/luts/luminance-unclipped_0-Native.cube
TITLE "luminance-unclipped_0-Native"
LUT_3D_SIZE 5
# PQ (EOTF Only)/Rec2020 -> PQ (EOTF Only)/Rec2020, CineEI Shift 0.00, Black Level -7.25% IRE, Input 109% -> Output 109% - Created with LUTCalc v4.01 by Ben Turley October 2020
0.00047898 0.00047898 0.00047898
0.21769671 0.00047898 0.00047898
0.50741572 0.00047923 0.00047898
0.79713473 0.00047932 0.00047898
0.91886608 0.00047963 0.00047961
0.00047898 0.21769671 0.00047898
0.21769671 0.21769671 0.00047898
0.50741572 0.21769671 0.00047898
0.79713473 0.21769671 0.00047898
0.91886608 0.21769671 0.00047898
0.00047898 0.50741572 0.00047898
0.21769671 0.50741572 0.00047898
0.50741572 0.50741572 0.00047898
0.79713473 0.50741572 0.00047898
0.91886608 0.50741572 0.00047898
0.00047937 0.79713473 0.00047898
0.21769671 0.79713473 0.00047898
0.50741572 0.79713473 0.00047898
0.79713473 0.79713473 0.00047898
0.91886608 0.79713473 0.00047961
0.00047971 0.91886608 0.00047898
0.21769671 0.91886608 0.00047898
0.50741572 0.91886608 0.00047898
0.79713473 0.91886608 0.00047898
0.91886608 0.91886608 0.00047898
0.00047898 0.00047898 0.21769671
0.21769671 0.00047914 0.21769671
0.50741572 0.00047920 0.21769671
0.79713473 0.00047927 0.21769671
0.91886608 0.00047963 0.21769671
0.00047898 0.21769671 0.21769671
0.21769671 0.21769671 0.21769671
0.50741572 0.21769671 0.21769671
0.79713473 0.21769671 0.21769671
0.91886608 0.21769671 0.21769671
0.00047921 0.50741572 0.21769671
0.21769671 0.50741572 0.21769671
0.50741572 0.50741572 0.21769671
0.79713473 0.50741572 0.21769671
0.91886608 0.50741572 0.21769671
0.00047938 0.79713473 0.21769671
0.21769671 0.79713473 0.21769671
0.50741572 0.79713473 0.21769671
0.79713473 0.79713473 0.21769671
0.91886608 0.79713473 0.21769671
0.00047968 0.91886608 0.21769671
0.21769671 0.91886608 0.21769671
0.50741572 0.91886608 0.21769671
0.79713473 0.91886608 0.21769671
0.91886608 0.91886608 0.21769671
0.00047898 0.00047898 0.50741572
0.21769671 0.00047927 0.50741572
0.50741572 0.00047931 0.50741572
0.79713473 0.00047935 0.50741572
0.91886608 0.00047970 0.50741572
0.00047898 0.21769671 0.50741572
0.21769671 0.21769671 0.50741572
0.50741572 0.21769671 0.50741572
0.79713473 0.21769671 0.50741572
0.91886608 0.21769671 0.50741572
0.00047898 0.50741572 0.50741572
0.21769671 0.50741572 0.50741572
0.50741572 0.50741572 0.50741572
0.79713473 0.50741572 0.50741572
0.91886608 0.50741572 0.50741572
0.00047948 0.79713473 0.50741572
0.21769671 0.79713473 0.50741572
0.50741572 0.79713473 0.50741572
0.79713473 0.79713473 0.50741572
0.91886608 0.79713473 0.50741572
0.00047970 0.91886608 0.50741572
0.21769671 0.91886608 0.50741572
0.50741572 0.91886608 0.50741572
0.79713473 0.91886608 0.50741572
0.91886608 0.91886608 0.50741572
0.00047898 0.00047898 0.79713473
0.21769671 0.00047898 0.79713473
0.50741572 0.00047898 0.79713473
0.79713473 0.00047898 0.79713473
0.91886608 0.00047898 0.79713473
0.00047898 0.21769671 0.79713473
0.21769671 0.21769671 0.79713473
0.50741572 0.21769671 0.79713473
0.79713473 0.21769671 0.79713473
0.91886608 0.21769671 0.79713473
0.00047898 0.50741572 0.79713473
0.21769671 0.50741572 0.79713473
0.50741572 0.50741572 0.79713473
0.79713473 0.50741572 0.79713473
0.91886608 0.50741572 0.79713473
0.00047898 0.79713473 0.79713473
0.21769671 0.79713473 0.79713473
0.50741572 0.79713473 0.79713473
0.79713473 0.79713473 0.79713473
0.91886608 0.79713473 0.79713473
0.00047974 0.91886608 0.79713473
0.21769671 0.91886608 0.79713473
0.50741572 0.91886608 0.79713473
0.79713473 0.91886608 0.79713473
0.91886608 0.91886608 0.79713473
0.00047898 0.00047898 0.91886608
0.21769671 0.00047997 0.91886608
0.50741572 0.00047983 0.91886608
0.79713473 0.00047983 0.91886608
0.91886608 0.00047983 0.91886608
0.00047898 0.21769671 0.91886608
0.21769671 0.21769671 0.91886608
0.50741572 0.21769671 0.91886608
0.79713473 0.21769671 0.91886608
0.91886608 0.21769671 0.91886608
0.00047898 0.50741572 0.91886608
0.21769671 0.50741572 0.91886608
0.50741572 0.50741572 0.91886608
0.79713473 0.50741572 0.91886608
0.91886608 0.50741572 0.91886608
0.00047898 0.79713473 0.91886608
0.21769671 0.79713473 0.91886608
0.50741572 0.79713473 0.91886608
0.79713473 0.79713473 0.91886608
0.91886608 0.79713473 0.91886608
0.00047971 0.91886608 0.91886608
0.21769671 0.91886608 0.91886608
0.50741572 0.91886608 0.91886608
0.79713473 0.91886608 0.91886608
0.91886608 0.91886608 0.91886608
