src/ffmpeg_scripts/luts/luminance_-2p00.cube
TITLE "luminance_-2p00"
LUT_3D_SIZE 5
# PQ (EOTF Only)/Rec2020 -> PQ (EOTF Only)/Rec2020, CineEI Shift -2.00, Black Level 0.00% IRE, Input 109% -> Output 109% - Created with LUTCalc v4.01 by Ben Turley October 2020
0.06256172 0.06256172 0.06256172
0.18235122 0.06256172 0.06256172
0.38709426 0.06256188 0.06256187
0.62111258 0.06256172 0.06256172
0.87709209 0.06256213 0.06256213
0.06256172 0.18235122 0.06256172
0.18235122 0.18235122 0.06256172
0.38709426 0.18235122 0.06256187
0.62111258 0.18235122 0.06256172
0.87709209 0.18235122 0.06256172
0.06256172 0.38709426 0.06256172
0.18235122 0.38709426 0.06256187
0.38709426 0.38709426 0.06256172
0.62111258 0.38709426 0.06256172
0.87709209 0.38709426 0.06256172
0.06256197 0.62111258 0.06256172
0.18235122 0.62111258 0.06256172
0.38709426 0.62111258 0.06256172
0.62111258 0.62111258 0.06256172
0.87709209 0.62111258 0.06256213
0.06256218 0.87709209 0.06256213
0.18235122 0.87709209 0.06256213
0.38709426 0.87709209 0.06256172
0.62111258 0.87709209 0.06256213
0.87709209 0.87709209 0.06256172
0.06256172 0.06256182 0.18235122
0.18235122 0.06256172 0.18235122
0.38709426 0.06256185 0.18235122
0.62111258 0.06256189 0.18235122
0.87709209 0.06256212 0.18235122
0.06256172 0.18235122 0.18235122
0.18235122 0.18235122 0.18235122
0.38709426 0.18235122 0.18235122
0.62111258 0.18235122 0.18235122
0.87709209 0.18235122 0.18235122
0.06256187 0.38709426 0.18235122
0.18235122 0.38709426 0.18235122
0.38709426 0.38709426 0.18235122
0.62111258 0.38709426 0.18235122
0.87709209 0.38709426 0.18235122
0.06256198 0.62111258 0.18235122
0.18235122 0.62111258 0.18235122
0.38709426 0.62111258 0.18235122
0.62111258 0.62111258 0.18235122
0.87709209 0.62111258 0.18235122
0.06256217 0.87709209 0.18235122
0.18235122 0.87709209 0.18235122
0.38709426 0.87709209 0.18235122
0.62111258 0.87709209 0.18235122
0.87709209 0.87709209 0.18235122
0.06256172 0.06256191 0.38709426
0.18235122 0.06256191 0.38709426
0.38709426 0.06256191 0.38709426
0.62111258 0.06256197 0.38709426
0.87709209 0.06256211 0.38709426
0.06256172 0.18235122 0.38709426
0.18235122 0.18235122 0.38709426
0.38709426 0.18235122 0.38709426
0.62111258 0.18235122 0.38709426
0.87709209 0.18235122 0.38709426
0.06256172 0.38709426 0.38709426
0.18235122 0.38709426 0.38709426
0.38709426 0.38709426 0.38709426
0.62111258 0.38709426 0.38709426
0.87709209 0.38709426 0.38709426
0.06256202 0.62111258 0.38709426
0.18235122 0.62111258 0.38709426
0.38709426 0.62111258 0.38709426
0.62111258 0.62111258 0.38709426
0.87709209 0.62111258 0.38709426
0.06256172 0.87709209 0.38709426
0.18235122 0.87709209 0.38709426
0.38709426 0.87709209 0.38709426
0.62111258 0.87709209 0.38709426
0.87709209 0.87709209 0.38709426
0.06256172 0.06256204 0.62111258
0.18235122 0.06256204 0.62111258
0.38709426 0.06256172 0.62111258
0.62111258 0.06256204 0.62111258
0.87709209 0.06256213 0.62111258
0.06256172 0.18235122 0.62111258
0.18235122 0.18235122 0.62111258
0.38709426 0.18235122 0.62111258
0.62111258 0.18235122 0.62111258
0.87709209 0.18235122 0.62111258
0.06256172 0.38709426 0.62111258
0.18235122 0.38709426 0.62111258
0.38709426 0.38709426 0.62111258
0.62111258 0.38709426 0.62111258
0.87709209 0.38709426 0.62111258
0.06256172 0.62111258 0.62111258
0.18235122 0.62111258 0.62111258
0.38709426 0.62111258 0.62111258
0.62111258 0.62111258 0.62111258
0.87709209 0.62111258 0.62111258
0.06256204 0.87709209 0.62111258
0.18235122 0.87709209 0.62111258
0.38709426 0.87709209 0.62111258
0.62111258 0.87709209 0.62111258
0.87709209 0.87709209 0.62111258
0.06256172 0.06256172 0.87709209
0.18235122 0.06256227 0.87709209
0.38709426 0.06256172 0.87709209
0.62111258 0.06256227 0.87709209
0.87709209 0.06256172 0.87709209
0.06256172 0.18235122 0.87709209
0.18235122 0.18235122 0.87709209
0.38709426 0.18235122 0.87709209
0.62111258 0.18235122 0.87709209
0.87709209 0.18235122 0.87709209
0.06256172 0.38709426 0.87709209
0.18235122 0.38709426 0.87709209
0.38709426 0.38709426 0.87709209
0.62111258 0.38709426 0.87709209
0.87709209 0.38709426 0.87709209
0.06256172 0.62111258 0.87709209
0.18235122 0.62111258 0.87709209
0.38709426 0.62111258 0.87709209
0.62111258 0.62111258 0.87709209
0.87709209 0.62111258 0.87709209
0.06256219 0.87709209 0.87709209
0.18235122 0.87709209 0.87709209
0.38709426 0.87709209 0.87709209
0.62111258 0.87709209 0.87709209
0.87709209 0.87709209 0.87709209
