src/ffmpeg_scripts/luts/luminance-unclipped_-1p33.cube
TITLE "luminance-unclipped_-1p33"
LUT_3D_SIZE 9
# PQ (EOTF Only)/Rec2020 -> PQ (EOTF Only)/Rec2020, CineEI Shift -1.33, Black Level -7.25% IRE, Input 109% -> Output 109% - Created with LUTCalc v4.01 by Ben Turley October 2020
0.00047898 0.00047898 0.00047898
0.04930408 0.00047904 0.00047898
0.16284065 0.00047898 0.00047898
0.28699568 0.00047898 0.00047898
0.41837119 0.00047918 0.00047918
0.55542479 0.00047898 0.00047898
0.69723790 0.00047898 0.00047898
0.84318981 0.00047898 0.00047898
0.91886608 0.00047935 0.00047946
0.00047906 0.04930408 0.00047898
0.04930408 0.04930408 0.00047898
0.16284065 0.04930408 0.00047898
0.28699568 0.04930408 0.00047898
0.41837119 0.04930408 0.00047898
0.55542479 0.04930408 0.00047898
0.69723790 0.04930408 0.00047927
0.84318981 0.04930408 0.00047935
0.91886608 0.04930408 0.00047946
0.00047909 0.16284065 0.00047898
0.04930408 0.16284065 0.00047898
0.16284065 0.16284065 0.00047898
0.28699568 0.16284065 0.00047898
0.41837119 0.16284065 0.00047916
0.55542479 0.16284065 0.00047898
0.69723790 0.16284065 0.00047898
0.84318981 0.16284065 0.00047935
0.91886608 0.16284065 0.00047898
0.00047914 0.28699568 0.00047898
0.04930408 0.28699568 0.00047914
0.16284065 0.28699568 0.00047914
0.28699568 0.28699568 0.00047898
0.41837119 0.28699568 0.00047898
0.55542479 0.28699568 0.00047898
0.69723790 0.28699568 0.00047898
0.84318981 0.28699568 0.00047940
0.91886608 0.28699568 0.00047898
0.00047898 0.41837119 0.00047898
0.04930408 0.41837119 0.00047898
0.16284065 0.41837119 0.00047918
0.28699568 0.41837119 0.00047898
0.41837119 0.41837119 0.00047898
0.55542479 0.41837119 0.00047898
0.69723790 0.41837119 0.00047898
0.84318981 0.41837119 0.00047898
0.91886608 0.41837119 0.00047898
0.00047921 0.55542479 0.00047898
0.04930408 0.55542479 0.00047898
0.16284065 0.55542479 0.00047898
0.28699568 0.55542479 0.00047898
0.41837119 0.55542479 0.00047898
0.55542479 0.55542479 0.00047898
0.69723790 0.55542479 0.00047898
0.84318981 0.55542479 0.00047898
0.91886608 0.55542479 0.00047898
0.00047927 0.69723790 0.00047898
0.04930408 0.69723790 0.00047898
0.16284065 0.69723790 0.00047931
0.28699568 0.69723790 0.00047931
0.41837119 0.69723790 0.00047898
0.55542479 0.69723790 0.00047898
0.69723790 0.69723790 0.00047935
0.84318981 0.69723790 0.00047898
0.91886608 0.69723790 0.00047953
0.00047937 0.84318981 0.00047898
0.04930408 0.84318981 0.00047940
0.16284065 0.84318981 0.00047898
0.28699568 0.84318981 0.00047898
0.41837119 0.84318981 0.00047898
0.55542479 0.84318981 0.00047898
0.69723790 0.84318981 0.00047898
0.84318981 0.84318981 0.00047898
0.91886608 0.84318981 0.00047898
0.00047954 0.91886608 0.00047953
0.04930408 0.91886608 0.00047953
0.16284065 0.91886608 0.00047898
0.28699568 0.91886608 0.00047898
0.41837119 0.91886608 0.00047898
0.55542479 0.91886608 0.00047898
0.69723790 0.91886608 0.00047953
0.84318981 0.91886608 0.00047953
0.91886608 0.91886608 0.00047898
0.00047898 0.00047907 0.04930408
0.04930408 0.00047907 0.04930408
0.16284065 0.00047898 0.04930408
0.28699568 0.00047898 0.04930408
0.41837119 0.00047916 0.04930408
0.55542479 0.00047898 0.04930408
0.69723790 0.00047898 0.04930408
0.84318981 0.00047939 0.04930408
0.91886608 0.00047898 0.04930408
0.00047905 0.04930408 0.04930408
0.04930408 0.04930408 0.04930408
0.16284065 0.04930408 0.04930408
0.28699568 0.04930408 0.04930408
0.41837119 0.04930408 0.04930408
0.55542479 0.04930408 0.04930408
0.69723790 0.04930408 0.04930408
0.84318981 0.04930408 0.04930408
0.91886608 0.04930408 0.04930408
0.00047898 0.16284065 0.04930408
0.04930408 0.16284065 0.04930408
0.16284065 0.16284065 0.04930408
0.28699568 0.16284065 0.04930408
0.41837119 0.16284065 0.04930408
0.55542479 0.16284065 0.04930408
0.69723790 0.16284065 0.04930408
0.84318981 0.16284065 0.04930408
0.91886608 0.16284065 0.04930408
0.00047898 0.28699568 0.04930408
0.04930408 0.28699568 0.04930408
0.16284065 0.28699568 0.04930408
0.28699568 0.28699568 0.04930408
0.41837119 0.28699568 0.04930408
0.55542479 0.28699568 0.04930408
0.69723790 0.28699568 0.04930408
0.84318981 0.28699568 0.04930408
0.91886608 0.28699568 0.04930408
0.00047920 0.41837119 0.04930408
0.04930408 0.41837119 0.04930408
0.16284065 0.41837119 0.04930408
0.28699568 0.41837119 0.04930408
0.41837119 0.41837119 0.04930408
0.55542479 0.41837119 0.04930408
0.69723790 0.41837119 0.04930408
0.84318981 0.41837119 0.04930408
0.91886608 0.41837119 0.04930408
0.00047898 0.55542479 0.04930408
0.04930408 0.55542479 0.04930408
0.16284065 0.55542479 0.04930408
0.28699568 0.55542479 0.04930408
0.41837119 0.55542479 0.04930408
0.55542479 0.55542479 0.04930408
0.69723790 0.55542479 0.04930408
0.84318981 0.55542479 0.04930408
0.91886608 0.55542479 0.04930408
0.00047898 0.69723790 0.04930408
0.04930408 0.69723790 0.04930408
0.16284065 0.69723790 0.04930408
0.28699568 0.69723790 0.04930408
0.41837119 0.69723790 0.04930408
0.55542479 0.69723790 0.04930408
0.69723790 0.69723790 0.04930408
0.84318981 0.69723790 0.04930408
0.91886608 0.69723790 0.04930408
0.00047898 0.84318981 0.04930408
0.04930408 0.84318981 0.04930408
0.16284065 0.84318981 0.04930408
0.28699568 0.84318981 0.04930408
0.41837119 0.84318981 0.04930408
0.55542479 0.84318981 0.04930408
0.69723790 0.84318981 0.04930408
0.84318981 0.84318981 0.04930408
0.91886608 0.84318981 0.04930408
0.00047931 0.91886608 0.04930408
0.04930408 0.91886608 0.04930408
0.16284065 0.91886608 0.04930408
0.28699568 0.91886608 0.04930408
0.41837119 0.91886608 0.04930408
0.55542479 0.91886608 0.04930408
0.69723790 0.91886608 0.04930408
0.84318981 0.91886608 0.04930408
0.91886608 0.91886608 0.04930408
0.00047898 0.00047914 0.16284065
0.04930408 0.00047898 0.16284065
0.16284065 0.00047898 0.16284065
0.28699568 0.00047898 0.16284065
0.41837119 0.00047920 0.16284065
0.55542479 0.00047916 0.16284065
0.69723790 0.00047928 0.16284065
0.84318981 0.00047940 0.16284065
0.91886608 0.00047940 0.16284065
0.00047898 0.04930408 0.16284065
0.04930408 0.04930408 0.16284065
0.16284065 0.04930408 0.16284065
0.28699568 0.04930408 0.16284065
0.41837119 0.04930408 0.16284065
0.55542479 0.04930408 0.16284065
0.69723790 0.04930408 0.16284065
0.84318981 0.04930408 0.16284065
0.91886608 0.04930408 0.16284065
0.00047912 0.16284065 0.16284065
0.04930408 0.16284065 0.16284065
0.16284065 0.16284065 0.16284065
0.28699568 0.16284065 0.16284065
0.41837119 0.16284065 0.16284065
0.55542479 0.16284065 0.16284065
0.69723790 0.16284065 0.16284065
0.84318981 0.16284065 0.16284065
0.91886608 0.16284065 0.16284065
0.00047913 0.28699568 0.16284065
0.04930408 0.28699568 0.16284065
0.16284065 0.28699568 0.16284065
0.28699568 0.28699568 0.16284065
0.41837119 0.28699568 0.16284065
0.55542479 0.28699568 0.16284065
0.69723790 0.28699568 0.16284065
0.84318981 0.28699568 0.16284065
0.91886608 0.28699568 0.16284065
0.00047920 0.41837119 0.16284065
0.04930408 0.41837119 0.16284065
0.16284065 0.41837119 0.16284065
0.28699568 0.41837119 0.16284065
0.41837119 0.41837119 0.16284065
0.55542479 0.41837119 0.16284065
0.69723790 0.41837119 0.16284065
0.84318981 0.41837119 0.16284065
0.91886608 0.41837119 0.16284065
0.00047927 0.55542479 0.16284065
0.04930408 0.55542479 0.16284065
0.16284065 0.55542479 0.16284065
0.28699568 0.55542479 0.16284065
0.41837119 0.55542479 0.16284065
0.55542479 0.55542479 0.16284065
0.69723790 0.55542479 0.16284065
0.84318981 0.55542479 0.16284065
0.91886608 0.55542479 0.16284065
0.00047935 0.69723790 0.16284065
0.04930408 0.69723790 0.16284065
0.16284065 0.69723790 0.16284065
0.28699568 0.69723790 0.16284065
0.41837119 0.69723790 0.16284065
0.55542479 0.69723790 0.16284065
0.69723790 0.69723790 0.16284065
0.84318981 0.69723790 0.16284065
0.91886608 0.69723790 0.16284065
0.00047946 0.84318981 0.16284065
0.04930408 0.84318981 0.16284065
0.16284065 0.84318981 0.16284065
0.28699568 0.84318981 0.16284065
0.41837119 0.84318981 0.16284065
0.55542479 0.84318981 0.16284065
0.69723790 0.84318981 0.16284065
0.84318981 0.84318981 0.16284065
0.91886608 0.84318981 0.16284065
0.00047898 0.91886608 0.16284065
0.04930408 0.91886608 0.16284065
0.16284065 0.91886608 0.16284065
0.28699568 0.91886608 0.16284065
0.41837119 0.91886608 0.16284065
0.55542479 0.91886608 0.16284065
0.69723790 0.91886608 0.16284065
0.84318981 0.91886608 0.16284065
0.91886608 0.91886608 0.16284065
0.00047898 0.00047918 0.28699568
0.04930408 0.00047898 0.28699568
0.16284065 0.00047918 0.28699568
0.28699568 0.00047920 0.28699568
0.41837119 0.00047920 0.28699568
0.55542479 0.00047920 0.28699568
0.69723790 0.00047898 0.28699568
0.84318981 0.00047931 0.28699568
0.91886608 0.00047898 0.28699568
0.00047898 0.04930408 0.28699568
0.04930408 0.04930408 0.28699568
0.16284065 0.04930408 0.28699568
0.28699568 0.04930408 0.28699568
0.41837119 0.04930408 0.28699568
0.55542479 0.04930408 0.28699568
0.69723790 0.04930408 0.28699568
0.84318981 0.04930408 0.28699568
0.91886608 0.04930408 0.28699568
0.00047898 0.16284065 0.28699568
0.04930408 0.16284065 0.28699568
0.16284065 0.16284065 0.28699568
0.28699568 0.16284065 0.28699568
0.41837119 0.16284065 0.28699568
0.55542479 0.16284065 0.28699568
0.69723790 0.16284065 0.28699568
0.84318981 0.16284065 0.28699568
0.91886608 0.16284065 0.28699568
0.00047914 0.28699568 0.28699568
0.04930408 0.28699568 0.28699568
0.16284065 0.28699568 0.28699568
0.28699568 0.28699568 0.28699568
0.41837119 0.28699568 0.28699568
0.55542479 0.28699568 0.28699568
0.69723790 0.28699568 0.28699568
0.84318981 0.28699568 0.28699568
0.91886608 0.28699568 0.28699568
0.00047898 0.41837119 0.28699568
0.04930408 0.41837119 0.28699568
0.16284065 0.41837119 0.28699568
0.28699568 0.41837119 0.28699568
0.41837119 0.41837119 0.28699568
0.55542479 0.41837119 0.28699568
0.69723790 0.41837119 0.28699568
0.84318981 0.41837119 0.28699568
0.91886608 0.41837119 0.28699568
0.00047929 0.55542479 0.28699568
0.04930408 0.55542479 0.28699568
0.16284065 0.55542479 0.28699568
0.28699568 0.55542479 0.28699568
0.41837119 0.55542479 0.28699568
0.55542479 0.55542479 0.28699568
0.69723790 0.55542479 0.28699568
0.84318981 0.55542479 0.28699568
0.91886608 0.55542479 0.28699568
0.00047937 0.69723790 0.28699568
0.04930408 0.69723790 0.28699568
0.16284065 0.69723790 0.28699568
0.28699568 0.69723790 0.28699568
0.41837119 0.69723790 0.28699568
0.55542479 0.69723790 0.28699568
0.69723790 0.69723790 0.28699568
0.84318981 0.69723790 0.28699568
0.91886608 0.69723790 0.28699568
0.00047898 0.84318981 0.28699568
0.04930408 0.84318981 0.28699568
0.16284065 0.84318981 0.28699568
0.28699568 0.84318981 0.28699568
0.41837119 0.84318981 0.28699568
0.55542479 0.84318981 0.28699568
0.69723790 0.84318981 0.28699568
0.84318981 0.84318981 0.28699568
0.91886608 0.84318981 0.28699568
0.00047898 0.91886608 0.28699568
0.04930408 0.91886608 0.28699568
0.16284065 0.91886608 0.28699568
0.28699568 0.91886608 0.28699568
0.41837119 0.91886608 0.28699568
0.55542479 0.91886608 0.28699568
0.69723790 0.91886608 0.28699568
0.84318981 0.91886608 0.28699568
0.91886608 0.91886608 0.28699568
0.00047898 0.00047923 0.41837119
0.04930408 0.00047898 0.41837119
0.16284065 0.00047898 0.41837119
0.28699568 0.00047898 0.41837119
0.41837119 0.00047923 0.41837119
0.55542479 0.00047898 0.41837119
0.69723790 0.00047923 0.41837119
0.84318981 0.00047940 0.41837119
0.91886608 0.00047935 0.41837119
0.00047898 0.04930408 0.41837119
0.04930408 0.04930408 0.41837119
0.16284065 0.04930408 0.41837119
0.28699568 0.04930408 0.41837119
0.41837119 0.04930408 0.41837119
0.55542479 0.04930408 0.41837119
0.69723790 0.04930408 0.41837119
0.84318981 0.04930408 0.41837119
0.91886608 0.04930408 0.41837119
0.00047898 0.16284065 0.41837119
0.04930408 0.16284065 0.41837119
0.16284065 0.16284065 0.41837119
0.28699568 0.16284065 0.41837119
0.41837119 0.16284065 0.41837119
0.55542479 0.16284065 0.41837119
0.69723790 0.16284065 0.41837119
0.84318981 0.16284065 0.41837119
0.91886608 0.16284065 0.41837119
0.00047918 0.28699568 0.41837119
0.04930408 0.28699568 0.41837119
0.16284065 0.28699568 0.41837119
0.28699568 0.28699568 0.41837119
0.41837119 0.28699568 0.41837119
0.55542479 0.28699568 0.41837119
0.69723790 0.28699568 0.41837119
0.84318981 0.28699568 0.41837119
0.91886608 0.28699568 0.41837119
0.00047898 0.41837119 0.41837119
0.04930408 0.41837119 0.41837119
0.16284065 0.41837119 0.41837119
0.28699568 0.41837119 0.41837119
0.41837119 0.41837119 0.41837119
0.55542479 0.41837119 0.41837119
0.69723790 0.41837119 0.41837119
0.84318981 0.41837119 0.41837119
0.91886608 0.41837119 0.41837119
0.00047898 0.55542479 0.41837119
0.04930408 0.55542479 0.41837119
0.16284065 0.55542479 0.41837119
0.28699568 0.55542479 0.41837119
0.41837119 0.55542479 0.41837119
0.55542479 0.55542479 0.41837119
0.69723790 0.55542479 0.41837119
0.84318981 0.55542479 0.41837119
0.91886608 0.55542479 0.41837119
0.00047931 0.69723790 0.41837119
0.04930408 0.69723790 0.41837119
0.16284065 0.69723790 0.41837119
0.28699568 0.69723790 0.41837119
0.41837119 0.69723790 0.41837119
0.55542479 0.69723790 0.41837119
0.69723790 0.69723790 0.41837119
0.84318981 0.69723790 0.41837119
0.91886608 0.69723790 0.41837119
0.00047945 0.84318981 0.41837119
0.04930408 0.84318981 0.41837119
0.16284065 0.84318981 0.41837119
0.28699568 0.84318981 0.41837119
0.41837119 0.84318981 0.41837119
0.55542479 0.84318981 0.41837119
0.69723790 0.84318981 0.41837119
0.84318981 0.84318981 0.41837119
0.91886608 0.84318981 0.41837119
0.00047898 0.91886608 0.41837119
0.04930408 0.91886608 0.41837119
0.16284065 0.91886608 0.41837119
0.28699568 0.91886608 0.41837119
0.41837119 0.91886608 0.41837119
0.55542479 0.91886608 0.41837119
0.69723790 0.91886608 0.41837119
0.84318981 0.91886608 0.41837119
0.91886608 0.91886608 0.41837119
0.00047898 0.00047931 0.55542479
0.04930408 0.00047931 0.55542479
0.16284065 0.00047931 0.55542479
0.28699568 0.00047931 0.55542479
0.41837119 0.00047935 0.55542479
0.55542479 0.00047931 0.55542479
0.69723790 0.00047931 0.55542479
0.84318981 0.00047942 0.55542479
0.91886608 0.00047940 0.55542479
0.00047898 0.04930408 0.55542479
0.04930408 0.04930408 0.55542479
0.16284065 0.04930408 0.55542479
0.28699568 0.04930408 0.55542479
0.41837119 0.04930408 0.55542479
0.55542479 0.04930408 0.55542479
0.69723790 0.04930408 0.55542479
0.84318981 0.04930408 0.55542479
0.91886608 0.04930408 0.55542479
0.00047927 0.16284065 0.55542479
0.04930408 0.16284065 0.55542479
0.16284065 0.16284065 0.55542479
0.28699568 0.16284065 0.55542479
0.41837119 0.16284065 0.55542479
0.55542479 0.16284065 0.55542479
0.69723790 0.16284065 0.55542479
0.84318981 0.16284065 0.55542479
0.91886608 0.16284065 0.55542479
0.00047898 0.28699568 0.55542479
0.04930408 0.28699568 0.55542479
0.16284065 0.28699568 0.55542479
0.28699568 0.28699568 0.55542479
0.41837119 0.28699568 0.55542479
0.55542479 0.28699568 0.55542479
0.69723790 0.28699568 0.55542479
0.84318981 0.28699568 0.55542479
0.91886608 0.28699568 0.55542479
0.00047923 0.41837119 0.55542479
0.04930408 0.41837119 0.55542479
0.16284065 0.41837119 0.55542479
0.28699568 0.41837119 0.55542479
0.41837119 0.41837119 0.55542479
0.55542479 0.41837119 0.55542479
0.69723790 0.41837119 0.55542479
0.84318981 0.41837119 0.55542479
0.91886608 0.41837119 0.55542479
0.00047898 0.55542479 0.55542479
0.04930408 0.55542479 0.55542479
0.16284065 0.55542479 0.55542479
0.28699568 0.55542479 0.55542479
0.41837119 0.55542479 0.55542479
0.55542479 0.55542479 0.55542479
0.69723790 0.55542479 0.55542479
0.84318981 0.55542479 0.55542479
0.91886608 0.55542479 0.55542479
0.00047937 0.69723790 0.55542479
0.04930408 0.69723790 0.55542479
0.16284065 0.69723790 0.55542479
0.28699568 0.69723790 0.55542479
0.41837119 0.69723790 0.55542479
0.55542479 0.69723790 0.55542479
0.69723790 0.69723790 0.55542479
0.84318981 0.69723790 0.55542479
0.91886608 0.69723790 0.55542479
0.00047938 0.84318981 0.55542479
0.04930408 0.84318981 0.55542479
0.16284065 0.84318981 0.55542479
0.28699568 0.84318981 0.55542479
0.41837119 0.84318981 0.55542479
0.55542479 0.84318981 0.55542479
0.69723790 0.84318981 0.55542479
0.84318981 0.84318981 0.55542479
0.91886608 0.84318981 0.55542479
0.00047898 0.91886608 0.55542479
0.04930408 0.91886608 0.55542479
0.16284065 0.91886608 0.55542479
0.28699568 0.91886608 0.55542479
0.41837119 0.91886608 0.55542479
0.55542479 0.91886608 0.55542479
0.69723790 0.91886608 0.55542479
0.84318981 0.91886608 0.55542479
0.91886608 0.91886608 0.55542479
0.00047898 0.00047898 0.69723790
0.04930408 0.00047898 0.69723790
0.16284065 0.00047898 0.69723790
0.28699568 0.00047946 0.69723790
0.41837119 0.00047898 0.69723790
0.55542479 0.00047946 0.69723790
0.69723790 0.00047946 0.69723790
0.84318981 0.00047898 0.69723790
0.91886608 0.00047898 0.69723790
0.00047898 0.04930408 0.69723790
0.04930408 0.04930408 0.69723790
0.16284065 0.04930408 0.69723790
0.28699568 0.04930408 0.69723790
0.41837119 0.04930408 0.69723790
0.55542479 0.04930408 0.69723790
0.69723790 0.04930408 0.69723790
0.84318981 0.04930408 0.69723790
0.91886608 0.04930408 0.69723790
0.00047898 0.16284065 0.69723790
0.04930408 0.16284065 0.69723790
0.16284065 0.16284065 0.69723790
0.28699568 0.16284065 0.69723790
0.41837119 0.16284065 0.69723790
0.55542479 0.16284065 0.69723790
0.69723790 0.16284065 0.69723790
0.84318981 0.16284065 0.69723790
0.91886608 0.16284065 0.69723790
0.00047898 0.28699568 0.69723790
0.04930408 0.28699568 0.69723790
0.16284065 0.28699568 0.69723790
0.28699568 0.28699568 0.69723790
0.41837119 0.28699568 0.69723790
0.55542479 0.28699568 0.69723790
0.69723790 0.28699568 0.69723790
0.84318981 0.28699568 0.69723790
0.91886608 0.28699568 0.69723790
0.00047898 0.41837119 0.69723790
0.04930408 0.41837119 0.69723790
0.16284065 0.41837119 0.69723790
0.28699568 0.41837119 0.69723790
0.41837119 0.41837119 0.69723790
0.55542479 0.41837119 0.69723790
0.69723790 0.41837119 0.69723790
0.84318981 0.41837119 0.69723790
0.91886608 0.41837119 0.69723790
0.00047898 0.55542479 0.69723790
0.04930408 0.55542479 0.69723790
0.16284065 0.55542479 0.69723790
0.28699568 0.55542479 0.69723790
0.41837119 0.55542479 0.69723790
0.55542479 0.55542479 0.69723790
0.69723790 0.55542479 0.69723790
0.84318981 0.55542479 0.69723790
0.91886608 0.55542479 0.69723790
0.00047898 0.69723790 0.69723790
0.04930408 0.69723790 0.69723790
0.16284065 0.69723790 0.69723790
0.28699568 0.69723790 0.69723790
0.41837119 0.69723790 0.69723790
0.55542479 0.69723790 0.69723790
0.69723790 0.69723790 0.69723790
0.84318981 0.69723790 0.69723790
0.91886608 0.69723790 0.69723790
0.00047898 0.84318981 0.69723790
0.04930408 0.84318981 0.69723790
0.16284065 0.84318981 0.69723790
0.28699568 0.84318981 0.69723790
0.41837119 0.84318981 0.69723790
0.55542479 0.84318981 0.69723790
0.69723790 0.84318981 0.69723790
0.84318981 0.84318981 0.69723790
0.91886608 0.84318981 0.69723790
0.00047954 0.91886608 0.69723790
0.04930408 0.91886608 0.69723790
0.16284065 0.91886608 0.69723790
0.28699568 0.91886608 0.69723790
0.41837119 0.91886608 0.69723790
0.55542479 0.91886608 0.69723790
0.69723790 0.91886608 0.69723790
0.84318981 0.91886608 0.69723790
0.91886608 0.91886608 0.69723790
0.00047898 0.00047961 0.84318981
0.04930408 0.00047961 0.84318981
0.16284065 0.00047953 0.84318981
0.28699568 0.00047953 0.84318981
0.41837119 0.00047898 0.84318981
0.55542479 0.00047953 0.84318981
0.69723790 0.00047953 0.84318981
0.84318981 0.00047953 0.84318981
0.91886608 0.00047961 0.84318981
0.00047898 0.04930408 0.84318981
0.04930408 0.04930408 0.84318981
0.16284065 0.04930408 0.84318981
0.28699568 0.04930408 0.84318981
0.41837119 0.04930408 0.84318981
0.55542479 0.04930408 0.84318981
0.69723790 0.04930408 0.84318981
0.84318981 0.04930408 0.84318981
0.91886608 0.04930408 0.84318981
0.00047898 0.16284065 0.84318981
0.04930408 0.16284065 0.84318981
0.16284065 0.16284065 0.84318981
0.28699568 0.16284065 0.84318981
0.41837119 0.16284065 0.84318981
0.55542479 0.16284065 0.84318981
0.69723790 0.16284065 0.84318981
0.84318981 0.16284065 0.84318981
0.91886608 0.16284065 0.84318981
0.00047898 0.28699568 0.84318981
0.04930408 0.28699568 0.84318981
0.16284065 0.28699568 0.84318981
0.28699568 0.28699568 0.84318981
0.41837119 0.28699568 0.84318981
0.55542479 0.28699568 0.84318981
0.69723790 0.28699568 0.84318981
0.84318981 0.28699568 0.84318981
0.91886608 0.28699568 0.84318981
0.00047898 0.41837119 0.84318981
0.04930408 0.41837119 0.84318981
0.16284065 0.41837119 0.84318981
0.28699568 0.41837119 0.84318981
0.41837119 0.41837119 0.84318981
0.55542479 0.41837119 0.84318981
0.69723790 0.41837119 0.84318981
0.84318981 0.41837119 0.84318981
0.91886608 0.41837119 0.84318981
0.00047898 0.55542479 0.84318981
0.04930408 0.55542479 0.84318981
0.16284065 0.55542479 0.84318981
0.28699568 0.55542479 0.84318981
0.41837119 0.55542479 0.84318981
0.55542479 0.55542479 0.84318981
0.69723790 0.55542479 0.84318981
0.84318981 0.55542479 0.84318981
0.91886608 0.55542479 0.84318981
0.00047898 0.69723790 0.84318981
0.04930408 0.69723790 0.84318981
0.16284065 0.69723790 0.84318981
0.28699568 0.69723790 0.84318981
0.41837119 0.69723790 0.84318981
0.55542479 0.69723790 0.84318981
0.69723790 0.69723790 0.84318981
0.84318981 0.69723790 0.84318981
0.91886608 0.69723790 0.84318981
0.00047940 0.84318981 0.84318981
0.04930408 0.84318981 0.84318981
0.16284065 0.84318981 0.84318981
0.28699568 0.84318981 0.84318981
0.41837119 0.84318981 0.84318981
0.55542479 0.84318981 0.84318981
0.69723790 0.84318981 0.84318981
0.84318981 0.84318981 0.84318981
0.91886608 0.84318981 0.84318981
0.00047964 0.91886608 0.84318981
0.04930408 0.91886608 0.84318981
0.16284065 0.91886608 0.84318981
0.28699568 0.91886608 0.84318981
0.41837119 0.91886608 0.84318981
0.55542479 0.91886608 0.84318981
0.69723790 0.91886608 0.84318981
0.84318981 0.91886608 0.84318981
0.91886608 0.91886608 0.84318981
0.00047961 0.00047983 0.91886608
0.04930408 0.00047898 0.91886608
0.16284065 0.00047971 0.91886608
0.28699568 0.00047898 0.91886608
0.41837119 0.00047983 0.91886608
0.55542479 0.00047971 0.91886608
0.69723790 0.00047971 0.91886608
0.84318981 0.00047983 0.91886608
0.91886608 0.00047971 0.91886608
0.00047898 0.04930408 0.91886608
0.04930408 0.04930408 0.91886608
0.16284065 0.04930408 0.91886608
0.28699568 0.04930408 0.91886608
0.41837119 0.04930408 0.91886608
0.55542479 0.04930408 0.91886608
0.69723790 0.04930408 0.91886608
0.84318981 0.04930408 0.91886608
0.91886608 0.04930408 0.91886608
0.00047898 0.16284065 0.91886608
0.04930408 0.16284065 0.91886608
0.16284065 0.16284065 0.91886608
0.28699568 0.16284065 0.91886608
0.41837119 0.16284065 0.91886608
0.55542479 0.16284065 0.91886608
0.69723790 0.16284065 0.91886608
0.84318981 0.16284065 0.91886608
0.91886608 0.16284065 0.91886608
0.00047953 0.28699568 0.91886608
0.04930408 0.28699568 0.91886608
0.16284065 0.28699568 0.91886608
0.28699568 0.28699568 0.91886608
0.41837119 0.28699568 0.91886608
0.55542479 0.28699568 0.91886608
0.69723790 0.28699568 0.91886608
0.84318981 0.28699568 0.91886608
0.91886608 0.28699568 0.91886608
0.00047898 0.41837119 0.91886608
0.04930408 0.41837119 0.91886608
0.16284065 0.41837119 0.91886608
0.28699568 0.41837119 0.91886608
0.41837119 0.41837119 0.91886608
0.55542479 0.41837119 0.91886608
0.69723790 0.41837119 0.91886608
0.84318981 0.41837119 0.91886608
0.91886608 0.41837119 0.91886608
0.00047898 0.55542479 0.91886608
0.04930408 0.55542479 0.91886608
0.16284065 0.55542479 0.91886608
0.28699568 0.55542479 0.91886608
0.41837119 0.55542479 0.91886608
0.55542479 0.55542479 0.91886608
0.69723790 0.55542479 0.91886608
0.84318981 0.55542479 0.91886608
0.91886608 0.55542479 0.91886608
0.00047898 0.69723790 0.91886608
0.04930408 0.69723790 0.91886608
0.16284065 0.69723790 0.91886608
0.28699568 0.69723790 0.91886608
0.41837119 0.69723790 0.91886608
0.55542479 0.69723790 0.91886608
0.69723790 0.69723790 0.91886608
0.84318981 0.69723790 0.91886608
0.91886608 0.69723790 0.91886608
0.00047898 0.84318981 0.91886608
0.04930408 0.84318981 0.91886608
0.16284065 0.84318981 0.91886608
0.28699568 0.84318981 0.91886608
0.41837119 0.84318981 0.91886608
0.55542479 0.84318981 0.91886608
0.69723790 0.84318981 0.91886608
0.84318981 0.84318981 0.91886608
0.91886608 0.84318981 0.91886608
0.00047953 0.91886608 0.91886608
0.04930408 0.91886608 0.91886608
0.16284065 0.91886608 0.91886608
0.28699568 0.91886608 0.91886608
0.41837119 0.91886608 0.91886608
0.55542479 0.91886608 0.91886608
0.69723790 0.91886608 0.91886608
0.84318981 0.91886608 0.91886608
0.91886608 0.91886608 0.91886608
