src/ffmpeg_scripts/luts/luminance-unclipped_1p00.cube
TITLE "luminance-unclipped_1p00"
LUT_3D_SIZE 9
# PQ (EOTF Only)/Rec2020 -> PQ (EOTF Only)/Rec2020, CineEI Shift 1.00, Black Level -7.25% IRE, Input 109% -> Output 109% - Created with LUTCalc v4.01 by Ben Turley October 2020
0.00047898 0.00047898 0.00047898
0.09573008 0.00047904 0.00047898
0.26565647 0.00047898 0.00047898
0.42494840 0.00047898 0.00047898
0.57803801 0.00047926 0.00047898
0.72670708 0.00047928 0.00047898
0.87193653 0.00047937 0.00047898
0.91886608 0.00047898 0.00047898
0.91886608 0.00047973 0.00047971
0.00047908 0.09573008 0.00047898
0.09573008 0.09573008 0.00047898
0.26565647 0.09573008 0.00047898
0.42494840 0.09573008 0.00047898
0.57803801 0.09573008 0.00047898
0.72670708 0.09573008 0.00047898
0.87193653 0.09573008 0.00047898
0.91886608 0.09573008 0.00047953
0.91886608 0.09573008 0.00047898
0.00047898 0.26565647 0.00047898
0.09573008 0.26565647 0.00047898
0.26565647 0.26565647 0.00047898
0.42494840 0.26565647 0.00047898
0.57803801 0.26565647 0.00047898
0.72670708 0.26565647 0.00047898
0.87193653 0.26565647 0.00047898
0.91886608 0.26565647 0.00047898
0.91886608 0.26565647 0.00047898
0.00047920 0.42494840 0.00047918
0.09573008 0.42494840 0.00047898
0.26565647 0.42494840 0.00047898
0.42494840 0.42494840 0.00047920
0.57803801 0.42494840 0.00047898
0.72670708 0.42494840 0.00047898
0.87193653 0.42494840 0.00047898
0.91886608 0.42494840 0.00047953
0.91886608 0.42494840 0.00047898
0.00047898 0.57803801 0.00047898
0.09573008 0.57803801 0.00047898
0.26565647 0.57803801 0.00047898
0.42494840 0.57803801 0.00047898
0.57803801 0.57803801 0.00047898
0.72670708 0.57803801 0.00047898
0.87193653 0.57803801 0.00047898
0.91886608 0.57803801 0.00047898
0.91886608 0.57803801 0.00047898
0.00047920 0.72670708 0.00047898
0.09573008 0.72670708 0.00047898
0.26565647 0.72670708 0.00047898
0.42494840 0.72670708 0.00047898
0.57803801 0.72670708 0.00047931
0.72670708 0.72670708 0.00047898
0.87193653 0.72670708 0.00047898
0.91886608 0.72670708 0.00047898
0.91886608 0.72670708 0.00047898
0.00047942 0.87193653 0.00047898
0.09573008 0.87193653 0.00047898
0.26565647 0.87193653 0.00047898
0.42494840 0.87193653 0.00047898
0.57803801 0.87193653 0.00047898
0.72670708 0.87193653 0.00047940
0.87193653 0.87193653 0.00047898
0.91886608 0.87193653 0.00047953
0.91886608 0.87193653 0.00047971
0.00047971 0.91886608 0.00047898
0.09573008 0.91886608 0.00047898
0.26565647 0.91886608 0.00047898
0.42494840 0.91886608 0.00047898
0.57803801 0.91886608 0.00047898
0.72670708 0.91886608 0.00047898
0.87193653 0.91886608 0.00047898
0.91886608 0.91886608 0.00047898
0.91886608 0.91886608 0.00047898
0.00047983 0.91886608 0.00047898
0.09573008 0.91886608 0.00047898
0.26565647 0.91886608 0.00047898
0.42494840 0.91886608 0.00047898
0.57803801 0.91886608 0.00047898
0.72670708 0.91886608 0.00047898
0.87193653 0.91886608 0.00047898
0.91886608 0.91886608 0.00047898
0.91886608 0.91886608 0.00047898
0.00047898 0.00047910 0.09573008
0.09573008 0.00047909 0.09573008
0.26565647 0.00047898 0.09573008
0.42494840 0.00047898 0.09573008
0.57803801 0.00047927 0.09573008
0.72670708 0.00047898 0.09573008
0.87193653 0.00047931 0.09573008
0.91886608 0.00047944 0.09573008
0.91886608 0.00047961 0.09573008
0.00047908 0.09573008 0.09573008
0.09573008 0.09573008 0.09573008
0.26565647 0.09573008 0.09573008
0.42494840 0.09573008 0.09573008
0.57803801 0.09573008 0.09573008
0.72670708 0.09573008 0.09573008
0.87193653 0.09573008 0.09573008
0.91886608 0.09573008 0.09573008
0.91886608 0.09573008 0.09573008
0.00047912 0.26565647 0.09573008
0.09573008 0.26565647 0.09573008
0.26565647 0.26565647 0.09573008
0.42494840 0.26565647 0.09573008
0.57803801 0.26565647 0.09573008
0.72670708 0.26565647 0.09573008
0.87193653 0.26565647 0.09573008
0.91886608 0.26565647 0.09573008
0.91886608 0.26565647 0.09573008
0.00047919 0.42494840 0.09573008
0.09573008 0.42494840 0.09573008
0.26565647 0.42494840 0.09573008
0.42494840 0.42494840 0.09573008
0.57803801 0.42494840 0.09573008
0.72670708 0.42494840 0.09573008
0.87193653 0.42494840 0.09573008
0.91886608 0.42494840 0.09573008
0.91886608 0.42494840 0.09573008
0.00047927 0.57803801 0.09573008
0.09573008 0.57803801 0.09573008
0.26565647 0.57803801 0.09573008
0.42494840 0.57803801 0.09573008
0.57803801 0.57803801 0.09573008
0.72670708 0.57803801 0.09573008
0.87193653 0.57803801 0.09573008
0.91886608 0.57803801 0.09573008
0.91886608 0.57803801 0.09573008
0.00047933 0.72670708 0.09573008
0.09573008 0.72670708 0.09573008
0.26565647 0.72670708 0.09573008
0.42494840 0.72670708 0.09573008
0.57803801 0.72670708 0.09573008
0.72670708 0.72670708 0.09573008
0.87193653 0.72670708 0.09573008
0.91886608 0.72670708 0.09573008
0.91886608 0.72670708 0.09573008
0.00047945 0.87193653 0.09573008
0.09573008 0.87193653 0.09573008
0.26565647 0.87193653 0.09573008
0.42494840 0.87193653 0.09573008
0.57803801 0.87193653 0.09573008
0.72670708 0.87193653 0.09573008
0.87193653 0.87193653 0.09573008
0.91886608 0.87193653 0.09573008
0.91886608 0.87193653 0.09573008
0.00047965 0.91886608 0.09573008
0.09573008 0.91886608 0.09573008
0.26565647 0.91886608 0.09573008
0.42494840 0.91886608 0.09573008
0.57803801 0.91886608 0.09573008
0.72670708 0.91886608 0.09573008
0.87193653 0.91886608 0.09573008
0.91886608 0.91886608 0.09573008
0.91886608 0.91886608 0.09573008
0.00047979 0.91886608 0.09573008
0.09573008 0.91886608 0.09573008
0.26565647 0.91886608 0.09573008
0.42494840 0.91886608 0.09573008
0.57803801 0.91886608 0.09573008
0.72670708 0.91886608 0.09573008
0.87193653 0.91886608 0.09573008
0.91886608 0.91886608 0.09573008
0.91886608 0.91886608 0.09573008
0.00047898 0.00047898 0.26565647
0.09573008 0.00047898 0.26565647
0.26565647 0.00047916 0.26565647
0.42494840 0.00047898 0.26565647
0.57803801 0.00047923 0.26565647
0.72670708 0.00047929 0.26565647
0.87193653 0.00047931 0.26565647
0.91886608 0.00047898 0.26565647
0.91886608 0.00047973 0.26565647
0.00047898 0.09573008 0.26565647
0.09573008 0.09573008 0.26565647
0.26565647 0.09573008 0.26565647
0.42494840 0.09573008 0.26565647
0.57803801 0.09573008 0.26565647
0.72670708 0.09573008 0.26565647
0.87193653 0.09573008 0.26565647
0.91886608 0.09573008 0.26565647
0.91886608 0.09573008 0.26565647
0.00047898 0.26565647 0.26565647
0.09573008 0.26565647 0.26565647
0.26565647 0.26565647 0.26565647
0.42494840 0.26565647 0.26565647
0.57803801 0.26565647 0.26565647
0.72670708 0.26565647 0.26565647
0.87193653 0.26565647 0.26565647
0.91886608 0.26565647 0.26565647
0.91886608 0.26565647 0.26565647
0.00047920 0.42494840 0.26565647
0.09573008 0.42494840 0.26565647
0.26565647 0.42494840 0.26565647
0.42494840 0.42494840 0.26565647
0.57803801 0.42494840 0.26565647
0.72670708 0.42494840 0.26565647
0.87193653 0.42494840 0.26565647
0.91886608 0.42494840 0.26565647
0.91886608 0.42494840 0.26565647
0.00047924 0.57803801 0.26565647
0.09573008 0.57803801 0.26565647
0.26565647 0.57803801 0.26565647
0.42494840 0.57803801 0.26565647
0.57803801 0.57803801 0.26565647
0.72670708 0.57803801 0.26565647
0.87193653 0.57803801 0.26565647
0.91886608 0.57803801 0.26565647
0.91886608 0.57803801 0.26565647
0.00047937 0.72670708 0.26565647
0.09573008 0.72670708 0.26565647
0.26565647 0.72670708 0.26565647
0.42494840 0.72670708 0.26565647
0.57803801 0.72670708 0.26565647
0.72670708 0.72670708 0.26565647
0.87193653 0.72670708 0.26565647
0.91886608 0.72670708 0.26565647
0.91886608 0.72670708 0.26565647
0.00047944 0.87193653 0.26565647
0.09573008 0.87193653 0.26565647
0.26565647 0.87193653 0.26565647
0.42494840 0.87193653 0.26565647
0.57803801 0.87193653 0.26565647
0.72670708 0.87193653 0.26565647
0.87193653 0.87193653 0.26565647
0.91886608 0.87193653 0.26565647
0.91886608 0.87193653 0.26565647
0.00047973 0.91886608 0.26565647
0.09573008 0.91886608 0.26565647
0.26565647 0.91886608 0.26565647
0.42494840 0.91886608 0.26565647
0.57803801 0.91886608 0.26565647
0.72670708 0.91886608 0.26565647
0.87193653 0.91886608 0.26565647
0.91886608 0.91886608 0.26565647
0.91886608 0.91886608 0.26565647
0.00047979 0.91886608 0.26565647
0.09573008 0.91886608 0.26565647
0.26565647 0.91886608 0.26565647
0.42494840 0.91886608 0.26565647
0.57803801 0.91886608 0.26565647
0.72670708 0.91886608 0.26565647
0.87193653 0.91886608 0.26565647
0.91886608 0.91886608 0.26565647
0.91886608 0.91886608 0.26565647
0.00047898 0.00047923 0.42494840
0.09573008 0.00047898 0.42494840
0.26565647 0.00047898 0.42494840
0.42494840 0.00047927 0.42494840
0.57803801 0.00047898 0.42494840
0.72670708 0.00047935 0.42494840
0.87193653 0.00047931 0.42494840
0.91886608 0.00047898 0.42494840
0.91886608 0.00047969 0.42494840
0.00047898 0.09573008 0.42494840
0.09573008 0.09573008 0.42494840
0.26565647 0.09573008 0.42494840
0.42494840 0.09573008 0.42494840
0.57803801 0.09573008 0.42494840
0.72670708 0.09573008 0.42494840
0.87193653 0.09573008 0.42494840
0.91886608 0.09573008 0.42494840
0.91886608 0.09573008 0.42494840
0.00047898 0.26565647 0.42494840
0.09573008 0.26565647 0.42494840
0.26565647 0.26565647 0.42494840
0.42494840 0.26565647 0.42494840
0.57803801 0.26565647 0.42494840
0.72670708 0.26565647 0.42494840
0.87193653 0.26565647 0.42494840
0.91886608 0.26565647 0.42494840
0.91886608 0.26565647 0.42494840
0.00047920 0.42494840 0.42494840
0.09573008 0.42494840 0.42494840
0.26565647 0.42494840 0.42494840
0.42494840 0.42494840 0.42494840
0.57803801 0.42494840 0.42494840
0.72670708 0.42494840 0.42494840
0.87193653 0.42494840 0.42494840
0.91886608 0.42494840 0.42494840
0.91886608 0.42494840 0.42494840
0.00047925 0.57803801 0.42494840
0.09573008 0.57803801 0.42494840
0.26565647 0.57803801 0.42494840
0.42494840 0.57803801 0.42494840
0.57803801 0.57803801 0.42494840
0.72670708 0.57803801 0.42494840
0.87193653 0.57803801 0.42494840
0.91886608 0.57803801 0.42494840
0.91886608 0.57803801 0.42494840
0.00047930 0.72670708 0.42494840
0.09573008 0.72670708 0.42494840
0.26565647 0.72670708 0.42494840
0.42494840 0.72670708 0.42494840
0.57803801 0.72670708 0.42494840
0.72670708 0.72670708 0.42494840
0.87193653 0.72670708 0.42494840
0.91886608 0.72670708 0.42494840
0.91886608 0.72670708 0.42494840
0.00047944 0.87193653 0.42494840
0.09573008 0.87193653 0.42494840
0.26565647 0.87193653 0.42494840
0.42494840 0.87193653 0.42494840
0.57803801 0.87193653 0.42494840
0.72670708 0.87193653 0.42494840
0.87193653 0.87193653 0.42494840
0.91886608 0.87193653 0.42494840
0.91886608 0.87193653 0.42494840
0.00047967 0.91886608 0.42494840
0.09573008 0.91886608 0.42494840
0.26565647 0.91886608 0.42494840
0.42494840 0.91886608 0.42494840
0.57803801 0.91886608 0.42494840
0.72670708 0.91886608 0.42494840
0.87193653 0.91886608 0.42494840
0.91886608 0.91886608 0.42494840
0.91886608 0.91886608 0.42494840
0.00047980 0.91886608 0.42494840
0.09573008 0.91886608 0.42494840
0.26565647 0.91886608 0.42494840
0.42494840 0.91886608 0.42494840
0.57803801 0.91886608 0.42494840
0.72670708 0.91886608 0.42494840
0.87193653 0.91886608 0.42494840
0.91886608 0.91886608 0.42494840
0.91886608 0.91886608 0.42494840
0.00047898 0.00047898 0.57803801
0.09573008 0.00047931 0.57803801
0.26565647 0.00047931 0.57803801
0.42494840 0.00047898 0.57803801
0.57803801 0.00047935 0.57803801
0.72670708 0.00047898 0.57803801
0.87193653 0.00047940 0.57803801
0.91886608 0.00047950 0.57803801
0.91886608 0.00047982 0.57803801
0.00047898 0.09573008 0.57803801
0.09573008 0.09573008 0.57803801
0.26565647 0.09573008 0.57803801
0.42494840 0.09573008 0.57803801
0.57803801 0.09573008 0.57803801
0.72670708 0.09573008 0.57803801
0.87193653 0.09573008 0.57803801
0.91886608 0.09573008 0.57803801
0.91886608 0.09573008 0.57803801
0.00047898 0.26565647 0.57803801
0.09573008 0.26565647 0.57803801
0.26565647 0.26565647 0.57803801
0.42494840 0.26565647 0.57803801
0.57803801 0.26565647 0.57803801
0.72670708 0.26565647 0.57803801
0.87193653 0.26565647 0.57803801
0.91886608 0.26565647 0.57803801
0.91886608 0.26565647 0.57803801
0.00047898 0.42494840 0.57803801
0.09573008 0.42494840 0.57803801
0.26565647 0.42494840 0.57803801
0.42494840 0.42494840 0.57803801
0.57803801 0.42494840 0.57803801
0.72670708 0.42494840 0.57803801
0.87193653 0.42494840 0.57803801
0.91886608 0.42494840 0.57803801
0.91886608 0.42494840 0.57803801
0.00047898 0.57803801 0.57803801
0.09573008 0.57803801 0.57803801
0.26565647 0.57803801 0.57803801
0.42494840 0.57803801 0.57803801
0.57803801 0.57803801 0.57803801
0.72670708 0.57803801 0.57803801
0.87193653 0.57803801 0.57803801
0.91886608 0.57803801 0.57803801
0.91886608 0.57803801 0.57803801
0.00047937 0.72670708 0.57803801
0.09573008 0.72670708 0.57803801
0.26565647 0.72670708 0.57803801
0.42494840 0.72670708 0.57803801
0.57803801 0.72670708 0.57803801
0.72670708 0.72670708 0.57803801
0.87193653 0.72670708 0.57803801
0.91886608 0.72670708 0.57803801
0.91886608 0.72670708 0.57803801
0.00047955 0.87193653 0.57803801
0.09573008 0.87193653 0.57803801
0.26565647 0.87193653 0.57803801
0.42494840 0.87193653 0.57803801
0.57803801 0.87193653 0.57803801
0.72670708 0.87193653 0.57803801
0.87193653 0.87193653 0.57803801
0.91886608 0.87193653 0.57803801
0.91886608 0.87193653 0.57803801
0.00047968 0.91886608 0.57803801
0.09573008 0.91886608 0.57803801
0.26565647 0.91886608 0.57803801
0.42494840 0.91886608 0.57803801
0.57803801 0.91886608 0.57803801
0.72670708 0.91886608 0.57803801
0.87193653 0.91886608 0.57803801
0.91886608 0.91886608 0.57803801
0.91886608 0.91886608 0.57803801
0.00047982 0.91886608 0.57803801
0.09573008 0.91886608 0.57803801
0.26565647 0.91886608 0.57803801
0.42494840 0.91886608 0.57803801
0.57803801 0.91886608 0.57803801
0.72670708 0.91886608 0.57803801
0.87193653 0.91886608 0.57803801
0.91886608 0.91886608 0.57803801
0.91886608 0.91886608 0.57803801
0.00047898 0.00047940 0.72670708
0.09573008 0.00047940 0.72670708
0.26565647 0.00047946 0.72670708
0.42494840 0.00047940 0.72670708
0.57803801 0.00047946 0.72670708
0.72670708 0.00047950 0.72670708
0.87193653 0.00047898 0.72670708
0.91886608 0.00047946 0.72670708
0.91886608 0.00047898 0.72670708
0.00047898 0.09573008 0.72670708
0.09573008 0.09573008 0.72670708
0.26565647 0.09573008 0.72670708
0.42494840 0.09573008 0.72670708
0.57803801 0.09573008 0.72670708
0.72670708 0.09573008 0.72670708
0.87193653 0.09573008 0.72670708
0.91886608 0.09573008 0.72670708
0.91886608 0.09573008 0.72670708
0.00047935 0.26565647 0.72670708
0.09573008 0.26565647 0.72670708
0.26565647 0.26565647 0.72670708
0.42494840 0.26565647 0.72670708
0.57803801 0.26565647 0.72670708
0.72670708 0.26565647 0.72670708
0.87193653 0.26565647 0.72670708
0.91886608 0.26565647 0.72670708
0.91886608 0.26565647 0.72670708
0.00047898 0.42494840 0.72670708
0.09573008 0.42494840 0.72670708
0.26565647 0.42494840 0.72670708
0.42494840 0.42494840 0.72670708
0.57803801 0.42494840 0.72670708
0.72670708 0.42494840 0.72670708
0.87193653 0.42494840 0.72670708
0.91886608 0.42494840 0.72670708
0.91886608 0.42494840 0.72670708
0.00047898 0.57803801 0.72670708
0.09573008 0.57803801 0.72670708
0.26565647 0.57803801 0.72670708
0.42494840 0.57803801 0.72670708
0.57803801 0.57803801 0.72670708
0.72670708 0.57803801 0.72670708
0.87193653 0.57803801 0.72670708
0.91886608 0.57803801 0.72670708
0.91886608 0.57803801 0.72670708
0.00047935 0.72670708 0.72670708
0.09573008 0.72670708 0.72670708
0.26565647 0.72670708 0.72670708
0.42494840 0.72670708 0.72670708
0.57803801 0.72670708 0.72670708
0.72670708 0.72670708 0.72670708
0.87193653 0.72670708 0.72670708
0.91886608 0.72670708 0.72670708
0.91886608 0.72670708 0.72670708
0.00047950 0.87193653 0.72670708
0.09573008 0.87193653 0.72670708
0.26565647 0.87193653 0.72670708
0.42494840 0.87193653 0.72670708
0.57803801 0.87193653 0.72670708
0.72670708 0.87193653 0.72670708
0.87193653 0.87193653 0.72670708
0.91886608 0.87193653 0.72670708
0.91886608 0.87193653 0.72670708
0.00047966 0.91886608 0.72670708
0.09573008 0.91886608 0.72670708
0.26565647 0.91886608 0.72670708
0.42494840 0.91886608 0.72670708
0.57803801 0.91886608 0.72670708
0.72670708 0.91886608 0.72670708
0.87193653 0.91886608 0.72670708
0.91886608 0.91886608 0.72670708
0.91886608 0.91886608 0.72670708
0.00047998 0.91886608 0.72670708
0.09573008 0.91886608 0.72670708
0.26565647 0.91886608 0.72670708
0.42494840 0.91886608 0.72670708
0.57803801 0.91886608 0.72670708
0.72670708 0.91886608 0.72670708
0.87193653 0.91886608 0.72670708
0.91886608 0.91886608 0.72670708
0.91886608 0.91886608 0.72670708
0.00047898 0.00047898 0.87193653
0.09573008 0.00047898 0.87193653
0.26565647 0.00047898 0.87193653
0.42494840 0.00047953 0.87193653
0.57803801 0.00047898 0.87193653
0.72670708 0.00047898 0.87193653
0.87193653 0.00047898 0.87193653
0.91886608 0.00047898 0.87193653
0.91886608 0.00047898 0.87193653
0.00047898 0.09573008 0.87193653
0.09573008 0.09573008 0.87193653
0.26565647 0.09573008 0.87193653
0.42494840 0.09573008 0.87193653
0.57803801 0.09573008 0.87193653
0.72670708 0.09573008 0.87193653
0.87193653 0.09573008 0.87193653
0.91886608 0.09573008 0.87193653
0.91886608 0.09573008 0.87193653
0.00047898 0.26565647 0.87193653
0.09573008 0.26565647 0.87193653
0.26565647 0.26565647 0.87193653
0.42494840 0.26565647 0.87193653
0.57803801 0.26565647 0.87193653
0.72670708 0.26565647 0.87193653
0.87193653 0.26565647 0.87193653
0.91886608 0.26565647 0.87193653
0.91886608 0.26565647 0.87193653
0.00047898 0.42494840 0.87193653
0.09573008 0.42494840 0.87193653
0.26565647 0.42494840 0.87193653
0.42494840 0.42494840 0.87193653
0.57803801 0.42494840 0.87193653
0.72670708 0.42494840 0.87193653
0.87193653 0.42494840 0.87193653
0.91886608 0.42494840 0.87193653
0.91886608 0.42494840 0.87193653
0.00047898 0.57803801 0.87193653
0.09573008 0.57803801 0.87193653
0.26565647 0.57803801 0.87193653
0.42494840 0.57803801 0.87193653
0.57803801 0.57803801 0.87193653
0.72670708 0.57803801 0.87193653
0.87193653 0.57803801 0.87193653
0.91886608 0.57803801 0.87193653
0.91886608 0.57803801 0.87193653
0.00047898 0.72670708 0.87193653
0.09573008 0.72670708 0.87193653
0.26565647 0.72670708 0.87193653
0.42494840 0.72670708 0.87193653
0.57803801 0.72670708 0.87193653
0.72670708 0.72670708 0.87193653
0.87193653 0.72670708 0.87193653
0.91886608 0.72670708 0.87193653
0.91886608 0.72670708 0.87193653
0.00047898 0.87193653 0.87193653
0.09573008 0.87193653 0.87193653
0.26565647 0.87193653 0.87193653
0.42494840 0.87193653 0.87193653
0.57803801 0.87193653 0.87193653
0.72670708 0.87193653 0.87193653
0.87193653 0.87193653 0.87193653
0.91886608 0.87193653 0.87193653
0.91886608 0.87193653 0.87193653
0.00047961 0.91886608 0.87193653
0.09573008 0.91886608 0.87193653
0.26565647 0.91886608 0.87193653
0.42494840 0.91886608 0.87193653
0.57803801 0.91886608 0.87193653
0.72670708 0.91886608 0.87193653
0.87193653 0.91886608 0.87193653
0.91886608 0.91886608 0.87193653
0.91886608 0.91886608 0.87193653
0.00047986 0.91886608 0.87193653
0.09573008 0.91886608 0.87193653
0.26565647 0.91886608 0.87193653
0.42494840 0.91886608 0.87193653
0.57803801 0.91886608 0.87193653
0.72670708 0.91886608 0.87193653
0.87193653 0.91886608 0.87193653
0.91886608 0.91886608 0.87193653
0.91886608 0.91886608 0.87193653
0.00047898 0.00047983 0.91886608
0.09573008 0.00047971 0.91886608
0.26565647 0.00047971 0.91886608
0.42494840 0.00047983 0.91886608
0.57803801 0.00047898 0.91886608
0.72670708 0.00047898 0.91886608
0.87193653 0.00047971 0.91886608
0.91886608 0.00047983 0.91886608
0.91886608 0.00047983 0.91886608
0.00047898 0.09573008 0.91886608
0.09573008 0.09573008 0.91886608
0.26565647 0.09573008 0.91886608
0.42494840 0.09573008 0.91886608
0.57803801 0.09573008 0.91886608
0.72670708 0.09573008 0.91886608
0.87193653 0.09573008 0.91886608
0.91886608 0.09573008 0.91886608
0.91886608 0.09573008 0.91886608
0.00047898 0.26565647 0.91886608
0.09573008 0.26565647 0.91886608
0.26565647 0.26565647 0.91886608
0.42494840 0.26565647 0.91886608
0.57803801 0.26565647 0.91886608
0.72670708 0.26565647 0.91886608
0.87193653 0.26565647 0.91886608
0.91886608 0.26565647 0.91886608
0.91886608 0.26565647 0.91886608
0.00047898 0.42494840 0.91886608
0.09573008 0.42494840 0.91886608
0.26565647 0.42494840 0.91886608
0.42494840 0.42494840 0.91886608
0.57803801 0.42494840 0.91886608
0.72670708 0.42494840 0.91886608
0.87193653 0.42494840 0.91886608
0.91886608 0.42494840 0.91886608
0.91886608 0.42494840 0.91886608
0.00047898 0.57803801 0.91886608
0.09573008 0.57803801 0.91886608
0.26565647 0.57803801 0.91886608
0.42494840 0.57803801 0.91886608
0.57803801 0.57803801 0.91886608
0.72670708 0.57803801 0.91886608
0.87193653 0.57803801 0.91886608
0.91886608 0.57803801 0.91886608
0.91886608 0.57803801 0.91886608
0.00047898 0.72670708 0.91886608
0.09573008 0.72670708 0.91886608
0.26565647 0.72670708 0.91886608
0.42494840 0.72670708 0.91886608
0.57803801 0.72670708 0.91886608
0.72670708 0.72670708 0.91886608
0.87193653 0.72670708 0.91886608
0.91886608 0.72670708 0.91886608
0.91886608 0.72670708 0.91886608
0.00047898 0.87193653 0.91886608
0.09573008 0.87193653 0.91886608
0.26565647 0.87193653 0.91886608
0.42494840 0.87193653 0.91886608
0.57803801 0.87193653 0.91886608
0.72670708 0.87193653 0.91886608
0.87193653 0.87193653 0.91886608
0.91886608 0.87193653 0.91886608
0.91886608 0.87193653 0.91886608
0.00047898 0.91886608 0.91886608
0.09573008 0.91886608 0.91886608
0.26565647 0.91886608 0.91886608
0.42494840 0.91886608 0.91886608
0.57803801 0.91886608 0.91886608
0.72670708 0.91886608 0.91886608
0.87193653 0.91886608 0.91886608
0.91886608 0.91886608 0.91886608
0.91886608 0.91886608 0.91886608
0.00047999 0.91886608 0.91886608
0.09573008 0.91886608 0.91886608
0.26565647 0.91886608 0.91886608
0.42494840 0.91886608 0.91886608
0.57803801 0.91886608 0.91886608
0.72670708 0.91886608 0.91886608
0.87193653 0.91886608 0.91886608
0.91886608 0.91886608 0.91886608
0.91886608 0.91886608 0.91886608
0.00047898 0.00047898 0.91886608
0.09573008 0.00047898 0.91886608
0.26565647 0.00048014 0.91886608
0.42494840 0.00047997 0.91886608
0.57803801 0.00047997 0.91886608
0.72670708 0.00047997 0.91886608
0.87193653 0.00047997 0.91886608
0.91886608 0.00047997 0.91886608
0.91886608 0.00047997 0.91886608
0.00047898 0.09573008 0.91886608
0.09573008 0.09573008 0.91886608
0.26565647 0.09573008 0.91886608
0.42494840 0.09573008 0.91886608
0.57803801 0.09573008 0.91886608
0.72670708 0.09573008 0.91886608
0.87193653 0.09573008 0.91886608
0.91886608 0.09573008 0.91886608
0.91886608 0.09573008 0.91886608
0.00047898 0.26565647 0.91886608
0.09573008 0.26565647 0.91886608
0.26565647 0.26565647 0.91886608
0.42494840 0.26565647 0.91886608
0.57803801 0.26565647 0.91886608
0.72670708 0.26565647 0.91886608
0.87193653 0.26565647 0.91886608
0.91886608 0.26565647 0.91886608
0.91886608 0.26565647 0.91886608
0.00047983 0.42494840 0.91886608
0.09573008 0.42494840 0.91886608
0.26565647 0.42494840 0.91886608
0.42494840 0.42494840 0.91886608
0.57803801 0.42494840 0.91886608
0.72670708 0.42494840 0.91886608
0.87193653 0.42494840 0.91886608
0.91886608 0.42494840 0.91886608
0.91886608 0.42494840 0.91886608
0.00047898 0.57803801 0.91886608
0.09573008 0.57803801 0.91886608
0.26565647 0.57803801 0.91886608
0.42494840 0.57803801 0.91886608
0.57803801 0.57803801 0.91886608
0.72670708 0.57803801 0.91886608
0.87193653 0.57803801 0.91886608
0.91886608 0.57803801 0.91886608
0.91886608 0.57803801 0.91886608
0.00047898 0.72670708 0.91886608
0.09573008 0.72670708 0.91886608
0.26565647 0.72670708 0.91886608
0.42494840 0.72670708 0.91886608
0.57803801 0.72670708 0.91886608
0.72670708 0.72670708 0.91886608
0.87193653 0.72670708 0.91886608
0.91886608 0.72670708 0.91886608
0.91886608 0.72670708 0.91886608
0.00047898 0.87193653 0.91886608
0.09573008 0.87193653 0.91886608
0.26565647 0.87193653 0.91886608
0.42494840 0.87193653 0.91886608
0.57803801 0.87193653 0.91886608
0.72670708 0.87193653 0.91886608
0.87193653 0.87193653 0.91886608
0.91886608 0.87193653 0.91886608
0.91886608 0.87193653 0.91886608
0.00047898 0.91886608 0.91886608
0.09573008 0.91886608 0.91886608
0.26565647 0.91886608 0.91886608
0.42494840 0.91886608 0.91886608
0.57803801 0.91886608 0.91886608
0.72670708 0.91886608 0.91886608
0.87193653 0.91886608 0.91886608
0.91886608 0.91886608 0.91886608
0.91886608 0.91886608 0.91886608
0.00047983 0.91886608 0.91886608
0.09573008 0.91886608 0.91886608
0.26565647 0.91886608 0.91886608
0.42494840 0.91886608 0.91886608
0.57803801 0.91886608 0.91886608
0.72670708 0.91886608 0.91886608
0.87193653 0.91886608 0.91886608
0.91886608 0.91886608 0.91886608
0.91886608 0.91886608 0.91886608
