src/ffmpeg_scripts/luts/luminance_-3p67.cube
TITLE "luminance_-3p67"
LUT_3D_SIZE 33
# PQ (EOTF Only)/Rec2020 -> PQ (EOTF Only)/Rec2020, CineEI Shift -3.67, Black Level 0.00% IRE, Input 109% -> Output 109% - Created with LUTCalc v4.01 by Ben Turley October 2020
0.06256172 0.06256172 0.06256172
0.06256172 0.06256172 0.06256172
0.06256172 0.06256172 0.06256172
0.07119917 0.06256172 0.06256175
0.08227024 0.06256172 0.06256172
0.09500759 0.06256172 0.06256172
0.10912366 0.06256172 0.06256172
0.12445339 0.06256172 0.06256178
0.14088619 0.06256172 0.06256172
0.15834143 0.06256172 0.06256180
0.17675702 0.06256181 0.06256172
0.19608328 0.06256179 0.06256172
0.21627928 0.06256172 0.06256172
0.23731063 0.06256172 0.06256172
0.25914784 0.06256172 0.06256172
0.28176534 0.06256182 0.06256182
0.30514064 0.06256182 0.06256172
0.32925378 0.06256186 0.06256172
0.35408690 0.06256187 0.06256185
0.37962390 0.06256189 0.06256172
0.40585015 0.06256172 0.06256172
0.43275232 0.06256172 0.06256172
0.46031817 0.06256172 0.06256172
0.48853642 0.06256172 0.06256172
0.51739665 0.06256187 0.06256172
0.54688917 0.06256172 0.06256191
0.57700495 0.06256172 0.06256172
0.60773555 0.06256195 0.06256172
0.63907309 0.06256172 0.06256172
0.67101013 0.06256172 0.06256172
0.70353968 0.06256200 0.06256200
0.73665515 0.06256200 0.06256172
0.77035029 0.06256205 0.06256208
0.06256172 0.06256172 0.06256172
0.06256172 0.06256172 0.06256172
0.06256172 0.06256172 0.06256172
0.07119917 0.06256172 0.06256175
0.08227024 0.06256172 0.06256172
0.09500759 0.06256172 0.06256172
0.10912366 0.06256172 0.06256172
0.12445339 0.06256172 0.06256178
0.14088619 0.06256172 0.06256172
0.15834143 0.06256172 0.06256180
0.17675702 0.06256181 0.06256172
0.19608328 0.06256179 0.06256172
0.21627928 0.06256172 0.06256172
0.23731063 0.06256172 0.06256172
0.25914784 0.06256172 0.06256172
0.28176534 0.06256182 0.06256182
0.30514064 0.06256182 0.06256172
0.32925378 0.06256186 0.06256172
0.35408690 0.06256187 0.06256185
0.37962390 0.06256189 0.06256172
0.40585015 0.06256172 0.06256172
0.43275232 0.06256172 0.06256172
0.46031817 0.06256172 0.06256172
0.48853642 0.06256172 0.06256172
0.51739665 0.06256187 0.06256172
0.54688917 0.06256172 0.06256191
0.57700495 0.06256172 0.06256172
0.60773555 0.06256195 0.06256172
0.63907309 0.06256172 0.06256172
0.67101013 0.06256172 0.06256172
0.70353968 0.06256200 0.06256200
0.73665515 0.06256200 0.06256172
0.77035029 0.06256205 0.06256208
0.06256172 0.06256172 0.06256172
0.06256172 0.06256172 0.06256172
0.06256172 0.06256172 0.06256172
0.07119917 0.06256172 0.06256175
0.08227024 0.06256172 0.06256172
0.09500759 0.06256172 0.06256172
0.10912366 0.06256172 0.06256172
0.12445339 0.06256172 0.06256178
0.14088619 0.06256172 0.06256172
0.15834143 0.06256172 0.06256180
0.17675702 0.06256181 0.06256172
0.19608328 0.06256179 0.06256172
0.21627928 0.06256172 0.06256172
0.23731063 0.06256172 0.06256172
0.25914784 0.06256172 0.06256172
0.28176534 0.06256182 0.06256182
0.30514064 0.06256182 0.06256172
0.32925378 0.06256186 0.06256172
0.35408690 0.06256187 0.06256185
0.37962390 0.06256189 0.06256172
0.40585015 0.06256172 0.06256172
0.43275232 0.06256172 0.06256172
0.46031817 0.06256172 0.06256172
0.48853642 0.06256172 0.06256172
0.51739665 0.06256187 0.06256172
0.54688917 0.06256172 0.06256191
0.57700495 0.06256172 0.06256172
0.60773555 0.06256195 0.06256172
0.63907309 0.06256172 0.06256172
0.67101013 0.06256172 0.06256172
0.70353968 0.06256200 0.06256200
0.73665515 0.06256200 0.06256172
0.77035029 0.06256205 0.06256208
0.06256176 0.07119917 0.06256172
0.06256176 0.07119917 0.06256172
0.06256176 0.07119917 0.06256172
0.07119917 0.07119917 0.06256172
0.08227024 0.07119917 0.06256172
0.09500759 0.07119917 0.06256172
0.10912366 0.07119917 0.06256172
0.12445339 0.07119917 0.06256172
0.14088619 0.07119917 0.06256172
0.15834143 0.07119917 0.06256172
0.17675702 0.07119917 0.06256172
0.19608328 0.07119917 0.06256172
0.21627928 0.07119917 0.06256172
0.23731063 0.07119917 0.06256172
0.25914784 0.07119917 0.06256172
0.28176534 0.07119917 0.06256182
0.30514064 0.07119917 0.06256172
0.32925378 0.07119917 0.06256172
0.35408690 0.07119917 0.06256172
0.37962390 0.07119917 0.06256172
0.40585015 0.07119917 0.06256172
0.43275232 0.07119917 0.06256172
0.46031817 0.07119917 0.06256172
0.48853642 0.07119917 0.06256189
0.51739665 0.07119917 0.06256191
0.54688917 0.07119917 0.06256172
0.57700495 0.07119917 0.06256172
0.60773555 0.07119917 0.06256194
0.63907309 0.07119917 0.06256172
0.67101013 0.07119917 0.06256197
0.70353968 0.07119917 0.06256200
0.73665515 0.07119917 0.06256172
0.77035029 0.07119917 0.06256172
0.06256177 0.08227024 0.06256172
0.06256177 0.08227024 0.06256172
0.06256177 0.08227024 0.06256172
0.07119917 0.08227024 0.06256172
0.08227024 0.08227024 0.06256172
0.09500759 0.08227024 0.06256172
0.10912366 0.08227024 0.06256177
0.12445339 0.08227024 0.06256178
0.14088619 0.08227024 0.06256172
0.15834143 0.08227024 0.06256179
0.17675702 0.08227024 0.06256172
0.19608328 0.08227024 0.06256180
0.21627928 0.08227024 0.06256181
0.23731063 0.08227024 0.06256181
0.25914784 0.08227024 0.06256172
0.28176534 0.08227024 0.06256172
0.30514064 0.08227024 0.06256172
0.32925378 0.08227024 0.06256184
0.35408690 0.08227024 0.06256172
0.37962390 0.08227024 0.06256172
0.40585015 0.08227024 0.06256172
0.43275232 0.08227024 0.06256172
0.46031817 0.08227024 0.06256172
0.48853642 0.08227024 0.06256189
0.51739665 0.08227024 0.06256191
0.54688917 0.08227024 0.06256191
0.57700495 0.08227024 0.06256172
0.60773555 0.08227024 0.06256197
0.63907309 0.08227024 0.06256200
0.67101013 0.08227024 0.06256172
0.70353968 0.08227024 0.06256200
0.73665515 0.08227024 0.06256172
0.77035029 0.08227024 0.06256204
0.06256176 0.09500759 0.06256172
0.06256176 0.09500759 0.06256172
0.06256176 0.09500759 0.06256172
0.07119917 0.09500759 0.06256172
0.08227024 0.09500759 0.06256177
0.09500759 0.09500759 0.06256172
0.10912366 0.09500759 0.06256178
0.12445339 0.09500759 0.06256172
0.14088619 0.09500759 0.06256172
0.15834143 0.09500759 0.06256179
0.17675702 0.09500759 0.06256172
0.19608328 0.09500759 0.06256172
0.21627928 0.09500759 0.06256172
0.23731063 0.09500759 0.06256181
0.25914784 0.09500759 0.06256182
0.28176534 0.09500759 0.06256172
0.30514064 0.09500759 0.06256172
0.32925378 0.09500759 0.06256184
0.35408690 0.09500759 0.06256172
0.37962390 0.09500759 0.06256172
0.40585015 0.09500759 0.06256172
0.43275232 0.09500759 0.06256172
0.46031817 0.09500759 0.06256172
0.48853642 0.09500759 0.06256172
0.51739665 0.09500759 0.06256172
0.54688917 0.09500759 0.06256172
0.57700495 0.09500759 0.06256172
0.60773555 0.09500759 0.06256172
0.63907309 0.09500759 0.06256197
0.67101013 0.09500759 0.06256172
0.70353968 0.09500759 0.06256172
0.73665515 0.09500759 0.06256172
0.77035029 0.09500759 0.06256208
0.06256178 0.10912366 0.06256172
0.06256178 0.10912366 0.06256172
0.06256178 0.10912366 0.06256172
0.07119917 0.10912366 0.06256172
0.08227024 0.10912366 0.06256172
0.09500759 0.10912366 0.06256172
0.10912366 0.10912366 0.06256172
0.12445339 0.10912366 0.06256172
0.14088619 0.10912366 0.06256172
0.15834143 0.10912366 0.06256172
0.17675702 0.10912366 0.06256172
0.19608328 0.10912366 0.06256172
0.21627928 0.10912366 0.06256172
0.23731063 0.10912366 0.06256172
0.25914784 0.10912366 0.06256172
0.28176534 0.10912366 0.06256182
0.30514064 0.10912366 0.06256172
0.32925378 0.10912366 0.06256172
0.35408690 0.10912366 0.06256172
0.37962390 0.10912366 0.06256172
0.40585015 0.10912366 0.06256172
0.43275232 0.10912366 0.06256172
0.46031817 0.10912366 0.06256191
0.48853642 0.10912366 0.06256172
0.51739665 0.10912366 0.06256172
0.54688917 0.10912366 0.06256172
0.57700495 0.10912366 0.06256172
0.60773555 0.10912366 0.06256194
0.63907309 0.10912366 0.06256172
0.67101013 0.10912366 0.06256172
0.70353968 0.10912366 0.06256172
0.73665515 0.10912366 0.06256172
0.77035029 0.10912366 0.06256172
0.06256178 0.12445339 0.06256172
0.06256178 0.12445339 0.06256172
0.06256178 0.12445339 0.06256172
0.07119917 0.12445339 0.06256172
0.08227024 0.12445339 0.06256172
0.09500759 0.12445339 0.06256172
0.10912366 0.12445339 0.06256172
0.12445339 0.12445339 0.06256172
0.14088619 0.12445339 0.06256172
0.15834143 0.12445339 0.06256172
0.17675702 0.12445339 0.06256180
0.19608328 0.12445339 0.06256172
0.21627928 0.12445339 0.06256172
0.23731063 0.12445339 0.06256172
0.25914784 0.12445339 0.06256182
0.28176534 0.12445339 0.06256172
0.30514064 0.12445339 0.06256172
0.32925378 0.12445339 0.06256172
0.35408690 0.12445339 0.06256185
0.37962390 0.12445339 0.06256172
0.40585015 0.12445339 0.06256172
0.43275232 0.12445339 0.06256172
0.46031817 0.12445339 0.06256189
0.48853642 0.12445339 0.06256189
0.51739665 0.12445339 0.06256191
0.54688917 0.12445339 0.06256191
0.57700495 0.12445339 0.06256172
0.60773555 0.12445339 0.06256172
0.63907309 0.12445339 0.06256172
0.67101013 0.12445339 0.06256172
0.70353968 0.12445339 0.06256172
0.73665515 0.12445339 0.06256172
0.77035029 0.12445339 0.06256172
0.06256179 0.14088619 0.06256172
0.06256179 0.14088619 0.06256172
0.06256179 0.14088619 0.06256172
0.07119917 0.14088619 0.06256179
0.08227024 0.14088619 0.06256172
0.09500759 0.14088619 0.06256172
0.10912366 0.14088619 0.06256172
0.12445339 0.14088619 0.06256172
0.14088619 0.14088619 0.06256172
0.15834143 0.14088619 0.06256172
0.17675702 0.14088619 0.06256172
0.19608328 0.14088619 0.06256172
0.21627928 0.14088619 0.06256172
0.23731063 0.14088619 0.06256181
0.25914784 0.14088619 0.06256172
0.28176534 0.14088619 0.06256182
0.30514064 0.14088619 0.06256184
0.32925378 0.14088619 0.06256185
0.35408690 0.14088619 0.06256172
0.37962390 0.14088619 0.06256172
0.40585015 0.14088619 0.06256172
0.43275232 0.14088619 0.06256172
0.46031817 0.14088619 0.06256172
0.48853642 0.14088619 0.06256172
0.51739665 0.14088619 0.06256191
0.54688917 0.14088619 0.06256194
0.57700495 0.14088619 0.06256172
0.60773555 0.14088619 0.06256172
0.63907309 0.14088619 0.06256172
0.67101013 0.14088619 0.06256172
0.70353968 0.14088619 0.06256172
0.73665515 0.14088619 0.06256172
0.77035029 0.14088619 0.06256172
0.06256181 0.15834143 0.06256172
0.06256181 0.15834143 0.06256172
0.06256181 0.15834143 0.06256172
0.07119917 0.15834143 0.06256172
0.08227024 0.15834143 0.06256172
0.09500759 0.15834143 0.06256172
0.10912366 0.15834143 0.06256172
0.12445339 0.15834143 0.06256172
0.14088619 0.15834143 0.06256172
0.15834143 0.15834143 0.06256172
0.17675702 0.15834143 0.06256172
0.19608328 0.15834143 0.06256181
0.21627928 0.15834143 0.06256181
0.23731063 0.15834143 0.06256172
0.25914784 0.15834143 0.06256172
0.28176534 0.15834143 0.06256172
0.30514064 0.15834143 0.06256172
0.32925378 0.15834143 0.06256172
0.35408690 0.15834143 0.06256172
0.37962390 0.15834143 0.06256172
0.40585015 0.15834143 0.06256172
0.43275232 0.15834143 0.06256172
0.46031817 0.15834143 0.06256172
0.48853642 0.15834143 0.06256189
0.51739665 0.15834143 0.06256191
0.54688917 0.15834143 0.06256172
0.57700495 0.15834143 0.06256172
0.60773555 0.15834143 0.06256172
0.63907309 0.15834143 0.06256197
0.67101013 0.15834143 0.06256172
0.70353968 0.15834143 0.06256172
0.73665515 0.15834143 0.06256172
0.77035029 0.15834143 0.06256172
0.06256183 0.17675702 0.06256172
0.06256183 0.17675702 0.06256172
0.06256183 0.17675702 0.06256172
0.07119917 0.17675702 0.06256172
0.08227024 0.17675702 0.06256172
0.09500759 0.17675702 0.06256172
0.10912366 0.17675702 0.06256172
0.12445339 0.17675702 0.06256172
0.14088619 0.17675702 0.06256172
0.15834143 0.17675702 0.06256172
0.17675702 0.17675702 0.06256172
0.19608328 0.17675702 0.06256172
0.21627928 0.17675702 0.06256172
0.23731063 0.17675702 0.06256172
0.25914784 0.17675702 0.06256172
0.28176534 0.17675702 0.06256172
0.30514064 0.17675702 0.06256172
0.32925378 0.17675702 0.06256172
0.35408690 0.17675702 0.06256172
0.37962390 0.17675702 0.06256172
0.40585015 0.17675702 0.06256172
0.43275232 0.17675702 0.06256172
0.46031817 0.17675702 0.06256189
0.48853642 0.17675702 0.06256189
0.51739665 0.17675702 0.06256172
0.54688917 0.17675702 0.06256172
0.57700495 0.17675702 0.06256172
0.60773555 0.17675702 0.06256194
0.63907309 0.17675702 0.06256172
0.67101013 0.17675702 0.06256172
0.70353968 0.17675702 0.06256172
0.73665515 0.17675702 0.06256172
0.77035029 0.17675702 0.06256172
0.06256184 0.19608328 0.06256172
0.06256184 0.19608328 0.06256172
0.06256184 0.19608328 0.06256172
0.07119917 0.19608328 0.06256172
0.08227024 0.19608328 0.06256172
0.09500759 0.19608328 0.06256181
0.10912366 0.19608328 0.06256172
0.12445339 0.19608328 0.06256172
0.14088619 0.19608328 0.06256172
0.15834143 0.19608328 0.06256172
0.17675702 0.19608328 0.06256172
0.19608328 0.19608328 0.06256172
0.21627928 0.19608328 0.06256172
0.23731063 0.19608328 0.06256172
0.25914784 0.19608328 0.06256184
0.28176534 0.19608328 0.06256184
0.30514064 0.19608328 0.06256172
0.32925378 0.19608328 0.06256172
0.35408690 0.19608328 0.06256185
0.37962390 0.19608328 0.06256172
0.40585015 0.19608328 0.06256187
0.43275232 0.19608328 0.06256172
0.46031817 0.19608328 0.06256172
0.48853642 0.19608328 0.06256172
0.51739665 0.19608328 0.06256172
0.54688917 0.19608328 0.06256191
0.57700495 0.19608328 0.06256172
0.60773555 0.19608328 0.06256172
0.63907309 0.19608328 0.06256172
0.67101013 0.19608328 0.06256172
0.70353968 0.19608328 0.06256172
0.73665515 0.19608328 0.06256200
0.77035029 0.19608328 0.06256172
0.06256183 0.21627928 0.06256181
0.06256183 0.21627928 0.06256181
0.06256183 0.21627928 0.06256181
0.07119917 0.21627928 0.06256181
0.08227024 0.21627928 0.06256172
0.09500759 0.21627928 0.06256172
0.10912366 0.21627928 0.06256181
0.12445339 0.21627928 0.06256172
0.14088619 0.21627928 0.06256172
0.15834143 0.21627928 0.06256181
0.17675702 0.21627928 0.06256172
0.19608328 0.21627928 0.06256172
0.21627928 0.21627928 0.06256182
0.23731063 0.21627928 0.06256172
0.25914784 0.21627928 0.06256172
0.28176534 0.21627928 0.06256172
0.30514064 0.21627928 0.06256184
0.32925378 0.21627928 0.06256172
0.35408690 0.21627928 0.06256172
0.37962390 0.21627928 0.06256172
0.40585015 0.21627928 0.06256187
0.43275232 0.21627928 0.06256172
0.46031817 0.21627928 0.06256189
0.48853642 0.21627928 0.06256172
0.51739665 0.21627928 0.06256172
0.54688917 0.21627928 0.06256172
0.57700495 0.21627928 0.06256172
0.60773555 0.21627928 0.06256172
0.63907309 0.21627928 0.06256172
0.67101013 0.21627928 0.06256172
0.70353968 0.21627928 0.06256200
0.73665515 0.21627928 0.06256172
0.77035029 0.21627928 0.06256204
0.06256180 0.23731063 0.06256172
0.06256180 0.23731063 0.06256172
0.06256180 0.23731063 0.06256172
0.07119917 0.23731063 0.06256172
0.08227024 0.23731063 0.06256172
0.09500759 0.23731063 0.06256172
0.10912366 0.23731063 0.06256182
0.12445339 0.23731063 0.06256172
0.14088619 0.23731063 0.06256172
0.15834143 0.23731063 0.06256172
0.17675702 0.23731063 0.06256182
0.19608328 0.23731063 0.06256172
0.21627928 0.23731063 0.06256172
0.23731063 0.23731063 0.06256172
0.25914784 0.23731063 0.06256172
0.28176534 0.23731063 0.06256172
0.30514064 0.23731063 0.06256172
0.32925378 0.23731063 0.06256172
0.35408690 0.23731063 0.06256185
0.37962390 0.23731063 0.06256172
0.40585015 0.23731063 0.06256172
0.43275232 0.23731063 0.06256172
0.46031817 0.23731063 0.06256172
0.48853642 0.23731063 0.06256172
0.51739665 0.23731063 0.06256172
0.54688917 0.23731063 0.06256191
0.57700495 0.23731063 0.06256194
0.60773555 0.23731063 0.06256172
0.63907309 0.23731063 0.06256172
0.67101013 0.23731063 0.06256172
0.70353968 0.23731063 0.06256200
0.73665515 0.23731063 0.06256172
0.77035029 0.23731063 0.06256172
0.06256182 0.25914784 0.06256172
0.06256182 0.25914784 0.06256172
0.06256182 0.25914784 0.06256172
0.07119917 0.25914784 0.06256172
0.08227024 0.25914784 0.06256172
0.09500759 0.25914784 0.06256172
0.10912366 0.25914784 0.06256182
0.12445339 0.25914784 0.06256172
0.14088619 0.25914784 0.06256172
0.15834143 0.25914784 0.06256182
0.17675702 0.25914784 0.06256182
0.19608328 0.25914784 0.06256172
0.21627928 0.25914784 0.06256172
0.23731063 0.25914784 0.06256184
0.25914784 0.25914784 0.06256172
0.28176534 0.25914784 0.06256172
0.30514064 0.25914784 0.06256172
0.32925378 0.25914784 0.06256172
0.35408690 0.25914784 0.06256172
0.37962390 0.25914784 0.06256172
0.40585015 0.25914784 0.06256172
0.43275232 0.25914784 0.06256172
0.46031817 0.25914784 0.06256172
0.48853642 0.25914784 0.06256172
0.51739665 0.25914784 0.06256172
0.54688917 0.25914784 0.06256172
0.57700495 0.25914784 0.06256172
0.60773555 0.25914784 0.06256172
0.63907309 0.25914784 0.06256197
0.67101013 0.25914784 0.06256172
0.70353968 0.25914784 0.06256172
0.73665515 0.25914784 0.06256172
0.77035029 0.25914784 0.06256172
0.06256187 0.28176534 0.06256172
0.06256187 0.28176534 0.06256172
0.06256187 0.28176534 0.06256172
0.07119917 0.28176534 0.06256172
0.08227024 0.28176534 0.06256172
0.09500759 0.28176534 0.06256184
0.10912366 0.28176534 0.06256172
0.12445339 0.28176534 0.06256172
0.14088619 0.28176534 0.06256172
0.15834143 0.28176534 0.06256172
0.17675702 0.28176534 0.06256172
0.19608328 0.28176534 0.06256172
0.21627928 0.28176534 0.06256172
0.23731063 0.28176534 0.06256172
0.25914784 0.28176534 0.06256172
0.28176534 0.28176534 0.06256172
0.30514064 0.28176534 0.06256172
0.32925378 0.28176534 0.06256172
0.35408690 0.28176534 0.06256172
0.37962390 0.28176534 0.06256172
0.40585015 0.28176534 0.06256172
0.43275232 0.28176534 0.06256172
0.46031817 0.28176534 0.06256172
0.48853642 0.28176534 0.06256172
0.51739665 0.28176534 0.06256172
0.54688917 0.28176534 0.06256172
0.57700495 0.28176534 0.06256172
0.60773555 0.28176534 0.06256172
0.63907309 0.28176534 0.06256197
0.67101013 0.28176534 0.06256172
0.70353968 0.28176534 0.06256172
0.73665515 0.28176534 0.06256172
0.77035029 0.28176534 0.06256204
0.06256184 0.30514064 0.06256172
0.06256184 0.30514064 0.06256172
0.06256184 0.30514064 0.06256172
0.07119917 0.30514064 0.06256172
0.08227024 0.30514064 0.06256184
0.09500759 0.30514064 0.06256184
0.10912366 0.30514064 0.06256172
0.12445339 0.30514064 0.06256172
0.14088619 0.30514064 0.06256172
0.15834143 0.30514064 0.06256172
0.17675702 0.30514064 0.06256172
0.19608328 0.30514064 0.06256172
0.21627928 0.30514064 0.06256172
0.23731063 0.30514064 0.06256172
0.25914784 0.30514064 0.06256172
0.28176534 0.30514064 0.06256172
0.30514064 0.30514064 0.06256172
0.32925378 0.30514064 0.06256185
0.35408690 0.30514064 0.06256172
0.37962390 0.30514064 0.06256172
0.40585015 0.30514064 0.06256172
0.43275232 0.30514064 0.06256172
0.46031817 0.30514064 0.06256189
0.48853642 0.30514064 0.06256172
0.51739665 0.30514064 0.06256172
0.54688917 0.30514064 0.06256172
0.57700495 0.30514064 0.06256172
0.60773555 0.30514064 0.06256172
0.63907309 0.30514064 0.06256172
0.67101013 0.30514064 0.06256172
0.70353968 0.30514064 0.06256172
0.73665515 0.30514064 0.06256172
0.77035029 0.30514064 0.06256172
0.06256187 0.32925378 0.06256172
0.06256187 0.32925378 0.06256172
0.06256187 0.32925378 0.06256172
0.07119917 0.32925378 0.06256185
0.08227024 0.32925378 0.06256172
0.09500759 0.32925378 0.06256172
0.10912366 0.32925378 0.06256172
0.12445339 0.32925378 0.06256172
0.14088619 0.32925378 0.06256172
0.15834143 0.32925378 0.06256172
0.17675702 0.32925378 0.06256185
0.19608328 0.32925378 0.06256185
0.21627928 0.32925378 0.06256172
0.23731063 0.32925378 0.06256185
0.25914784 0.32925378 0.06256172
0.28176534 0.32925378 0.06256185
0.30514064 0.32925378 0.06256187
0.32925378 0.32925378 0.06256172
0.35408690 0.32925378 0.06256172
0.37962390 0.32925378 0.06256172
0.40585015 0.32925378 0.06256172
0.43275232 0.32925378 0.06256172
0.46031817 0.32925378 0.06256172
0.48853642 0.32925378 0.06256172
0.51739665 0.32925378 0.06256172
0.54688917 0.32925378 0.06256172
0.57700495 0.32925378 0.06256194
0.60773555 0.32925378 0.06256172
0.63907309 0.32925378 0.06256172
0.67101013 0.32925378 0.06256172
0.70353968 0.32925378 0.06256172
0.73665515 0.32925378 0.06256172
0.77035029 0.32925378 0.06256172
0.06256190 0.35408690 0.06256172
0.06256190 0.35408690 0.06256172
0.06256190 0.35408690 0.06256172
0.07119917 0.35408690 0.06256172
0.08227024 0.35408690 0.06256172
0.09500759 0.35408690 0.06256172
0.10912366 0.35408690 0.06256172
0.12445339 0.35408690 0.06256172
0.14088619 0.35408690 0.06256172
0.15834143 0.35408690 0.06256172
0.17675702 0.35408690 0.06256172
0.19608328 0.35408690 0.06256172
0.21627928 0.35408690 0.06256172
0.23731063 0.35408690 0.06256172
0.25914784 0.35408690 0.06256172
0.28176534 0.35408690 0.06256172
0.30514064 0.35408690 0.06256172
0.32925378 0.35408690 0.06256172
0.35408690 0.35408690 0.06256172
0.37962390 0.35408690 0.06256187
0.40585015 0.35408690 0.06256172
0.43275232 0.35408690 0.06256172
0.46031817 0.35408690 0.06256189
0.48853642 0.35408690 0.06256172
0.51739665 0.35408690 0.06256172
0.54688917 0.35408690 0.06256172
0.57700495 0.35408690 0.06256172
0.60773555 0.35408690 0.06256172
0.63907309 0.35408690 0.06256172
0.67101013 0.35408690 0.06256172
0.70353968 0.35408690 0.06256172
0.73665515 0.35408690 0.06256200
0.77035029 0.35408690 0.06256204
0.06256189 0.37962390 0.06256172
0.06256189 0.37962390 0.06256172
0.06256189 0.37962390 0.06256172
0.07119917 0.37962390 0.06256172
0.08227024 0.37962390 0.06256172
0.09500759 0.37962390 0.06256172
0.10912366 0.37962390 0.06256172
0.12445339 0.37962390 0.06256172
0.14088619 0.37962390 0.06256172
0.15834143 0.37962390 0.06256172
0.17675702 0.37962390 0.06256172
0.19608328 0.37962390 0.06256187
0.21627928 0.37962390 0.06256172
0.23731063 0.37962390 0.06256172
0.25914784 0.37962390 0.06256172
0.28176534 0.37962390 0.06256172
0.30514064 0.37962390 0.06256172
0.32925378 0.37962390 0.06256172
0.35408690 0.37962390 0.06256189
0.37962390 0.37962390 0.06256172
0.40585015 0.37962390 0.06256172
0.43275232 0.37962390 0.06256172
0.46031817 0.37962390 0.06256191
0.48853642 0.37962390 0.06256172
0.51739665 0.37962390 0.06256172
0.54688917 0.37962390 0.06256172
0.57700495 0.37962390 0.06256172
0.60773555 0.37962390 0.06256194
0.63907309 0.37962390 0.06256197
0.67101013 0.37962390 0.06256172
0.70353968 0.37962390 0.06256172
0.73665515 0.37962390 0.06256172
0.77035029 0.37962390 0.06256172
0.06256188 0.40585015 0.06256187
0.06256188 0.40585015 0.06256187
0.06256188 0.40585015 0.06256187
0.07119917 0.40585015 0.06256187
0.08227024 0.40585015 0.06256172
0.09500759 0.40585015 0.06256189
0.10912366 0.40585015 0.06256172
0.12445339 0.40585015 0.06256172
0.14088619 0.40585015 0.06256187
0.15834143 0.40585015 0.06256172
0.17675702 0.40585015 0.06256187
0.19608328 0.40585015 0.06256172
0.21627928 0.40585015 0.06256172
0.23731063 0.40585015 0.06256187
0.25914784 0.40585015 0.06256172
0.28176534 0.40585015 0.06256172
0.30514064 0.40585015 0.06256189
0.32925378 0.40585015 0.06256172
0.35408690 0.40585015 0.06256172
0.37962390 0.40585015 0.06256172
0.40585015 0.40585015 0.06256189
0.43275232 0.40585015 0.06256172
0.46031817 0.40585015 0.06256172
0.48853642 0.40585015 0.06256191
0.51739665 0.40585015 0.06256172
0.54688917 0.40585015 0.06256172
0.57700495 0.40585015 0.06256172
0.60773555 0.40585015 0.06256172
0.63907309 0.40585015 0.06256172
0.67101013 0.40585015 0.06256172
0.70353968 0.40585015 0.06256172
0.73665515 0.40585015 0.06256172
0.77035029 0.40585015 0.06256172
0.06256193 0.43275232 0.06256172
0.06256193 0.43275232 0.06256172
0.06256193 0.43275232 0.06256172
0.07119917 0.43275232 0.06256172
0.08227024 0.43275232 0.06256172
0.09500759 0.43275232 0.06256189
0.10912366 0.43275232 0.06256172
0.12445339 0.43275232 0.06256172
0.14088619 0.43275232 0.06256172
0.15834143 0.43275232 0.06256172
0.17675702 0.43275232 0.06256172
0.19608328 0.43275232 0.06256172
0.21627928 0.43275232 0.06256172
0.23731063 0.43275232 0.06256172
0.25914784 0.43275232 0.06256172
0.28176534 0.43275232 0.06256172
0.30514064 0.43275232 0.06256172
0.32925378 0.43275232 0.06256172
0.35408690 0.43275232 0.06256172
0.37962390 0.43275232 0.06256172
0.40585015 0.43275232 0.06256172
0.43275232 0.43275232 0.06256172
0.46031817 0.43275232 0.06256172
0.48853642 0.43275232 0.06256191
0.51739665 0.43275232 0.06256172
0.54688917 0.43275232 0.06256172
0.57700495 0.43275232 0.06256172
