src/ffmpeg_scripts/luts/luminance_-2p67.cube
TITLE "luminance_-2p67"
LUT_3D_SIZE 5
# PQ (EOTF Only)/Rec2020 -> PQ (EOTF Only)/Rec2020, CineEI Shift -2.67, Black Level 0.00% IRE, Input 109% -> Output 109% - Created with LUTCalc v4.01 by Ben Turley October 2020
0.06256172 0.06256172 0.06256172
0.16421120 0.06256178 0.06256172
0.35283068 0.06256172 0.06256172
0.57899905 0.06256172 0.06256172
0.83470774 0.06256206 0.06256208
0.06256180 0.16421120 0.06256172
0.16421120 0.16421120 0.06256172
0.35283068 0.16421120 0.06256185
0.57899905 0.16421120 0.06256194
0.83470774 0.16421120 0.06256172
0.06256172 0.35283068 0.06256172
0.16421120 0.35283068 0.06256172
0.35283068 0.35283068 0.06256172
0.57899905 0.35283068 0.06256172
0.83470774 0.35283068 0.06256172
0.06256196 0.57899905 0.06256172
0.16421120 0.57899905 0.06256172
0.35283068 0.57899905 0.06256172
0.57899905 0.57899905 0.06256172
0.83470774 0.57899905 0.06256213
0.06256212 0.83470774 0.06256172
0.16421120 0.83470774 0.06256208
0.35283068 0.83470774 0.06256172
0.57899905 0.83470774 0.06256208
0.83470774 0.83470774 0.06256172
0.06256172 0.06256182 0.16421120
0.16421120 0.06256172 0.16421120
0.35283068 0.06256184 0.16421120
0.57899905 0.06256172 0.16421120
0.83470774 0.06256200 0.16421120
0.06256172 0.16421120 0.16421120
0.16421120 0.16421120 0.16421120
0.35283068 0.16421120 0.16421120
0.57899905 0.16421120 0.16421120
0.83470774 0.16421120 0.16421120
0.06256186 0.35283068 0.16421120
0.16421120 0.35283068 0.16421120
0.35283068 0.35283068 0.16421120
0.57899905 0.35283068 0.16421120
0.83470774 0.35283068 0.16421120
0.06256172 0.57899905 0.16421120
0.16421120 0.57899905 0.16421120
0.35283068 0.57899905 0.16421120
0.57899905 0.57899905 0.16421120
0.83470774 0.57899905 0.16421120
0.06256210 0.83470774 0.16421120
0.16421120 0.83470774 0.16421120
0.35283068 0.83470774 0.16421120
0.57899905 0.83470774 0.16421120
0.83470774 0.83470774 0.16421120
0.06256172 0.06256191 0.35283068
0.16421120 0.06256172 0.35283068
0.35283068 0.06256191 0.35283068
0.57899905 0.06256172 0.35283068
0.83470774 0.06256204 0.35283068
0.06256172 0.16421120 0.35283068
0.16421120 0.16421120 0.35283068
0.35283068 0.16421120 0.35283068
0.57899905 0.16421120 0.35283068
0.83470774 0.16421120 0.35283068
0.06256172 0.35283068 0.35283068
0.16421120 0.35283068 0.35283068
0.35283068 0.35283068 0.35283068
0.57899905 0.35283068 0.35283068
0.83470774 0.35283068 0.35283068
0.06256198 0.57899905 0.35283068
0.16421120 0.57899905 0.35283068
0.35283068 0.57899905 0.35283068
0.57899905 0.57899905 0.35283068
0.83470774 0.57899905 0.35283068
0.06256172 0.83470774 0.35283068
0.16421120 0.83470774 0.35283068
0.35283068 0.83470774 0.35283068
0.57899905 0.83470774 0.35283068
0.83470774 0.83470774 0.35283068
0.06256172 0.06256200 0.57899905
0.16421120 0.06256172 0.57899905
0.35283068 0.06256200 0.57899905
0.57899905 0.06256204 0.57899905
0.83470774 0.06256172 0.57899905
0.06256172 0.16421120 0.57899905
0.16421120 0.16421120 0.57899905
0.35283068 0.16421120 0.57899905
0.57899905 0.16421120 0.57899905
0.83470774 0.16421120 0.57899905
0.06256172 0.35283068 0.57899905
0.16421120 0.35283068 0.57899905
0.35283068 0.35283068 0.57899905
0.57899905 0.35283068 0.57899905
0.83470774 0.35283068 0.57899905
0.06256172 0.57899905 0.57899905
0.16421120 0.57899905 0.57899905
0.35283068 0.57899905 0.57899905
0.57899905 0.57899905 0.57899905
0.83470774 0.57899905 0.57899905
0.06256211 0.83470774 0.57899905
0.16421120 0.83470774 0.57899905
0.35283068 0.83470774 0.57899905
0.57899905 0.83470774 0.57899905
0.83470774 0.83470774 0.57899905
0.06256213 0.06256227 0.83470774
0.16421120 0.06256227 0.83470774
0.35283068 0.06256231 0.83470774
0.57899905 0.06256219 0.83470774
0.83470774 0.06256227 0.83470774
0.06256172 0.16421120 0.83470774
0.16421120 0.16421120 0.83470774
0.35283068 0.16421120 0.83470774
0.57899905 0.16421120 0.83470774
0.83470774 0.16421120 0.83470774
0.06256172 0.35283068 0.83470774
0.16421120 0.35283068 0.83470774
0.35283068 0.35283068 0.83470774
0.57899905 0.35283068 0.83470774
0.83470774 0.35283068 0.83470774
0.06256172 0.57899905 0.83470774
0.16421120 0.57899905 0.83470774
0.35283068 0.57899905 0.83470774
0.57899905 0.57899905 0.83470774
0.83470774 0.57899905 0.83470774
0.06256213 0.83470774 0.83470774
0.16421120 0.83470774 0.83470774
0.35283068 0.83470774 0.83470774
0.57899905 0.83470774 0.83470774
0.83470774 0.83470774 0.83470774
