src/ffmpeg_scripts/luts/luminance-unclipped_0p33.cube
TITLE "luminance-unclipped_0p33"
LUT_3D_SIZE 5
# PQ (EOTF Only)/Rec2020 -> PQ (EOTF Only)/Rec2020, CineEI Shift 0.33, Black Level -7.25% IRE, Input 109% -> Output 109% - Created with LUTCalc v4.01 by Ben Turley October 2020
0.00047898 0.00047898 0.00047898
0.23304030 0.00047909 0.00047898
0.53064269 0.00047916 0.00047920
0.82212880 0.00047898 0.00047898
0.91886608 0.00047961 0.00047961
0.00047898 0.23304030 0.00047898
0.23304030 0.23304030 0.00047898
0.53064269 0.23304030 0.00047920
0.82212880 0.23304030 0.00047898
0.91886608 0.23304030 0.00047898
0.00047898 0.53064269 0.00047920
0.23304030 0.53064269 0.00047898
0.53064269 0.53064269 0.00047898
0.82212880 0.53064269 0.00047898
0.91886608 0.53064269 0.00047898
0.00047940 0.82212880 0.00047898
0.23304030 0.82212880 0.00047898
0.53064269 0.82212880 0.00047898
0.82212880 0.82212880 0.00047940
0.91886608 0.82212880 0.00047971
0.00047969 0.91886608 0.00047898
0.23304030 0.91886608 0.00047898
0.53064269 0.91886608 0.00047898
0.82212880 0.91886608 0.00047898
0.91886608 0.91886608 0.00047898
0.00047898 0.00047916 0.23304030
0.23304030 0.00047916 0.23304030
0.53064269 0.00047898 0.23304030
0.82212880 0.00047935 0.23304030
0.91886608 0.00047953 0.23304030
0.00047898 0.23304030 0.23304030
0.23304030 0.23304030 0.23304030
0.53064269 0.23304030 0.23304030
0.82212880 0.23304030 0.23304030
0.91886608 0.23304030 0.23304030
0.00047921 0.53064269 0.23304030
0.23304030 0.53064269 0.23304030
0.53064269 0.53064269 0.23304030
0.82212880 0.53064269 0.23304030
0.91886608 0.53064269 0.23304030
0.00047923 0.82212880 0.23304030
0.23304030 0.82212880 0.23304030
0.53064269 0.82212880 0.23304030
0.82212880 0.82212880 0.23304030
0.91886608 0.82212880 0.23304030
0.00047980 0.91886608 0.23304030
0.23304030 0.91886608 0.23304030
0.53064269 0.91886608 0.23304030
0.82212880 0.91886608 0.23304030
0.91886608 0.91886608 0.23304030
0.00047898 0.00047898 0.53064269
0.23304030 0.00047898 0.53064269
0.53064269 0.00047898 0.53064269
0.82212880 0.00047898 0.53064269
0.91886608 0.00047958 0.53064269
0.00047898 0.23304030 0.53064269
0.23304030 0.23304030 0.53064269
0.53064269 0.23304030 0.53064269
0.82212880 0.23304030 0.53064269
0.91886608 0.23304030 0.53064269
0.00047898 0.53064269 0.53064269
0.23304030 0.53064269 0.53064269
0.53064269 0.53064269 0.53064269
0.82212880 0.53064269 0.53064269
0.91886608 0.53064269 0.53064269
0.00047944 0.82212880 0.53064269
0.23304030 0.82212880 0.53064269
0.53064269 0.82212880 0.53064269
0.82212880 0.82212880 0.53064269
0.91886608 0.82212880 0.53064269
0.00047898 0.91886608 0.53064269
0.23304030 0.91886608 0.53064269
0.53064269 0.91886608 0.53064269
0.82212880 0.91886608 0.53064269
0.91886608 0.91886608 0.53064269
0.00047898 0.00047946 0.82212880
0.23304030 0.00047898 0.82212880
0.53064269 0.00047958 0.82212880
0.82212880 0.00047961 0.82212880
0.91886608 0.00047898 0.82212880
0.00047898 0.23304030 0.82212880
0.23304030 0.23304030 0.82212880
0.53064269 0.23304030 0.82212880
0.82212880 0.23304030 0.82212880
0.91886608 0.23304030 0.82212880
0.00047898 0.53064269 0.82212880
0.23304030 0.53064269 0.82212880
0.53064269 0.53064269 0.82212880
0.82212880 0.53064269 0.82212880
0.91886608 0.53064269 0.82212880
0.00047898 0.82212880 0.82212880
0.23304030 0.82212880 0.82212880
0.53064269 0.82212880 0.82212880
0.82212880 0.82212880 0.82212880
0.91886608 0.82212880 0.82212880
0.00047969 0.91886608 0.82212880
0.23304030 0.91886608 0.82212880
0.53064269 0.91886608 0.82212880
0.82212880 0.91886608 0.82212880
0.91886608 0.91886608 0.82212880
0.00047971 0.00048006 0.91886608
0.23304030 0.00047997 0.91886608
0.53064269 0.00047997 0.91886608
0.82212880 0.00047983 0.91886608
0.91886608 0.00047898 0.91886608
0.00047971 0.23304030 0.91886608
0.23304030 0.23304030 0.91886608
0.53064269 0.23304030 0.91886608
0.82212880 0.23304030 0.91886608
0.91886608 0.23304030 0.91886608
0.00047898 0.53064269 0.91886608
0.23304030 0.53064269 0.91886608
0.53064269 0.53064269 0.91886608
0.82212880 0.53064269 0.91886608
0.91886608 0.53064269 0.91886608
0.00047898 0.82212880 0.91886608
0.23304030 0.82212880 0.91886608
0.53064269 0.82212880 0.91886608
0.82212880 0.82212880 0.91886608
0.91886608 0.82212880 0.91886608
0.00047971 0.91886608 0.91886608
0.23304030 0.91886608 0.91886608
0.53064269 0.91886608 0.91886608
0.82212880 0.91886608 0.91886608
0.91886608 0.91886608 0.91886608
