src/ffmpeg_scripts/luts/luminance-unclipped_1p67.cube
TITLE "luminance-unclipped_1p67"
LUT_3D_SIZE 5
# PQ (EOTF Only)/Rec2020 -> PQ (EOTF Only)/Rec2020, CineEI Shift 1.67, Black Level -7.25% IRE, Input 109% -> Output 109% - Created with LUTCalc v4.01 by Ben Turley October 2020
0.00047898 0.00047898 0.00047898
0.30078275 0.00047898 0.00047898
0.62647255 0.00047920 0.00047927
0.91886608 0.00047898 0.00047898
0.91886608 0.00047989 0.00047971
0.00047898 0.30078275 0.00047898
0.30078275 0.30078275 0.00047898
0.62647255 0.30078275 0.00047923
0.91886608 0.30078275 0.00047898
0.91886608 0.30078275 0.00047898
0.00047898 0.62647255 0.00047898
0.30078275 0.62647255 0.00047898
0.62647255 0.62647255 0.00047898
0.91886608 0.62647255 0.00047940
0.91886608 0.62647255 0.00047898
0.00047898 0.91886608 0.00047946
0.30078275 0.91886608 0.00047898
0.62647255 0.91886608 0.00047898
0.91886608 0.91886608 0.00047898
0.91886608 0.91886608 0.00047971
0.00047986 0.91886608 0.00047983
0.30078275 0.91886608 0.00047898
0.62647255 0.91886608 0.00047898
0.91886608 0.91886608 0.00047898
0.91886608 0.91886608 0.00047898
0.00047898 0.00047918 0.30078275
0.30078275 0.00047898 0.30078275
0.62647255 0.00047927 0.30078275
0.91886608 0.00047898 0.30078275
0.91886608 0.00047971 0.30078275
0.00047916 0.30078275 0.30078275
0.30078275 0.30078275 0.30078275
0.62647255 0.30078275 0.30078275
0.91886608 0.30078275 0.30078275
0.91886608 0.30078275 0.30078275
0.00047931 0.62647255 0.30078275
0.30078275 0.62647255 0.30078275
0.62647255 0.62647255 0.30078275
0.91886608 0.62647255 0.30078275
0.91886608 0.62647255 0.30078275
0.00047954 0.91886608 0.30078275
0.30078275 0.91886608 0.30078275
0.62647255 0.91886608 0.30078275
0.91886608 0.91886608 0.30078275
0.91886608 0.91886608 0.30078275
0.00047898 0.91886608 0.30078275
0.30078275 0.91886608 0.30078275
0.62647255 0.91886608 0.30078275
0.91886608 0.91886608 0.30078275
0.91886608 0.91886608 0.30078275
0.00047927 0.00047935 0.62647255
0.30078275 0.00047935 0.62647255
0.62647255 0.00047935 0.62647255
0.91886608 0.00047944 0.62647255
0.91886608 0.00047999 0.62647255
0.00047898 0.30078275 0.62647255
0.30078275 0.30078275 0.62647255
0.62647255 0.30078275 0.62647255
0.91886608 0.30078275 0.62647255
0.91886608 0.30078275 0.62647255
0.00047898 0.62647255 0.62647255
0.30078275 0.62647255 0.62647255
0.62647255 0.62647255 0.62647255
0.91886608 0.62647255 0.62647255
0.91886608 0.62647255 0.62647255
0.00047949 0.91886608 0.62647255
0.30078275 0.91886608 0.62647255
0.62647255 0.91886608 0.62647255
0.91886608 0.91886608 0.62647255
0.91886608 0.91886608 0.62647255
0.00047969 0.91886608 0.62647255
0.30078275 0.91886608 0.62647255
0.62647255 0.91886608 0.62647255
0.91886608 0.91886608 0.62647255
0.91886608 0.91886608 0.62647255
0.00047898 0.00047898 0.91886608
0.30078275 0.00047898 0.91886608
0.62647255 0.00047898 0.91886608
0.91886608 0.00047961 0.91886608
0.91886608 0.00047898 0.91886608
0.00047898 0.30078275 0.91886608
0.30078275 0.30078275 0.91886608
0.62647255 0.30078275 0.91886608
0.91886608 0.30078275 0.91886608
0.91886608 0.30078275 0.91886608
0.00047898 0.62647255 0.91886608
0.30078275 0.62647255 0.91886608
0.62647255 0.62647255 0.91886608
0.91886608 0.62647255 0.91886608
0.91886608 0.62647255 0.91886608
0.00047898 0.91886608 0.91886608
0.30078275 0.91886608 0.91886608
0.62647255 0.91886608 0.91886608
0.91886608 0.91886608 0.91886608
0.91886608 0.91886608 0.91886608
0.00047989 0.91886608 0.91886608
0.30078275 0.91886608 0.91886608
0.62647255 0.91886608 0.91886608
0.91886608 0.91886608 0.91886608
0.91886608 0.91886608 0.91886608
0.00047898 0.00048014 0.91886608
0.30078275 0.00048014 0.91886608
0.62647255 0.00048014 0.91886608
0.91886608 0.00048014 0.91886608
0.91886608 0.00047898 0.91886608
0.00047997 0.30078275 0.91886608
0.30078275 0.30078275 0.91886608
0.62647255 0.30078275 0.91886608
0.91886608 0.30078275 0.91886608
0.91886608 0.30078275 0.91886608
0.00047898 0.62647255 0.91886608
0.30078275 0.62647255 0.91886608
0.62647255 0.62647255 0.91886608
0.91886608 0.62647255 0.91886608
0.91886608 0.62647255 0.91886608
0.00047983 0.91886608 0.91886608
0.30078275 0.91886608 0.91886608
0.62647255 0.91886608 0.91886608
0.91886608 0.91886608 0.91886608
0.91886608 0.91886608 0.91886608
0.00047983 0.91886608 0.91886608
0.30078275 0.91886608 0.91886608
0.62647255 0.91886608 0.91886608
0.91886608 0.91886608 0.91886608
0.91886608 0.91886608 0.91886608
