src/ffmpeg_scripts/luts/luminance-unclipped_1p33.cube
TITLE "luminance-unclipped_1p33"
LUT_3D_SIZE 5
# PQ (EOTF Only)/Rec2020 -> PQ (EOTF Only)/Rec2020, CineEI Shift 1.33, Black Level -7.25% IRE, Input 109% -> Output 109% - Created with LUTCalc v4.01 by Ben Turley October 2020
0.00047898 0.00047898 0.00047898
0.28291169 0.00047898 0.00047898
0.60214173 0.00047920 0.00047898
0.89669567 0.00047931 0.00047898
0.91886608 0.00047975 0.00047983
0.00047914 0.28291169 0.00047898
0.28291169 0.28291169 0.00047898
0.60214173 0.28291169 0.00047923
0.89669567 0.28291169 0.00047940
0.91886608 0.28291169 0.00047898
0.00047923 0.60214173 0.00047898
0.28291169 0.60214173 0.00047898
0.60214173 0.60214173 0.00047898
0.89669567 0.60214173 0.00047898
0.91886608 0.60214173 0.00047898
0.00047927 0.89669567 0.00047898
0.28291169 0.89669567 0.00047898
0.60214173 0.89669567 0.00047940
0.89669567 0.89669567 0.00047946
0.91886608 0.89669567 0.00047971
0.00047980 0.91886608 0.00047898
0.28291169 0.91886608 0.00047971
0.60214173 0.91886608 0.00047898
0.89669567 0.91886608 0.00047971
0.91886608 0.91886608 0.00047898
0.00047898 0.00047920 0.28291169
0.28291169 0.00047918 0.28291169
0.60214173 0.00047923 0.28291169
0.89669567 0.00047940 0.28291169
0.91886608 0.00047967 0.28291169
0.00047914 0.28291169 0.28291169
0.28291169 0.28291169 0.28291169
0.60214173 0.28291169 0.28291169
0.89669567 0.28291169 0.28291169
0.91886608 0.28291169 0.28291169
0.00047930 0.60214173 0.28291169
0.28291169 0.60214173 0.28291169
0.60214173 0.60214173 0.28291169
0.89669567 0.60214173 0.28291169
0.91886608 0.60214173 0.28291169
0.00047931 0.89669567 0.28291169
0.28291169 0.89669567 0.28291169
0.60214173 0.89669567 0.28291169
0.89669567 0.89669567 0.28291169
0.91886608 0.89669567 0.28291169
0.00047978 0.91886608 0.28291169
0.28291169 0.91886608 0.28291169
0.60214173 0.91886608 0.28291169
0.89669567 0.91886608 0.28291169
0.91886608 0.91886608 0.28291169
0.00047927 0.00047935 0.60214173
0.28291169 0.00047898 0.60214173
0.60214173 0.00047898 0.60214173
0.89669567 0.00047946 0.60214173
0.91886608 0.00047989 0.60214173
0.00047898 0.28291169 0.60214173
0.28291169 0.28291169 0.60214173
0.60214173 0.28291169 0.60214173
0.89669567 0.28291169 0.60214173
0.91886608 0.28291169 0.60214173
0.00047898 0.60214173 0.60214173
0.28291169 0.60214173 0.60214173
0.60214173 0.60214173 0.60214173
0.89669567 0.60214173 0.60214173
0.91886608 0.60214173 0.60214173
0.00047956 0.89669567 0.60214173
0.28291169 0.89669567 0.60214173
0.60214173 0.89669567 0.60214173
0.89669567 0.89669567 0.60214173
0.91886608 0.89669567 0.60214173
0.00047898 0.91886608 0.60214173
0.28291169 0.91886608 0.60214173
0.60214173 0.91886608 0.60214173
0.89669567 0.91886608 0.60214173
0.91886608 0.91886608 0.60214173
0.00047898 0.00047967 0.89669567
0.28291169 0.00047898 0.89669567
0.60214173 0.00047898 0.89669567
0.89669567 0.00047898 0.89669567
0.91886608 0.00047971 0.89669567
0.00047898 0.28291169 0.89669567
0.28291169 0.28291169 0.89669567
0.60214173 0.28291169 0.89669567
0.89669567 0.28291169 0.89669567
0.91886608 0.28291169 0.89669567
0.00047898 0.60214173 0.89669567
0.28291169 0.60214173 0.89669567
0.60214173 0.60214173 0.89669567
0.89669567 0.60214173 0.89669567
0.91886608 0.60214173 0.89669567
0.00047898 0.89669567 0.89669567
0.28291169 0.89669567 0.89669567
0.60214173 0.89669567 0.89669567
0.89669567 0.89669567 0.89669567
0.91886608 0.89669567 0.89669567
0.00047983 0.91886608 0.89669567
0.28291169 0.91886608 0.89669567
0.60214173 0.91886608 0.89669567
0.89669567 0.91886608 0.89669567
0.91886608 0.91886608 0.89669567
0.00047898 0.00048014 0.91886608
0.28291169 0.00048025 0.91886608
0.60214173 0.00048025 0.91886608
0.89669567 0.00048014 0.91886608
0.91886608 0.00048014 0.91886608
0.00047983 0.28291169 0.91886608
0.28291169 0.28291169 0.91886608
0.60214173 0.28291169 0.91886608
0.89669567 0.28291169 0.91886608
0.91886608 0.28291169 0.91886608
0.00047898 0.60214173 0.91886608
0.28291169 0.60214173 0.91886608
0.60214173 0.60214173 0.91886608
0.89669567 0.60214173 0.91886608
0.91886608 0.60214173 0.91886608
0.00047898 0.89669567 0.91886608
0.28291169 0.89669567 0.91886608
0.60214173 0.89669567 0.91886608
0.89669567 0.89669567 0.91886608
0.91886608 0.89669567 0.91886608
0.00047898 0.91886608 0.91886608
0.28291169 0.91886608 0.91886608
0.60214173 0.91886608 0.91886608
0.89669567 0.91886608 0.91886608
0.91886608 0.91886608 0.91886608
