src/ffmpeg_scripts/luts/luminance-unclipped_-1p67.cube
TITLE "luminance-unclipped_-1p67"
LUT_3D_SIZE 9
# PQ (EOTF Only)/Rec2020 -> PQ (EOTF Only)/Rec2020, CineEI Shift -1.67, Black Level -7.25% IRE, Input 109% -> Output 109% - Created with LUTCalc v4.01 by Ben Turley October 2020
0.00047898 0.00047898 0.00047898
0.04452191 0.00047904 0.00047898
0.15075079 0.00047906 0.00047898
0.26959667 0.00047898 0.00047898
0.39722209 0.00047898 0.00047898
0.53185735 0.00047916 0.00047898
0.67243745 0.00047898 0.00047898
0.81823683 0.00047934 0.00047935
0.91886608 0.00047944 0.00047946
0.00047905 0.04452191 0.00047898
0.04452191 0.04452191 0.00047898
0.15075079 0.04452191 0.00047898
0.26959667 0.04452191 0.00047912
0.39722209 0.04452191 0.00047898
0.53185735 0.04452191 0.00047898
0.67243745 0.04452191 0.00047898
0.81823683 0.04452191 0.00047935
0.91886608 0.04452191 0.00047946
0.00047909 0.15075079 0.00047898
0.04452191 0.15075079 0.00047898
0.15075079 0.15075079 0.00047898
0.26959667 0.15075079 0.00047898
0.39722209 0.15075079 0.00047916
0.53185735 0.15075079 0.00047898
0.67243745 0.15075079 0.00047927
0.81823683 0.15075079 0.00047898
0.91886608 0.15075079 0.00047898
0.00047914 0.26959667 0.00047912
0.04452191 0.26959667 0.00047912
0.15075079 0.26959667 0.00047898
0.26959667 0.26959667 0.00047914
0.39722209 0.26959667 0.00047916
0.53185735 0.26959667 0.00047898
0.67243745 0.26959667 0.00047898
0.81823683 0.26959667 0.00047898
0.91886608 0.26959667 0.00047946
0.00047898 0.39722209 0.00047898
0.04452191 0.39722209 0.00047916
0.15075079 0.39722209 0.00047898
0.26959667 0.39722209 0.00047898
0.39722209 0.39722209 0.00047898
0.53185735 0.39722209 0.00047898
0.67243745 0.39722209 0.00047898
0.81823683 0.39722209 0.00047898
0.91886608 0.39722209 0.00047898
0.00047926 0.53185735 0.00047898
0.04452191 0.53185735 0.00047898
0.15075079 0.53185735 0.00047920
0.26959667 0.53185735 0.00047898
0.39722209 0.53185735 0.00047898
0.53185735 0.53185735 0.00047898
0.67243745 0.53185735 0.00047898
0.81823683 0.53185735 0.00047898
0.91886608 0.53185735 0.00047898
0.00047930 0.67243745 0.00047898
0.04452191 0.67243745 0.00047898
0.15075079 0.67243745 0.00047898
0.26959667 0.67243745 0.00047898
0.39722209 0.67243745 0.00047898
0.53185735 0.67243745 0.00047931
0.67243745 0.67243745 0.00047898
0.81823683 0.67243745 0.00047898
0.91886608 0.67243745 0.00047953
0.00047938 0.81823683 0.00047898
0.04452191 0.81823683 0.00047898
0.15075079 0.81823683 0.00047898
0.26959667 0.81823683 0.00047898
0.39722209 0.81823683 0.00047898
0.53185735 0.81823683 0.00047898
0.67243745 0.81823683 0.00047898
0.81823683 0.81823683 0.00047940
0.91886608 0.81823683 0.00047898
0.00047951 0.91886608 0.00047898
0.04452191 0.91886608 0.00047958
0.15075079 0.91886608 0.00047946
0.26959667 0.91886608 0.00047898
0.39722209 0.91886608 0.00047898
0.53185735 0.91886608 0.00047898
0.67243745 0.91886608 0.00047946
0.81823683 0.91886608 0.00047898
0.91886608 0.91886608 0.00047898
0.00047898 0.00047907 0.04452191
0.04452191 0.00047907 0.04452191
0.15075079 0.00047898 0.04452191
0.26959667 0.00047898 0.04452191
0.39722209 0.00047912 0.04452191
0.53185735 0.00047898 0.04452191
0.67243745 0.00047898 0.04452191
0.81823683 0.00047942 0.04452191
0.91886608 0.00047898 0.04452191
0.00047898 0.04452191 0.04452191
0.04452191 0.04452191 0.04452191
0.15075079 0.04452191 0.04452191
0.26959667 0.04452191 0.04452191
0.39722209 0.04452191 0.04452191
0.53185735 0.04452191 0.04452191
0.67243745 0.04452191 0.04452191
0.81823683 0.04452191 0.04452191
0.91886608 0.04452191 0.04452191
0.00047898 0.15075079 0.04452191
0.04452191 0.15075079 0.04452191
0.15075079 0.15075079 0.04452191
0.26959667 0.15075079 0.04452191
0.39722209 0.15075079 0.04452191
0.53185735 0.15075079 0.04452191
0.67243745 0.15075079 0.04452191
0.81823683 0.15075079 0.04452191
0.91886608 0.15075079 0.04452191
0.00047914 0.26959667 0.04452191
0.04452191 0.26959667 0.04452191
0.15075079 0.26959667 0.04452191
0.26959667 0.26959667 0.04452191
0.39722209 0.26959667 0.04452191
0.53185735 0.26959667 0.04452191
0.67243745 0.26959667 0.04452191
0.81823683 0.26959667 0.04452191
0.91886608 0.26959667 0.04452191
0.00047918 0.39722209 0.04452191
0.04452191 0.39722209 0.04452191
0.15075079 0.39722209 0.04452191
0.26959667 0.39722209 0.04452191
0.39722209 0.39722209 0.04452191
0.53185735 0.39722209 0.04452191
0.67243745 0.39722209 0.04452191
0.81823683 0.39722209 0.04452191
0.91886608 0.39722209 0.04452191
0.00047921 0.53185735 0.04452191
0.04452191 0.53185735 0.04452191
0.15075079 0.53185735 0.04452191
0.26959667 0.53185735 0.04452191
0.39722209 0.53185735 0.04452191
0.53185735 0.53185735 0.04452191
0.67243745 0.53185735 0.04452191
0.81823683 0.53185735 0.04452191
0.91886608 0.53185735 0.04452191
0.00047933 0.67243745 0.04452191
0.04452191 0.67243745 0.04452191
0.15075079 0.67243745 0.04452191
0.26959667 0.67243745 0.04452191
0.39722209 0.67243745 0.04452191
0.53185735 0.67243745 0.04452191
0.67243745 0.67243745 0.04452191
0.81823683 0.67243745 0.04452191
0.91886608 0.67243745 0.04452191
0.00047937 0.81823683 0.04452191
0.04452191 0.81823683 0.04452191
0.15075079 0.81823683 0.04452191
0.26959667 0.81823683 0.04452191
0.39722209 0.81823683 0.04452191
0.53185735 0.81823683 0.04452191
0.67243745 0.81823683 0.04452191
0.81823683 0.81823683 0.04452191
0.91886608 0.81823683 0.04452191
0.00047958 0.91886608 0.04452191
0.04452191 0.91886608 0.04452191
0.15075079 0.91886608 0.04452191
0.26959667 0.91886608 0.04452191
0.39722209 0.91886608 0.04452191
0.53185735 0.91886608 0.04452191
0.67243745 0.91886608 0.04452191
0.81823683 0.91886608 0.04452191
0.91886608 0.91886608 0.04452191
0.00047898 0.00047912 0.15075079
0.04452191 0.00047898 0.15075079
0.15075079 0.00047898 0.15075079
0.26959667 0.00047898 0.15075079
0.39722209 0.00047914 0.15075079
0.53185735 0.00047898 0.15075079
0.67243745 0.00047898 0.15075079
0.81823683 0.00047933 0.15075079
0.91886608 0.00047935 0.15075079
0.00047909 0.04452191 0.15075079
0.04452191 0.04452191 0.15075079
0.15075079 0.04452191 0.15075079
0.26959667 0.04452191 0.15075079
0.39722209 0.04452191 0.15075079
0.53185735 0.04452191 0.15075079
0.67243745 0.04452191 0.15075079
0.81823683 0.04452191 0.15075079
0.91886608 0.04452191 0.15075079
0.00047898 0.15075079 0.15075079
0.04452191 0.15075079 0.15075079
0.15075079 0.15075079 0.15075079
0.26959667 0.15075079 0.15075079
0.39722209 0.15075079 0.15075079
0.53185735 0.15075079 0.15075079
0.67243745 0.15075079 0.15075079
0.81823683 0.15075079 0.15075079
0.91886608 0.15075079 0.15075079
0.00047898 0.26959667 0.15075079
0.04452191 0.26959667 0.15075079
0.15075079 0.26959667 0.15075079
0.26959667 0.26959667 0.15075079
0.39722209 0.26959667 0.15075079
0.53185735 0.26959667 0.15075079
0.67243745 0.26959667 0.15075079
0.81823683 0.26959667 0.15075079
0.91886608 0.26959667 0.15075079
0.00047916 0.39722209 0.15075079
0.04452191 0.39722209 0.15075079
0.15075079 0.39722209 0.15075079
0.26959667 0.39722209 0.15075079
0.39722209 0.39722209 0.15075079
0.53185735 0.39722209 0.15075079
0.67243745 0.39722209 0.15075079
0.81823683 0.39722209 0.15075079
0.91886608 0.39722209 0.15075079
0.00047926 0.53185735 0.15075079
0.04452191 0.53185735 0.15075079
0.15075079 0.53185735 0.15075079
0.26959667 0.53185735 0.15075079
0.39722209 0.53185735 0.15075079
0.53185735 0.53185735 0.15075079
0.67243745 0.53185735 0.15075079
0.81823683 0.53185735 0.15075079
0.91886608 0.53185735 0.15075079
0.00047898 0.67243745 0.15075079
0.04452191 0.67243745 0.15075079
0.15075079 0.67243745 0.15075079
0.26959667 0.67243745 0.15075079
0.39722209 0.67243745 0.15075079
0.53185735 0.67243745 0.15075079
0.67243745 0.67243745 0.15075079
0.81823683 0.67243745 0.15075079
0.91886608 0.67243745 0.15075079
0.00047940 0.81823683 0.15075079
0.04452191 0.81823683 0.15075079
0.15075079 0.81823683 0.15075079
0.26959667 0.81823683 0.15075079
0.39722209 0.81823683 0.15075079
0.53185735 0.81823683 0.15075079
0.67243745 0.81823683 0.15075079
0.81823683 0.81823683 0.15075079
0.91886608 0.81823683 0.15075079
0.00047948 0.91886608 0.15075079
0.04452191 0.91886608 0.15075079
0.15075079 0.91886608 0.15075079
0.26959667 0.91886608 0.15075079
0.39722209 0.91886608 0.15075079
0.53185735 0.91886608 0.15075079
0.67243745 0.91886608 0.15075079
0.81823683 0.91886608 0.15075079
0.91886608 0.91886608 0.15075079
0.00047898 0.00047918 0.26959667
0.04452191 0.00047898 0.26959667
0.15075079 0.00047916 0.26959667
0.26959667 0.00047916 0.26959667
0.39722209 0.00047918 0.26959667
0.53185735 0.00047924 0.26959667
0.67243745 0.00047898 0.26959667
0.81823683 0.00047927 0.26959667
0.91886608 0.00047944 0.26959667
0.00047898 0.04452191 0.26959667
0.04452191 0.04452191 0.26959667
0.15075079 0.04452191 0.26959667
0.26959667 0.04452191 0.26959667
0.39722209 0.04452191 0.26959667
0.53185735 0.04452191 0.26959667
0.67243745 0.04452191 0.26959667
0.81823683 0.04452191 0.26959667
0.91886608 0.04452191 0.26959667
0.00047898 0.15075079 0.26959667
0.04452191 0.15075079 0.26959667
0.15075079 0.15075079 0.26959667
0.26959667 0.15075079 0.26959667
0.39722209 0.15075079 0.26959667
0.53185735 0.15075079 0.26959667
0.67243745 0.15075079 0.26959667
0.81823683 0.15075079 0.26959667
0.91886608 0.15075079 0.26959667
0.00047898 0.26959667 0.26959667
0.04452191 0.26959667 0.26959667
0.15075079 0.26959667 0.26959667
0.26959667 0.26959667 0.26959667
0.39722209 0.26959667 0.26959667
0.53185735 0.26959667 0.26959667
0.67243745 0.26959667 0.26959667
0.81823683 0.26959667 0.26959667
0.91886608 0.26959667 0.26959667
0.00047917 0.39722209 0.26959667
0.04452191 0.39722209 0.26959667
0.15075079 0.39722209 0.26959667
0.26959667 0.39722209 0.26959667
0.39722209 0.39722209 0.26959667
0.53185735 0.39722209 0.26959667
0.67243745 0.39722209 0.26959667
0.81823683 0.39722209 0.26959667
0.91886608 0.39722209 0.26959667
0.00047898 0.53185735 0.26959667
0.04452191 0.53185735 0.26959667
0.15075079 0.53185735 0.26959667
0.26959667 0.53185735 0.26959667
0.39722209 0.53185735 0.26959667
0.53185735 0.53185735 0.26959667
0.67243745 0.53185735 0.26959667
0.81823683 0.53185735 0.26959667
0.91886608 0.53185735 0.26959667
0.00047935 0.67243745 0.26959667
0.04452191 0.67243745 0.26959667
0.15075079 0.67243745 0.26959667
0.26959667 0.67243745 0.26959667
0.39722209 0.67243745 0.26959667
0.53185735 0.67243745 0.26959667
0.67243745 0.67243745 0.26959667
0.81823683 0.67243745 0.26959667
0.91886608 0.67243745 0.26959667
0.00047936 0.81823683 0.26959667
0.04452191 0.81823683 0.26959667
0.15075079 0.81823683 0.26959667
0.26959667 0.81823683 0.26959667
0.39722209 0.81823683 0.26959667
0.53185735 0.81823683 0.26959667
0.67243745 0.81823683 0.26959667
0.81823683 0.81823683 0.26959667
0.91886608 0.81823683 0.26959667
0.00047949 0.91886608 0.26959667
0.04452191 0.91886608 0.26959667
0.15075079 0.91886608 0.26959667
0.26959667 0.91886608 0.26959667
0.39722209 0.91886608 0.26959667
0.53185735 0.91886608 0.26959667
0.67243745 0.91886608 0.26959667
0.81823683 0.91886608 0.26959667
0.91886608 0.91886608 0.26959667
0.00047898 0.00047923 0.39722209
0.04452191 0.00047923 0.39722209
0.15075079 0.00047898 0.39722209
0.26959667 0.00047923 0.39722209
0.39722209 0.00047923 0.39722209
0.53185735 0.00047898 0.39722209
0.67243745 0.00047898 0.39722209
0.81823683 0.00047935 0.39722209
0.91886608 0.00047940 0.39722209
0.00047898 0.04452191 0.39722209
0.04452191 0.04452191 0.39722209
0.15075079 0.04452191 0.39722209
0.26959667 0.04452191 0.39722209
0.39722209 0.04452191 0.39722209
0.53185735 0.04452191 0.39722209
0.67243745 0.04452191 0.39722209
0.81823683 0.04452191 0.39722209
0.91886608 0.04452191 0.39722209
0.00047898 0.15075079 0.39722209
0.04452191 0.15075079 0.39722209
0.15075079 0.15075079 0.39722209
0.26959667 0.15075079 0.39722209
0.39722209 0.15075079 0.39722209
0.53185735 0.15075079 0.39722209
0.67243745 0.15075079 0.39722209
0.81823683 0.15075079 0.39722209
0.91886608 0.15075079 0.39722209
0.00047898 0.26959667 0.39722209
0.04452191 0.26959667 0.39722209
0.15075079 0.26959667 0.39722209
0.26959667 0.26959667 0.39722209
0.39722209 0.26959667 0.39722209
0.53185735 0.26959667 0.39722209
0.67243745 0.26959667 0.39722209
0.81823683 0.26959667 0.39722209
0.91886608 0.26959667 0.39722209
0.00047898 0.39722209 0.39722209
0.04452191 0.39722209 0.39722209
0.15075079 0.39722209 0.39722209
0.26959667 0.39722209 0.39722209
0.39722209 0.39722209 0.39722209
0.53185735 0.39722209 0.39722209
0.67243745 0.39722209 0.39722209
0.81823683 0.39722209 0.39722209
0.91886608 0.39722209 0.39722209
0.00047927 0.53185735 0.39722209
0.04452191 0.53185735 0.39722209
0.15075079 0.53185735 0.39722209
0.26959667 0.53185735 0.39722209
0.39722209 0.53185735 0.39722209
0.53185735 0.53185735 0.39722209
0.67243745 0.53185735 0.39722209
0.81823683 0.53185735 0.39722209
0.91886608 0.53185735 0.39722209
0.00047932 0.67243745 0.39722209
0.04452191 0.67243745 0.39722209
0.15075079 0.67243745 0.39722209
0.26959667 0.67243745 0.39722209
0.39722209 0.67243745 0.39722209
0.53185735 0.67243745 0.39722209
0.67243745 0.67243745 0.39722209
0.81823683 0.67243745 0.39722209
0.91886608 0.67243745 0.39722209
0.00047941 0.81823683 0.39722209
0.04452191 0.81823683 0.39722209
0.15075079 0.81823683 0.39722209
0.26959667 0.81823683 0.39722209
0.39722209 0.81823683 0.39722209
0.53185735 0.81823683 0.39722209
0.67243745 0.81823683 0.39722209
0.81823683 0.81823683 0.39722209
0.91886608 0.81823683 0.39722209
0.00047898 0.91886608 0.39722209
0.04452191 0.91886608 0.39722209
0.15075079 0.91886608 0.39722209
0.26959667 0.91886608 0.39722209
0.39722209 0.91886608 0.39722209
0.53185735 0.91886608 0.39722209
0.67243745 0.91886608 0.39722209
0.81823683 0.91886608 0.39722209
0.91886608 0.91886608 0.39722209
0.00047923 0.00047935 0.53185735
0.04452191 0.00047931 0.53185735
0.15075079 0.00047935 0.53185735
0.26959667 0.00047931 0.53185735
0.39722209 0.00047935 0.53185735
0.53185735 0.00047931 0.53185735
0.67243745 0.00047931 0.53185735
0.81823683 0.00047938 0.53185735
0.91886608 0.00047898 0.53185735
0.00047898 0.04452191 0.53185735
0.04452191 0.04452191 0.53185735
0.15075079 0.04452191 0.53185735
0.26959667 0.04452191 0.53185735
0.39722209 0.04452191 0.53185735
0.53185735 0.04452191 0.53185735
0.67243745 0.04452191 0.53185735
0.81823683 0.04452191 0.53185735
0.91886608 0.04452191 0.53185735
0.00047923 0.15075079 0.53185735
0.04452191 0.15075079 0.53185735
0.15075079 0.15075079 0.53185735
0.26959667 0.15075079 0.53185735
0.39722209 0.15075079 0.53185735
0.53185735 0.15075079 0.53185735
0.67243745 0.15075079 0.53185735
0.81823683 0.15075079 0.53185735
0.91886608 0.15075079 0.53185735
0.00047898 0.26959667 0.53185735
0.04452191 0.26959667 0.53185735
0.15075079 0.26959667 0.53185735
0.26959667 0.26959667 0.53185735
0.39722209 0.26959667 0.53185735
0.53185735 0.26959667 0.53185735
0.67243745 0.26959667 0.53185735
0.81823683 0.26959667 0.53185735
0.91886608 0.26959667 0.53185735
0.00047898 0.39722209 0.53185735
0.04452191 0.39722209 0.53185735
0.15075079 0.39722209 0.53185735
0.26959667 0.39722209 0.53185735
0.39722209 0.39722209 0.53185735
0.53185735 0.39722209 0.53185735
0.67243745 0.39722209 0.53185735
0.81823683 0.39722209 0.53185735
0.91886608 0.39722209 0.53185735
0.00047927 0.53185735 0.53185735
0.04452191 0.53185735 0.53185735
0.15075079 0.53185735 0.53185735
0.26959667 0.53185735 0.53185735
0.39722209 0.53185735 0.53185735
0.53185735 0.53185735 0.53185735
0.67243745 0.53185735 0.53185735
0.81823683 0.53185735 0.53185735
0.91886608 0.53185735 0.53185735
0.00047937 0.67243745 0.53185735
0.04452191 0.67243745 0.53185735
0.15075079 0.67243745 0.53185735
0.26959667 0.67243745 0.53185735
0.39722209 0.67243745 0.53185735
0.53185735 0.67243745 0.53185735
0.67243745 0.67243745 0.53185735
0.81823683 0.67243745 0.53185735
0.91886608 0.67243745 0.53185735
0.00047927 0.81823683 0.53185735
0.04452191 0.81823683 0.53185735
0.15075079 0.81823683 0.53185735
0.26959667 0.81823683 0.53185735
0.39722209 0.81823683 0.53185735
0.53185735 0.81823683 0.53185735
0.67243745 0.81823683 0.53185735
0.81823683 0.81823683 0.53185735
0.91886608 0.81823683 0.53185735
0.00047957 0.91886608 0.53185735
0.04452191 0.91886608 0.53185735
0.15075079 0.91886608 0.53185735
0.26959667 0.91886608 0.53185735
0.39722209 0.91886608 0.53185735
0.53185735 0.91886608 0.53185735
0.67243745 0.91886608 0.53185735
0.81823683 0.91886608 0.53185735
0.91886608 0.91886608 0.53185735
0.00047898 0.00047935 0.67243745
0.04452191 0.00047935 0.67243745
0.15075079 0.00047898 0.67243745
0.26959667 0.00047935 0.67243745
0.39722209 0.00047935 0.67243745
0.53185735 0.00047898 0.67243745
0.67243745 0.00047940 0.67243745
0.81823683 0.00047898 0.67243745
0.91886608 0.00047898 0.67243745
0.00047898 0.04452191 0.67243745
0.04452191 0.04452191 0.67243745
0.15075079 0.04452191 0.67243745
0.26959667 0.04452191 0.67243745
0.39722209 0.04452191 0.67243745
0.53185735 0.04452191 0.67243745
0.67243745 0.04452191 0.67243745
0.81823683 0.04452191 0.67243745
0.91886608 0.04452191 0.67243745
0.00047898 0.15075079 0.67243745
0.04452191 0.15075079 0.67243745
0.15075079 0.15075079 0.67243745
0.26959667 0.15075079 0.67243745
0.39722209 0.15075079 0.67243745
0.53185735 0.15075079 0.67243745
0.67243745 0.15075079 0.67243745
0.81823683 0.15075079 0.67243745
0.91886608 0.15075079 0.67243745
0.00047898 0.26959667 0.67243745
0.04452191 0.26959667 0.67243745
0.15075079 0.26959667 0.67243745
0.26959667 0.26959667 0.67243745
0.39722209 0.26959667 0.67243745
0.53185735 0.26959667 0.67243745
0.67243745 0.26959667 0.67243745
0.81823683 0.26959667 0.67243745
0.91886608 0.26959667 0.67243745
0.00047898 0.39722209 0.67243745
0.04452191 0.39722209 0.67243745
0.15075079 0.39722209 0.67243745
0.26959667 0.39722209 0.67243745
0.39722209 0.39722209 0.67243745
0.53185735 0.39722209 0.67243745
0.67243745 0.39722209 0.67243745
0.81823683 0.39722209 0.67243745
0.91886608 0.39722209 0.67243745
0.00047898 0.53185735 0.67243745
0.04452191 0.53185735 0.67243745
0.15075079 0.53185735 0.67243745
0.26959667 0.53185735 0.67243745
0.39722209 0.53185735 0.67243745
0.53185735 0.53185735 0.67243745
0.67243745 0.53185735 0.67243745
0.81823683 0.53185735 0.67243745
0.91886608 0.53185735 0.67243745
0.00047898 0.67243745 0.67243745
0.04452191 0.67243745 0.67243745
0.15075079 0.67243745 0.67243745
0.26959667 0.67243745 0.67243745
0.39722209 0.67243745 0.67243745
0.53185735 0.67243745 0.67243745
0.67243745 0.67243745 0.67243745
0.81823683 0.67243745 0.67243745
0.91886608 0.67243745 0.67243745
0.00047935 0.81823683 0.67243745
0.04452191 0.81823683 0.67243745
0.15075079 0.81823683 0.67243745
0.26959667 0.81823683 0.67243745
0.39722209 0.81823683 0.67243745
0.53185735 0.81823683 0.67243745
0.67243745 0.81823683 0.67243745
0.81823683 0.81823683 0.67243745
0.91886608 0.81823683 0.67243745
0.00047950 0.91886608 0.67243745
0.04452191 0.91886608 0.67243745
0.15075079 0.91886608 0.67243745
0.26959667 0.91886608 0.67243745
0.39722209 0.91886608 0.67243745
0.53185735 0.91886608 0.67243745
0.67243745 0.91886608 0.67243745
0.81823683 0.91886608 0.67243745
0.91886608 0.91886608 0.67243745
0.00047898 0.00047958 0.81823683
0.04452191 0.00047953 0.81823683
0.15075079 0.00047953 0.81823683
0.26959667 0.00047953 0.81823683
0.39722209 0.00047898 0.81823683
0.53185735 0.00047946 0.81823683
0.67243745 0.00047953 0.81823683
0.81823683 0.00047958 0.81823683
0.91886608 0.00047967 0.81823683
0.00047940 0.04452191 0.81823683
0.04452191 0.04452191 0.81823683
0.15075079 0.04452191 0.81823683
0.26959667 0.04452191 0.81823683
0.39722209 0.04452191 0.81823683
0.53185735 0.04452191 0.81823683
0.67243745 0.04452191 0.81823683
0.81823683 0.04452191 0.81823683
0.91886608 0.04452191 0.81823683
0.00047898 0.15075079 0.81823683
0.04452191 0.15075079 0.81823683
0.15075079 0.15075079 0.81823683
0.26959667 0.15075079 0.81823683
0.39722209 0.15075079 0.81823683
0.53185735 0.15075079 0.81823683
0.67243745 0.15075079 0.81823683
0.81823683 0.15075079 0.81823683
0.91886608 0.15075079 0.81823683
0.00047898 0.26959667 0.81823683
0.04452191 0.26959667 0.81823683
0.15075079 0.26959667 0.81823683
0.26959667 0.26959667 0.81823683
0.39722209 0.26959667 0.81823683
0.53185735 0.26959667 0.81823683
0.67243745 0.26959667 0.81823683
0.81823683 0.26959667 0.81823683
0.91886608 0.26959667 0.81823683
0.00047898 0.39722209 0.81823683
0.04452191 0.39722209 0.81823683
0.15075079 0.39722209 0.81823683
0.26959667 0.39722209 0.81823683
0.39722209 0.39722209 0.81823683
0.53185735 0.39722209 0.81823683
0.67243745 0.39722209 0.81823683
0.81823683 0.39722209 0.81823683
0.91886608 0.39722209 0.81823683
0.00047898 0.53185735 0.81823683
0.04452191 0.53185735 0.81823683
0.15075079 0.53185735 0.81823683
0.26959667 0.53185735 0.81823683
0.39722209 0.53185735 0.81823683
0.53185735 0.53185735 0.81823683
0.67243745 0.53185735 0.81823683
0.81823683 0.53185735 0.81823683
0.91886608 0.53185735 0.81823683
0.00047898 0.67243745 0.81823683
0.04452191 0.67243745 0.81823683
0.15075079 0.67243745 0.81823683
0.26959667 0.67243745 0.81823683
0.39722209 0.67243745 0.81823683
0.53185735 0.67243745 0.81823683
0.67243745 0.67243745 0.81823683
0.81823683 0.67243745 0.81823683
0.91886608 0.67243745 0.81823683
0.00047898 0.81823683 0.81823683
0.04452191 0.81823683 0.81823683
0.15075079 0.81823683 0.81823683
0.26959667 0.81823683 0.81823683
0.39722209 0.81823683 0.81823683
0.53185735 0.81823683 0.81823683
0.67243745 0.81823683 0.81823683
0.81823683 0.81823683 0.81823683
0.91886608 0.81823683 0.81823683
0.00047958 0.91886608 0.81823683
0.04452191 0.91886608 0.81823683
0.15075079 0.91886608 0.81823683
0.26959667 0.91886608 0.81823683
0.39722209 0.91886608 0.81823683
0.53185735 0.91886608 0.81823683
0.67243745 0.91886608 0.81823683
0.81823683 0.91886608 0.81823683
0.91886608 0.91886608 0.81823683
0.00047953 0.00047971 0.91886608
0.04452191 0.00047961 0.91886608
0.15075079 0.00047971 0.91886608
0.26959667 0.00047961 0.91886608
0.39722209 0.00047978 0.91886608
0.53185735 0.00047961 0.91886608
0.67243745 0.00047961 0.91886608
0.81823683 0.00047961 0.91886608
0.91886608 0.00047971 0.91886608
0.00047898 0.04452191 0.91886608
0.04452191 0.04452191 0.91886608
0.15075079 0.04452191 0.91886608
0.26959667 0.04452191 0.91886608
0.39722209 0.04452191 0.91886608
0.53185735 0.04452191 0.91886608
0.67243745 0.04452191 0.91886608
0.81823683 0.04452191 0.91886608
0.91886608 0.04452191 0.91886608
0.00047898 0.15075079 0.91886608
0.04452191 0.15075079 0.91886608
0.15075079 0.15075079 0.91886608
0.26959667 0.15075079 0.91886608
0.39722209 0.15075079 0.91886608
0.53185735 0.15075079 0.91886608
0.67243745 0.15075079 0.91886608
0.81823683 0.15075079 0.91886608
0.91886608 0.15075079 0.91886608
0.00047898 0.26959667 0.91886608
0.04452191 0.26959667 0.91886608
0.15075079 0.26959667 0.91886608
0.26959667 0.26959667 0.91886608
0.39722209 0.26959667 0.91886608
0.53185735 0.26959667 0.91886608
0.67243745 0.26959667 0.91886608
0.81823683 0.26959667 0.91886608
0.91886608 0.26959667 0.91886608
0.00047898 0.39722209 0.91886608
0.04452191 0.39722209 0.91886608
0.15075079 0.39722209 0.91886608
0.26959667 0.39722209 0.91886608
0.39722209 0.39722209 0.91886608
0.53185735 0.39722209 0.91886608
0.67243745 0.39722209 0.91886608
0.81823683 0.39722209 0.91886608
0.91886608 0.39722209 0.91886608
0.00047898 0.53185735 0.91886608
0.04452191 0.53185735 0.91886608
0.15075079 0.53185735 0.91886608
0.26959667 0.53185735 0.91886608
0.39722209 0.53185735 0.91886608
0.53185735 0.53185735 0.91886608
0.67243745 0.53185735 0.91886608
0.81823683 0.53185735 0.91886608
0.91886608 0.53185735 0.91886608
0.00047898 0.67243745 0.91886608
0.04452191 0.67243745 0.91886608
0.15075079 0.67243745 0.91886608
0.26959667 0.67243745 0.91886608
0.39722209 0.67243745 0.91886608
0.53185735 0.67243745 0.91886608
0.67243745 0.67243745 0.91886608
0.81823683 0.67243745 0.91886608
0.91886608 0.67243745 0.91886608
0.00047953 0.81823683 0.91886608
0.04452191 0.81823683 0.91886608
0.15075079 0.81823683 0.91886608
0.26959667 0.81823683 0.91886608
0.39722209 0.81823683 0.91886608
0.53185735 0.81823683 0.91886608
0.67243745 0.81823683 0.91886608
0.81823683 0.81823683 0.91886608
0.91886608 0.81823683 0.91886608
0.00047953 0.91886608 0.91886608
0.04452191 0.91886608 0.91886608
0.15075079 0.91886608 0.91886608
0.26959667 0.91886608 0.91886608
0.39722209 0.91886608 0.91886608
0.53185735 0.91886608 0.91886608
0.67243745 0.91886608 0.91886608
0.81823683 0.91886608 0.91886608
0.91886608 0.91886608 0.91886608
