src/ffmpeg_scripts/luts/luminance-unclipped_3p00.cube
TITLE "luminance-unclipped_3p00"
LUT_3D_SIZE 33
# PQ (EOTF Only)/Rec2020 -> PQ (EOTF Only)/Rec2020, CineEI Shift 3.00, Black Level -7.25% IRE, Input 109% -> Output 109% - Created with LUTCalc v4.01 by Ben Turley October 2020
0.00047898 0.00047898 0.00047898
0.00047898 0.00047898 0.00047898
0.00047898 0.00047898 0.00047898
0.08859366 0.00047905 0.00047898
0.15720037 0.00047906 0.00047898
0.21829360 0.00047898 0.00047898
0.27468970 0.00047913 0.00047912
0.32770488 0.00047910 0.00047898
0.37810069 0.00047898 0.00047898
0.42637178 0.00047898 0.00047916
0.47286409 0.00047898 0.00047898
0.51783240 0.00047922 0.00047898
0.56147170 0.00047898 0.00047898
0.60393570 0.00047922 0.00047923
0.64534848 0.00047898 0.00047898
0.68581213 0.00047898 0.00047898
0.72541203 0.00047934 0.00047898
0.76422055 0.00047898 0.00047898
0.80229976 0.00047937 0.00047898
0.83970340 0.00047898 0.00047898
0.87647847 0.00047937 0.00047898
0.91266635 0.00047935 0.00047898
0.91886608 0.00047952 0.00047946
0.91886608 0.00047898 0.00047898
0.91886608 0.00047948 0.00047898
0.91886608 0.00047898 0.00047898
0.91886608 0.00047898 0.00047898
0.91886608 0.00047953 0.00047898
0.91886608 0.00047898 0.00047898
0.91886608 0.00047975 0.00047898
0.91886608 0.00047898 0.00047898
0.91886608 0.00047978 0.00047898
0.91886608 0.00047999 0.00047997
0.00047898 0.00047898 0.00047898
0.00047898 0.00047898 0.00047898
0.00047898 0.00047898 0.00047898
0.08859366 0.00047905 0.00047898
0.15720037 0.00047906 0.00047898
0.21829360 0.00047898 0.00047898
0.27468970 0.00047913 0.00047912
0.32770488 0.00047910 0.00047898
0.37810069 0.00047898 0.00047898
0.42637178 0.00047898 0.00047916
0.47286409 0.00047898 0.00047898
0.51783240 0.00047922 0.00047898
0.56147170 0.00047898 0.00047898
0.60393570 0.00047922 0.00047923
0.64534848 0.00047898 0.00047898
0.68581213 0.00047898 0.00047898
0.72541203 0.00047934 0.00047898
0.76422055 0.00047898 0.00047898
0.80229976 0.00047937 0.00047898
0.83970340 0.00047898 0.00047898
0.87647847 0.00047937 0.00047898
0.91266635 0.00047935 0.00047898
0.91886608 0.00047952 0.00047946
0.91886608 0.00047898 0.00047898
0.91886608 0.00047948 0.00047898
0.91886608 0.00047898 0.00047898
0.91886608 0.00047898 0.00047898
0.91886608 0.00047953 0.00047898
0.91886608 0.00047898 0.00047898
0.91886608 0.00047975 0.00047898
0.91886608 0.00047898 0.00047898
0.91886608 0.00047978 0.00047898
0.91886608 0.00047999 0.00047997
0.00047898 0.00047898 0.00047898
0.00047898 0.00047898 0.00047898
0.00047898 0.00047898 0.00047898
0.08859366 0.00047905 0.00047898
0.15720037 0.00047906 0.00047898
0.21829360 0.00047898 0.00047898
0.27468970 0.00047913 0.00047912
0.32770488 0.00047910 0.00047898
0.37810069 0.00047898 0.00047898
0.42637178 0.00047898 0.00047916
0.47286409 0.00047898 0.00047898
0.51783240 0.00047922 0.00047898
0.56147170 0.00047898 0.00047898
0.60393570 0.00047922 0.00047923
0.64534848 0.00047898 0.00047898
0.68581213 0.00047898 0.00047898
0.72541203 0.00047934 0.00047898
0.76422055 0.00047898 0.00047898
0.80229976 0.00047937 0.00047898
0.83970340 0.00047898 0.00047898
0.87647847 0.00047937 0.00047898
0.91266635 0.00047935 0.00047898
0.91886608 0.00047952 0.00047946
0.91886608 0.00047898 0.00047898
0.91886608 0.00047948 0.00047898
0.91886608 0.00047898 0.00047898
0.91886608 0.00047898 0.00047898
0.91886608 0.00047953 0.00047898
0.91886608 0.00047898 0.00047898
0.91886608 0.00047975 0.00047898
0.91886608 0.00047898 0.00047898
0.91886608 0.00047978 0.00047898
0.91886608 0.00047999 0.00047997
0.00047907 0.08859366 0.00047898
0.00047907 0.08859366 0.00047898
0.00047907 0.08859366 0.00047898
0.08859366 0.08859366 0.00047898
0.15720037 0.08859366 0.00047898
0.21829360 0.08859366 0.00047898
0.27468970 0.08859366 0.00047898
0.32770488 0.08859366 0.00047898
0.37810069 0.08859366 0.00047898
0.42637178 0.08859366 0.00047898
0.47286409 0.08859366 0.00047898
0.51783240 0.08859366 0.00047898
0.56147170 0.08859366 0.00047898
0.60393570 0.08859366 0.00047898
0.64534848 0.08859366 0.00047898
0.68581213 0.08859366 0.00047898
0.72541203 0.08859366 0.00047931
0.76422055 0.08859366 0.00047898
0.80229976 0.08859366 0.00047898
0.83970340 0.08859366 0.00047898
0.87647847 0.08859366 0.00047898
0.91266635 0.08859366 0.00047898
0.91886608 0.08859366 0.00047898
0.91886608 0.08859366 0.00047946
0.91886608 0.08859366 0.00047898
0.91886608 0.08859366 0.00047898
0.91886608 0.08859366 0.00047898
0.91886608 0.08859366 0.00047898
0.91886608 0.08859366 0.00047971
0.91886608 0.08859366 0.00047898
0.91886608 0.08859366 0.00047983
0.91886608 0.08859366 0.00047983
0.91886608 0.08859366 0.00047898
0.00047910 0.15720037 0.00047898
0.00047910 0.15720037 0.00047898
0.00047910 0.15720037 0.00047898
0.08859366 0.15720037 0.00047898
0.15720037 0.15720037 0.00047898
0.21829360 0.15720037 0.00047898
0.27468970 0.15720037 0.00047912
0.32770488 0.15720037 0.00047914
0.37810069 0.15720037 0.00047898
0.42637178 0.15720037 0.00047898
0.47286409 0.15720037 0.00047898
0.51783240 0.15720037 0.00047920
0.56147170 0.15720037 0.00047898
0.60393570 0.15720037 0.00047898
0.64534848 0.15720037 0.00047898
0.68581213 0.15720037 0.00047898
0.72541203 0.15720037 0.00047898
0.76422055 0.15720037 0.00047898
0.80229976 0.15720037 0.00047898
0.83970340 0.15720037 0.00047898
0.87647847 0.15720037 0.00047898
0.91266635 0.15720037 0.00047898
0.91886608 0.15720037 0.00047898
0.91886608 0.15720037 0.00047946
0.91886608 0.15720037 0.00047898
0.91886608 0.15720037 0.00047898
0.91886608 0.15720037 0.00047961
0.91886608 0.15720037 0.00047898
0.91886608 0.15720037 0.00047971
0.91886608 0.15720037 0.00047898
0.91886608 0.15720037 0.00047898
0.91886608 0.15720037 0.00047898
0.91886608 0.15720037 0.00047898
0.00047911 0.21829360 0.00047898
0.00047911 0.21829360 0.00047898
0.00047911 0.21829360 0.00047898
0.08859366 0.21829360 0.00047898
0.15720037 0.21829360 0.00047898
0.21829360 0.21829360 0.00047898
0.27468970 0.21829360 0.00047912
0.32770488 0.21829360 0.00047898
0.37810069 0.21829360 0.00047898
0.42637178 0.21829360 0.00047898
0.47286409 0.21829360 0.00047898
0.51783240 0.21829360 0.00047898
0.56147170 0.21829360 0.00047898
0.60393570 0.21829360 0.00047898
0.64534848 0.21829360 0.00047898
0.68581213 0.21829360 0.00047898
0.72541203 0.21829360 0.00047898
0.76422055 0.21829360 0.00047898
0.80229976 0.21829360 0.00047898
0.83970340 0.21829360 0.00047898
0.87647847 0.21829360 0.00047898
0.91266635 0.21829360 0.00047898
0.91886608 0.21829360 0.00047898
0.91886608 0.21829360 0.00047898
0.91886608 0.21829360 0.00047898
0.91886608 0.21829360 0.00047898
0.91886608 0.21829360 0.00047898
0.91886608 0.21829360 0.00047898
0.91886608 0.21829360 0.00047898
0.91886608 0.21829360 0.00047898
0.91886608 0.21829360 0.00047898
0.91886608 0.21829360 0.00047898
0.91886608 0.21829360 0.00047898
0.00047912 0.27468970 0.00047898
0.00047912 0.27468970 0.00047898
0.00047912 0.27468970 0.00047898
0.08859366 0.27468970 0.00047898
0.15720037 0.27468970 0.00047898
0.21829360 0.27468970 0.00047898
0.27468970 0.27468970 0.00047898
0.32770488 0.27468970 0.00047898
0.37810069 0.27468970 0.00047898
0.42637178 0.27468970 0.00047898
0.47286409 0.27468970 0.00047918
0.51783240 0.27468970 0.00047898
0.56147170 0.27468970 0.00047898
0.60393570 0.27468970 0.00047923
0.64534848 0.27468970 0.00047898
0.68581213 0.27468970 0.00047898
0.72541203 0.27468970 0.00047898
0.76422055 0.27468970 0.00047898
0.80229976 0.27468970 0.00047898
0.83970340 0.27468970 0.00047898
0.87647847 0.27468970 0.00047898
0.91266635 0.27468970 0.00047898
0.91886608 0.27468970 0.00047946
0.91886608 0.27468970 0.00047898
0.91886608 0.27468970 0.00047898
0.91886608 0.27468970 0.00047898
0.91886608 0.27468970 0.00047898
0.91886608 0.27468970 0.00047961
0.91886608 0.27468970 0.00047971
0.91886608 0.27468970 0.00047898
0.91886608 0.27468970 0.00047898
0.91886608 0.27468970 0.00047898
0.91886608 0.27468970 0.00047898
0.00047916 0.32770488 0.00047914
0.00047916 0.32770488 0.00047914
0.00047916 0.32770488 0.00047914
0.08859366 0.32770488 0.00047898
0.15720037 0.32770488 0.00047898
0.21829360 0.32770488 0.00047914
0.27468970 0.32770488 0.00047898
0.32770488 0.32770488 0.00047898
0.37810069 0.32770488 0.00047898
0.42637178 0.32770488 0.00047898
0.47286409 0.32770488 0.00047920
0.51783240 0.32770488 0.00047898
0.56147170 0.32770488 0.00047898
0.60393570 0.32770488 0.00047898
0.64534848 0.32770488 0.00047927
0.68581213 0.32770488 0.00047898
0.72541203 0.32770488 0.00047931
0.76422055 0.32770488 0.00047898
0.80229976 0.32770488 0.00047898
0.83970340 0.32770488 0.00047898
0.87647847 0.32770488 0.00047898
0.91266635 0.32770488 0.00047898
0.91886608 0.32770488 0.00047946
0.91886608 0.32770488 0.00047946
0.91886608 0.32770488 0.00047898
0.91886608 0.32770488 0.00047898
0.91886608 0.32770488 0.00047898
0.91886608 0.32770488 0.00047898
0.91886608 0.32770488 0.00047898
0.91886608 0.32770488 0.00047898
0.91886608 0.32770488 0.00047898
0.91886608 0.32770488 0.00047898
0.91886608 0.32770488 0.00047997
0.00047898 0.37810069 0.00047898
0.00047898 0.37810069 0.00047898
0.00047898 0.37810069 0.00047898
0.08859366 0.37810069 0.00047898
0.15720037 0.37810069 0.00047898
0.21829360 0.37810069 0.00047898
0.27468970 0.37810069 0.00047898
0.32770488 0.37810069 0.00047898
0.37810069 0.37810069 0.00047898
0.42637178 0.37810069 0.00047898
0.47286409 0.37810069 0.00047898
0.51783240 0.37810069 0.00047898
0.56147170 0.37810069 0.00047898
0.60393570 0.37810069 0.00047923
0.64534848 0.37810069 0.00047898
0.68581213 0.37810069 0.00047898
0.72541203 0.37810069 0.00047898
0.76422055 0.37810069 0.00047898
0.80229976 0.37810069 0.00047898
0.83970340 0.37810069 0.00047898
0.87647847 0.37810069 0.00047898
0.91266635 0.37810069 0.00047898
0.91886608 0.37810069 0.00047898
0.91886608 0.37810069 0.00047898
0.91886608 0.37810069 0.00047898
0.91886608 0.37810069 0.00047898
0.91886608 0.37810069 0.00047961
0.91886608 0.37810069 0.00047898
0.91886608 0.37810069 0.00047898
0.91886608 0.37810069 0.00047898
0.91886608 0.37810069 0.00047898
0.91886608 0.37810069 0.00047898
0.91886608 0.37810069 0.00047898
0.00047922 0.42637178 0.00047898
0.00047922 0.42637178 0.00047898
0.00047922 0.42637178 0.00047898
0.08859366 0.42637178 0.00047898
0.15720037 0.42637178 0.00047898
0.21829360 0.42637178 0.00047918
0.27468970 0.42637178 0.00047898
0.32770488 0.42637178 0.00047898
0.37810069 0.42637178 0.00047918
0.42637178 0.42637178 0.00047920
0.47286409 0.42637178 0.00047898
0.51783240 0.42637178 0.00047920
0.56147170 0.42637178 0.00047898
0.60393570 0.42637178 0.00047927
0.64534848 0.42637178 0.00047898
0.68581213 0.42637178 0.00047898
0.72541203 0.42637178 0.00047931
0.76422055 0.42637178 0.00047898
0.80229976 0.42637178 0.00047935
0.83970340 0.42637178 0.00047898
0.87647847 0.42637178 0.00047898
0.91266635 0.42637178 0.00047898
0.91886608 0.42637178 0.00047898
0.91886608 0.42637178 0.00047898
0.91886608 0.42637178 0.00047953
0.91886608 0.42637178 0.00047898
0.91886608 0.42637178 0.00047898
0.91886608 0.42637178 0.00047898
0.91886608 0.42637178 0.00047898
0.91886608 0.42637178 0.00047898
0.91886608 0.42637178 0.00047983
0.91886608 0.42637178 0.00047898
0.91886608 0.42637178 0.00047898
0.00047927 0.47286409 0.00047898
0.00047927 0.47286409 0.00047898
0.00047927 0.47286409 0.00047898
0.08859366 0.47286409 0.00047898
0.15720037 0.47286409 0.00047898
0.21829360 0.47286409 0.00047898
0.27468970 0.47286409 0.00047898
0.32770488 0.47286409 0.00047898
0.37810069 0.47286409 0.00047898
0.42637178 0.47286409 0.00047898
0.47286409 0.47286409 0.00047898
0.51783240 0.47286409 0.00047898
0.56147170 0.47286409 0.00047898
0.60393570 0.47286409 0.00047898
0.64534848 0.47286409 0.00047898
0.68581213 0.47286409 0.00047927
0.72541203 0.47286409 0.00047931
0.76422055 0.47286409 0.00047931
0.80229976 0.47286409 0.00047898
0.83970340 0.47286409 0.00047898
0.87647847 0.47286409 0.00047898
0.91266635 0.47286409 0.00047898
0.91886608 0.47286409 0.00047898
0.91886608 0.47286409 0.00047946
0.91886608 0.47286409 0.00047898
0.91886608 0.47286409 0.00047898
0.91886608 0.47286409 0.00047898
0.91886608 0.47286409 0.00047898
0.91886608 0.47286409 0.00047971
0.91886608 0.47286409 0.00047898
0.91886608 0.47286409 0.00047983
0.91886608 0.47286409 0.00047898
0.91886608 0.47286409 0.00047898
0.00047921 0.51783240 0.00047898
0.00047921 0.51783240 0.00047898
0.00047921 0.51783240 0.00047898
0.08859366 0.51783240 0.00047898
0.15720037 0.51783240 0.00047898
0.21829360 0.51783240 0.00047898
0.27468970 0.51783240 0.00047920
0.32770488 0.51783240 0.00047898
0.37810069 0.51783240 0.00047920
0.42637178 0.51783240 0.00047898
0.47286409 0.51783240 0.00047898
0.51783240 0.51783240 0.00047898
0.56147170 0.51783240 0.00047898
0.60393570 0.51783240 0.00047898
0.64534848 0.51783240 0.00047898
0.68581213 0.51783240 0.00047931
0.72541203 0.51783240 0.00047898
0.76422055 0.51783240 0.00047898
0.80229976 0.51783240 0.00047898
0.83970340 0.51783240 0.00047898
0.87647847 0.51783240 0.00047898
0.91266635 0.51783240 0.00047898
0.91886608 0.51783240 0.00047946
0.91886608 0.51783240 0.00047946
0.91886608 0.51783240 0.00047898
0.91886608 0.51783240 0.00047953
0.91886608 0.51783240 0.00047898
0.91886608 0.51783240 0.00047898
0.91886608 0.51783240 0.00047971
0.91886608 0.51783240 0.00047898
0.91886608 0.51783240 0.00047898
0.91886608 0.51783240 0.00047898
0.91886608 0.51783240 0.00047898
0.00047926 0.56147170 0.00047923
0.00047926 0.56147170 0.00047923
0.00047926 0.56147170 0.00047923
0.08859366 0.56147170 0.00047923
0.15720037 0.56147170 0.00047898
0.21829360 0.56147170 0.00047923
0.27468970 0.56147170 0.00047923
0.32770488 0.56147170 0.00047923
0.37810069 0.56147170 0.00047898
0.42637178 0.56147170 0.00047923
0.47286409 0.56147170 0.00047898
0.51783240 0.56147170 0.00047898
0.56147170 0.56147170 0.00047927
0.60393570 0.56147170 0.00047898
0.64534848 0.56147170 0.00047898
0.68581213 0.56147170 0.00047898
0.72541203 0.56147170 0.00047898
0.76422055 0.56147170 0.00047898
0.80229976 0.56147170 0.00047898
0.83970340 0.56147170 0.00047898
0.87647847 0.56147170 0.00047898
0.91266635 0.56147170 0.00047898
0.91886608 0.56147170 0.00047898
0.91886608 0.56147170 0.00047898
0.91886608 0.56147170 0.00047898
0.91886608 0.56147170 0.00047898
0.91886608 0.56147170 0.00047961
0.91886608 0.56147170 0.00047961
0.91886608 0.56147170 0.00047971
0.91886608 0.56147170 0.00047898
0.91886608 0.56147170 0.00047898
0.91886608 0.56147170 0.00047898
0.91886608 0.56147170 0.00047898
0.00047929 0.60393570 0.00047898
0.00047929 0.60393570 0.00047898
0.00047929 0.60393570 0.00047898
0.08859366 0.60393570 0.00047923
0.15720037 0.60393570 0.00047898
0.21829360 0.60393570 0.00047898
0.27468970 0.60393570 0.00047923
0.32770488 0.60393570 0.00047898
0.37810069 0.60393570 0.00047898
0.42637178 0.60393570 0.00047927
0.47286409 0.60393570 0.00047898
0.51783240 0.60393570 0.00047927
0.56147170 0.60393570 0.00047898
0.60393570 0.60393570 0.00047927
0.64534848 0.60393570 0.00047898
0.68581213 0.60393570 0.00047898
0.72541203 0.60393570 0.00047898
0.76422055 0.60393570 0.00047898
0.80229976 0.60393570 0.00047898
0.83970340 0.60393570 0.00047935
0.87647847 0.60393570 0.00047898
0.91266635 0.60393570 0.00047898
0.91886608 0.60393570 0.00047898
0.91886608 0.60393570 0.00047946
0.91886608 0.60393570 0.00047898
0.91886608 0.60393570 0.00047953
0.91886608 0.60393570 0.00047898
0.91886608 0.60393570 0.00047898
0.91886608 0.60393570 0.00047898
0.91886608 0.60393570 0.00047898
0.91886608 0.60393570 0.00047983
0.91886608 0.60393570 0.00047898
0.91886608 0.60393570 0.00047997
0.00047929 0.64534848 0.00047898
0.00047929 0.64534848 0.00047898
0.00047929 0.64534848 0.00047898
0.08859366 0.64534848 0.00047898
0.15720037 0.64534848 0.00047898
0.21829360 0.64534848 0.00047898
0.27468970 0.64534848 0.00047898
0.32770488 0.64534848 0.00047898
0.37810069 0.64534848 0.00047898
0.42637178 0.64534848 0.00047898
0.47286409 0.64534848 0.00047898
0.51783240 0.64534848 0.00047898
0.56147170 0.64534848 0.00047898
0.60393570 0.64534848 0.00047898
0.64534848 0.64534848 0.00047898
0.68581213 0.64534848 0.00047898
0.72541203 0.64534848 0.00047898
0.76422055 0.64534848 0.00047935
0.80229976 0.64534848 0.00047898
0.83970340 0.64534848 0.00047898
0.87647847 0.64534848 0.00047898
0.91266635 0.64534848 0.00047898
0.91886608 0.64534848 0.00047898
0.91886608 0.64534848 0.00047898
0.91886608 0.64534848 0.00047898
0.91886608 0.64534848 0.00047898
0.91886608 0.64534848 0.00047898
0.91886608 0.64534848 0.00047898
0.91886608 0.64534848 0.00047898
0.91886608 0.64534848 0.00047898
0.91886608 0.64534848 0.00047898
0.91886608 0.64534848 0.00047898
0.91886608 0.64534848 0.00047997
0.00047936 0.68581213 0.00047898
0.00047936 0.68581213 0.00047898
0.00047936 0.68581213 0.00047898
0.08859366 0.68581213 0.00047898
0.15720037 0.68581213 0.00047898
0.21829360 0.68581213 0.00047898
0.27468970 0.68581213 0.00047898
0.32770488 0.68581213 0.00047898
0.37810069 0.68581213 0.00047898
0.42637178 0.68581213 0.00047898
0.47286409 0.68581213 0.00047898
0.51783240 0.68581213 0.00047898
0.56147170 0.68581213 0.00047898
0.60393570 0.68581213 0.00047898
0.64534848 0.68581213 0.00047898
0.68581213 0.68581213 0.00047931
0.72541203 0.68581213 0.00047898
0.76422055 0.68581213 0.00047898
0.80229976 0.68581213 0.00047898
0.83970340 0.68581213 0.00047898
0.87647847 0.68581213 0.00047898
0.91266635 0.68581213 0.00047898
0.91886608 0.68581213 0.00047898
0.91886608 0.68581213 0.00047898
0.91886608 0.68581213 0.00047898
0.91886608 0.68581213 0.00047898
0.91886608 0.68581213 0.00047898
0.91886608 0.68581213 0.00047898
0.91886608 0.68581213 0.00047898
0.91886608 0.68581213 0.00047898
0.91886608 0.68581213 0.00047898
0.91886608 0.68581213 0.00047898
0.91886608 0.68581213 0.00047898
0.00047898 0.72541203 0.00047898
0.00047898 0.72541203 0.00047898
0.00047898 0.72541203 0.00047898
0.08859366 0.72541203 0.00047898
0.15720037 0.72541203 0.00047898
0.21829360 0.72541203 0.00047898
0.27468970 0.72541203 0.00047898
0.32770488 0.72541203 0.00047898
0.37810069 0.72541203 0.00047898
0.42637178 0.72541203 0.00047898
0.47286409 0.72541203 0.00047898
0.51783240 0.72541203 0.00047898
0.56147170 0.72541203 0.00047898
0.60393570 0.72541203 0.00047898
0.64534848 0.72541203 0.00047898
0.68581213 0.72541203 0.00047898
0.72541203 0.72541203 0.00047898
0.76422055 0.72541203 0.00047935
0.80229976 0.72541203 0.00047898
0.83970340 0.72541203 0.00047898
0.87647847 0.72541203 0.00047898
0.91266635 0.72541203 0.00047898
0.91886608 0.72541203 0.00047946
0.91886608 0.72541203 0.00047946
0.91886608 0.72541203 0.00047898
0.91886608 0.72541203 0.00047953
0.91886608 0.72541203 0.00047898
0.91886608 0.72541203 0.00047898
0.91886608 0.72541203 0.00047898
0.91886608 0.72541203 0.00047898
0.91886608 0.72541203 0.00047983
0.91886608 0.72541203 0.00047898
0.91886608 0.72541203 0.00047898
0.00047941 0.76422055 0.00047935
0.00047941 0.76422055 0.00047935
0.00047941 0.76422055 0.00047935
0.08859366 0.76422055 0.00047935
0.15720037 0.76422055 0.00047935
0.21829360 0.76422055 0.00047898
0.27468970 0.76422055 0.00047898
0.32770488 0.76422055 0.00047898
0.37810069 0.76422055 0.00047898
0.42637178 0.76422055 0.00047898
0.47286409 0.76422055 0.00047898
0.51783240 0.76422055 0.00047935
0.56147170 0.76422055 0.00047898
0.60393570 0.76422055 0.00047935
0.64534848 0.76422055 0.00047898
0.68581213 0.76422055 0.00047898
0.72541203 0.76422055 0.00047898
0.76422055 0.76422055 0.00047935
0.80229976 0.76422055 0.00047940
0.83970340 0.76422055 0.00047898
0.87647847 0.76422055 0.00047898
0.91266635 0.76422055 0.00047898
0.91886608 0.76422055 0.00047898
0.91886608 0.76422055 0.00047946
0.91886608 0.76422055 0.00047898
0.91886608 0.76422055 0.00047898
0.91886608 0.76422055 0.00047898
0.91886608 0.76422055 0.00047898
0.91886608 0.76422055 0.00047971
0.91886608 0.76422055 0.00047898
0.91886608 0.76422055 0.00047898
0.91886608 0.76422055 0.00047898
0.91886608 0.76422055 0.00047997
0.00047944 0.80229976 0.00047898
0.00047944 0.80229976 0.00047898
0.00047944 0.80229976 0.00047898
0.08859366 0.80229976 0.00047898
0.15720037 0.80229976 0.00047898
0.21829360 0.80229976 0.00047898
0.27468970 0.80229976 0.00047898
0.32770488 0.80229976 0.00047898
0.37810069 0.80229976 0.00047898
0.42637178 0.80229976 0.00047898
0.47286409 0.80229976 0.00047898
0.51783240 0.80229976 0.00047898
0.56147170 0.80229976 0.00047898
0.60393570 0.80229976 0.00047898
0.64534848 0.80229976 0.00047935
0.68581213 0.80229976 0.00047898
0.72541203 0.80229976 0.00047898
0.76422055 0.80229976 0.00047898
0.80229976 0.80229976 0.00047898
0.83970340 0.80229976 0.00047898
0.87647847 0.80229976 0.00047898
0.91266635 0.80229976 0.00047898
0.91886608 0.80229976 0.00047898
0.91886608 0.80229976 0.00047898
0.91886608 0.80229976 0.00047898
0.91886608 0.80229976 0.00047961
0.91886608 0.80229976 0.00047898
0.91886608 0.80229976 0.00047898
0.91886608 0.80229976 0.00047971
0.91886608 0.80229976 0.00047898
0.91886608 0.80229976 0.00047898
0.91886608 0.80229976 0.00047898
0.91886608 0.80229976 0.00047898
0.00047937 0.83970340 0.00047898
0.00047937 0.83970340 0.00047898
0.00047937 0.83970340 0.00047898
0.08859366 0.83970340 0.00047898
0.15720037 0.83970340 0.00047898
0.21829360 0.83970340 0.00047898
0.27468970 0.83970340 0.00047898
0.32770488 0.83970340 0.00047898
0.37810069 0.83970340 0.00047898
0.42637178 0.83970340 0.00047898
0.47286409 0.83970340 0.00047898
0.51783240 0.83970340 0.00047898
0.56147170 0.83970340 0.00047898
0.60393570 0.83970340 0.00047898
0.64534848 0.83970340 0.00047898
0.68581213 0.83970340 0.00047898
0.72541203 0.83970340 0.00047898
0.76422055 0.83970340 0.00047898
0.80229976 0.83970340 0.00047898
0.83970340 0.83970340 0.00047898
0.87647847 0.83970340 0.00047898
0.91266635 0.83970340 0.00047898
0.91886608 0.83970340 0.00047898
0.91886608 0.83970340 0.00047898
0.91886608 0.83970340 0.00047898
0.91886608 0.83970340 0.00047898
0.91886608 0.83970340 0.00047961
0.91886608 0.83970340 0.00047961
0.91886608 0.83970340 0.00047971
0.91886608 0.83970340 0.00047898
0.91886608 0.83970340 0.00047898
0.91886608 0.83970340 0.00047898
0.91886608 0.83970340 0.00047997
0.00047927 0.87647847 0.00047898
0.00047927 0.87647847 0.00047898
0.00047927 0.87647847 0.00047898
0.08859366 0.87647847 0.00047898
0.15720037 0.87647847 0.00047898
0.21829360 0.87647847 0.00047898
0.27468970 0.87647847 0.00047898
0.32770488 0.87647847 0.00047898
0.37810069 0.87647847 0.00047898
0.42637178 0.87647847 0.00047898
0.47286409 0.87647847 0.00047898
0.51783240 0.87647847 0.00047898
0.56147170 0.87647847 0.00047898
0.60393570 0.87647847 0.00047898
0.64534848 0.87647847 0.00047898
0.68581213 0.87647847 0.00047898
0.72541203 0.87647847 0.00047940
0.76422055 0.87647847 0.00047898
0.80229976 0.87647847 0.00047898
0.83970340 0.87647847 0.00047898
0.87647847 0.87647847 0.00047898
0.91266635 0.87647847 0.00047898
0.91886608 0.87647847 0.00047898
0.91886608 0.87647847 0.00047953
0.91886608 0.87647847 0.00047898
0.91886608 0.87647847 0.00047898
0.91886608 0.87647847 0.00047898
0.91886608 0.87647847 0.00047898
0.91886608 0.87647847 0.00047898
0.91886608 0.87647847 0.00047898
0.91886608 0.87647847 0.00047898
0.91886608 0.87647847 0.00047983
0.91886608 0.87647847 0.00047898
0.00047949 0.91266635 0.00047898
0.00047949 0.91266635 0.00047898
0.00047949 0.91266635 0.00047898
0.08859366 0.91266635 0.00047898
0.15720037 0.91266635 0.00047898
0.21829360 0.91266635 0.00047946
0.27468970 0.91266635 0.00047898
0.32770488 0.91266635 0.00047898
0.37810069 0.91266635 0.00047898
0.42637178 0.91266635 0.00047946
0.47286409 0.91266635 0.00047898
0.51783240 0.91266635 0.00047898
0.56147170 0.91266635 0.00047898
0.60393570 0.91266635 0.00047898
0.64534848 0.91266635 0.00047946
0.68581213 0.91266635 0.00047898
0.72541203 0.91266635 0.00047898
0.76422055 0.91266635 0.00047898
0.80229976 0.91266635 0.00047898
0.83970340 0.91266635 0.00047898
0.87647847 0.91266635 0.00047898
0.91266635 0.91266635 0.00047898
0.91886608 0.91266635 0.00047898
0.91886608 0.91266635 0.00047898
0.91886608 0.91266635 0.00047898
0.91886608 0.91266635 0.00047953
0.91886608 0.91266635 0.00047898
