src/ffmpeg_scripts/luts/luminance-unclipped_1p00.cube
TITLE "luminance-unclipped_1p00"
LUT_3D_SIZE 33
# PQ (EOTF Only)/Rec2020 -> PQ (EOTF Only)/Rec2020, CineEI Shift 1.00, Black Level -7.25% IRE, Input 109% -> Output 109% - Created with LUTCalc v4.01 by Ben Turley October 2020
0.00047898 0.00047898 0.00047898
0.00047898 0.00047898 0.00047898
0.00047898 0.00047898 0.00047898
0.04995892 0.00047903 0.00047898
0.09573008 0.00047904 0.00047898
0.13974277 0.00047898 0.00047898
0.18256369 0.00047910 0.00047909
0.22447724 0.00047908 0.00047898
0.26565647 0.00047898 0.00047898
0.30621829 0.00047898 0.00047912
0.34624718 0.00047898 0.00047898
0.38580715 0.00047917 0.00047898
0.42494840 0.00047898 0.00047898
0.46371137 0.00047917 0.00047918
0.50212939 0.00047898 0.00047898
0.54023036 0.00047898 0.00047898
0.57803801 0.00047926 0.00047898
0.61557278 0.00047898 0.00047898
0.65285244 0.00047928 0.00047898
0.68989260 0.00047898 0.00047898
0.72670708 0.00047928 0.00047898
0.76330819 0.00047927 0.00047898
0.79970698 0.00047940 0.00047935
0.83591341 0.00047898 0.00047898
0.87193653 0.00047937 0.00047898
0.90778456 0.00047898 0.00047898
0.91886608 0.00047898 0.00047898
0.91886608 0.00047940 0.00047898
0.91886608 0.00047898 0.00047898
0.91886608 0.00047956 0.00047898
0.91886608 0.00047898 0.00047898
0.91886608 0.00047958 0.00047898
0.91886608 0.00047973 0.00047971
0.00047898 0.00047898 0.00047898
0.00047898 0.00047898 0.00047898
0.00047898 0.00047898 0.00047898
0.04995892 0.00047903 0.00047898
0.09573008 0.00047904 0.00047898
0.13974277 0.00047898 0.00047898
0.18256369 0.00047910 0.00047909
0.22447724 0.00047908 0.00047898
0.26565647 0.00047898 0.00047898
0.30621829 0.00047898 0.00047912
0.34624718 0.00047898 0.00047898
0.38580715 0.00047917 0.00047898
0.42494840 0.00047898 0.00047898
0.46371137 0.00047917 0.00047918
0.50212939 0.00047898 0.00047898
0.54023036 0.00047898 0.00047898
0.57803801 0.00047926 0.00047898
0.61557278 0.00047898 0.00047898
0.65285244 0.00047928 0.00047898
0.68989260 0.00047898 0.00047898
0.72670708 0.00047928 0.00047898
0.76330819 0.00047927 0.00047898
0.79970698 0.00047940 0.00047935
0.83591341 0.00047898 0.00047898
0.87193653 0.00047937 0.00047898
0.90778456 0.00047898 0.00047898
0.91886608 0.00047898 0.00047898
0.91886608 0.00047940 0.00047898
0.91886608 0.00047898 0.00047898
0.91886608 0.00047956 0.00047898
0.91886608 0.00047898 0.00047898
0.91886608 0.00047958 0.00047898
0.91886608 0.00047973 0.00047971
0.00047898 0.00047898 0.00047898
0.00047898 0.00047898 0.00047898
0.00047898 0.00047898 0.00047898
0.04995892 0.00047903 0.00047898
0.09573008 0.00047904 0.00047898
0.13974277 0.00047898 0.00047898
0.18256369 0.00047910 0.00047909
0.22447724 0.00047908 0.00047898
0.26565647 0.00047898 0.00047898
0.30621829 0.00047898 0.00047912
0.34624718 0.00047898 0.00047898
0.38580715 0.00047917 0.00047898
0.42494840 0.00047898 0.00047898
0.46371137 0.00047917 0.00047918
0.50212939 0.00047898 0.00047898
0.54023036 0.00047898 0.00047898
0.57803801 0.00047926 0.00047898
0.61557278 0.00047898 0.00047898
0.65285244 0.00047928 0.00047898
0.68989260 0.00047898 0.00047898
0.72670708 0.00047928 0.00047898
0.76330819 0.00047927 0.00047898
0.79970698 0.00047940 0.00047935
0.83591341 0.00047898 0.00047898
0.87193653 0.00047937 0.00047898
0.90778456 0.00047898 0.00047898
0.91886608 0.00047898 0.00047898
0.91886608 0.00047940 0.00047898
0.91886608 0.00047898 0.00047898
0.91886608 0.00047956 0.00047898
0.91886608 0.00047898 0.00047898
0.91886608 0.00047958 0.00047898
0.91886608 0.00047973 0.00047971
0.00047905 0.04995892 0.00047898
0.00047905 0.04995892 0.00047898
0.00047905 0.04995892 0.00047898
0.04995892 0.04995892 0.00047898
0.09573008 0.04995892 0.00047898
0.13974277 0.04995892 0.00047898
0.18256369 0.04995892 0.00047898
0.22447724 0.04995892 0.00047898
0.26565647 0.04995892 0.00047898
0.30621829 0.04995892 0.00047898
0.34624718 0.04995892 0.00047898
0.38580715 0.04995892 0.00047898
0.42494840 0.04995892 0.00047898
0.46371137 0.04995892 0.00047898
0.50212939 0.04995892 0.00047898
0.54023036 0.04995892 0.00047898
0.57803801 0.04995892 0.00047923
0.61557278 0.04995892 0.00047898
0.65285244 0.04995892 0.00047898
0.68989260 0.04995892 0.00047898
0.72670708 0.04995892 0.00047898
0.76330819 0.04995892 0.00047898
0.79970698 0.04995892 0.00047898
0.83591341 0.04995892 0.00047935
0.87193653 0.04995892 0.00047898
0.90778456 0.04995892 0.00047898
0.91886608 0.04995892 0.00047898
0.91886608 0.04995892 0.00047898
0.91886608 0.04995892 0.00047953
0.91886608 0.04995892 0.00047898
0.91886608 0.04995892 0.00047961
0.91886608 0.04995892 0.00047961
0.91886608 0.04995892 0.00047898
0.00047908 0.09573008 0.00047898
0.00047908 0.09573008 0.00047898
0.00047908 0.09573008 0.00047898
0.04995892 0.09573008 0.00047898
0.09573008 0.09573008 0.00047898
0.13974277 0.09573008 0.00047898
0.18256369 0.09573008 0.00047909
0.22447724 0.09573008 0.00047910
0.26565647 0.09573008 0.00047898
0.30621829 0.09573008 0.00047898
0.34624718 0.09573008 0.00047898
0.38580715 0.09573008 0.00047916
0.42494840 0.09573008 0.00047898
0.46371137 0.09573008 0.00047898
0.50212939 0.09573008 0.00047898
0.54023036 0.09573008 0.00047898
0.57803801 0.09573008 0.00047898
0.61557278 0.09573008 0.00047898
0.65285244 0.09573008 0.00047898
0.68989260 0.09573008 0.00047898
0.72670708 0.09573008 0.00047898
0.76330819 0.09573008 0.00047898
0.79970698 0.09573008 0.00047898
0.83591341 0.09573008 0.00047935
0.87193653 0.09573008 0.00047898
0.90778456 0.09573008 0.00047898
0.91886608 0.09573008 0.00047946
0.91886608 0.09573008 0.00047898
0.91886608 0.09573008 0.00047953
0.91886608 0.09573008 0.00047898
0.91886608 0.09573008 0.00047898
0.91886608 0.09573008 0.00047898
0.91886608 0.09573008 0.00047898
0.00047908 0.13974277 0.00047898
0.00047908 0.13974277 0.00047898
0.00047908 0.13974277 0.00047898
0.04995892 0.13974277 0.00047898
0.09573008 0.13974277 0.00047898
0.13974277 0.13974277 0.00047898
0.18256369 0.13974277 0.00047909
0.22447724 0.13974277 0.00047898
0.26565647 0.13974277 0.00047898
0.30621829 0.13974277 0.00047898
0.34624718 0.13974277 0.00047898
0.38580715 0.13974277 0.00047898
0.42494840 0.13974277 0.00047898
0.46371137 0.13974277 0.00047898
0.50212939 0.13974277 0.00047898
0.54023036 0.13974277 0.00047898
0.57803801 0.13974277 0.00047898
0.61557278 0.13974277 0.00047898
0.65285244 0.13974277 0.00047898
0.68989260 0.13974277 0.00047898
0.72670708 0.13974277 0.00047898
0.76330819 0.13974277 0.00047898
0.79970698 0.13974277 0.00047898
0.83591341 0.13974277 0.00047898
0.87193653 0.13974277 0.00047898
0.90778456 0.13974277 0.00047898
0.91886608 0.13974277 0.00047898
0.91886608 0.13974277 0.00047898
0.91886608 0.13974277 0.00047898
0.91886608 0.13974277 0.00047898
0.91886608 0.13974277 0.00047898
0.91886608 0.13974277 0.00047898
0.91886608 0.13974277 0.00047898
0.00047909 0.18256369 0.00047898
0.00047909 0.18256369 0.00047898
0.00047909 0.18256369 0.00047898
0.04995892 0.18256369 0.00047898
0.09573008 0.18256369 0.00047898
0.13974277 0.18256369 0.00047898
0.18256369 0.18256369 0.00047898
0.22447724 0.18256369 0.00047898
0.26565647 0.18256369 0.00047898
0.30621829 0.18256369 0.00047898
0.34624718 0.18256369 0.00047914
0.38580715 0.18256369 0.00047898
0.42494840 0.18256369 0.00047898
0.46371137 0.18256369 0.00047918
0.50212939 0.18256369 0.00047898
0.54023036 0.18256369 0.00047898
0.57803801 0.18256369 0.00047898
0.61557278 0.18256369 0.00047898
0.65285244 0.18256369 0.00047898
0.68989260 0.18256369 0.00047898
0.72670708 0.18256369 0.00047898
0.76330819 0.18256369 0.00047898
0.79970698 0.18256369 0.00047935
0.83591341 0.18256369 0.00047898
0.87193653 0.18256369 0.00047898
0.90778456 0.18256369 0.00047898
0.91886608 0.18256369 0.00047898
0.91886608 0.18256369 0.00047946
0.91886608 0.18256369 0.00047953
0.91886608 0.18256369 0.00047898
0.91886608 0.18256369 0.00047898
0.91886608 0.18256369 0.00047898
0.91886608 0.18256369 0.00047898
0.00047912 0.22447724 0.00047910
0.00047912 0.22447724 0.00047910
0.00047912 0.22447724 0.00047910
0.04995892 0.22447724 0.00047898
0.09573008 0.22447724 0.00047898
0.13974277 0.22447724 0.00047910
0.18256369 0.22447724 0.00047898
0.22447724 0.22447724 0.00047898
0.26565647 0.22447724 0.00047898
0.30621829 0.22447724 0.00047898
0.34624718 0.22447724 0.00047916
0.38580715 0.22447724 0.00047898
0.42494840 0.22447724 0.00047898
0.46371137 0.22447724 0.00047898
0.50212939 0.22447724 0.00047920
0.54023036 0.22447724 0.00047898
0.57803801 0.22447724 0.00047923
0.61557278 0.22447724 0.00047898
0.65285244 0.22447724 0.00047898
0.68989260 0.22447724 0.00047898
0.72670708 0.22447724 0.00047898
0.76330819 0.22447724 0.00047898
0.79970698 0.22447724 0.00047935
0.83591341 0.22447724 0.00047935
0.87193653 0.22447724 0.00047898
0.90778456 0.22447724 0.00047898
0.91886608 0.22447724 0.00047898
0.91886608 0.22447724 0.00047898
0.91886608 0.22447724 0.00047898
0.91886608 0.22447724 0.00047898
0.91886608 0.22447724 0.00047898
0.91886608 0.22447724 0.00047898
0.91886608 0.22447724 0.00047971
0.00047898 0.26565647 0.00047898
0.00047898 0.26565647 0.00047898
0.00047898 0.26565647 0.00047898
0.04995892 0.26565647 0.00047898
0.09573008 0.26565647 0.00047898
0.13974277 0.26565647 0.00047898
0.18256369 0.26565647 0.00047898
0.22447724 0.26565647 0.00047898
0.26565647 0.26565647 0.00047898
0.30621829 0.26565647 0.00047898
0.34624718 0.26565647 0.00047898
0.38580715 0.26565647 0.00047898
0.42494840 0.26565647 0.00047898
0.46371137 0.26565647 0.00047918
0.50212939 0.26565647 0.00047898
0.54023036 0.26565647 0.00047898
0.57803801 0.26565647 0.00047898
0.61557278 0.26565647 0.00047898
0.65285244 0.26565647 0.00047898
0.68989260 0.26565647 0.00047898
0.72670708 0.26565647 0.00047898
0.76330819 0.26565647 0.00047898
0.79970698 0.26565647 0.00047898
0.83591341 0.26565647 0.00047898
0.87193653 0.26565647 0.00047898
0.90778456 0.26565647 0.00047898
0.91886608 0.26565647 0.00047946
0.91886608 0.26565647 0.00047898
0.91886608 0.26565647 0.00047898
0.91886608 0.26565647 0.00047898
0.91886608 0.26565647 0.00047898
0.91886608 0.26565647 0.00047898
0.91886608 0.26565647 0.00047898
0.00047917 0.30621829 0.00047898
0.00047917 0.30621829 0.00047898
0.00047917 0.30621829 0.00047898
0.04995892 0.30621829 0.00047898
0.09573008 0.30621829 0.00047898
0.13974277 0.30621829 0.00047914
0.18256369 0.30621829 0.00047898
0.22447724 0.30621829 0.00047898
0.26565647 0.30621829 0.00047914
0.30621829 0.30621829 0.00047916
0.34624718 0.30621829 0.00047898
0.38580715 0.30621829 0.00047916
0.42494840 0.30621829 0.00047898
0.46371137 0.30621829 0.00047920
0.50212939 0.30621829 0.00047898
0.54023036 0.30621829 0.00047898
0.57803801 0.30621829 0.00047923
0.61557278 0.30621829 0.00047898
0.65285244 0.30621829 0.00047927
0.68989260 0.30621829 0.00047898
0.72670708 0.30621829 0.00047898
0.76330819 0.30621829 0.00047898
0.79970698 0.30621829 0.00047898
0.83591341 0.30621829 0.00047898
0.87193653 0.30621829 0.00047940
0.90778456 0.30621829 0.00047898
0.91886608 0.30621829 0.00047898
0.91886608 0.30621829 0.00047898
0.91886608 0.30621829 0.00047898
0.91886608 0.30621829 0.00047898
0.91886608 0.30621829 0.00047961
0.91886608 0.30621829 0.00047898
0.91886608 0.30621829 0.00047898
0.00047920 0.34624718 0.00047898
0.00047920 0.34624718 0.00047898
0.00047920 0.34624718 0.00047898
0.04995892 0.34624718 0.00047898
0.09573008 0.34624718 0.00047898
0.13974277 0.34624718 0.00047898
0.18256369 0.34624718 0.00047898
0.22447724 0.34624718 0.00047898
0.26565647 0.34624718 0.00047898
0.30621829 0.34624718 0.00047898
0.34624718 0.34624718 0.00047898
0.38580715 0.34624718 0.00047898
0.42494840 0.34624718 0.00047898
0.46371137 0.34624718 0.00047898
0.50212939 0.34624718 0.00047898
0.54023036 0.34624718 0.00047920
0.57803801 0.34624718 0.00047923
0.61557278 0.34624718 0.00047923
0.65285244 0.34624718 0.00047898
0.68989260 0.34624718 0.00047898
0.72670708 0.34624718 0.00047898
0.76330819 0.34624718 0.00047898
0.79970698 0.34624718 0.00047898
0.83591341 0.34624718 0.00047935
0.87193653 0.34624718 0.00047898
0.90778456 0.34624718 0.00047898
0.91886608 0.34624718 0.00047898
0.91886608 0.34624718 0.00047898
0.91886608 0.34624718 0.00047953
0.91886608 0.34624718 0.00047898
0.91886608 0.34624718 0.00047961
0.91886608 0.34624718 0.00047898
0.91886608 0.34624718 0.00047898
0.00047916 0.38580715 0.00047898
0.00047916 0.38580715 0.00047898
0.00047916 0.38580715 0.00047898
0.04995892 0.38580715 0.00047898
0.09573008 0.38580715 0.00047898
0.13974277 0.38580715 0.00047898
0.18256369 0.38580715 0.00047916
0.22447724 0.38580715 0.00047898
0.26565647 0.38580715 0.00047916
0.30621829 0.38580715 0.00047898
0.34624718 0.38580715 0.00047898
0.38580715 0.38580715 0.00047898
0.42494840 0.38580715 0.00047898
0.46371137 0.38580715 0.00047898
0.50212939 0.38580715 0.00047898
0.54023036 0.38580715 0.00047923
0.57803801 0.38580715 0.00047898
0.61557278 0.38580715 0.00047898
0.65285244 0.38580715 0.00047898
0.68989260 0.38580715 0.00047898
0.72670708 0.38580715 0.00047898
0.76330819 0.38580715 0.00047898
0.79970698 0.38580715 0.00047935
0.83591341 0.38580715 0.00047935
0.87193653 0.38580715 0.00047898
0.90778456 0.38580715 0.00047940
0.91886608 0.38580715 0.00047898
0.91886608 0.38580715 0.00047898
0.91886608 0.38580715 0.00047953
0.91886608 0.38580715 0.00047898
0.91886608 0.38580715 0.00047898
0.91886608 0.38580715 0.00047898
0.91886608 0.38580715 0.00047898
0.00047920 0.42494840 0.00047918
0.00047920 0.42494840 0.00047918
0.00047920 0.42494840 0.00047918
0.04995892 0.42494840 0.00047918
0.09573008 0.42494840 0.00047898
0.13974277 0.42494840 0.00047918
0.18256369 0.42494840 0.00047918
0.22447724 0.42494840 0.00047918
0.26565647 0.42494840 0.00047898
0.30621829 0.42494840 0.00047918
0.34624718 0.42494840 0.00047898
0.38580715 0.42494840 0.00047898
0.42494840 0.42494840 0.00047920
0.46371137 0.42494840 0.00047898
0.50212939 0.42494840 0.00047898
0.54023036 0.42494840 0.00047898
0.57803801 0.42494840 0.00047898
0.61557278 0.42494840 0.00047898
0.65285244 0.42494840 0.00047898
0.68989260 0.42494840 0.00047898
0.72670708 0.42494840 0.00047898
0.76330819 0.42494840 0.00047898
0.79970698 0.42494840 0.00047898
0.83591341 0.42494840 0.00047898
0.87193653 0.42494840 0.00047898
0.90778456 0.42494840 0.00047898
0.91886608 0.42494840 0.00047946
0.91886608 0.42494840 0.00047946
0.91886608 0.42494840 0.00047953
0.91886608 0.42494840 0.00047898
0.91886608 0.42494840 0.00047898
0.91886608 0.42494840 0.00047898
0.91886608 0.42494840 0.00047898
0.00047922 0.46371137 0.00047898
0.00047922 0.46371137 0.00047898
0.00047922 0.46371137 0.00047898
0.04995892 0.46371137 0.00047918
0.09573008 0.46371137 0.00047898
0.13974277 0.46371137 0.00047898
0.18256369 0.46371137 0.00047918
0.22447724 0.46371137 0.00047898
0.26565647 0.46371137 0.00047898
0.30621829 0.46371137 0.00047920
0.34624718 0.46371137 0.00047898
0.38580715 0.46371137 0.00047920
0.42494840 0.46371137 0.00047898
0.46371137 0.46371137 0.00047920
0.50212939 0.46371137 0.00047898
0.54023036 0.46371137 0.00047898
0.57803801 0.46371137 0.00047898
0.61557278 0.46371137 0.00047898
0.65285244 0.46371137 0.00047898
0.68989260 0.46371137 0.00047927
0.72670708 0.46371137 0.00047898
0.76330819 0.46371137 0.00047898
0.79970698 0.46371137 0.00047898
0.83591341 0.46371137 0.00047935
0.87193653 0.46371137 0.00047898
0.90778456 0.46371137 0.00047940
0.91886608 0.46371137 0.00047898
0.91886608 0.46371137 0.00047898
0.91886608 0.46371137 0.00047898
0.91886608 0.46371137 0.00047898
0.91886608 0.46371137 0.00047961
0.91886608 0.46371137 0.00047898
0.91886608 0.46371137 0.00047971
0.00047922 0.50212939 0.00047898
0.00047922 0.50212939 0.00047898
0.00047922 0.50212939 0.00047898
0.04995892 0.50212939 0.00047898
0.09573008 0.50212939 0.00047898
0.13974277 0.50212939 0.00047898
0.18256369 0.50212939 0.00047898
0.22447724 0.50212939 0.00047898
0.26565647 0.50212939 0.00047898
0.30621829 0.50212939 0.00047898
0.34624718 0.50212939 0.00047898
0.38580715 0.50212939 0.00047898
0.42494840 0.50212939 0.00047898
0.46371137 0.50212939 0.00047898
0.50212939 0.50212939 0.00047898
0.54023036 0.50212939 0.00047898
0.57803801 0.50212939 0.00047898
0.61557278 0.50212939 0.00047927
0.65285244 0.50212939 0.00047898
0.68989260 0.50212939 0.00047898
0.72670708 0.50212939 0.00047898
0.76330819 0.50212939 0.00047898
0.79970698 0.50212939 0.00047898
0.83591341 0.50212939 0.00047898
0.87193653 0.50212939 0.00047898
0.90778456 0.50212939 0.00047898
0.91886608 0.50212939 0.00047898
0.91886608 0.50212939 0.00047898
0.91886608 0.50212939 0.00047898
0.91886608 0.50212939 0.00047898
0.91886608 0.50212939 0.00047898
0.91886608 0.50212939 0.00047898
0.91886608 0.50212939 0.00047971
0.00047927 0.54023036 0.00047898
0.00047927 0.54023036 0.00047898
0.00047927 0.54023036 0.00047898
0.04995892 0.54023036 0.00047898
0.09573008 0.54023036 0.00047898
0.13974277 0.54023036 0.00047898
0.18256369 0.54023036 0.00047898
0.22447724 0.54023036 0.00047898
0.26565647 0.54023036 0.00047898
0.30621829 0.54023036 0.00047898
0.34624718 0.54023036 0.00047898
0.38580715 0.54023036 0.00047898
0.42494840 0.54023036 0.00047898
0.46371137 0.54023036 0.00047898
0.50212939 0.54023036 0.00047898
0.54023036 0.54023036 0.00047923
0.57803801 0.54023036 0.00047898
0.61557278 0.54023036 0.00047898
0.65285244 0.54023036 0.00047898
0.68989260 0.54023036 0.00047898
0.72670708 0.54023036 0.00047898
0.76330819 0.54023036 0.00047898
0.79970698 0.54023036 0.00047898
0.83591341 0.54023036 0.00047898
0.87193653 0.54023036 0.00047898
0.90778456 0.54023036 0.00047898
0.91886608 0.54023036 0.00047898
0.91886608 0.54023036 0.00047898
0.91886608 0.54023036 0.00047898
0.91886608 0.54023036 0.00047898
0.91886608 0.54023036 0.00047898
0.91886608 0.54023036 0.00047898
0.91886608 0.54023036 0.00047898
0.00047898 0.57803801 0.00047898
0.00047898 0.57803801 0.00047898
0.00047898 0.57803801 0.00047898
0.04995892 0.57803801 0.00047898
0.09573008 0.57803801 0.00047898
0.13974277 0.57803801 0.00047898
0.18256369 0.57803801 0.00047898
0.22447724 0.57803801 0.00047898
0.26565647 0.57803801 0.00047898
0.30621829 0.57803801 0.00047898
0.34624718 0.57803801 0.00047898
0.38580715 0.57803801 0.00047898
0.42494840 0.57803801 0.00047898
0.46371137 0.57803801 0.00047898
0.50212939 0.57803801 0.00047898
0.54023036 0.57803801 0.00047898
0.57803801 0.57803801 0.00047898
0.61557278 0.57803801 0.00047927
0.65285244 0.57803801 0.00047898
0.68989260 0.57803801 0.00047898
0.72670708 0.57803801 0.00047898
0.76330819 0.57803801 0.00047898
0.79970698 0.57803801 0.00047935
0.83591341 0.57803801 0.00047935
0.87193653 0.57803801 0.00047898
0.90778456 0.57803801 0.00047940
0.91886608 0.57803801 0.00047898
0.91886608 0.57803801 0.00047898
0.91886608 0.57803801 0.00047898
0.91886608 0.57803801 0.00047898
0.91886608 0.57803801 0.00047961
0.91886608 0.57803801 0.00047898
0.91886608 0.57803801 0.00047898
0.00047931 0.61557278 0.00047927
0.00047931 0.61557278 0.00047927
0.00047931 0.61557278 0.00047927
0.04995892 0.61557278 0.00047927
0.09573008 0.61557278 0.00047927
0.13974277 0.61557278 0.00047898
0.18256369 0.61557278 0.00047898
0.22447724 0.61557278 0.00047898
0.26565647 0.61557278 0.00047898
0.30621829 0.61557278 0.00047898
0.34624718 0.61557278 0.00047898
0.38580715 0.61557278 0.00047927
0.42494840 0.61557278 0.00047898
0.46371137 0.61557278 0.00047927
0.50212939 0.61557278 0.00047898
0.54023036 0.61557278 0.00047898
0.57803801 0.61557278 0.00047898
0.61557278 0.61557278 0.00047927
0.65285244 0.61557278 0.00047931
0.68989260 0.61557278 0.00047898
0.72670708 0.61557278 0.00047898
0.76330819 0.61557278 0.00047898
0.79970698 0.61557278 0.00047898
0.83591341 0.61557278 0.00047935
0.87193653 0.61557278 0.00047898
0.90778456 0.61557278 0.00047898
0.91886608 0.61557278 0.00047898
0.91886608 0.61557278 0.00047898
0.91886608 0.61557278 0.00047953
0.91886608 0.61557278 0.00047898
0.91886608 0.61557278 0.00047898
0.91886608 0.61557278 0.00047898
0.91886608 0.61557278 0.00047971
0.00047933 0.65285244 0.00047898
0.00047933 0.65285244 0.00047898
0.00047933 0.65285244 0.00047898
0.04995892 0.65285244 0.00047898
0.09573008 0.65285244 0.00047898
0.13974277 0.65285244 0.00047898
0.18256369 0.65285244 0.00047898
0.22447724 0.65285244 0.00047898
0.26565647 0.65285244 0.00047898
0.30621829 0.65285244 0.00047898
0.34624718 0.65285244 0.00047898
0.38580715 0.65285244 0.00047898
0.42494840 0.65285244 0.00047898
0.46371137 0.65285244 0.00047898
0.50212939 0.65285244 0.00047927
0.54023036 0.65285244 0.00047898
0.57803801 0.65285244 0.00047898
0.61557278 0.65285244 0.00047898
0.65285244 0.65285244 0.00047898
0.68989260 0.65285244 0.00047898
0.72670708 0.65285244 0.00047898
0.76330819 0.65285244 0.00047898
0.79970698 0.65285244 0.00047898
0.83591341 0.65285244 0.00047898
0.87193653 0.65285244 0.00047898
0.90778456 0.65285244 0.00047946
0.91886608 0.65285244 0.00047898
0.91886608 0.65285244 0.00047898
0.91886608 0.65285244 0.00047953
0.91886608 0.65285244 0.00047898
0.91886608 0.65285244 0.00047898
0.91886608 0.65285244 0.00047898
0.91886608 0.65285244 0.00047898
0.00047928 0.68989260 0.00047898
0.00047928 0.68989260 0.00047898
0.00047928 0.68989260 0.00047898
0.04995892 0.68989260 0.00047898
0.09573008 0.68989260 0.00047898
0.13974277 0.68989260 0.00047898
0.18256369 0.68989260 0.00047898
0.22447724 0.68989260 0.00047898
0.26565647 0.68989260 0.00047898
0.30621829 0.68989260 0.00047898
0.34624718 0.68989260 0.00047898
0.38580715 0.68989260 0.00047898
0.42494840 0.68989260 0.00047898
0.46371137 0.68989260 0.00047898
0.50212939 0.68989260 0.00047898
0.54023036 0.68989260 0.00047898
0.57803801 0.68989260 0.00047898
0.61557278 0.68989260 0.00047898
0.65285244 0.68989260 0.00047898
0.68989260 0.68989260 0.00047898
0.72670708 0.68989260 0.00047898
0.76330819 0.68989260 0.00047898
0.79970698 0.68989260 0.00047898
0.83591341 0.68989260 0.00047898
0.87193653 0.68989260 0.00047898
0.90778456 0.68989260 0.00047898
0.91886608 0.68989260 0.00047946
0.91886608 0.68989260 0.00047946
0.91886608 0.68989260 0.00047953
0.91886608 0.68989260 0.00047898
0.91886608 0.68989260 0.00047898
0.91886608 0.68989260 0.00047898
0.91886608 0.68989260 0.00047971
0.00047920 0.72670708 0.00047898
0.00047920 0.72670708 0.00047898
0.00047920 0.72670708 0.00047898
0.04995892 0.72670708 0.00047898
0.09573008 0.72670708 0.00047898
0.13974277 0.72670708 0.00047898
0.18256369 0.72670708 0.00047898
0.22447724 0.72670708 0.00047898
0.26565647 0.72670708 0.00047898
0.30621829 0.72670708 0.00047898
0.34624718 0.72670708 0.00047898
0.38580715 0.72670708 0.00047898
0.42494840 0.72670708 0.00047898
0.46371137 0.72670708 0.00047898
0.50212939 0.72670708 0.00047898
0.54023036 0.72670708 0.00047898
0.57803801 0.72670708 0.00047931
0.61557278 0.72670708 0.00047898
0.65285244 0.72670708 0.00047898
0.68989260 0.72670708 0.00047898
0.72670708 0.72670708 0.00047898
0.76330819 0.72670708 0.00047898
0.79970698 0.72670708 0.00047898
0.83591341 0.72670708 0.00047940
0.87193653 0.72670708 0.00047898
0.90778456 0.72670708 0.00047898
0.91886608 0.72670708 0.00047898
0.91886608 0.72670708 0.00047898
0.91886608 0.72670708 0.00047898
0.91886608 0.72670708 0.00047898
0.91886608 0.72670708 0.00047898
0.91886608 0.72670708 0.00047961
0.91886608 0.72670708 0.00047898
0.00047937 0.76330819 0.00047898
0.00047937 0.76330819 0.00047898
0.00047937 0.76330819 0.00047898
0.04995892 0.76330819 0.00047898
0.09573008 0.76330819 0.00047898
0.13974277 0.76330819 0.00047935
0.18256369 0.76330819 0.00047898
0.22447724 0.76330819 0.00047898
0.26565647 0.76330819 0.00047898
0.30621829 0.76330819 0.00047935
0.34624718 0.76330819 0.00047898
0.38580715 0.76330819 0.00047898
0.42494840 0.76330819 0.00047898
0.46371137 0.76330819 0.00047898
0.50212939 0.76330819 0.00047935
0.54023036 0.76330819 0.00047898
0.57803801 0.76330819 0.00047898
0.61557278 0.76330819 0.00047898
0.65285244 0.76330819 0.00047898
0.68989260 0.76330819 0.00047898
0.72670708 0.76330819 0.00047898
0.76330819 0.76330819 0.00047898
0.79970698 0.76330819 0.00047898
0.83591341 0.76330819 0.00047898
0.87193653 0.76330819 0.00047898
0.90778456 0.76330819 0.00047940
0.91886608 0.76330819 0.00047898
