src/ffmpeg_scripts/luts/luminance-unclipped_2p00.cube
TITLE "luminance-unclipped_2p00"
LUT_3D_SIZE 33
# PQ (EOTF Only)/Rec2020 -> PQ (EOTF Only)/Rec2020, CineEI Shift 2.00, Black Level -7.25% IRE, Input 109% -> Output 109% - Created with LUTCalc v4.01 by Ben Turley October 2020
0.00047898 0.00047898 0.00047898
0.00047898 0.00047898 0.00047898
0.00047898 0.00047898 0.00047898
0.06708041 0.00047904 0.00047898
0.12371164 0.00047906 0.00047898
0.17609584 0.00047898 0.00047898
0.22571735 0.00047898 0.00047910
0.27329497 0.00047910 0.00047898
0.31925506 0.00047898 0.00047898
0.36388002 0.00047898 0.00047914
0.40737055 0.00047916 0.00047898
0.44987653 0.00047916 0.00047898
0.49151404 0.00047898 0.00047898
0.53237562 0.00047919 0.00047920
0.57253664 0.00047898 0.00047898
0.61205972 0.00047898 0.00047898
0.65099763 0.00047927 0.00047927
0.68939545 0.00047920 0.00047927
0.72729209 0.00047898 0.00047898
0.76472151 0.00047898 0.00047898
0.80171355 0.00047898 0.00047898
0.83829466 0.00047898 0.00047898
0.87448841 0.00047927 0.00047940
0.91031596 0.00047898 0.00047898
0.91886608 0.00047898 0.00047898
0.91886608 0.00047898 0.00047898
0.91886608 0.00047946 0.00047898
0.91886608 0.00047946 0.00047898
0.91886608 0.00047946 0.00047898
0.91886608 0.00047967 0.00047898
0.91886608 0.00047898 0.00047898
0.91886608 0.00047967 0.00047898
0.91886608 0.00047967 0.00047898
0.00047898 0.00047898 0.00047898
0.00047898 0.00047898 0.00047898
0.00047898 0.00047898 0.00047898
0.06708041 0.00047904 0.00047898
0.12371164 0.00047906 0.00047898
0.17609584 0.00047898 0.00047898
0.22571735 0.00047898 0.00047910
0.27329497 0.00047910 0.00047898
0.31925506 0.00047898 0.00047898
0.36388002 0.00047898 0.00047914
0.40737055 0.00047916 0.00047898
0.44987653 0.00047916 0.00047898
0.49151404 0.00047898 0.00047898
0.53237562 0.00047919 0.00047920
0.57253664 0.00047898 0.00047898
0.61205972 0.00047898 0.00047898
0.65099763 0.00047927 0.00047927
0.68939545 0.00047920 0.00047927
0.72729209 0.00047898 0.00047898
0.76472151 0.00047898 0.00047898
0.80171355 0.00047898 0.00047898
0.83829466 0.00047898 0.00047898
0.87448841 0.00047927 0.00047940
0.91031596 0.00047898 0.00047898
0.91886608 0.00047898 0.00047898
0.91886608 0.00047898 0.00047898
0.91886608 0.00047946 0.00047898
0.91886608 0.00047946 0.00047898
0.91886608 0.00047946 0.00047898
0.91886608 0.00047967 0.00047898
0.91886608 0.00047898 0.00047898
0.91886608 0.00047967 0.00047898
0.91886608 0.00047967 0.00047898
0.00047898 0.00047898 0.00047898
0.00047898 0.00047898 0.00047898
0.00047898 0.00047898 0.00047898
0.06708041 0.00047904 0.00047898
0.12371164 0.00047906 0.00047898
0.17609584 0.00047898 0.00047898
0.22571735 0.00047898 0.00047910
0.27329497 0.00047910 0.00047898
0.31925506 0.00047898 0.00047898
0.36388002 0.00047898 0.00047914
0.40737055 0.00047916 0.00047898
0.44987653 0.00047916 0.00047898
0.49151404 0.00047898 0.00047898
0.53237562 0.00047919 0.00047920
0.57253664 0.00047898 0.00047898
0.61205972 0.00047898 0.00047898
0.65099763 0.00047927 0.00047927
0.68939545 0.00047920 0.00047927
0.72729209 0.00047898 0.00047898
0.76472151 0.00047898 0.00047898
0.80171355 0.00047898 0.00047898
0.83829466 0.00047898 0.00047898
0.87448841 0.00047927 0.00047940
0.91031596 0.00047898 0.00047898
0.91886608 0.00047898 0.00047898
0.91886608 0.00047898 0.00047898
0.91886608 0.00047946 0.00047898
0.91886608 0.00047946 0.00047898
0.91886608 0.00047946 0.00047898
0.91886608 0.00047967 0.00047898
0.91886608 0.00047898 0.00047898
0.91886608 0.00047967 0.00047898
0.91886608 0.00047967 0.00047898
0.00047906 0.06708041 0.00047898
0.00047906 0.06708041 0.00047898
0.00047906 0.06708041 0.00047898
0.06708041 0.06708041 0.00047898
0.12371164 0.06708041 0.00047898
0.17609584 0.06708041 0.00047898
0.22571735 0.06708041 0.00047898
0.27329497 0.06708041 0.00047898
0.31925506 0.06708041 0.00047898
0.36388002 0.06708041 0.00047898
0.40737055 0.06708041 0.00047898
0.44987653 0.06708041 0.00047898
0.49151404 0.06708041 0.00047898
0.53237562 0.06708041 0.00047898
0.57253664 0.06708041 0.00047898
0.61205972 0.06708041 0.00047898
0.65099763 0.06708041 0.00047898
0.68939545 0.06708041 0.00047898
0.72729209 0.06708041 0.00047898
0.76472151 0.06708041 0.00047898
0.80171355 0.06708041 0.00047898
0.83829466 0.06708041 0.00047898
0.87448841 0.06708041 0.00047898
0.91031596 0.06708041 0.00047940
0.91886608 0.06708041 0.00047898
0.91886608 0.06708041 0.00047898
0.91886608 0.06708041 0.00047898
0.91886608 0.06708041 0.00047898
0.91886608 0.06708041 0.00047898
0.91886608 0.06708041 0.00047898
0.91886608 0.06708041 0.00047971
0.91886608 0.06708041 0.00047971
0.91886608 0.06708041 0.00047898
0.00047909 0.12371164 0.00047898
0.00047909 0.12371164 0.00047898
0.00047909 0.12371164 0.00047898
0.06708041 0.12371164 0.00047898
0.12371164 0.12371164 0.00047898
0.17609584 0.12371164 0.00047898
0.22571735 0.12371164 0.00047898
0.27329497 0.12371164 0.00047912
0.31925506 0.12371164 0.00047898
0.36388002 0.12371164 0.00047898
0.40737055 0.12371164 0.00047898
0.44987653 0.12371164 0.00047918
0.49151404 0.12371164 0.00047898
0.53237562 0.12371164 0.00047898
0.57253664 0.12371164 0.00047898
0.61205972 0.12371164 0.00047898
0.65099763 0.12371164 0.00047898
0.68939545 0.12371164 0.00047898
0.72729209 0.12371164 0.00047898
0.76472151 0.12371164 0.00047898
0.80171355 0.12371164 0.00047898
0.83829466 0.12371164 0.00047898
0.87448841 0.12371164 0.00047898
0.91031596 0.12371164 0.00047940
0.91886608 0.12371164 0.00047898
0.91886608 0.12371164 0.00047898
0.91886608 0.12371164 0.00047898
0.91886608 0.12371164 0.00047898
0.91886608 0.12371164 0.00047961
0.91886608 0.12371164 0.00047898
0.91886608 0.12371164 0.00047898
0.91886608 0.12371164 0.00047898
0.91886608 0.12371164 0.00047898
0.00047910 0.17609584 0.00047898
0.00047910 0.17609584 0.00047898
0.00047910 0.17609584 0.00047898
0.06708041 0.17609584 0.00047898
0.12371164 0.17609584 0.00047909
0.17609584 0.17609584 0.00047898
0.22571735 0.17609584 0.00047898
0.27329497 0.17609584 0.00047898
0.31925506 0.17609584 0.00047898
0.36388002 0.17609584 0.00047898
0.40737055 0.17609584 0.00047916
0.44987653 0.17609584 0.00047898
0.49151404 0.17609584 0.00047898
0.53237562 0.17609584 0.00047898
0.57253664 0.17609584 0.00047923
0.61205972 0.17609584 0.00047898
0.65099763 0.17609584 0.00047898
0.68939545 0.17609584 0.00047898
0.72729209 0.17609584 0.00047898
0.76472151 0.17609584 0.00047898
0.80171355 0.17609584 0.00047898
0.83829466 0.17609584 0.00047898
0.87448841 0.17609584 0.00047940
0.91031596 0.17609584 0.00047898
0.91886608 0.17609584 0.00047898
0.91886608 0.17609584 0.00047898
0.91886608 0.17609584 0.00047898
0.91886608 0.17609584 0.00047898
0.91886608 0.17609584 0.00047898
0.91886608 0.17609584 0.00047898
0.91886608 0.17609584 0.00047898
0.91886608 0.17609584 0.00047898
0.91886608 0.17609584 0.00047983
0.00047910 0.22571735 0.00047898
0.00047910 0.22571735 0.00047898
0.00047910 0.22571735 0.00047898
0.06708041 0.22571735 0.00047898
0.12371164 0.22571735 0.00047898
0.17609584 0.22571735 0.00047898
0.22571735 0.22571735 0.00047912
0.27329497 0.22571735 0.00047898
0.31925506 0.22571735 0.00047898
0.36388002 0.22571735 0.00047898
0.40737055 0.22571735 0.00047898
0.44987653 0.22571735 0.00047898
0.49151404 0.22571735 0.00047898
0.53237562 0.22571735 0.00047920
0.57253664 0.22571735 0.00047898
0.61205972 0.22571735 0.00047898
0.65099763 0.22571735 0.00047898
0.68939545 0.22571735 0.00047898
0.72729209 0.22571735 0.00047898
0.76472151 0.22571735 0.00047898
0.80171355 0.22571735 0.00047898
0.83829466 0.22571735 0.00047898
0.87448841 0.22571735 0.00047940
0.91031596 0.22571735 0.00047898
0.91886608 0.22571735 0.00047898
0.91886608 0.22571735 0.00047898
0.91886608 0.22571735 0.00047898
0.91886608 0.22571735 0.00047953
0.91886608 0.22571735 0.00047898
0.91886608 0.22571735 0.00047898
0.91886608 0.22571735 0.00047971
0.91886608 0.22571735 0.00047898
0.91886608 0.22571735 0.00047898
0.00047914 0.27329497 0.00047912
0.00047914 0.27329497 0.00047912
0.00047914 0.27329497 0.00047912
0.06708041 0.27329497 0.00047898
0.12371164 0.27329497 0.00047898
0.17609584 0.27329497 0.00047912
0.22571735 0.27329497 0.00047898
0.27329497 0.27329497 0.00047898
0.31925506 0.27329497 0.00047898
0.36388002 0.27329497 0.00047898
0.40737055 0.27329497 0.00047916
0.44987653 0.27329497 0.00047898
0.49151404 0.27329497 0.00047898
0.53237562 0.27329497 0.00047898
0.57253664 0.27329497 0.00047923
0.61205972 0.27329497 0.00047923
0.65099763 0.27329497 0.00047927
0.68939545 0.27329497 0.00047898
0.72729209 0.27329497 0.00047931
0.76472151 0.27329497 0.00047898
0.80171355 0.27329497 0.00047898
0.83829466 0.27329497 0.00047898
0.87448841 0.27329497 0.00047940
0.91031596 0.27329497 0.00047940
0.91886608 0.27329497 0.00047898
0.91886608 0.27329497 0.00047898
0.91886608 0.27329497 0.00047898
0.91886608 0.27329497 0.00047898
0.91886608 0.27329497 0.00047898
0.91886608 0.27329497 0.00047898
0.91886608 0.27329497 0.00047898
0.91886608 0.27329497 0.00047898
0.91886608 0.27329497 0.00047898
0.00047898 0.31925506 0.00047898
0.00047898 0.31925506 0.00047898
0.00047898 0.31925506 0.00047898
0.06708041 0.31925506 0.00047914
0.12371164 0.31925506 0.00047898
0.17609584 0.31925506 0.00047898
0.22571735 0.31925506 0.00047898
0.27329497 0.31925506 0.00047898
0.31925506 0.31925506 0.00047898
0.36388002 0.31925506 0.00047898
0.40737055 0.31925506 0.00047898
0.44987653 0.31925506 0.00047898
0.49151404 0.31925506 0.00047898
0.53237562 0.31925506 0.00047920
0.57253664 0.31925506 0.00047898
0.61205972 0.31925506 0.00047898
0.65099763 0.31925506 0.00047898
0.68939545 0.31925506 0.00047927
0.72729209 0.31925506 0.00047898
0.76472151 0.31925506 0.00047898
0.80171355 0.31925506 0.00047898
0.83829466 0.31925506 0.00047898
0.87448841 0.31925506 0.00047898
0.91031596 0.31925506 0.00047898
0.91886608 0.31925506 0.00047898
0.91886608 0.31925506 0.00047898
0.91886608 0.31925506 0.00047898
0.91886608 0.31925506 0.00047898
0.91886608 0.31925506 0.00047898
0.91886608 0.31925506 0.00047898
0.91886608 0.31925506 0.00047898
0.91886608 0.31925506 0.00047898
0.91886608 0.31925506 0.00047898
0.00047920 0.36388002 0.00047898
0.00047920 0.36388002 0.00047898
0.00047920 0.36388002 0.00047898
0.06708041 0.36388002 0.00047898
0.12371164 0.36388002 0.00047898
0.17609584 0.36388002 0.00047916
0.22571735 0.36388002 0.00047898
0.27329497 0.36388002 0.00047898
0.31925506 0.36388002 0.00047916
0.36388002 0.36388002 0.00047898
0.40737055 0.36388002 0.00047918
0.44987653 0.36388002 0.00047918
0.49151404 0.36388002 0.00047898
0.53237562 0.36388002 0.00047920
0.57253664 0.36388002 0.00047898
0.61205972 0.36388002 0.00047898
0.65099763 0.36388002 0.00047927
0.68939545 0.36388002 0.00047898
0.72729209 0.36388002 0.00047898
0.76472151 0.36388002 0.00047898
0.80171355 0.36388002 0.00047898
0.83829466 0.36388002 0.00047898
0.87448841 0.36388002 0.00047898
0.91031596 0.36388002 0.00047898
0.91886608 0.36388002 0.00047946
0.91886608 0.36388002 0.00047898
0.91886608 0.36388002 0.00047898
0.91886608 0.36388002 0.00047898
0.91886608 0.36388002 0.00047898
0.91886608 0.36388002 0.00047898
0.91886608 0.36388002 0.00047971
0.91886608 0.36388002 0.00047898
0.91886608 0.36388002 0.00047898
0.00047923 0.40737055 0.00047898
0.00047923 0.40737055 0.00047898
0.00047923 0.40737055 0.00047898
0.06708041 0.40737055 0.00047898
0.12371164 0.40737055 0.00047898
0.17609584 0.40737055 0.00047898
0.22571735 0.40737055 0.00047898
0.27329497 0.40737055 0.00047898
0.31925506 0.40737055 0.00047898
0.36388002 0.40737055 0.00047898
0.40737055 0.40737055 0.00047898
0.44987653 0.40737055 0.00047898
0.49151404 0.40737055 0.00047898
0.53237562 0.40737055 0.00047898
0.57253664 0.40737055 0.00047898
0.61205972 0.40737055 0.00047898
0.65099763 0.40737055 0.00047927
0.68939545 0.40737055 0.00047927
0.72729209 0.40737055 0.00047898
0.76472151 0.40737055 0.00047898
0.80171355 0.40737055 0.00047898
0.83829466 0.40737055 0.00047898
0.87448841 0.40737055 0.00047898
0.91031596 0.40737055 0.00047940
0.91886608 0.40737055 0.00047898
0.91886608 0.40737055 0.00047898
0.91886608 0.40737055 0.00047898
0.91886608 0.40737055 0.00047898
0.91886608 0.40737055 0.00047898
0.91886608 0.40737055 0.00047898
0.91886608 0.40737055 0.00047971
0.91886608 0.40737055 0.00047898
0.91886608 0.40737055 0.00047898
0.00047919 0.44987653 0.00047898
0.00047919 0.44987653 0.00047898
0.00047919 0.44987653 0.00047898
0.06708041 0.44987653 0.00047898
0.12371164 0.44987653 0.00047898
0.17609584 0.44987653 0.00047898
0.22571735 0.44987653 0.00047898
0.27329497 0.44987653 0.00047898
0.31925506 0.44987653 0.00047898
0.36388002 0.44987653 0.00047898
0.40737055 0.44987653 0.00047898
0.44987653 0.44987653 0.00047898
0.49151404 0.44987653 0.00047898
0.53237562 0.44987653 0.00047898
0.57253664 0.44987653 0.00047923
0.61205972 0.44987653 0.00047898
0.65099763 0.44987653 0.00047898
0.68939545 0.44987653 0.00047898
0.72729209 0.44987653 0.00047898
0.76472151 0.44987653 0.00047898
0.80171355 0.44987653 0.00047898
0.83829466 0.44987653 0.00047898
0.87448841 0.44987653 0.00047898
0.91031596 0.44987653 0.00047940
0.91886608 0.44987653 0.00047898
0.91886608 0.44987653 0.00047946
0.91886608 0.44987653 0.00047898
0.91886608 0.44987653 0.00047898
0.91886608 0.44987653 0.00047898
0.91886608 0.44987653 0.00047898
0.91886608 0.44987653 0.00047898
0.91886608 0.44987653 0.00047898
0.91886608 0.44987653 0.00047898
0.00047923 0.49151404 0.00047920
0.00047923 0.49151404 0.00047920
0.00047923 0.49151404 0.00047920
0.06708041 0.49151404 0.00047920
0.12371164 0.49151404 0.00047898
0.17609584 0.49151404 0.00047920
0.22571735 0.49151404 0.00047920
0.27329497 0.49151404 0.00047920
0.31925506 0.49151404 0.00047898
0.36388002 0.49151404 0.00047898
0.40737055 0.49151404 0.00047898
0.44987653 0.49151404 0.00047898
0.49151404 0.49151404 0.00047923
0.53237562 0.49151404 0.00047898
0.57253664 0.49151404 0.00047898
0.61205972 0.49151404 0.00047898
0.65099763 0.49151404 0.00047898
0.68939545 0.49151404 0.00047927
0.72729209 0.49151404 0.00047898
0.76472151 0.49151404 0.00047898
0.80171355 0.49151404 0.00047898
0.83829466 0.49151404 0.00047898
0.87448841 0.49151404 0.00047898
0.91031596 0.49151404 0.00047898
0.91886608 0.49151404 0.00047898
0.91886608 0.49151404 0.00047898
0.91886608 0.49151404 0.00047953
0.91886608 0.49151404 0.00047953
0.91886608 0.49151404 0.00047898
0.91886608 0.49151404 0.00047898
0.91886608 0.49151404 0.00047898
0.91886608 0.49151404 0.00047898
0.91886608 0.49151404 0.00047898
0.00047925 0.53237562 0.00047898
0.00047925 0.53237562 0.00047898
0.00047925 0.53237562 0.00047898
0.06708041 0.53237562 0.00047920
0.12371164 0.53237562 0.00047898
0.17609584 0.53237562 0.00047898
0.22571735 0.53237562 0.00047898
0.27329497 0.53237562 0.00047898
0.31925506 0.53237562 0.00047898
0.36388002 0.53237562 0.00047923
0.40737055 0.53237562 0.00047898
0.44987653 0.53237562 0.00047898
0.49151404 0.53237562 0.00047898
0.53237562 0.53237562 0.00047923
0.57253664 0.53237562 0.00047898
0.61205972 0.53237562 0.00047898
0.65099763 0.53237562 0.00047898
0.68939545 0.53237562 0.00047898
0.72729209 0.53237562 0.00047898
0.76472151 0.53237562 0.00047931
0.80171355 0.53237562 0.00047898
0.83829466 0.53237562 0.00047898
0.87448841 0.53237562 0.00047898
0.91031596 0.53237562 0.00047898
0.91886608 0.53237562 0.00047898
0.91886608 0.53237562 0.00047946
0.91886608 0.53237562 0.00047898
0.91886608 0.53237562 0.00047898
0.91886608 0.53237562 0.00047898
0.91886608 0.53237562 0.00047898
0.91886608 0.53237562 0.00047971
0.91886608 0.53237562 0.00047898
0.91886608 0.53237562 0.00047898
0.00047898 0.57253664 0.00047923
0.00047898 0.57253664 0.00047923
0.00047898 0.57253664 0.00047923
0.06708041 0.57253664 0.00047898
0.12371164 0.57253664 0.00047898
0.17609584 0.57253664 0.00047898
0.22571735 0.57253664 0.00047898
0.27329497 0.57253664 0.00047898
0.31925506 0.57253664 0.00047898
0.36388002 0.57253664 0.00047898
0.40737055 0.57253664 0.00047898
0.44987653 0.57253664 0.00047898
0.49151404 0.57253664 0.00047898
0.53237562 0.57253664 0.00047927
0.57253664 0.57253664 0.00047898
0.61205972 0.57253664 0.00047898
0.65099763 0.57253664 0.00047898
0.68939545 0.57253664 0.00047898
0.72729209 0.57253664 0.00047898
0.76472151 0.57253664 0.00047898
0.80171355 0.57253664 0.00047898
0.83829466 0.57253664 0.00047898
0.87448841 0.57253664 0.00047898
0.91031596 0.57253664 0.00047898
0.91886608 0.57253664 0.00047898
0.91886608 0.57253664 0.00047898
0.91886608 0.57253664 0.00047898
0.91886608 0.57253664 0.00047898
0.91886608 0.57253664 0.00047898
0.91886608 0.57253664 0.00047898
0.91886608 0.57253664 0.00047898
0.91886608 0.57253664 0.00047898
0.91886608 0.57253664 0.00047983
0.00047931 0.61205972 0.00047898
0.00047931 0.61205972 0.00047898
0.00047931 0.61205972 0.00047898
0.06708041 0.61205972 0.00047898
0.12371164 0.61205972 0.00047898
0.17609584 0.61205972 0.00047898
0.22571735 0.61205972 0.00047898
0.27329497 0.61205972 0.00047898
0.31925506 0.61205972 0.00047898
0.36388002 0.61205972 0.00047898
0.40737055 0.61205972 0.00047898
0.44987653 0.61205972 0.00047898
0.49151404 0.61205972 0.00047898
0.53237562 0.61205972 0.00047898
0.57253664 0.61205972 0.00047898
0.61205972 0.61205972 0.00047898
0.65099763 0.61205972 0.00047898
0.68939545 0.61205972 0.00047898
0.72729209 0.61205972 0.00047898
0.76472151 0.61205972 0.00047898
0.80171355 0.61205972 0.00047898
0.83829466 0.61205972 0.00047898
0.87448841 0.61205972 0.00047898
0.91031596 0.61205972 0.00047898
0.91886608 0.61205972 0.00047946
0.91886608 0.61205972 0.00047898
0.91886608 0.61205972 0.00047898
0.91886608 0.61205972 0.00047898
0.91886608 0.61205972 0.00047961
0.91886608 0.61205972 0.00047898
0.91886608 0.61205972 0.00047898
0.91886608 0.61205972 0.00047898
0.91886608 0.61205972 0.00047898
0.00047925 0.65099763 0.00047898
0.00047925 0.65099763 0.00047898
0.00047925 0.65099763 0.00047898
0.06708041 0.65099763 0.00047898
0.12371164 0.65099763 0.00047898
0.17609584 0.65099763 0.00047898
0.22571735 0.65099763 0.00047898
0.27329497 0.65099763 0.00047898
0.31925506 0.65099763 0.00047898
0.36388002 0.65099763 0.00047898
0.40737055 0.65099763 0.00047898
0.44987653 0.65099763 0.00047898
0.49151404 0.65099763 0.00047898
0.53237562 0.65099763 0.00047898
0.57253664 0.65099763 0.00047898
0.61205972 0.65099763 0.00047898
0.65099763 0.65099763 0.00047898
0.68939545 0.65099763 0.00047931
0.72729209 0.65099763 0.00047898
0.76472151 0.65099763 0.00047898
0.80171355 0.65099763 0.00047898
0.83829466 0.65099763 0.00047898
0.87448841 0.65099763 0.00047898
0.91031596 0.65099763 0.00047898
0.91886608 0.65099763 0.00047898
0.91886608 0.65099763 0.00047898
0.91886608 0.65099763 0.00047898
0.91886608 0.65099763 0.00047898
0.91886608 0.65099763 0.00047898
0.91886608 0.65099763 0.00047898
0.91886608 0.65099763 0.00047971
0.91886608 0.65099763 0.00047898
0.91886608 0.65099763 0.00047898
0.00047925 0.68939545 0.00047898
0.00047925 0.68939545 0.00047898
0.00047925 0.68939545 0.00047898
0.06708041 0.68939545 0.00047898
0.12371164 0.68939545 0.00047931
0.17609584 0.68939545 0.00047898
0.22571735 0.68939545 0.00047898
0.27329497 0.68939545 0.00047898
0.31925506 0.68939545 0.00047898
0.36388002 0.68939545 0.00047898
0.40737055 0.68939545 0.00047898
0.44987653 0.68939545 0.00047898
0.49151404 0.68939545 0.00047898
0.53237562 0.68939545 0.00047931
0.57253664 0.68939545 0.00047898
0.61205972 0.68939545 0.00047898
0.65099763 0.68939545 0.00047898
0.68939545 0.68939545 0.00047898
0.72729209 0.68939545 0.00047898
0.76472151 0.68939545 0.00047898
0.80171355 0.68939545 0.00047898
0.83829466 0.68939545 0.00047898
0.87448841 0.68939545 0.00047898
0.91031596 0.68939545 0.00047898
0.91886608 0.68939545 0.00047898
0.91886608 0.68939545 0.00047946
0.91886608 0.68939545 0.00047898
0.91886608 0.68939545 0.00047898
0.91886608 0.68939545 0.00047961
0.91886608 0.68939545 0.00047898
0.91886608 0.68939545 0.00047898
0.91886608 0.68939545 0.00047898
0.91886608 0.68939545 0.00047898
0.00047932 0.72729209 0.00047898
0.00047932 0.72729209 0.00047898
0.00047932 0.72729209 0.00047898
0.06708041 0.72729209 0.00047898
0.12371164 0.72729209 0.00047898
0.17609584 0.72729209 0.00047898
0.22571735 0.72729209 0.00047898
0.27329497 0.72729209 0.00047898
0.31925506 0.72729209 0.00047898
0.36388002 0.72729209 0.00047898
0.40737055 0.72729209 0.00047898
0.44987653 0.72729209 0.00047898
0.49151404 0.72729209 0.00047898
0.53237562 0.72729209 0.00047898
0.57253664 0.72729209 0.00047898
0.61205972 0.72729209 0.00047898
0.65099763 0.72729209 0.00047898
0.68939545 0.72729209 0.00047898
0.72729209 0.72729209 0.00047898
0.76472151 0.72729209 0.00047898
0.80171355 0.72729209 0.00047898
0.83829466 0.72729209 0.00047898
0.87448841 0.72729209 0.00047940
0.91031596 0.72729209 0.00047898
0.91886608 0.72729209 0.00047898
0.91886608 0.72729209 0.00047898
0.91886608 0.72729209 0.00047898
0.91886608 0.72729209 0.00047898
0.91886608 0.72729209 0.00047961
0.91886608 0.72729209 0.00047898
0.91886608 0.72729209 0.00047898
0.91886608 0.72729209 0.00047898
0.91886608 0.72729209 0.00047898
0.00047933 0.76472151 0.00047898
0.00047933 0.76472151 0.00047898
0.00047933 0.76472151 0.00047898
0.06708041 0.76472151 0.00047898
0.12371164 0.76472151 0.00047898
0.17609584 0.76472151 0.00047898
0.22571735 0.76472151 0.00047898
0.27329497 0.76472151 0.00047898
0.31925506 0.76472151 0.00047898
0.36388002 0.76472151 0.00047898
0.40737055 0.76472151 0.00047898
0.44987653 0.76472151 0.00047898
0.49151404 0.76472151 0.00047898
0.53237562 0.76472151 0.00047898
0.57253664 0.76472151 0.00047898
0.61205972 0.76472151 0.00047935
0.65099763 0.76472151 0.00047898
0.68939545 0.76472151 0.00047898
0.72729209 0.76472151 0.00047935
0.76472151 0.76472151 0.00047898
0.80171355 0.76472151 0.00047898
0.83829466 0.76472151 0.00047898
0.87448841 0.76472151 0.00047898
0.91031596 0.76472151 0.00047898
0.91886608 0.76472151 0.00047898
0.91886608 0.76472151 0.00047898
0.91886608 0.76472151 0.00047953
0.91886608 0.76472151 0.00047898
0.91886608 0.76472151 0.00047961
0.91886608 0.76472151 0.00047898
0.91886608 0.76472151 0.00047898
0.91886608 0.76472151 0.00047898
0.91886608 0.76472151 0.00047983
0.00047941 0.80171355 0.00047898
0.00047941 0.80171355 0.00047898
0.00047941 0.80171355 0.00047898
0.06708041 0.80171355 0.00047898
0.12371164 0.80171355 0.00047898
0.17609584 0.80171355 0.00047935
0.22571735 0.80171355 0.00047898
0.27329497 0.80171355 0.00047898
0.31925506 0.80171355 0.00047898
0.36388002 0.80171355 0.00047935
0.40737055 0.80171355 0.00047898
0.44987653 0.80171355 0.00047898
0.49151404 0.80171355 0.00047898
0.53237562 0.80171355 0.00047898
0.57253664 0.80171355 0.00047898
0.61205972 0.80171355 0.00047898
0.65099763 0.80171355 0.00047898
0.68939545 0.80171355 0.00047898
0.72729209 0.80171355 0.00047898
0.76472151 0.80171355 0.00047898
0.80171355 0.80171355 0.00047898
0.83829466 0.80171355 0.00047898
0.87448841 0.80171355 0.00047898
0.91031596 0.80171355 0.00047946
0.91886608 0.80171355 0.00047898
0.91886608 0.80171355 0.00047898
0.91886608 0.80171355 0.00047953
0.91886608 0.80171355 0.00047898
0.91886608 0.80171355 0.00047898
0.91886608 0.80171355 0.00047898
0.91886608 0.80171355 0.00047898
0.91886608 0.80171355 0.00047898
0.91886608 0.80171355 0.00047898
0.00047943 0.83829466 0.00047898
0.00047943 0.83829466 0.00047898
0.00047943 0.83829466 0.00047898
0.06708041 0.83829466 0.00047898
0.12371164 0.83829466 0.00047898
0.17609584 0.83829466 0.00047898
0.22571735 0.83829466 0.00047898
0.27329497 0.83829466 0.00047898
0.31925506 0.83829466 0.00047898
0.36388002 0.83829466 0.00047898
0.40737055 0.83829466 0.00047898
0.44987653 0.83829466 0.00047898
0.49151404 0.83829466 0.00047898
0.53237562 0.83829466 0.00047898
0.57253664 0.83829466 0.00047898
0.61205972 0.83829466 0.00047898
0.65099763 0.83829466 0.00047898
0.68939545 0.83829466 0.00047898
0.72729209 0.83829466 0.00047898
0.76472151 0.83829466 0.00047898
0.80171355 0.83829466 0.00047898
0.83829466 0.83829466 0.00047898
0.87448841 0.83829466 0.00047898
0.91031596 0.83829466 0.00047898
0.91886608 0.83829466 0.00047898
0.91886608 0.83829466 0.00047898
0.91886608 0.83829466 0.00047898
