src/ffmpeg_scripts/luts/luminance-unclipped_-0p33.cube
TITLE "luminance-unclipped_-0p33"
LUT_3D_SIZE 33
# PQ (EOTF Only)/Rec2020 -> PQ (EOTF Only)/Rec2020, CineEI Shift -0.33, Black Level -7.25% IRE, Input 109% -> Output 109% - Created with LUTCalc v4.01 by Ben Turley October 2020
0.00047898 0.00047898 0.00047898
0.00047898 0.00047898 0.00047898
0.00047898 0.00047898 0.00047898
0.03291067 0.00047898 0.00047898
0.06624797 0.00047905 0.00047898
0.10002416 0.00047898 0.00047898
0.13411502 0.00047907 0.00047907
0.16845521 0.00047908 0.00047898
0.20300363 0.00047898 0.00047898
0.23773174 0.00047898 0.00047898
0.27261847 0.00047898 0.00047898
0.30764755 0.00047911 0.00047898
0.34280599 0.00047898 0.00047914
0.37808317 0.00047910 0.00047916
0.41347020 0.00047912 0.00047898
0.44895957 0.00047898 0.00047898
0.48454478 0.00047916 0.00047920
0.52022022 0.00047898 0.00047920
0.55598091 0.00047920 0.00047920
0.59182246 0.00047924 0.00047898
0.62774096 0.00047898 0.00047898
0.66373286 0.00047931 0.00047927
0.69979499 0.00047898 0.00047898
0.73592444 0.00047898 0.00047898
0.77211855 0.00047898 0.00047898
0.80837491 0.00047898 0.00047935
0.84469126 0.00047931 0.00047898
0.88106554 0.00047935 0.00047898
0.91749583 0.00047945 0.00047898
0.91886608 0.00047898 0.00047898
0.91886608 0.00047935 0.00047898
0.91886608 0.00047898 0.00047898
0.91886608 0.00047946 0.00047953
0.00047898 0.00047898 0.00047898
0.00047898 0.00047898 0.00047898
0.00047898 0.00047898 0.00047898
0.03291067 0.00047898 0.00047898
0.06624797 0.00047905 0.00047898
0.10002416 0.00047898 0.00047898
0.13411502 0.00047907 0.00047907
0.16845521 0.00047908 0.00047898
0.20300363 0.00047898 0.00047898
0.23773174 0.00047898 0.00047898
0.27261847 0.00047898 0.00047898
0.30764755 0.00047911 0.00047898
0.34280599 0.00047898 0.00047914
0.37808317 0.00047910 0.00047916
0.41347020 0.00047912 0.00047898
0.44895957 0.00047898 0.00047898
0.48454478 0.00047916 0.00047920
0.52022022 0.00047898 0.00047920
0.55598091 0.00047920 0.00047920
0.59182246 0.00047924 0.00047898
0.62774096 0.00047898 0.00047898
0.66373286 0.00047931 0.00047927
0.69979499 0.00047898 0.00047898
0.73592444 0.00047898 0.00047898
0.77211855 0.00047898 0.00047898
0.80837491 0.00047898 0.00047935
0.84469126 0.00047931 0.00047898
0.88106554 0.00047935 0.00047898
0.91749583 0.00047945 0.00047898
0.91886608 0.00047898 0.00047898
0.91886608 0.00047935 0.00047898
0.91886608 0.00047898 0.00047898
0.91886608 0.00047946 0.00047953
0.00047898 0.00047898 0.00047898
0.00047898 0.00047898 0.00047898
0.00047898 0.00047898 0.00047898
0.03291067 0.00047898 0.00047898
0.06624797 0.00047905 0.00047898
0.10002416 0.00047898 0.00047898
0.13411502 0.00047907 0.00047907
0.16845521 0.00047908 0.00047898
0.20300363 0.00047898 0.00047898
0.23773174 0.00047898 0.00047898
0.27261847 0.00047898 0.00047898
0.30764755 0.00047911 0.00047898
0.34280599 0.00047898 0.00047914
0.37808317 0.00047910 0.00047916
0.41347020 0.00047912 0.00047898
0.44895957 0.00047898 0.00047898
0.48454478 0.00047916 0.00047920
0.52022022 0.00047898 0.00047920
0.55598091 0.00047920 0.00047920
0.59182246 0.00047924 0.00047898
0.62774096 0.00047898 0.00047898
0.66373286 0.00047931 0.00047927
0.69979499 0.00047898 0.00047898
0.73592444 0.00047898 0.00047898
0.77211855 0.00047898 0.00047898
0.80837491 0.00047898 0.00047935
0.84469126 0.00047931 0.00047898
0.88106554 0.00047935 0.00047898
0.91749583 0.00047945 0.00047898
0.91886608 0.00047898 0.00047898
0.91886608 0.00047935 0.00047898
0.91886608 0.00047898 0.00047898
0.91886608 0.00047946 0.00047953
0.00047904 0.03291067 0.00047898
0.00047904 0.03291067 0.00047898
0.00047904 0.03291067 0.00047898
0.03291067 0.03291067 0.00047898
0.06624797 0.03291067 0.00047898
0.10002416 0.03291067 0.00047898
0.13411502 0.03291067 0.00047898
0.16845521 0.03291067 0.00047898
0.20300363 0.03291067 0.00047898
0.23773174 0.03291067 0.00047910
0.27261847 0.03291067 0.00047898
0.30764755 0.03291067 0.00047898
0.34280599 0.03291067 0.00047898
0.37808317 0.03291067 0.00047898
0.41347020 0.03291067 0.00047916
0.44895957 0.03291067 0.00047898
0.48454478 0.03291067 0.00047920
0.52022022 0.03291067 0.00047898
0.55598091 0.03291067 0.00047898
0.59182246 0.03291067 0.00047898
0.62774096 0.03291067 0.00047923
0.66373286 0.03291067 0.00047898
0.69979499 0.03291067 0.00047927
0.73592444 0.03291067 0.00047898
0.77211855 0.03291067 0.00047898
0.80837491 0.03291067 0.00047898
0.84469126 0.03291067 0.00047898
0.88106554 0.03291067 0.00047898
0.91749583 0.03291067 0.00047898
0.91886608 0.03291067 0.00047898
0.91886608 0.03291067 0.00047953
0.91886608 0.03291067 0.00047898
0.91886608 0.03291067 0.00047961
0.00047906 0.06624797 0.00047898
0.00047906 0.06624797 0.00047898
0.00047906 0.06624797 0.00047898
0.03291067 0.06624797 0.00047898
0.06624797 0.06624797 0.00047898
0.10002416 0.06624797 0.00047898
0.13411502 0.06624797 0.00047909
0.16845521 0.06624797 0.00047909
0.20300363 0.06624797 0.00047898
0.23773174 0.06624797 0.00047910
0.27261847 0.06624797 0.00047898
0.30764755 0.06624797 0.00047912
0.34280599 0.06624797 0.00047898
0.37808317 0.06624797 0.00047898
0.41347020 0.06624797 0.00047916
0.44895957 0.06624797 0.00047898
0.48454478 0.06624797 0.00047898
0.52022022 0.06624797 0.00047920
0.55598091 0.06624797 0.00047898
0.59182246 0.06624797 0.00047898
0.62774096 0.06624797 0.00047898
0.66373286 0.06624797 0.00047898
0.69979499 0.06624797 0.00047898
0.73592444 0.06624797 0.00047931
0.77211855 0.06624797 0.00047898
0.80837491 0.06624797 0.00047898
0.84469126 0.06624797 0.00047935
0.88106554 0.06624797 0.00047898
0.91749583 0.06624797 0.00047940
0.91886608 0.06624797 0.00047898
0.91886608 0.06624797 0.00047898
0.91886608 0.06624797 0.00047898
0.91886608 0.06624797 0.00047898
0.00047898 0.10002416 0.00047898
0.00047898 0.10002416 0.00047898
0.00047898 0.10002416 0.00047898
0.03291067 0.10002416 0.00047898
0.06624797 0.10002416 0.00047898
0.10002416 0.10002416 0.00047898
0.13411502 0.10002416 0.00047908
0.16845521 0.10002416 0.00047909
0.20300363 0.10002416 0.00047910
0.23773174 0.10002416 0.00047910
0.27261847 0.10002416 0.00047898
0.30764755 0.10002416 0.00047898
0.34280599 0.10002416 0.00047898
0.37808317 0.10002416 0.00047898
0.41347020 0.10002416 0.00047898
0.44895957 0.10002416 0.00047898
0.48454478 0.10002416 0.00047898
0.52022022 0.10002416 0.00047898
0.55598091 0.10002416 0.00047898
0.59182246 0.10002416 0.00047898
0.62774096 0.10002416 0.00047923
0.66373286 0.10002416 0.00047927
0.69979499 0.10002416 0.00047898
0.73592444 0.10002416 0.00047898
0.77211855 0.10002416 0.00047898
0.80837491 0.10002416 0.00047898
0.84469126 0.10002416 0.00047935
0.88106554 0.10002416 0.00047898
0.91749583 0.10002416 0.00047940
0.91886608 0.10002416 0.00047898
0.91886608 0.10002416 0.00047898
0.91886608 0.10002416 0.00047898
0.91886608 0.10002416 0.00047953
0.00047904 0.13411502 0.00047898
0.00047904 0.13411502 0.00047898
0.00047904 0.13411502 0.00047898
0.03291067 0.13411502 0.00047898
0.06624797 0.13411502 0.00047898
0.10002416 0.13411502 0.00047898
0.13411502 0.13411502 0.00047898
0.16845521 0.13411502 0.00047909
0.20300363 0.13411502 0.00047898
0.23773174 0.13411502 0.00047910
0.27261847 0.13411502 0.00047898
0.30764755 0.13411502 0.00047898
0.34280599 0.13411502 0.00047898
0.37808317 0.13411502 0.00047898
0.41347020 0.13411502 0.00047918
0.44895957 0.13411502 0.00047918
0.48454478 0.13411502 0.00047898
0.52022022 0.13411502 0.00047920
0.55598091 0.13411502 0.00047898
0.59182246 0.13411502 0.00047898
0.62774096 0.13411502 0.00047898
0.66373286 0.13411502 0.00047898
0.69979499 0.13411502 0.00047927
0.73592444 0.13411502 0.00047898
0.77211855 0.13411502 0.00047898
0.80837491 0.13411502 0.00047898
0.84469126 0.13411502 0.00047935
0.88106554 0.13411502 0.00047898
0.91749583 0.13411502 0.00047898
0.91886608 0.13411502 0.00047898
0.91886608 0.13411502 0.00047946
0.91886608 0.13411502 0.00047898
0.91886608 0.13411502 0.00047898
0.00047911 0.16845521 0.00047898
0.00047911 0.16845521 0.00047898
0.00047911 0.16845521 0.00047898
0.03291067 0.16845521 0.00047898
0.06624797 0.16845521 0.00047898
0.10002416 0.16845521 0.00047898
0.13411502 0.16845521 0.00047898
0.16845521 0.16845521 0.00047898
0.20300363 0.16845521 0.00047898
0.23773174 0.16845521 0.00047898
0.27261847 0.16845521 0.00047912
0.30764755 0.16845521 0.00047898
0.34280599 0.16845521 0.00047898
0.37808317 0.16845521 0.00047916
0.41347020 0.16845521 0.00047916
0.44895957 0.16845521 0.00047898
0.48454478 0.16845521 0.00047898
0.52022022 0.16845521 0.00047920
0.55598091 0.16845521 0.00047920
0.59182246 0.16845521 0.00047898
0.62774096 0.16845521 0.00047898
0.66373286 0.16845521 0.00047898
0.69979499 0.16845521 0.00047898
0.73592444 0.16845521 0.00047898
0.77211855 0.16845521 0.00047898
0.80837491 0.16845521 0.00047898
0.84469126 0.16845521 0.00047898
0.88106554 0.16845521 0.00047898
0.91749583 0.16845521 0.00047898
0.91886608 0.16845521 0.00047898
0.91886608 0.16845521 0.00047898
0.91886608 0.16845521 0.00047898
0.91886608 0.16845521 0.00047898
0.00047911 0.20300363 0.00047898
0.00047911 0.20300363 0.00047898
0.00047911 0.20300363 0.00047898
0.03291067 0.20300363 0.00047910
0.06624797 0.20300363 0.00047898
0.10002416 0.20300363 0.00047898
0.13411502 0.20300363 0.00047898
0.16845521 0.20300363 0.00047898
0.20300363 0.20300363 0.00047898
0.23773174 0.20300363 0.00047898
0.27261847 0.20300363 0.00047912
0.30764755 0.20300363 0.00047898
0.34280599 0.20300363 0.00047898
0.37808317 0.20300363 0.00047898
0.41347020 0.20300363 0.00047898
0.44895957 0.20300363 0.00047898
0.48454478 0.20300363 0.00047918
0.52022022 0.20300363 0.00047898
0.55598091 0.20300363 0.00047898
0.59182246 0.20300363 0.00047898
0.62774096 0.20300363 0.00047898
0.66373286 0.20300363 0.00047898
0.69979499 0.20300363 0.00047898
0.73592444 0.20300363 0.00047898
0.77211855 0.20300363 0.00047898
0.80837491 0.20300363 0.00047898
0.84469126 0.20300363 0.00047898
0.88106554 0.20300363 0.00047898
0.91749583 0.20300363 0.00047898
0.91886608 0.20300363 0.00047898
0.91886608 0.20300363 0.00047898
0.91886608 0.20300363 0.00047898
0.91886608 0.20300363 0.00047898
0.00047913 0.23773174 0.00047898
0.00047913 0.23773174 0.00047898
0.00047913 0.23773174 0.00047898
0.03291067 0.23773174 0.00047898
0.06624797 0.23773174 0.00047898
0.10002416 0.23773174 0.00047898
0.13411502 0.23773174 0.00047898
0.16845521 0.23773174 0.00047898
0.20300363 0.23773174 0.00047898
0.23773174 0.23773174 0.00047898
0.27261847 0.23773174 0.00047898
0.30764755 0.23773174 0.00047914
0.34280599 0.23773174 0.00047898
0.37808317 0.23773174 0.00047916
0.41347020 0.23773174 0.00047898
0.44895957 0.23773174 0.00047898
0.48454478 0.23773174 0.00047918
0.52022022 0.23773174 0.00047920
0.55598091 0.23773174 0.00047920
0.59182246 0.23773174 0.00047923
0.62774096 0.23773174 0.00047898
0.66373286 0.23773174 0.00047898
0.69979499 0.23773174 0.00047898
0.73592444 0.23773174 0.00047931
0.77211855 0.23773174 0.00047931
0.80837491 0.23773174 0.00047935
0.84469126 0.23773174 0.00047898
0.88106554 0.23773174 0.00047898
0.91749583 0.23773174 0.00047940
0.91886608 0.23773174 0.00047898
0.91886608 0.23773174 0.00047946
0.91886608 0.23773174 0.00047898
0.91886608 0.23773174 0.00047898
0.00047914 0.27261847 0.00047898
0.00047914 0.27261847 0.00047898
0.00047914 0.27261847 0.00047898
0.03291067 0.27261847 0.00047898
0.06624797 0.27261847 0.00047898
0.10002416 0.27261847 0.00047898
0.13411502 0.27261847 0.00047898
0.16845521 0.27261847 0.00047898
0.20300363 0.27261847 0.00047898
0.23773174 0.27261847 0.00047898
0.27261847 0.27261847 0.00047898
0.30764755 0.27261847 0.00047898
0.34280599 0.27261847 0.00047898
0.37808317 0.27261847 0.00047916
0.41347020 0.27261847 0.00047898
0.44895957 0.27261847 0.00047898
0.48454478 0.27261847 0.00047898
0.52022022 0.27261847 0.00047898
0.55598091 0.27261847 0.00047898
0.59182246 0.27261847 0.00047898
0.62774096 0.27261847 0.00047898
0.66373286 0.27261847 0.00047898
0.69979499 0.27261847 0.00047898
0.73592444 0.27261847 0.00047898
0.77211855 0.27261847 0.00047898
0.80837491 0.27261847 0.00047935
0.84469126 0.27261847 0.00047898
0.88106554 0.27261847 0.00047898
0.91749583 0.27261847 0.00047898
0.91886608 0.27261847 0.00047898
0.91886608 0.27261847 0.00047898
0.91886608 0.27261847 0.00047898
0.91886608 0.27261847 0.00047898
0.00047912 0.30764755 0.00047898
0.00047912 0.30764755 0.00047898
0.00047912 0.30764755 0.00047898
0.03291067 0.30764755 0.00047898
0.06624797 0.30764755 0.00047898
0.10002416 0.30764755 0.00047898
0.13411502 0.30764755 0.00047898
0.16845521 0.30764755 0.00047898
0.20300363 0.30764755 0.00047898
0.23773174 0.30764755 0.00047898
0.27261847 0.30764755 0.00047898
0.30764755 0.30764755 0.00047916
0.34280599 0.30764755 0.00047898
0.37808317 0.30764755 0.00047898
0.41347020 0.30764755 0.00047898
0.44895957 0.30764755 0.00047898
0.48454478 0.30764755 0.00047898
0.52022022 0.30764755 0.00047898
0.55598091 0.30764755 0.00047898
0.59182246 0.30764755 0.00047898
0.62774096 0.30764755 0.00047898
0.66373286 0.30764755 0.00047898
0.69979499 0.30764755 0.00047927
0.73592444 0.30764755 0.00047898
0.77211855 0.30764755 0.00047898
0.80837491 0.30764755 0.00047898
0.84469126 0.30764755 0.00047898
0.88106554 0.30764755 0.00047898
0.91749583 0.30764755 0.00047898
0.91886608 0.30764755 0.00047898
0.91886608 0.30764755 0.00047946
0.91886608 0.30764755 0.00047898
0.91886608 0.30764755 0.00047898
0.00047917 0.34280599 0.00047914
0.00047917 0.34280599 0.00047914
0.00047917 0.34280599 0.00047914
0.03291067 0.34280599 0.00047898
0.06624797 0.34280599 0.00047898
0.10002416 0.34280599 0.00047916
0.13411502 0.34280599 0.00047916
0.16845521 0.34280599 0.00047898
0.20300363 0.34280599 0.00047898
0.23773174 0.34280599 0.00047916
0.27261847 0.34280599 0.00047898
0.30764755 0.34280599 0.00047898
0.34280599 0.34280599 0.00047916
0.37808317 0.34280599 0.00047898
0.41347020 0.34280599 0.00047898
0.44895957 0.34280599 0.00047898
0.48454478 0.34280599 0.00047920
0.52022022 0.34280599 0.00047898
0.55598091 0.34280599 0.00047920
0.59182246 0.34280599 0.00047898
0.62774096 0.34280599 0.00047898
0.66373286 0.34280599 0.00047898
0.69979499 0.34280599 0.00047927
0.73592444 0.34280599 0.00047898
0.77211855 0.34280599 0.00047898
0.80837491 0.34280599 0.00047935
0.84469126 0.34280599 0.00047898
0.88106554 0.34280599 0.00047940
0.91749583 0.34280599 0.00047940
0.91886608 0.34280599 0.00047898
0.91886608 0.34280599 0.00047946
0.91886608 0.34280599 0.00047898
0.91886608 0.34280599 0.00047898
0.00047916 0.37808317 0.00047898
0.00047916 0.37808317 0.00047898
0.00047916 0.37808317 0.00047898
0.03291067 0.37808317 0.00047916
0.06624797 0.37808317 0.00047898
0.10002416 0.37808317 0.00047898
0.13411502 0.37808317 0.00047916
0.16845521 0.37808317 0.00047898
0.20300363 0.37808317 0.00047898
0.23773174 0.37808317 0.00047898
0.27261847 0.37808317 0.00047916
0.30764755 0.37808317 0.00047898
0.34280599 0.37808317 0.00047898
0.37808317 0.37808317 0.00047918
0.41347020 0.37808317 0.00047898
0.44895957 0.37808317 0.00047898
0.48454478 0.37808317 0.00047898
0.52022022 0.37808317 0.00047898
0.55598091 0.37808317 0.00047923
0.59182246 0.37808317 0.00047898
0.62774096 0.37808317 0.00047898
0.66373286 0.37808317 0.00047898
0.69979499 0.37808317 0.00047898
0.73592444 0.37808317 0.00047898
0.77211855 0.37808317 0.00047898
0.80837491 0.37808317 0.00047898
0.84469126 0.37808317 0.00047898
0.88106554 0.37808317 0.00047898
0.91749583 0.37808317 0.00047940
0.91886608 0.37808317 0.00047898
0.91886608 0.37808317 0.00047898
0.91886608 0.37808317 0.00047898
0.91886608 0.37808317 0.00047898
0.00047916 0.41347020 0.00047898
0.00047916 0.41347020 0.00047898
0.00047916 0.41347020 0.00047898
0.03291067 0.41347020 0.00047898
0.06624797 0.41347020 0.00047898
0.10002416 0.41347020 0.00047898
0.13411502 0.41347020 0.00047898
0.16845521 0.41347020 0.00047898
0.20300363 0.41347020 0.00047898
0.23773174 0.41347020 0.00047898
0.27261847 0.41347020 0.00047920
0.30764755 0.41347020 0.00047918
0.34280599 0.41347020 0.00047898
0.37808317 0.41347020 0.00047918
0.41347020 0.41347020 0.00047898
0.44895957 0.41347020 0.00047898
0.48454478 0.41347020 0.00047920
0.52022022 0.41347020 0.00047923
0.55598091 0.41347020 0.00047923
0.59182246 0.41347020 0.00047898
0.62774096 0.41347020 0.00047898
0.66373286 0.41347020 0.00047898
0.69979499 0.41347020 0.00047927
0.73592444 0.41347020 0.00047898
0.77211855 0.41347020 0.00047931
0.80837491 0.41347020 0.00047898
0.84469126 0.41347020 0.00047898
0.88106554 0.41347020 0.00047898
0.91749583 0.41347020 0.00047898
0.91886608 0.41347020 0.00047898
0.91886608 0.41347020 0.00047898
0.91886608 0.41347020 0.00047898
0.91886608 0.41347020 0.00047953
0.00047923 0.44895957 0.00047898
0.00047923 0.44895957 0.00047898
0.00047923 0.44895957 0.00047898
0.03291067 0.44895957 0.00047898
0.06624797 0.44895957 0.00047898
0.10002416 0.44895957 0.00047898
0.13411502 0.44895957 0.00047898
0.16845521 0.44895957 0.00047898
0.20300363 0.44895957 0.00047898
0.23773174 0.44895957 0.00047898
0.27261847 0.44895957 0.00047898
0.30764755 0.44895957 0.00047898
0.34280599 0.44895957 0.00047898
0.37808317 0.44895957 0.00047898
0.41347020 0.44895957 0.00047898
0.44895957 0.44895957 0.00047898
0.48454478 0.44895957 0.00047898
0.52022022 0.44895957 0.00047898
0.55598091 0.44895957 0.00047898
0.59182246 0.44895957 0.00047898
0.62774096 0.44895957 0.00047898
0.66373286 0.44895957 0.00047898
0.69979499 0.44895957 0.00047927
0.73592444 0.44895957 0.00047898
0.77211855 0.44895957 0.00047898
0.80837491 0.44895957 0.00047898
0.84469126 0.44895957 0.00047898
0.88106554 0.44895957 0.00047898
0.91749583 0.44895957 0.00047898
0.91886608 0.44895957 0.00047898
0.91886608 0.44895957 0.00047898
0.91886608 0.44895957 0.00047898
0.91886608 0.44895957 0.00047953
0.00047898 0.48454478 0.00047898
0.00047898 0.48454478 0.00047898
0.00047898 0.48454478 0.00047898
0.03291067 0.48454478 0.00047898
0.06624797 0.48454478 0.00047898
0.10002416 0.48454478 0.00047898
0.13411502 0.48454478 0.00047898
0.16845521 0.48454478 0.00047898
0.20300363 0.48454478 0.00047898
0.23773174 0.48454478 0.00047898
0.27261847 0.48454478 0.00047898
0.30764755 0.48454478 0.00047898
0.34280599 0.48454478 0.00047898
0.37808317 0.48454478 0.00047898
0.41347020 0.48454478 0.00047920
0.44895957 0.48454478 0.00047920
0.48454478 0.48454478 0.00047898
0.52022022 0.48454478 0.00047898
0.55598091 0.48454478 0.00047898
0.59182246 0.48454478 0.00047898
0.62774096 0.48454478 0.00047898
0.66373286 0.48454478 0.00047898
0.69979499 0.48454478 0.00047927
0.73592444 0.48454478 0.00047898
0.77211855 0.48454478 0.00047898
0.80837491 0.48454478 0.00047898
0.84469126 0.48454478 0.00047898
0.88106554 0.48454478 0.00047898
0.91749583 0.48454478 0.00047898
0.91886608 0.48454478 0.00047898
0.91886608 0.48454478 0.00047898
0.91886608 0.48454478 0.00047898
0.91886608 0.48454478 0.00047898
0.00047924 0.52022022 0.00047898
0.00047924 0.52022022 0.00047898
0.00047924 0.52022022 0.00047898
0.03291067 0.52022022 0.00047898
0.06624797 0.52022022 0.00047898
0.10002416 0.52022022 0.00047898
0.13411502 0.52022022 0.00047898
0.16845521 0.52022022 0.00047898
0.20300363 0.52022022 0.00047920
0.23773174 0.52022022 0.00047898
0.27261847 0.52022022 0.00047920
0.30764755 0.52022022 0.00047920
0.34280599 0.52022022 0.00047898
0.37808317 0.52022022 0.00047920
0.41347020 0.52022022 0.00047898
0.44895957 0.52022022 0.00047898
0.48454478 0.52022022 0.00047923
0.52022022 0.52022022 0.00047898
0.55598091 0.52022022 0.00047898
0.59182246 0.52022022 0.00047898
0.62774096 0.52022022 0.00047898
0.66373286 0.52022022 0.00047927
0.69979499 0.52022022 0.00047898
0.73592444 0.52022022 0.00047898
0.77211855 0.52022022 0.00047898
0.80837491 0.52022022 0.00047898
0.84469126 0.52022022 0.00047898
0.88106554 0.52022022 0.00047940
0.91749583 0.52022022 0.00047940
0.91886608 0.52022022 0.00047898
0.91886608 0.52022022 0.00047898
0.91886608 0.52022022 0.00047953
0.91886608 0.52022022 0.00047953
0.00047927 0.55598091 0.00047898
0.00047927 0.55598091 0.00047898
0.00047927 0.55598091 0.00047898
0.03291067 0.55598091 0.00047898
0.06624797 0.55598091 0.00047898
0.10002416 0.55598091 0.00047898
0.13411502 0.55598091 0.00047898
0.16845521 0.55598091 0.00047898
0.20300363 0.55598091 0.00047898
0.23773174 0.55598091 0.00047898
0.27261847 0.55598091 0.00047898
0.30764755 0.55598091 0.00047923
0.34280599 0.55598091 0.00047898
0.37808317 0.55598091 0.00047898
0.41347020 0.55598091 0.00047898
0.44895957 0.55598091 0.00047898
0.48454478 0.55598091 0.00047898
0.52022022 0.55598091 0.00047898
0.55598091 0.55598091 0.00047898
0.59182246 0.55598091 0.00047898
0.62774096 0.55598091 0.00047898
0.66373286 0.55598091 0.00047898
0.69979499 0.55598091 0.00047898
0.73592444 0.55598091 0.00047898
0.77211855 0.55598091 0.00047898
0.80837491 0.55598091 0.00047898
0.84469126 0.55598091 0.00047898
0.88106554 0.55598091 0.00047940
0.91749583 0.55598091 0.00047898
0.91886608 0.55598091 0.00047898
0.91886608 0.55598091 0.00047898
0.91886608 0.55598091 0.00047898
0.91886608 0.55598091 0.00047953
0.00047927 0.59182246 0.00047898
0.00047927 0.59182246 0.00047898
0.00047927 0.59182246 0.00047898
0.03291067 0.59182246 0.00047898
0.06624797 0.59182246 0.00047898
0.10002416 0.59182246 0.00047898
0.13411502 0.59182246 0.00047898
0.16845521 0.59182246 0.00047898
0.20300363 0.59182246 0.00047898
0.23773174 0.59182246 0.00047898
0.27261847 0.59182246 0.00047898
0.30764755 0.59182246 0.00047923
0.34280599 0.59182246 0.00047898
0.37808317 0.59182246 0.00047898
0.41347020 0.59182246 0.00047898
0.44895957 0.59182246 0.00047898
0.48454478 0.59182246 0.00047898
0.52022022 0.59182246 0.00047898
0.55598091 0.59182246 0.00047927
0.59182246 0.59182246 0.00047898
0.62774096 0.59182246 0.00047898
0.66373286 0.59182246 0.00047898
0.69979499 0.59182246 0.00047898
0.73592444 0.59182246 0.00047898
0.77211855 0.59182246 0.00047898
0.80837491 0.59182246 0.00047898
0.84469126 0.59182246 0.00047935
0.88106554 0.59182246 0.00047898
0.91749583 0.59182246 0.00047946
0.91886608 0.59182246 0.00047898
0.91886608 0.59182246 0.00047898
0.91886608 0.59182246 0.00047898
0.91886608 0.59182246 0.00047961
0.00047924 0.62774096 0.00047927
0.00047924 0.62774096 0.00047927
0.00047924 0.62774096 0.00047927
0.03291067 0.62774096 0.00047898
0.06624797 0.62774096 0.00047898
0.10002416 0.62774096 0.00047898
0.13411502 0.62774096 0.00047927
0.16845521 0.62774096 0.00047898
0.20300363 0.62774096 0.00047927
0.23773174 0.62774096 0.00047898
0.27261847 0.62774096 0.00047927
0.30764755 0.62774096 0.00047927
0.34280599 0.62774096 0.00047898
0.37808317 0.62774096 0.00047927
0.41347020 0.62774096 0.00047898
0.44895957 0.62774096 0.00047898
0.48454478 0.62774096 0.00047927
0.52022022 0.62774096 0.00047898
0.55598091 0.62774096 0.00047927
0.59182246 0.62774096 0.00047898
0.62774096 0.62774096 0.00047898
0.66373286 0.62774096 0.00047898
0.69979499 0.62774096 0.00047898
0.73592444 0.62774096 0.00047898
0.77211855 0.62774096 0.00047898
0.80837491 0.62774096 0.00047898
0.84469126 0.62774096 0.00047898
0.88106554 0.62774096 0.00047940
0.91749583 0.62774096 0.00047898
0.91886608 0.62774096 0.00047898
0.91886608 0.62774096 0.00047946
0.91886608 0.62774096 0.00047953
0.91886608 0.62774096 0.00047898
0.00047920 0.66373286 0.00047898
0.00047920 0.66373286 0.00047898
0.00047920 0.66373286 0.00047898
0.03291067 0.66373286 0.00047898
0.06624797 0.66373286 0.00047927
0.10002416 0.66373286 0.00047927
0.13411502 0.66373286 0.00047898
0.16845521 0.66373286 0.00047898
0.20300363 0.66373286 0.00047927
0.23773174 0.66373286 0.00047898
0.27261847 0.66373286 0.00047927
0.30764755 0.66373286 0.00047898
0.34280599 0.66373286 0.00047898
0.37808317 0.66373286 0.00047927
0.41347020 0.66373286 0.00047927
0.44895957 0.66373286 0.00047898
0.48454478 0.66373286 0.00047898
0.52022022 0.66373286 0.00047927
0.55598091 0.66373286 0.00047898
0.59182246 0.66373286 0.00047898
0.62774096 0.66373286 0.00047898
0.66373286 0.66373286 0.00047898
0.69979499 0.66373286 0.00047898
0.73592444 0.66373286 0.00047898
0.77211855 0.66373286 0.00047935
0.80837491 0.66373286 0.00047898
0.84469126 0.66373286 0.00047898
