src/ffmpeg_scripts/luts/luminance_1p67.cube
TITLE "luminance_1p67"
LUT_3D_SIZE 33
# PQ (EOTF Only)/Rec2020 -> PQ (EOTF Only)/Rec2020, CineEI Shift 1.67, Black Level 0.00% IRE, Input 109% -> Output 109% - Created with LUTCalc v4.01 by Ben Turley October 2020
0.06256172 0.06256172 0.06256172
0.06256172 0.06256172 0.06256172
0.06256172 0.06256172 0.06256172
0.11471189 0.06256177 0.06256172
0.16033878 0.06256180 0.06256172
0.20309016 0.06256172 0.06256172
0.24394552 0.06256182 0.06256181
0.28338488 0.06256172 0.06256172
0.32169536 0.06256172 0.06256172
0.35906842 0.06256172 0.06256172
0.39564085 0.06256172 0.06256172
0.43151531 0.06256187 0.06256187
0.46677163 0.06256172 0.06256172
0.50147368 0.06256172 0.06256172
0.53567367 0.06256189 0.06256172
0.56941510 0.06256172 0.06256172
0.60273474 0.06256191 0.06256197
0.63566406 0.06256191 0.06256197
0.66823031 0.06256198 0.06256172
0.70045733 0.06256207 0.06256172
0.73236610 0.06256172 0.06256172
0.76397526 0.06256172 0.06256172
0.79530145 0.06256172 0.06256172
0.82635964 0.06256172 0.06256172
0.85716336 0.06256172 0.06256172
0.88772487 0.06256200 0.06256172
0.91805537 0.06256211 0.06256172
0.91886608 0.06256217 0.06256172
0.91886608 0.06256172 0.06256219
0.91886608 0.06256217 0.06256172
0.91886608 0.06256172 0.06256172
0.91886608 0.06256172 0.06256172
0.91886608 0.06256250 0.06256235
0.06256172 0.06256172 0.06256172
0.06256172 0.06256172 0.06256172
0.06256172 0.06256172 0.06256172
0.11471189 0.06256177 0.06256172
0.16033878 0.06256180 0.06256172
0.20309016 0.06256172 0.06256172
0.24394552 0.06256182 0.06256181
0.28338488 0.06256172 0.06256172
0.32169536 0.06256172 0.06256172
0.35906842 0.06256172 0.06256172
0.39564085 0.06256172 0.06256172
0.43151531 0.06256187 0.06256187
0.46677163 0.06256172 0.06256172
0.50147368 0.06256172 0.06256172
0.53567367 0.06256189 0.06256172
0.56941510 0.06256172 0.06256172
0.60273474 0.06256191 0.06256197
0.63566406 0.06256191 0.06256197
0.66823031 0.06256198 0.06256172
0.70045733 0.06256207 0.06256172
0.73236610 0.06256172 0.06256172
0.76397526 0.06256172 0.06256172
0.79530145 0.06256172 0.06256172
0.82635964 0.06256172 0.06256172
0.85716336 0.06256172 0.06256172
0.88772487 0.06256200 0.06256172
0.91805537 0.06256211 0.06256172
0.91886608 0.06256217 0.06256172
0.91886608 0.06256172 0.06256219
0.91886608 0.06256217 0.06256172
0.91886608 0.06256172 0.06256172
0.91886608 0.06256172 0.06256172
0.91886608 0.06256250 0.06256235
0.06256172 0.06256172 0.06256172
0.06256172 0.06256172 0.06256172
0.06256172 0.06256172 0.06256172
0.11471189 0.06256177 0.06256172
0.16033878 0.06256180 0.06256172
0.20309016 0.06256172 0.06256172
0.24394552 0.06256182 0.06256181
0.28338488 0.06256172 0.06256172
0.32169536 0.06256172 0.06256172
0.35906842 0.06256172 0.06256172
0.39564085 0.06256172 0.06256172
0.43151531 0.06256187 0.06256187
0.46677163 0.06256172 0.06256172
0.50147368 0.06256172 0.06256172
0.53567367 0.06256189 0.06256172
0.56941510 0.06256172 0.06256172
0.60273474 0.06256191 0.06256197
0.63566406 0.06256191 0.06256197
0.66823031 0.06256198 0.06256172
0.70045733 0.06256207 0.06256172
0.73236610 0.06256172 0.06256172
0.76397526 0.06256172 0.06256172
0.79530145 0.06256172 0.06256172
0.82635964 0.06256172 0.06256172
0.85716336 0.06256172 0.06256172
0.88772487 0.06256200 0.06256172
0.91805537 0.06256211 0.06256172
0.91886608 0.06256217 0.06256172
0.91886608 0.06256172 0.06256219
0.91886608 0.06256217 0.06256172
0.91886608 0.06256172 0.06256172
0.91886608 0.06256172 0.06256172
0.91886608 0.06256250 0.06256235
0.06256179 0.11471189 0.06256172
0.06256179 0.11471189 0.06256172
0.06256179 0.11471189 0.06256172
0.11471189 0.11471189 0.06256179
0.16033878 0.11471189 0.06256172
0.20309016 0.11471189 0.06256172
0.24394552 0.11471189 0.06256172
0.28338488 0.11471189 0.06256172
0.32169536 0.11471189 0.06256172
0.35906842 0.11471189 0.06256185
0.39564085 0.11471189 0.06256172
0.43151531 0.11471189 0.06256172
0.46677163 0.11471189 0.06256172
0.50147368 0.11471189 0.06256172
0.53567367 0.11471189 0.06256191
0.56941510 0.11471189 0.06256172
0.60273474 0.11471189 0.06256172
0.63566406 0.11471189 0.06256172
0.66823031 0.11471189 0.06256172
0.70045733 0.11471189 0.06256172
0.73236610 0.11471189 0.06256200
0.76397526 0.11471189 0.06256172
0.79530145 0.11471189 0.06256204
0.82635964 0.11471189 0.06256208
0.85716336 0.11471189 0.06256172
0.88772487 0.11471189 0.06256172
0.91805537 0.11471189 0.06256172
0.91886608 0.11471189 0.06256172
0.91886608 0.11471189 0.06256172
0.91886608 0.11471189 0.06256172
0.91886608 0.11471189 0.06256227
0.91886608 0.11471189 0.06256235
0.91886608 0.11471189 0.06256245
0.06256181 0.16033878 0.06256172
0.06256181 0.16033878 0.06256172
0.06256181 0.16033878 0.06256172
0.11471189 0.16033878 0.06256172
0.16033878 0.16033878 0.06256172
0.20309016 0.16033878 0.06256172
0.24394552 0.16033878 0.06256182
0.28338488 0.16033878 0.06256185
0.32169536 0.16033878 0.06256172
0.35906842 0.16033878 0.06256185
0.39564085 0.16033878 0.06256172
0.43151531 0.16033878 0.06256172
0.46677163 0.16033878 0.06256172
0.50147368 0.16033878 0.06256172
0.53567367 0.16033878 0.06256191
0.56941510 0.16033878 0.06256172
0.60273474 0.16033878 0.06256172
0.63566406 0.16033878 0.06256197
0.66823031 0.16033878 0.06256172
0.70045733 0.16033878 0.06256172
0.73236610 0.16033878 0.06256172
0.76397526 0.16033878 0.06256172
0.79530145 0.16033878 0.06256172
0.82635964 0.16033878 0.06256208
0.85716336 0.16033878 0.06256172
0.88772487 0.16033878 0.06256172
0.91805537 0.16033878 0.06256213
0.91886608 0.16033878 0.06256172
0.91886608 0.16033878 0.06256219
0.91886608 0.16033878 0.06256172
0.91886608 0.16033878 0.06256172
0.91886608 0.16033878 0.06256172
0.91886608 0.16033878 0.06256172
0.06256172 0.20309016 0.06256172
0.06256172 0.20309016 0.06256172
0.06256172 0.20309016 0.06256172
0.11471189 0.20309016 0.06256172
0.16033878 0.20309016 0.06256172
0.20309016 0.20309016 0.06256172
0.24394552 0.20309016 0.06256184
0.28338488 0.20309016 0.06256172
0.32169536 0.20309016 0.06256172
0.35906842 0.20309016 0.06256185
0.39564085 0.20309016 0.06256172
0.43151531 0.20309016 0.06256172
0.46677163 0.20309016 0.06256172
0.50147368 0.20309016 0.06256191
0.53567367 0.20309016 0.06256172
0.56941510 0.20309016 0.06256194
0.60273474 0.20309016 0.06256172
0.63566406 0.20309016 0.06256172
0.66823031 0.20309016 0.06256172
0.70045733 0.20309016 0.06256172
0.73236610 0.20309016 0.06256200
0.76397526 0.20309016 0.06256204
0.79530145 0.20309016 0.06256172
0.82635964 0.20309016 0.06256172
0.85716336 0.20309016 0.06256172
0.88772487 0.20309016 0.06256172
0.91805537 0.20309016 0.06256172
0.91886608 0.20309016 0.06256219
0.91886608 0.20309016 0.06256219
0.91886608 0.20309016 0.06256172
0.91886608 0.20309016 0.06256172
0.91886608 0.20309016 0.06256172
0.91886608 0.20309016 0.06256235
0.06256179 0.24394552 0.06256172
0.06256179 0.24394552 0.06256172
0.06256179 0.24394552 0.06256172
0.11471189 0.24394552 0.06256172
0.16033878 0.24394552 0.06256172
0.20309016 0.24394552 0.06256172
0.24394552 0.24394552 0.06256172
0.28338488 0.24394552 0.06256184
0.32169536 0.24394552 0.06256172
0.35906842 0.24394552 0.06256172
0.39564085 0.24394552 0.06256172
0.43151531 0.24394552 0.06256189
0.46677163 0.24394552 0.06256172
0.50147368 0.24394552 0.06256191
0.53567367 0.24394552 0.06256194
0.56941510 0.24394552 0.06256172
0.60273474 0.24394552 0.06256172
0.63566406 0.24394552 0.06256197
0.66823031 0.24394552 0.06256172
0.70045733 0.24394552 0.06256172
0.73236610 0.24394552 0.06256172
0.76397526 0.24394552 0.06256172
0.79530145 0.24394552 0.06256204
0.82635964 0.24394552 0.06256208
0.85716336 0.24394552 0.06256172
0.88772487 0.24394552 0.06256172
0.91805537 0.24394552 0.06256172
0.91886608 0.24394552 0.06256172
0.91886608 0.24394552 0.06256219
0.91886608 0.24394552 0.06256172
0.91886608 0.24394552 0.06256227
0.91886608 0.24394552 0.06256172
0.91886608 0.24394552 0.06256172
0.06256186 0.28338488 0.06256172
0.06256186 0.28338488 0.06256172
0.06256186 0.28338488 0.06256172
0.11471189 0.28338488 0.06256172
0.16033878 0.28338488 0.06256172
0.20309016 0.28338488 0.06256172
0.24394552 0.28338488 0.06256172
0.28338488 0.28338488 0.06256172
0.32169536 0.28338488 0.06256172
0.35906842 0.28338488 0.06256172
0.39564085 0.28338488 0.06256189
0.43151531 0.28338488 0.06256172
0.46677163 0.28338488 0.06256189
0.50147368 0.28338488 0.06256172
0.53567367 0.28338488 0.06256191
0.56941510 0.28338488 0.06256194
0.60273474 0.28338488 0.06256172
0.63566406 0.28338488 0.06256172
0.66823031 0.28338488 0.06256197
0.70045733 0.28338488 0.06256172
0.73236610 0.28338488 0.06256172
0.76397526 0.28338488 0.06256172
0.79530145 0.28338488 0.06256172
0.82635964 0.28338488 0.06256172
0.85716336 0.28338488 0.06256172
0.88772487 0.28338488 0.06256213
0.91805537 0.28338488 0.06256172
0.91886608 0.28338488 0.06256172
0.91886608 0.28338488 0.06256172
0.91886608 0.28338488 0.06256172
0.91886608 0.28338488 0.06256172
0.91886608 0.28338488 0.06256172
0.91886608 0.28338488 0.06256172
0.06256172 0.32169536 0.06256172
0.06256172 0.32169536 0.06256172
0.06256172 0.32169536 0.06256172
0.11471189 0.32169536 0.06256185
0.16033878 0.32169536 0.06256172
0.20309016 0.32169536 0.06256172
0.24394552 0.32169536 0.06256172
0.28338488 0.32169536 0.06256172
0.32169536 0.32169536 0.06256172
0.35906842 0.32169536 0.06256172
0.39564085 0.32169536 0.06256172
0.43151531 0.32169536 0.06256172
0.46677163 0.32169536 0.06256172
0.50147368 0.32169536 0.06256172
0.53567367 0.32169536 0.06256172
0.56941510 0.32169536 0.06256172
0.60273474 0.32169536 0.06256194
0.63566406 0.32169536 0.06256172
0.66823031 0.32169536 0.06256172
0.70045733 0.32169536 0.06256172
0.73236610 0.32169536 0.06256172
0.76397526 0.32169536 0.06256172
0.79530145 0.32169536 0.06256204
0.82635964 0.32169536 0.06256172
0.85716336 0.32169536 0.06256172
0.88772487 0.32169536 0.06256213
0.91805537 0.32169536 0.06256172
0.91886608 0.32169536 0.06256219
0.91886608 0.32169536 0.06256172
0.91886608 0.32169536 0.06256172
0.91886608 0.32169536 0.06256172
0.91886608 0.32169536 0.06256172
0.91886608 0.32169536 0.06256172
0.06256188 0.35906842 0.06256172
0.06256188 0.35906842 0.06256172
0.06256188 0.35906842 0.06256172
0.11471189 0.35906842 0.06256172
0.16033878 0.35906842 0.06256172
0.20309016 0.35906842 0.06256172
0.24394552 0.35906842 0.06256172
0.28338488 0.35906842 0.06256172
0.32169536 0.35906842 0.06256172
0.35906842 0.35906842 0.06256172
0.39564085 0.35906842 0.06256172
0.43151531 0.35906842 0.06256189
0.46677163 0.35906842 0.06256172
0.50147368 0.35906842 0.06256191
0.53567367 0.35906842 0.06256172
0.56941510 0.35906842 0.06256172
0.60273474 0.35906842 0.06256197
0.63566406 0.35906842 0.06256197
0.66823031 0.35906842 0.06256197
0.70045733 0.35906842 0.06256172
0.73236610 0.35906842 0.06256172
0.76397526 0.35906842 0.06256172
0.79530145 0.35906842 0.06256172
0.82635964 0.35906842 0.06256172
0.85716336 0.35906842 0.06256208
0.88772487 0.35906842 0.06256213
0.91805537 0.35906842 0.06256172
0.91886608 0.35906842 0.06256172
0.91886608 0.35906842 0.06256219
0.91886608 0.35906842 0.06256172
0.91886608 0.35906842 0.06256227
0.91886608 0.35906842 0.06256172
0.91886608 0.35906842 0.06256172
0.06256190 0.39564085 0.06256172
0.06256190 0.39564085 0.06256172
0.06256190 0.39564085 0.06256172
0.11471189 0.39564085 0.06256172
0.16033878 0.39564085 0.06256172
0.20309016 0.39564085 0.06256172
0.24394552 0.39564085 0.06256172
0.28338488 0.39564085 0.06256172
0.32169536 0.39564085 0.06256172
0.35906842 0.39564085 0.06256172
0.39564085 0.39564085 0.06256172
0.43151531 0.39564085 0.06256172
0.46677163 0.39564085 0.06256172
0.50147368 0.39564085 0.06256172
0.53567367 0.39564085 0.06256172
0.56941510 0.39564085 0.06256172
0.60273474 0.39564085 0.06256194
0.63566406 0.39564085 0.06256172
0.66823031 0.39564085 0.06256172
0.70045733 0.39564085 0.06256172
0.73236610 0.39564085 0.06256172
0.76397526 0.39564085 0.06256172
0.79530145 0.39564085 0.06256172
0.82635964 0.39564085 0.06256172
0.85716336 0.39564085 0.06256172
0.88772487 0.39564085 0.06256172
0.91805537 0.39564085 0.06256172
0.91886608 0.39564085 0.06256172
0.91886608 0.39564085 0.06256172
0.91886608 0.39564085 0.06256172
0.91886608 0.39564085 0.06256172
0.91886608 0.39564085 0.06256172
0.91886608 0.39564085 0.06256172
0.06256188 0.43151531 0.06256172
0.06256188 0.43151531 0.06256172
0.06256188 0.43151531 0.06256172
0.11471189 0.43151531 0.06256172
0.16033878 0.43151531 0.06256172
0.20309016 0.43151531 0.06256172
0.24394552 0.43151531 0.06256172
0.28338488 0.43151531 0.06256172
0.32169536 0.43151531 0.06256172
0.35906842 0.43151531 0.06256172
0.39564085 0.43151531 0.06256172
0.43151531 0.43151531 0.06256172
0.46677163 0.43151531 0.06256172
0.50147368 0.43151531 0.06256172
0.53567367 0.43151531 0.06256172
0.56941510 0.43151531 0.06256172
0.60273474 0.43151531 0.06256172
0.63566406 0.43151531 0.06256172
0.66823031 0.43151531 0.06256197
0.70045733 0.43151531 0.06256172
0.73236610 0.43151531 0.06256172
0.76397526 0.43151531 0.06256172
0.79530145 0.43151531 0.06256172
0.82635964 0.43151531 0.06256172
0.85716336 0.43151531 0.06256172
0.88772487 0.43151531 0.06256213
0.91805537 0.43151531 0.06256172
0.91886608 0.43151531 0.06256172
0.91886608 0.43151531 0.06256172
0.91886608 0.43151531 0.06256172
0.91886608 0.43151531 0.06256227
0.91886608 0.43151531 0.06256172
0.91886608 0.43151531 0.06256172
0.06256192 0.46677163 0.06256191
0.06256192 0.46677163 0.06256191
0.06256192 0.46677163 0.06256191
0.11471189 0.46677163 0.06256189
0.16033878 0.46677163 0.06256172
0.20309016 0.46677163 0.06256191
0.24394552 0.46677163 0.06256172
0.28338488 0.46677163 0.06256191
0.32169536 0.46677163 0.06256172
0.35906842 0.46677163 0.06256172
0.39564085 0.46677163 0.06256172
0.43151531 0.46677163 0.06256172
0.46677163 0.46677163 0.06256194
0.50147368 0.46677163 0.06256172
0.53567367 0.46677163 0.06256172
0.56941510 0.46677163 0.06256172
0.60273474 0.46677163 0.06256172
0.63566406 0.46677163 0.06256172
0.66823031 0.46677163 0.06256172
0.70045733 0.46677163 0.06256172
0.73236610 0.46677163 0.06256172
0.76397526 0.46677163 0.06256204
0.79530145 0.46677163 0.06256204
0.82635964 0.46677163 0.06256172
0.85716336 0.46677163 0.06256172
0.88772487 0.46677163 0.06256172
0.91805537 0.46677163 0.06256213
0.91886608 0.46677163 0.06256172
0.91886608 0.46677163 0.06256219
0.91886608 0.46677163 0.06256172
0.91886608 0.46677163 0.06256227
0.91886608 0.46677163 0.06256172
0.91886608 0.46677163 0.06256172
0.06256192 0.50147368 0.06256172
0.06256192 0.50147368 0.06256172
0.06256192 0.50147368 0.06256172
0.11471189 0.50147368 0.06256191
0.16033878 0.50147368 0.06256172
0.20309016 0.50147368 0.06256172
0.24394552 0.50147368 0.06256191
0.28338488 0.50147368 0.06256172
0.32169536 0.50147368 0.06256172
0.35906842 0.50147368 0.06256172
0.39564085 0.50147368 0.06256191
0.43151531 0.50147368 0.06256172
0.46677163 0.50147368 0.06256172
0.50147368 0.50147368 0.06256172
0.53567367 0.50147368 0.06256172
0.56941510 0.50147368 0.06256172
0.60273474 0.50147368 0.06256172
0.63566406 0.50147368 0.06256172
0.66823031 0.50147368 0.06256200
0.70045733 0.50147368 0.06256172
0.73236610 0.50147368 0.06256172
0.76397526 0.50147368 0.06256172
0.79530145 0.50147368 0.06256172
0.82635964 0.50147368 0.06256172
0.85716336 0.50147368 0.06256172
0.88772487 0.50147368 0.06256172
0.91805537 0.50147368 0.06256213
0.91886608 0.50147368 0.06256219
0.91886608 0.50147368 0.06256172
0.91886608 0.50147368 0.06256172
0.91886608 0.50147368 0.06256172
0.91886608 0.50147368 0.06256172
0.91886608 0.50147368 0.06256172
0.06256192 0.53567367 0.06256172
0.06256192 0.53567367 0.06256172
0.06256192 0.53567367 0.06256172
0.11471189 0.53567367 0.06256172
0.16033878 0.53567367 0.06256172
0.20309016 0.53567367 0.06256172
0.24394552 0.53567367 0.06256194
0.28338488 0.53567367 0.06256172
0.32169536 0.53567367 0.06256194
0.35906842 0.53567367 0.06256172
0.39564085 0.53567367 0.06256172
0.43151531 0.53567367 0.06256194
0.46677163 0.53567367 0.06256172
0.50147368 0.53567367 0.06256194
0.53567367 0.53567367 0.06256172
0.56941510 0.53567367 0.06256197
0.60273474 0.53567367 0.06256197
0.63566406 0.53567367 0.06256197
0.66823031 0.53567367 0.06256172
0.70045733 0.53567367 0.06256172
0.73236610 0.53567367 0.06256172
0.76397526 0.53567367 0.06256172
0.79530145 0.53567367 0.06256204
0.82635964 0.53567367 0.06256172
0.85716336 0.53567367 0.06256208
0.88772487 0.53567367 0.06256172
0.91805537 0.53567367 0.06256172
0.91886608 0.53567367 0.06256219
0.91886608 0.53567367 0.06256172
0.91886608 0.53567367 0.06256172
0.91886608 0.53567367 0.06256172
0.91886608 0.53567367 0.06256172
0.91886608 0.53567367 0.06256235
0.06256200 0.56941510 0.06256172
0.06256200 0.56941510 0.06256172
0.06256200 0.56941510 0.06256172
0.11471189 0.56941510 0.06256172
0.16033878 0.56941510 0.06256172
0.20309016 0.56941510 0.06256172
0.24394552 0.56941510 0.06256172
0.28338488 0.56941510 0.06256172
0.32169536 0.56941510 0.06256172
0.35906842 0.56941510 0.06256172
0.39564085 0.56941510 0.06256172
0.43151531 0.56941510 0.06256172
0.46677163 0.56941510 0.06256172
0.50147368 0.56941510 0.06256172
0.53567367 0.56941510 0.06256172
0.56941510 0.56941510 0.06256172
0.60273474 0.56941510 0.06256172
0.63566406 0.56941510 0.06256172
0.66823031 0.56941510 0.06256200
0.70045733 0.56941510 0.06256172
0.73236610 0.56941510 0.06256172
0.76397526 0.56941510 0.06256172
0.79530145 0.56941510 0.06256204
0.82635964 0.56941510 0.06256172
0.85716336 0.56941510 0.06256172
0.88772487 0.56941510 0.06256172
0.91805537 0.56941510 0.06256172
0.91886608 0.56941510 0.06256219
0.91886608 0.56941510 0.06256172
0.91886608 0.56941510 0.06256172
0.91886608 0.56941510 0.06256227
0.91886608 0.56941510 0.06256172
0.91886608 0.56941510 0.06256235
0.06256172 0.60273474 0.06256172
0.06256172 0.60273474 0.06256172
0.06256172 0.60273474 0.06256172
0.11471189 0.60273474 0.06256172
0.16033878 0.60273474 0.06256172
0.20309016 0.60273474 0.06256172
0.24394552 0.60273474 0.06256172
0.28338488 0.60273474 0.06256172
0.32169536 0.60273474 0.06256172
0.35906842 0.60273474 0.06256172
0.39564085 0.60273474 0.06256172
0.43151531 0.60273474 0.06256172
0.46677163 0.60273474 0.06256172
0.50147368 0.60273474 0.06256172
0.53567367 0.60273474 0.06256197
0.56941510 0.60273474 0.06256172
0.60273474 0.60273474 0.06256172
0.63566406 0.60273474 0.06256172
0.66823031 0.60273474 0.06256172
0.70045733 0.60273474 0.06256172
0.73236610 0.60273474 0.06256172
0.76397526 0.60273474 0.06256172
0.79530145 0.60273474 0.06256208
0.82635964 0.60273474 0.06256172
0.85716336 0.60273474 0.06256208
0.88772487 0.60273474 0.06256172
0.91805537 0.60273474 0.06256172
0.91886608 0.60273474 0.06256219
0.91886608 0.60273474 0.06256172
0.91886608 0.60273474 0.06256172
0.91886608 0.60273474 0.06256172
0.91886608 0.60273474 0.06256172
0.91886608 0.60273474 0.06256172
0.06256201 0.63566406 0.06256172
0.06256201 0.63566406 0.06256172
0.06256201 0.63566406 0.06256172
0.11471189 0.63566406 0.06256172
0.16033878 0.63566406 0.06256172
0.20309016 0.63566406 0.06256172
0.24394552 0.63566406 0.06256172
0.28338488 0.63566406 0.06256172
0.32169536 0.63566406 0.06256172
0.35906842 0.63566406 0.06256172
0.39564085 0.63566406 0.06256197
0.43151531 0.63566406 0.06256197
0.46677163 0.63566406 0.06256172
0.50147368 0.63566406 0.06256197
0.53567367 0.63566406 0.06256172
0.56941510 0.63566406 0.06256172
0.60273474 0.63566406 0.06256172
0.63566406 0.63566406 0.06256172
0.66823031 0.63566406 0.06256172
0.70045733 0.63566406 0.06256172
0.73236610 0.63566406 0.06256172
0.76397526 0.63566406 0.06256172
0.79530145 0.63566406 0.06256172
0.82635964 0.63566406 0.06256172
0.85716336 0.63566406 0.06256172
0.88772487 0.63566406 0.06256172
0.91805537 0.63566406 0.06256213
0.91886608 0.63566406 0.06256219
0.91886608 0.63566406 0.06256219
0.91886608 0.63566406 0.06256172
0.91886608 0.63566406 0.06256172
0.91886608 0.63566406 0.06256172
0.91886608 0.63566406 0.06256172
0.06256194 0.66823031 0.06256200
0.06256194 0.66823031 0.06256200
0.06256194 0.66823031 0.06256200
0.11471189 0.66823031 0.06256172
0.16033878 0.66823031 0.06256172
0.20309016 0.66823031 0.06256172
0.24394552 0.66823031 0.06256172
0.28338488 0.66823031 0.06256172
0.32169536 0.66823031 0.06256172
0.35906842 0.66823031 0.06256172
0.39564085 0.66823031 0.06256172
0.43151531 0.66823031 0.06256172
0.46677163 0.66823031 0.06256172
0.50147368 0.66823031 0.06256172
0.53567367 0.66823031 0.06256172
0.56941510 0.66823031 0.06256172
0.60273474 0.66823031 0.06256200
0.63566406 0.66823031 0.06256172
0.66823031 0.66823031 0.06256172
0.70045733 0.66823031 0.06256172
0.73236610 0.66823031 0.06256172
0.76397526 0.66823031 0.06256172
0.79530145 0.66823031 0.06256172
0.82635964 0.66823031 0.06256172
0.85716336 0.66823031 0.06256172
0.88772487 0.66823031 0.06256172
0.91805537 0.66823031 0.06256172
0.91886608 0.66823031 0.06256219
0.91886608 0.66823031 0.06256172
0.91886608 0.66823031 0.06256172
0.91886608 0.66823031 0.06256172
0.91886608 0.66823031 0.06256172
0.91886608 0.66823031 0.06256235
0.06256205 0.70045733 0.06256172
0.06256205 0.70045733 0.06256172
0.06256205 0.70045733 0.06256172
0.11471189 0.70045733 0.06256172
0.16033878 0.70045733 0.06256172
0.20309016 0.70045733 0.06256172
0.24394552 0.70045733 0.06256172
0.28338488 0.70045733 0.06256172
0.32169536 0.70045733 0.06256172
0.35906842 0.70045733 0.06256172
0.39564085 0.70045733 0.06256172
0.43151531 0.70045733 0.06256200
0.46677163 0.70045733 0.06256172
0.50147368 0.70045733 0.06256172
0.53567367 0.70045733 0.06256172
0.56941510 0.70045733 0.06256172
0.60273474 0.70045733 0.06256172
0.63566406 0.70045733 0.06256172
0.66823031 0.70045733 0.06256204
0.70045733 0.70045733 0.06256172
0.73236610 0.70045733 0.06256172
0.76397526 0.70045733 0.06256172
0.79530145 0.70045733 0.06256172
0.82635964 0.70045733 0.06256172
0.85716336 0.70045733 0.06256172
0.88772487 0.70045733 0.06256172
0.91805537 0.70045733 0.06256213
0.91886608 0.70045733 0.06256219
0.91886608 0.70045733 0.06256219
0.91886608 0.70045733 0.06256172
0.91886608 0.70045733 0.06256172
0.91886608 0.70045733 0.06256172
0.91886608 0.70045733 0.06256235
0.06256202 0.73236610 0.06256172
0.06256202 0.73236610 0.06256172
0.06256202 0.73236610 0.06256172
0.11471189 0.73236610 0.06256172
0.16033878 0.73236610 0.06256172
0.20309016 0.73236610 0.06256172
0.24394552 0.73236610 0.06256204
0.28338488 0.73236610 0.06256172
0.32169536 0.73236610 0.06256172
0.35906842 0.73236610 0.06256172
0.39564085 0.73236610 0.06256204
0.43151531 0.73236610 0.06256204
0.46677163 0.73236610 0.06256172
0.50147368 0.73236610 0.06256204
0.53567367 0.73236610 0.06256172
0.56941510 0.73236610 0.06256172
0.60273474 0.73236610 0.06256204
0.63566406 0.73236610 0.06256172
0.66823031 0.73236610 0.06256208
0.70045733 0.73236610 0.06256172
0.73236610 0.73236610 0.06256172
0.76397526 0.73236610 0.06256172
0.79530145 0.73236610 0.06256208
0.82635964 0.73236610 0.06256172
0.85716336 0.73236610 0.06256213
0.88772487 0.73236610 0.06256172
0.91805537 0.73236610 0.06256172
0.91886608 0.73236610 0.06256172
0.91886608 0.73236610 0.06256172
0.91886608 0.73236610 0.06256227
0.91886608 0.73236610 0.06256227
0.91886608 0.73236610 0.06256172
0.91886608 0.73236610 0.06256172
0.06256198 0.76397526 0.06256172
0.06256198 0.76397526 0.06256172
0.06256198 0.76397526 0.06256172
0.11471189 0.76397526 0.06256172
0.16033878 0.76397526 0.06256204
0.20309016 0.76397526 0.06256204
0.24394552 0.76397526 0.06256172
0.28338488 0.76397526 0.06256172
0.32169536 0.76397526 0.06256204
0.35906842 0.76397526 0.06256172
0.39564085 0.76397526 0.06256208
0.43151531 0.76397526 0.06256172
0.46677163 0.76397526 0.06256172
0.50147368 0.76397526 0.06256204
0.53567367 0.76397526 0.06256204
0.56941510 0.76397526 0.06256172
0.60273474 0.76397526 0.06256172
0.63566406 0.76397526 0.06256204
0.66823031 0.76397526 0.06256172
0.70045733 0.76397526 0.06256172
0.73236610 0.76397526 0.06256172
0.76397526 0.76397526 0.06256172
0.79530145 0.76397526 0.06256172
0.82635964 0.76397526 0.06256172
0.85716336 0.76397526 0.06256172
0.88772487 0.76397526 0.06256172
0.91805537 0.76397526 0.06256172
