src/ffmpeg_scripts/luts/luminance_1p00.cube
TITLE "luminance_1p00"
LUT_3D_SIZE 33
# PQ (EOTF Only)/Rec2020 -> PQ (EOTF Only)/Rec2020, CineEI Shift 1.00, Black Level 0.00% IRE, Input 109% -> Output 109% - Created with LUTCalc v4.01 by Ben Turley October 2020
0.06256172 0.06256172 0.06256172
0.06256172 0.06256172 0.06256172
0.06256172 0.06256172 0.06256172
0.10525821 0.06256176 0.06256172
0.14475437 0.06256177 0.06256172
0.18273315 0.06256172 0.06256172
0.21968353 0.06256182 0.06256181
0.25585095 0.06256180 0.06256172
0.29138472 0.06256172 0.06256172
0.32638572 0.06256172 0.06256184
0.36092685 0.06256172 0.06256172
0.39506335 0.06256188 0.06256172
0.42883853 0.06256172 0.06256172
0.46228730 0.06256188 0.06256189
0.49543840 0.06256172 0.06256172
0.52831591 0.06256172 0.06256172
0.56094033 0.06256196 0.06256172
0.59332927 0.06256172 0.06256172
0.62549808 0.06256198 0.06256172
0.65746022 0.06256172 0.06256172
0.68922762 0.06256198 0.06256172
0.72081091 0.06256197 0.06256172
0.75221961 0.06256208 0.06256204
0.78346232 0.06256172 0.06256172
0.81454685 0.06256205 0.06256172
0.84548030 0.06256172 0.06256172
0.87626916 0.06256172 0.06256172
0.90691940 0.06256208 0.06256172
0.91886608 0.06256172 0.06256172
0.91886608 0.06256222 0.06256172
0.91886608 0.06256172 0.06256172
0.91886608 0.06256223 0.06256172
0.91886608 0.06256237 0.06256235
0.06256172 0.06256172 0.06256172
0.06256172 0.06256172 0.06256172
0.06256172 0.06256172 0.06256172
0.10525821 0.06256176 0.06256172
0.14475437 0.06256177 0.06256172
0.18273315 0.06256172 0.06256172
0.21968353 0.06256182 0.06256181
0.25585095 0.06256180 0.06256172
0.29138472 0.06256172 0.06256172
0.32638572 0.06256172 0.06256184
0.36092685 0.06256172 0.06256172
0.39506335 0.06256188 0.06256172
0.42883853 0.06256172 0.06256172
0.46228730 0.06256188 0.06256189
0.49543840 0.06256172 0.06256172
0.52831591 0.06256172 0.06256172
0.56094033 0.06256196 0.06256172
0.59332927 0.06256172 0.06256172
0.62549808 0.06256198 0.06256172
0.65746022 0.06256172 0.06256172
0.68922762 0.06256198 0.06256172
0.72081091 0.06256197 0.06256172
0.75221961 0.06256208 0.06256204
0.78346232 0.06256172 0.06256172
0.81454685 0.06256205 0.06256172
0.84548030 0.06256172 0.06256172
0.87626916 0.06256172 0.06256172
0.90691940 0.06256208 0.06256172
0.91886608 0.06256172 0.06256172
0.91886608 0.06256222 0.06256172
0.91886608 0.06256172 0.06256172
0.91886608 0.06256223 0.06256172
0.91886608 0.06256237 0.06256235
0.06256172 0.06256172 0.06256172
0.06256172 0.06256172 0.06256172
0.06256172 0.06256172 0.06256172
0.10525821 0.06256176 0.06256172
0.14475437 0.06256177 0.06256172
0.18273315 0.06256172 0.06256172
0.21968353 0.06256182 0.06256181
0.25585095 0.06256180 0.06256172
0.29138472 0.06256172 0.06256172
0.32638572 0.06256172 0.06256184
0.36092685 0.06256172 0.06256172
0.39506335 0.06256188 0.06256172
0.42883853 0.06256172 0.06256172
0.46228730 0.06256188 0.06256189
0.49543840 0.06256172 0.06256172
0.52831591 0.06256172 0.06256172
0.56094033 0.06256196 0.06256172
0.59332927 0.06256172 0.06256172
0.62549808 0.06256198 0.06256172
0.65746022 0.06256172 0.06256172
0.68922762 0.06256198 0.06256172
0.72081091 0.06256197 0.06256172
0.75221961 0.06256208 0.06256204
0.78346232 0.06256172 0.06256172
0.81454685 0.06256205 0.06256172
0.84548030 0.06256172 0.06256172
0.87626916 0.06256172 0.06256172
0.90691940 0.06256208 0.06256172
0.91886608 0.06256172 0.06256172
0.91886608 0.06256222 0.06256172
0.91886608 0.06256172 0.06256172
0.91886608 0.06256223 0.06256172
0.91886608 0.06256237 0.06256235
0.06256178 0.10525821 0.06256172
0.06256178 0.10525821 0.06256172
0.06256178 0.10525821 0.06256172
0.10525821 0.10525821 0.06256172
0.14475437 0.10525821 0.06256172
0.18273315 0.10525821 0.06256172
0.21968353 0.10525821 0.06256172
0.25585095 0.10525821 0.06256172
0.29138472 0.10525821 0.06256172
0.32638572 0.10525821 0.06256172
0.36092685 0.10525821 0.06256172
0.39506335 0.10525821 0.06256172
0.42883853 0.10525821 0.06256172
0.46228730 0.10525821 0.06256172
0.49543840 0.10525821 0.06256172
0.52831591 0.10525821 0.06256172
0.56094033 0.10525821 0.06256194
0.59332927 0.10525821 0.06256172
0.62549808 0.10525821 0.06256172
0.65746022 0.10525821 0.06256172
0.68922762 0.10525821 0.06256172
0.72081091 0.10525821 0.06256172
0.75221961 0.10525821 0.06256172
0.78346232 0.10525821 0.06256204
0.81454685 0.10525821 0.06256172
0.84548030 0.10525821 0.06256172
0.87626916 0.10525821 0.06256172
0.90691940 0.10525821 0.06256172
0.91886608 0.10525821 0.06256219
0.91886608 0.10525821 0.06256172
0.91886608 0.10525821 0.06256227
0.91886608 0.10525821 0.06256227
0.91886608 0.10525821 0.06256172
0.06256180 0.14475437 0.06256172
0.06256180 0.14475437 0.06256172
0.06256180 0.14475437 0.06256172
0.10525821 0.14475437 0.06256172
0.14475437 0.14475437 0.06256172
0.18273315 0.14475437 0.06256172
0.21968353 0.14475437 0.06256181
0.25585095 0.14475437 0.06256182
0.29138472 0.14475437 0.06256172
0.32638572 0.14475437 0.06256172
0.36092685 0.14475437 0.06256172
0.39506335 0.14475437 0.06256187
0.42883853 0.14475437 0.06256172
0.46228730 0.14475437 0.06256172
0.49543840 0.14475437 0.06256172
0.52831591 0.14475437 0.06256172
0.56094033 0.14475437 0.06256172
0.59332927 0.14475437 0.06256172
0.62549808 0.14475437 0.06256172
0.65746022 0.14475437 0.06256172
0.68922762 0.14475437 0.06256172
0.72081091 0.14475437 0.06256172
0.75221961 0.14475437 0.06256172
0.78346232 0.14475437 0.06256204
0.81454685 0.14475437 0.06256172
0.84548030 0.14475437 0.06256172
0.87626916 0.14475437 0.06256213
0.90691940 0.14475437 0.06256172
0.91886608 0.14475437 0.06256219
0.91886608 0.14475437 0.06256172
0.91886608 0.14475437 0.06256172
0.91886608 0.14475437 0.06256172
0.91886608 0.14475437 0.06256172
0.06256181 0.18273315 0.06256172
0.06256181 0.18273315 0.06256172
0.06256181 0.18273315 0.06256172
0.10525821 0.18273315 0.06256172
0.14475437 0.18273315 0.06256172
0.18273315 0.18273315 0.06256172
0.21968353 0.18273315 0.06256181
0.25585095 0.18273315 0.06256172
0.29138472 0.18273315 0.06256172
0.32638572 0.18273315 0.06256172
0.36092685 0.18273315 0.06256172
0.39506335 0.18273315 0.06256172
0.42883853 0.18273315 0.06256172
0.46228730 0.18273315 0.06256172
0.49543840 0.18273315 0.06256172
0.52831591 0.18273315 0.06256172
0.56094033 0.18273315 0.06256172
0.59332927 0.18273315 0.06256172
0.62549808 0.18273315 0.06256172
0.65746022 0.18273315 0.06256172
0.68922762 0.18273315 0.06256172
0.72081091 0.18273315 0.06256172
0.75221961 0.18273315 0.06256172
0.78346232 0.18273315 0.06256172
0.81454685 0.18273315 0.06256172
0.84548030 0.18273315 0.06256172
0.87626916 0.18273315 0.06256172
0.90691940 0.18273315 0.06256172
0.91886608 0.18273315 0.06256172
0.91886608 0.18273315 0.06256172
0.91886608 0.18273315 0.06256172
0.91886608 0.18273315 0.06256172
0.91886608 0.18273315 0.06256172
0.06256181 0.21968353 0.06256172
0.06256181 0.21968353 0.06256172
0.06256181 0.21968353 0.06256172
0.10525821 0.21968353 0.06256172
0.14475437 0.21968353 0.06256172
0.18273315 0.21968353 0.06256172
0.21968353 0.21968353 0.06256172
0.25585095 0.21968353 0.06256172
0.29138472 0.21968353 0.06256172
0.32638572 0.21968353 0.06256172
0.36092685 0.21968353 0.06256185
0.39506335 0.21968353 0.06256172
0.42883853 0.21968353 0.06256172
0.46228730 0.21968353 0.06256189
0.49543840 0.21968353 0.06256172
0.52831591 0.21968353 0.06256172
0.56094033 0.21968353 0.06256172
0.59332927 0.21968353 0.06256172
0.62549808 0.21968353 0.06256172
0.65746022 0.21968353 0.06256172
0.68922762 0.21968353 0.06256172
0.72081091 0.21968353 0.06256172
0.75221961 0.21968353 0.06256204
0.78346232 0.21968353 0.06256172
0.81454685 0.21968353 0.06256172
0.84548030 0.21968353 0.06256172
0.87626916 0.21968353 0.06256172
0.90691940 0.21968353 0.06256213
0.91886608 0.21968353 0.06256219
0.91886608 0.21968353 0.06256172
0.91886608 0.21968353 0.06256172
0.91886608 0.21968353 0.06256172
0.91886608 0.21968353 0.06256172
0.06256184 0.25585095 0.06256182
0.06256184 0.25585095 0.06256182
0.06256184 0.25585095 0.06256182
0.10525821 0.25585095 0.06256172
0.14475437 0.25585095 0.06256172
0.18273315 0.25585095 0.06256182
0.21968353 0.25585095 0.06256172
0.25585095 0.25585095 0.06256172
0.29138472 0.25585095 0.06256172
0.32638572 0.25585095 0.06256172
0.36092685 0.25585095 0.06256187
0.39506335 0.25585095 0.06256172
0.42883853 0.25585095 0.06256172
0.46228730 0.25585095 0.06256172
0.49543840 0.25585095 0.06256191
0.52831591 0.25585095 0.06256172
0.56094033 0.25585095 0.06256194
0.59332927 0.25585095 0.06256172
0.62549808 0.25585095 0.06256172
0.65746022 0.25585095 0.06256172
0.68922762 0.25585095 0.06256172
0.72081091 0.25585095 0.06256172
0.75221961 0.25585095 0.06256204
0.78346232 0.25585095 0.06256204
0.81454685 0.25585095 0.06256172
0.84548030 0.25585095 0.06256172
0.87626916 0.25585095 0.06256172
0.90691940 0.25585095 0.06256172
0.91886608 0.25585095 0.06256172
0.91886608 0.25585095 0.06256172
0.91886608 0.25585095 0.06256172
0.91886608 0.25585095 0.06256172
0.91886608 0.25585095 0.06256235
0.06256172 0.29138472 0.06256172
0.06256172 0.29138472 0.06256172
0.06256172 0.29138472 0.06256172
0.10525821 0.29138472 0.06256172
0.14475437 0.29138472 0.06256172
0.18273315 0.29138472 0.06256172
0.21968353 0.29138472 0.06256172
0.25585095 0.29138472 0.06256172
0.29138472 0.29138472 0.06256172
0.32638572 0.29138472 0.06256172
0.36092685 0.29138472 0.06256172
0.39506335 0.29138472 0.06256172
0.42883853 0.29138472 0.06256172
0.46228730 0.29138472 0.06256189
0.49543840 0.29138472 0.06256172
0.52831591 0.29138472 0.06256172
0.56094033 0.29138472 0.06256172
0.59332927 0.29138472 0.06256172
0.62549808 0.29138472 0.06256172
0.65746022 0.29138472 0.06256172
0.68922762 0.29138472 0.06256172
0.72081091 0.29138472 0.06256172
0.75221961 0.29138472 0.06256172
0.78346232 0.29138472 0.06256172
0.81454685 0.29138472 0.06256172
0.84548030 0.29138472 0.06256172
0.87626916 0.29138472 0.06256213
0.90691940 0.29138472 0.06256172
0.91886608 0.29138472 0.06256172
0.91886608 0.29138472 0.06256172
0.91886608 0.29138472 0.06256172
0.91886608 0.29138472 0.06256172
0.91886608 0.29138472 0.06256172
0.06256188 0.32638572 0.06256172
0.06256188 0.32638572 0.06256172
0.06256188 0.32638572 0.06256172
0.10525821 0.32638572 0.06256172
0.14475437 0.32638572 0.06256172
0.18273315 0.32638572 0.06256185
0.21968353 0.32638572 0.06256172
0.25585095 0.32638572 0.06256172
0.29138472 0.32638572 0.06256185
0.32638572 0.32638572 0.06256187
0.36092685 0.32638572 0.06256172
0.39506335 0.32638572 0.06256187
0.42883853 0.32638572 0.06256172
0.46228730 0.32638572 0.06256191
0.49543840 0.32638572 0.06256172
0.52831591 0.32638572 0.06256172
0.56094033 0.32638572 0.06256194
0.59332927 0.32638572 0.06256172
0.62549808 0.32638572 0.06256197
0.65746022 0.32638572 0.06256172
0.68922762 0.32638572 0.06256172
0.72081091 0.32638572 0.06256172
0.75221961 0.32638572 0.06256172
0.78346232 0.32638572 0.06256172
0.81454685 0.32638572 0.06256208
0.84548030 0.32638572 0.06256172
0.87626916 0.32638572 0.06256172
0.90691940 0.32638572 0.06256172
0.91886608 0.32638572 0.06256172
0.91886608 0.32638572 0.06256172
0.91886608 0.32638572 0.06256227
0.91886608 0.32638572 0.06256172
0.91886608 0.32638572 0.06256172
0.06256191 0.36092685 0.06256172
0.06256191 0.36092685 0.06256172
0.06256191 0.36092685 0.06256172
0.10525821 0.36092685 0.06256172
0.14475437 0.36092685 0.06256172
0.18273315 0.36092685 0.06256172
0.21968353 0.36092685 0.06256172
0.25585095 0.36092685 0.06256172
0.29138472 0.36092685 0.06256172
0.32638572 0.36092685 0.06256172
0.36092685 0.36092685 0.06256172
0.39506335 0.36092685 0.06256172
0.42883853 0.36092685 0.06256172
0.46228730 0.36092685 0.06256172
0.49543840 0.36092685 0.06256172
0.52831591 0.36092685 0.06256191
0.56094033 0.36092685 0.06256194
0.59332927 0.36092685 0.06256194
0.62549808 0.36092685 0.06256172
0.65746022 0.36092685 0.06256172
0.68922762 0.36092685 0.06256172
0.72081091 0.36092685 0.06256172
0.75221961 0.36092685 0.06256172
0.78346232 0.36092685 0.06256204
0.81454685 0.36092685 0.06256172
0.84548030 0.36092685 0.06256172
0.87626916 0.36092685 0.06256172
0.90691940 0.36092685 0.06256172
0.91886608 0.36092685 0.06256219
0.91886608 0.36092685 0.06256172
0.91886608 0.36092685 0.06256227
0.91886608 0.36092685 0.06256172
0.91886608 0.36092685 0.06256172
0.06256188 0.39506335 0.06256172
0.06256188 0.39506335 0.06256172
0.06256188 0.39506335 0.06256172
0.10525821 0.39506335 0.06256172
0.14475437 0.39506335 0.06256172
0.18273315 0.39506335 0.06256172
0.21968353 0.39506335 0.06256187
0.25585095 0.39506335 0.06256172
0.29138472 0.39506335 0.06256187
0.32638572 0.39506335 0.06256172
0.36092685 0.39506335 0.06256172
0.39506335 0.39506335 0.06256172
0.42883853 0.39506335 0.06256172
0.46228730 0.39506335 0.06256172
0.49543840 0.39506335 0.06256172
0.52831591 0.39506335 0.06256194
0.56094033 0.39506335 0.06256172
0.59332927 0.39506335 0.06256172
0.62549808 0.39506335 0.06256172
0.65746022 0.39506335 0.06256172
0.68922762 0.39506335 0.06256172
0.72081091 0.39506335 0.06256172
0.75221961 0.39506335 0.06256204
0.78346232 0.39506335 0.06256204
0.81454685 0.39506335 0.06256172
0.84548030 0.39506335 0.06256208
0.87626916 0.39506335 0.06256172
0.90691940 0.39506335 0.06256172
0.91886608 0.39506335 0.06256219
0.91886608 0.39506335 0.06256172
0.91886608 0.39506335 0.06256172
0.91886608 0.39506335 0.06256172
0.91886608 0.39506335 0.06256172
0.06256190 0.42883853 0.06256189
0.06256190 0.42883853 0.06256189
0.06256190 0.42883853 0.06256189
0.10525821 0.42883853 0.06256189
0.14475437 0.42883853 0.06256172
0.18273315 0.42883853 0.06256189
0.21968353 0.42883853 0.06256189
0.25585095 0.42883853 0.06256189
0.29138472 0.42883853 0.06256172
0.32638572 0.42883853 0.06256189
0.36092685 0.42883853 0.06256172
0.39506335 0.42883853 0.06256172
0.42883853 0.42883853 0.06256191
0.46228730 0.42883853 0.06256172
0.49543840 0.42883853 0.06256172
0.52831591 0.42883853 0.06256172
0.56094033 0.42883853 0.06256172
0.59332927 0.42883853 0.06256172
0.62549808 0.42883853 0.06256172
0.65746022 0.42883853 0.06256172
0.68922762 0.42883853 0.06256172
0.72081091 0.42883853 0.06256172
0.75221961 0.42883853 0.06256172
0.78346232 0.42883853 0.06256172
0.81454685 0.42883853 0.06256172
0.84548030 0.42883853 0.06256172
0.87626916 0.42883853 0.06256213
0.90691940 0.42883853 0.06256213
0.91886608 0.42883853 0.06256219
0.91886608 0.42883853 0.06256172
0.91886608 0.42883853 0.06256172
0.91886608 0.42883853 0.06256172
0.91886608 0.42883853 0.06256172
0.06256193 0.46228730 0.06256172
0.06256193 0.46228730 0.06256172
0.06256193 0.46228730 0.06256172
0.10525821 0.46228730 0.06256189
0.14475437 0.46228730 0.06256172
0.18273315 0.46228730 0.06256172
0.21968353 0.46228730 0.06256189
0.25585095 0.46228730 0.06256172
0.29138472 0.46228730 0.06256172
0.32638572 0.46228730 0.06256191
0.36092685 0.46228730 0.06256172
0.39506335 0.46228730 0.06256191
0.42883853 0.46228730 0.06256172
0.46228730 0.46228730 0.06256191
0.49543840 0.46228730 0.06256172
0.52831591 0.46228730 0.06256172
0.56094033 0.46228730 0.06256172
0.59332927 0.46228730 0.06256172
0.62549808 0.46228730 0.06256172
0.65746022 0.46228730 0.06256197
0.68922762 0.46228730 0.06256172
0.72081091 0.46228730 0.06256172
0.75221961 0.46228730 0.06256172
0.78346232 0.46228730 0.06256204
0.81454685 0.46228730 0.06256172
0.84548030 0.46228730 0.06256208
0.87626916 0.46228730 0.06256172
0.90691940 0.46228730 0.06256172
0.91886608 0.46228730 0.06256172
0.91886608 0.46228730 0.06256172
0.91886608 0.46228730 0.06256227
0.91886608 0.46228730 0.06256172
0.91886608 0.46228730 0.06256235
0.06256192 0.49543840 0.06256172
0.06256192 0.49543840 0.06256172
0.06256192 0.49543840 0.06256172
0.10525821 0.49543840 0.06256172
0.14475437 0.49543840 0.06256172
0.18273315 0.49543840 0.06256172
0.21968353 0.49543840 0.06256172
0.25585095 0.49543840 0.06256172
0.29138472 0.49543840 0.06256172
0.32638572 0.49543840 0.06256172
0.36092685 0.49543840 0.06256172
0.39506335 0.49543840 0.06256172
0.42883853 0.49543840 0.06256172
0.46228730 0.49543840 0.06256172
0.49543840 0.49543840 0.06256172
0.52831591 0.49543840 0.06256172
0.56094033 0.49543840 0.06256172
0.59332927 0.49543840 0.06256197
0.62549808 0.49543840 0.06256172
0.65746022 0.49543840 0.06256172
0.68922762 0.49543840 0.06256172
0.72081091 0.49543840 0.06256172
0.75221961 0.49543840 0.06256172
0.78346232 0.49543840 0.06256172
0.81454685 0.49543840 0.06256172
0.84548030 0.49543840 0.06256172
0.87626916 0.49543840 0.06256172
0.90691940 0.49543840 0.06256172
0.91886608 0.49543840 0.06256172
0.91886608 0.49543840 0.06256172
0.91886608 0.49543840 0.06256172
0.91886608 0.49543840 0.06256172
0.91886608 0.49543840 0.06256235
0.06256197 0.52831591 0.06256172
0.06256197 0.52831591 0.06256172
0.06256197 0.52831591 0.06256172
0.10525821 0.52831591 0.06256172
0.14475437 0.52831591 0.06256172
0.18273315 0.52831591 0.06256172
0.21968353 0.52831591 0.06256172
0.25585095 0.52831591 0.06256172
0.29138472 0.52831591 0.06256172
0.32638572 0.52831591 0.06256172
0.36092685 0.52831591 0.06256172
0.39506335 0.52831591 0.06256172
0.42883853 0.52831591 0.06256172
0.46228730 0.52831591 0.06256172
0.49543840 0.52831591 0.06256172
0.52831591 0.52831591 0.06256194
0.56094033 0.52831591 0.06256172
0.59332927 0.52831591 0.06256172
0.62549808 0.52831591 0.06256172
0.65746022 0.52831591 0.06256172
0.68922762 0.52831591 0.06256172
0.72081091 0.52831591 0.06256172
0.75221961 0.52831591 0.06256172
0.78346232 0.52831591 0.06256172
0.81454685 0.52831591 0.06256172
0.84548030 0.52831591 0.06256172
0.87626916 0.52831591 0.06256172
0.90691940 0.52831591 0.06256172
0.91886608 0.52831591 0.06256172
0.91886608 0.52831591 0.06256172
0.91886608 0.52831591 0.06256172
0.91886608 0.52831591 0.06256172
0.91886608 0.52831591 0.06256172
0.06256172 0.56094033 0.06256172
0.06256172 0.56094033 0.06256172
0.06256172 0.56094033 0.06256172
0.10525821 0.56094033 0.06256172
0.14475437 0.56094033 0.06256172
0.18273315 0.56094033 0.06256172
0.21968353 0.56094033 0.06256172
0.25585095 0.56094033 0.06256172
0.29138472 0.56094033 0.06256172
0.32638572 0.56094033 0.06256172
0.36092685 0.56094033 0.06256172
0.39506335 0.56094033 0.06256172
0.42883853 0.56094033 0.06256172
0.46228730 0.56094033 0.06256172
0.49543840 0.56094033 0.06256172
0.52831591 0.56094033 0.06256172
0.56094033 0.56094033 0.06256172
0.59332927 0.56094033 0.06256197
0.62549808 0.56094033 0.06256172
0.65746022 0.56094033 0.06256172
0.68922762 0.56094033 0.06256172
0.72081091 0.56094033 0.06256172
0.75221961 0.56094033 0.06256204
0.78346232 0.56094033 0.06256204
0.81454685 0.56094033 0.06256172
0.84548030 0.56094033 0.06256208
0.87626916 0.56094033 0.06256172
0.90691940 0.56094033 0.06256172
0.91886608 0.56094033 0.06256172
0.91886608 0.56094033 0.06256172
0.91886608 0.56094033 0.06256227
0.91886608 0.56094033 0.06256172
0.91886608 0.56094033 0.06256172
0.06256201 0.59332927 0.06256197
0.06256201 0.59332927 0.06256197
0.06256201 0.59332927 0.06256197
0.10525821 0.59332927 0.06256197
0.14475437 0.59332927 0.06256197
0.18273315 0.59332927 0.06256172
0.21968353 0.59332927 0.06256172
0.25585095 0.59332927 0.06256172
0.29138472 0.59332927 0.06256172
0.32638572 0.59332927 0.06256172
0.36092685 0.59332927 0.06256172
0.39506335 0.59332927 0.06256197
0.42883853 0.59332927 0.06256172
0.46228730 0.59332927 0.06256197
0.49543840 0.59332927 0.06256172
0.52831591 0.59332927 0.06256172
0.56094033 0.59332927 0.06256172
0.59332927 0.59332927 0.06256197
0.62549808 0.59332927 0.06256200
0.65746022 0.59332927 0.06256172
0.68922762 0.59332927 0.06256172
0.72081091 0.59332927 0.06256172
0.75221961 0.59332927 0.06256172
0.78346232 0.59332927 0.06256204
0.81454685 0.59332927 0.06256172
0.84548030 0.59332927 0.06256172
0.87626916 0.59332927 0.06256172
0.90691940 0.59332927 0.06256172
0.91886608 0.59332927 0.06256219
0.91886608 0.59332927 0.06256172
0.91886608 0.59332927 0.06256172
0.91886608 0.59332927 0.06256172
0.91886608 0.59332927 0.06256235
0.06256202 0.62549808 0.06256172
0.06256202 0.62549808 0.06256172
0.06256202 0.62549808 0.06256172
0.10525821 0.62549808 0.06256172
0.14475437 0.62549808 0.06256172
0.18273315 0.62549808 0.06256172
0.21968353 0.62549808 0.06256172
0.25585095 0.62549808 0.06256172
0.29138472 0.62549808 0.06256172
0.32638572 0.62549808 0.06256172
0.36092685 0.62549808 0.06256172
0.39506335 0.62549808 0.06256172
0.42883853 0.62549808 0.06256172
0.46228730 0.62549808 0.06256172
0.49543840 0.62549808 0.06256197
0.52831591 0.62549808 0.06256172
0.56094033 0.62549808 0.06256172
0.59332927 0.62549808 0.06256172
0.62549808 0.62549808 0.06256172
0.65746022 0.62549808 0.06256172
0.68922762 0.62549808 0.06256172
0.72081091 0.62549808 0.06256172
0.75221961 0.62549808 0.06256172
0.78346232 0.62549808 0.06256172
0.81454685 0.62549808 0.06256172
0.84548030 0.62549808 0.06256213
0.87626916 0.62549808 0.06256172
0.90691940 0.62549808 0.06256172
0.91886608 0.62549808 0.06256219
0.91886608 0.62549808 0.06256172
0.91886608 0.62549808 0.06256172
0.91886608 0.62549808 0.06256172
0.91886608 0.62549808 0.06256172
0.06256198 0.65746022 0.06256172
0.06256198 0.65746022 0.06256172
0.06256198 0.65746022 0.06256172
0.10525821 0.65746022 0.06256172
0.14475437 0.65746022 0.06256172
0.18273315 0.65746022 0.06256172
0.21968353 0.65746022 0.06256172
0.25585095 0.65746022 0.06256172
0.29138472 0.65746022 0.06256172
0.32638572 0.65746022 0.06256172
0.36092685 0.65746022 0.06256172
0.39506335 0.65746022 0.06256172
0.42883853 0.65746022 0.06256172
0.46228730 0.65746022 0.06256172
0.49543840 0.65746022 0.06256172
0.52831591 0.65746022 0.06256172
0.56094033 0.65746022 0.06256172
0.59332927 0.65746022 0.06256172
0.62549808 0.65746022 0.06256172
0.65746022 0.65746022 0.06256172
0.68922762 0.65746022 0.06256172
0.72081091 0.65746022 0.06256172
0.75221961 0.65746022 0.06256172
0.78346232 0.65746022 0.06256172
0.81454685 0.65746022 0.06256172
0.84548030 0.65746022 0.06256172
0.87626916 0.65746022 0.06256213
0.90691940 0.65746022 0.06256213
0.91886608 0.65746022 0.06256219
0.91886608 0.65746022 0.06256172
0.91886608 0.65746022 0.06256172
0.91886608 0.65746022 0.06256172
0.91886608 0.65746022 0.06256235
0.06256191 0.68922762 0.06256172
0.06256191 0.68922762 0.06256172
0.06256191 0.68922762 0.06256172
0.10525821 0.68922762 0.06256172
0.14475437 0.68922762 0.06256172
0.18273315 0.68922762 0.06256172
0.21968353 0.68922762 0.06256172
0.25585095 0.68922762 0.06256172
0.29138472 0.68922762 0.06256172
0.32638572 0.68922762 0.06256172
0.36092685 0.68922762 0.06256172
0.39506335 0.68922762 0.06256172
0.42883853 0.68922762 0.06256172
0.46228730 0.68922762 0.06256172
0.49543840 0.68922762 0.06256172
0.52831591 0.68922762 0.06256172
0.56094033 0.68922762 0.06256200
0.59332927 0.68922762 0.06256172
0.62549808 0.68922762 0.06256172
0.65746022 0.68922762 0.06256172
0.68922762 0.68922762 0.06256172
0.72081091 0.68922762 0.06256172
0.75221961 0.68922762 0.06256172
0.78346232 0.68922762 0.06256208
0.81454685 0.68922762 0.06256172
0.84548030 0.68922762 0.06256172
0.87626916 0.68922762 0.06256172
0.90691940 0.68922762 0.06256172
0.91886608 0.68922762 0.06256172
0.91886608 0.68922762 0.06256172
0.91886608 0.68922762 0.06256172
0.91886608 0.68922762 0.06256227
0.91886608 0.68922762 0.06256172
0.06256205 0.72081091 0.06256172
0.06256205 0.72081091 0.06256172
0.06256205 0.72081091 0.06256172
0.10525821 0.72081091 0.06256172
0.14475437 0.72081091 0.06256172
0.18273315 0.72081091 0.06256204
0.21968353 0.72081091 0.06256172
0.25585095 0.72081091 0.06256172
0.29138472 0.72081091 0.06256172
0.32638572 0.72081091 0.06256204
0.36092685 0.72081091 0.06256172
0.39506335 0.72081091 0.06256172
0.42883853 0.72081091 0.06256172
0.46228730 0.72081091 0.06256172
0.49543840 0.72081091 0.06256204
0.52831591 0.72081091 0.06256172
0.56094033 0.72081091 0.06256172
0.59332927 0.72081091 0.06256172
0.62549808 0.72081091 0.06256172
0.65746022 0.72081091 0.06256172
0.68922762 0.72081091 0.06256172
0.72081091 0.72081091 0.06256172
0.75221961 0.72081091 0.06256172
0.78346232 0.72081091 0.06256172
0.81454685 0.72081091 0.06256172
0.84548030 0.72081091 0.06256208
0.87626916 0.72081091 0.06256172
