src/ffmpeg_scripts/luts/luminance-unclipped_-3p00.cube
TITLE "luminance-unclipped_-3p00"
LUT_3D_SIZE 33
# PQ (EOTF Only)/Rec2020 -> PQ (EOTF Only)/Rec2020, CineEI Shift -3.00, Black Level -7.25% IRE, Input 109% -> Output 109% - Created with LUTCalc v4.01 by Ben Turley October 2020
0.00047898 0.00047898 0.00047898
0.00047898 0.00047898 0.00047898
0.00047898 0.00047898 0.00047898
0.01329876 0.00047902 0.00047898
0.02910960 0.00047902 0.00047898
0.04686047 0.00047898 0.00047898
0.06617140 0.00047906 0.00047905
0.08682658 0.00047904 0.00047898
0.10868243 0.00047898 0.00047898
0.13163480 0.00047898 0.00047907
0.15560377 0.00047898 0.00047898
0.18052561 0.00047910 0.00047898
0.20634796 0.00047898 0.00047898
0.23302686 0.00047910 0.00047910
0.26052476 0.00047898 0.00047898
0.28880905 0.00047898 0.00047898
0.31785113 0.00047915 0.00047898
0.34762565 0.00047898 0.00047898
0.37810993 0.00047916 0.00047898
0.40928350 0.00047898 0.00047898
0.44112784 0.00047916 0.00047898
0.47362602 0.00047916 0.00047898
0.50676252 0.00047923 0.00047920
0.54052303 0.00047898 0.00047898
0.57489434 0.00047921 0.00047898
0.60986415 0.00047898 0.00047898
0.64542102 0.00047898 0.00047898
0.68155425 0.00047923 0.00047898
0.71825381 0.00047898 0.00047898
0.75551027 0.00047932 0.00047898
0.79331476 0.00047898 0.00047898
0.83165888 0.00047933 0.00047898
0.87053471 0.00047941 0.00047940
0.00047898 0.00047898 0.00047898
0.00047898 0.00047898 0.00047898
0.00047898 0.00047898 0.00047898
0.01329876 0.00047902 0.00047898
0.02910960 0.00047902 0.00047898
0.04686047 0.00047898 0.00047898
0.06617140 0.00047906 0.00047905
0.08682658 0.00047904 0.00047898
0.10868243 0.00047898 0.00047898
0.13163480 0.00047898 0.00047907
0.15560377 0.00047898 0.00047898
0.18052561 0.00047910 0.00047898
0.20634796 0.00047898 0.00047898
0.23302686 0.00047910 0.00047910
0.26052476 0.00047898 0.00047898
0.28880905 0.00047898 0.00047898
0.31785113 0.00047915 0.00047898
0.34762565 0.00047898 0.00047898
0.37810993 0.00047916 0.00047898
0.40928350 0.00047898 0.00047898
0.44112784 0.00047916 0.00047898
0.47362602 0.00047916 0.00047898
0.50676252 0.00047923 0.00047920
0.54052303 0.00047898 0.00047898
0.57489434 0.00047921 0.00047898
0.60986415 0.00047898 0.00047898
0.64542102 0.00047898 0.00047898
0.68155425 0.00047923 0.00047898
0.71825381 0.00047898 0.00047898
0.75551027 0.00047932 0.00047898
0.79331476 0.00047898 0.00047898
0.83165888 0.00047933 0.00047898
0.87053471 0.00047941 0.00047940
0.00047898 0.00047898 0.00047898
0.00047898 0.00047898 0.00047898
0.00047898 0.00047898 0.00047898
0.01329876 0.00047902 0.00047898
0.02910960 0.00047902 0.00047898
0.04686047 0.00047898 0.00047898
0.06617140 0.00047906 0.00047905
0.08682658 0.00047904 0.00047898
0.10868243 0.00047898 0.00047898
0.13163480 0.00047898 0.00047907
0.15560377 0.00047898 0.00047898
0.18052561 0.00047910 0.00047898
0.20634796 0.00047898 0.00047898
0.23302686 0.00047910 0.00047910
0.26052476 0.00047898 0.00047898
0.28880905 0.00047898 0.00047898
0.31785113 0.00047915 0.00047898
0.34762565 0.00047898 0.00047898
0.37810993 0.00047916 0.00047898
0.40928350 0.00047898 0.00047898
0.44112784 0.00047916 0.00047898
0.47362602 0.00047916 0.00047898
0.50676252 0.00047923 0.00047920
0.54052303 0.00047898 0.00047898
0.57489434 0.00047921 0.00047898
0.60986415 0.00047898 0.00047898
0.64542102 0.00047898 0.00047898
0.68155425 0.00047923 0.00047898
0.71825381 0.00047898 0.00047898
0.75551027 0.00047932 0.00047898
0.79331476 0.00047898 0.00047898
0.83165888 0.00047933 0.00047898
0.87053471 0.00047941 0.00047940
0.00047903 0.01329876 0.00047898
0.00047903 0.01329876 0.00047898
0.00047903 0.01329876 0.00047898
0.01329876 0.01329876 0.00047898
0.02910960 0.01329876 0.00047898
0.04686047 0.01329876 0.00047898
0.06617140 0.01329876 0.00047898
0.08682658 0.01329876 0.00047898
0.10868243 0.01329876 0.00047898
0.13163480 0.01329876 0.00047898
0.15560377 0.01329876 0.00047898
0.18052561 0.01329876 0.00047898
0.20634796 0.01329876 0.00047898
0.23302686 0.01329876 0.00047898
0.26052476 0.01329876 0.00047898
0.28880905 0.01329876 0.00047898
0.31785113 0.01329876 0.00047914
0.34762565 0.01329876 0.00047898
0.37810993 0.01329876 0.00047898
0.40928350 0.01329876 0.00047898
0.44112784 0.01329876 0.00047898
0.47362602 0.01329876 0.00047898
0.50676252 0.01329876 0.00047898
0.54052303 0.01329876 0.00047920
0.57489434 0.01329876 0.00047898
0.60986415 0.01329876 0.00047898
0.64542102 0.01329876 0.00047898
0.68155425 0.01329876 0.00047898
0.71825381 0.01329876 0.00047931
0.75551027 0.01329876 0.00047898
0.79331476 0.01329876 0.00047935
0.83165888 0.01329876 0.00047935
0.87053471 0.01329876 0.00047898
0.00047904 0.02910960 0.00047898
0.00047904 0.02910960 0.00047898
0.00047904 0.02910960 0.00047898
0.01329876 0.02910960 0.00047898
0.02910960 0.02910960 0.00047898
0.04686047 0.02910960 0.00047898
0.06617140 0.02910960 0.00047905
0.08682658 0.02910960 0.00047906
0.10868243 0.02910960 0.00047898
0.13163480 0.02910960 0.00047898
0.15560377 0.02910960 0.00047898
0.18052561 0.02910960 0.00047909
0.20634796 0.02910960 0.00047898
0.23302686 0.02910960 0.00047898
0.26052476 0.02910960 0.00047898
0.28880905 0.02910960 0.00047898
0.31785113 0.02910960 0.00047898
0.34762565 0.02910960 0.00047898
0.37810993 0.02910960 0.00047898
0.40928350 0.02910960 0.00047898
0.44112784 0.02910960 0.00047898
0.47362602 0.02910960 0.00047898
0.50676252 0.02910960 0.00047898
0.54052303 0.02910960 0.00047920
0.57489434 0.02910960 0.00047898
0.60986415 0.02910960 0.00047898
0.64542102 0.02910960 0.00047927
0.68155425 0.02910960 0.00047898
0.71825381 0.02910960 0.00047931
0.75551027 0.02910960 0.00047898
0.79331476 0.02910960 0.00047898
0.83165888 0.02910960 0.00047898
0.87053471 0.02910960 0.00047898
0.00047905 0.04686047 0.00047898
0.00047905 0.04686047 0.00047898
0.00047905 0.04686047 0.00047898
0.01329876 0.04686047 0.00047898
0.02910960 0.04686047 0.00047898
0.04686047 0.04686047 0.00047898
0.06617140 0.04686047 0.00047905
0.08682658 0.04686047 0.00047898
0.10868243 0.04686047 0.00047898
0.13163480 0.04686047 0.00047898
0.15560377 0.04686047 0.00047898
0.18052561 0.04686047 0.00047898
0.20634796 0.04686047 0.00047898
0.23302686 0.04686047 0.00047898
0.26052476 0.04686047 0.00047898
0.28880905 0.04686047 0.00047898
0.31785113 0.04686047 0.00047898
0.34762565 0.04686047 0.00047898
0.37810993 0.04686047 0.00047898
0.40928350 0.04686047 0.00047898
0.44112784 0.04686047 0.00047898
0.47362602 0.04686047 0.00047898
0.50676252 0.04686047 0.00047898
0.54052303 0.04686047 0.00047898
0.57489434 0.04686047 0.00047898
0.60986415 0.04686047 0.00047898
0.64542102 0.04686047 0.00047898
0.68155425 0.04686047 0.00047898
0.71825381 0.04686047 0.00047898
0.75551027 0.04686047 0.00047898
0.79331476 0.04686047 0.00047898
0.83165888 0.04686047 0.00047898
0.87053471 0.04686047 0.00047898
0.00047905 0.06617140 0.00047898
0.00047905 0.06617140 0.00047898
0.00047905 0.06617140 0.00047898
0.01329876 0.06617140 0.00047898
0.02910960 0.06617140 0.00047898
0.04686047 0.06617140 0.00047898
0.06617140 0.06617140 0.00047898
0.08682658 0.06617140 0.00047898
0.10868243 0.06617140 0.00047898
0.13163480 0.06617140 0.00047898
0.15560377 0.06617140 0.00047908
0.18052561 0.06617140 0.00047898
0.20634796 0.06617140 0.00047898
0.23302686 0.06617140 0.00047910
0.26052476 0.06617140 0.00047898
0.28880905 0.06617140 0.00047898
0.31785113 0.06617140 0.00047898
0.34762565 0.06617140 0.00047898
0.37810993 0.06617140 0.00047898
0.40928350 0.06617140 0.00047898
0.44112784 0.06617140 0.00047898
0.47362602 0.06617140 0.00047898
0.50676252 0.06617140 0.00047920
0.54052303 0.06617140 0.00047898
0.57489434 0.06617140 0.00047898
0.60986415 0.06617140 0.00047898
0.64542102 0.06617140 0.00047898
0.68155425 0.06617140 0.00047927
0.71825381 0.06617140 0.00047931
0.75551027 0.06617140 0.00047898
0.79331476 0.06617140 0.00047898
0.83165888 0.06617140 0.00047898
0.87053471 0.06617140 0.00047898
0.00047907 0.08682658 0.00047906
0.00047907 0.08682658 0.00047906
0.00047907 0.08682658 0.00047906
0.01329876 0.08682658 0.00047898
0.02910960 0.08682658 0.00047898
0.04686047 0.08682658 0.00047906
0.06617140 0.08682658 0.00047898
0.08682658 0.08682658 0.00047898
0.10868243 0.08682658 0.00047898
0.13163480 0.08682658 0.00047898
0.15560377 0.08682658 0.00047909
0.18052561 0.08682658 0.00047898
0.20634796 0.08682658 0.00047898
0.23302686 0.08682658 0.00047898
0.26052476 0.08682658 0.00047912
0.28880905 0.08682658 0.00047898
0.31785113 0.08682658 0.00047914
0.34762565 0.08682658 0.00047898
0.37810993 0.08682658 0.00047898
0.40928350 0.08682658 0.00047898
0.44112784 0.08682658 0.00047898
0.47362602 0.08682658 0.00047898
0.50676252 0.08682658 0.00047920
0.54052303 0.08682658 0.00047920
0.57489434 0.08682658 0.00047898
0.60986415 0.08682658 0.00047898
0.64542102 0.08682658 0.00047898
0.68155425 0.08682658 0.00047898
0.71825381 0.08682658 0.00047898
0.75551027 0.08682658 0.00047898
0.79331476 0.08682658 0.00047898
0.83165888 0.08682658 0.00047898
0.87053471 0.08682658 0.00047940
0.00047898 0.10868243 0.00047898
0.00047898 0.10868243 0.00047898
0.00047898 0.10868243 0.00047898
0.01329876 0.10868243 0.00047898
0.02910960 0.10868243 0.00047898
0.04686047 0.10868243 0.00047898
0.06617140 0.10868243 0.00047898
0.08682658 0.10868243 0.00047898
0.10868243 0.10868243 0.00047898
0.13163480 0.10868243 0.00047898
0.15560377 0.10868243 0.00047898
0.18052561 0.10868243 0.00047898
0.20634796 0.10868243 0.00047898
0.23302686 0.10868243 0.00047910
0.26052476 0.10868243 0.00047898
0.28880905 0.10868243 0.00047898
0.31785113 0.10868243 0.00047898
0.34762565 0.10868243 0.00047898
0.37810993 0.10868243 0.00047898
0.40928350 0.10868243 0.00047898
0.44112784 0.10868243 0.00047898
0.47362602 0.10868243 0.00047898
0.50676252 0.10868243 0.00047898
0.54052303 0.10868243 0.00047898
0.57489434 0.10868243 0.00047898
0.60986415 0.10868243 0.00047898
0.64542102 0.10868243 0.00047927
0.68155425 0.10868243 0.00047898
0.71825381 0.10868243 0.00047898
0.75551027 0.10868243 0.00047898
0.79331476 0.10868243 0.00047898
0.83165888 0.10868243 0.00047898
0.87053471 0.10868243 0.00047898
0.00047910 0.13163480 0.00047898
0.00047910 0.13163480 0.00047898
0.00047910 0.13163480 0.00047898
0.01329876 0.13163480 0.00047898
0.02910960 0.13163480 0.00047898
0.04686047 0.13163480 0.00047908
0.06617140 0.13163480 0.00047898
0.08682658 0.13163480 0.00047898
0.10868243 0.13163480 0.00047908
0.13163480 0.13163480 0.00047909
0.15560377 0.13163480 0.00047898
0.18052561 0.13163480 0.00047909
0.20634796 0.13163480 0.00047898
0.23302686 0.13163480 0.00047912
0.26052476 0.13163480 0.00047898
0.28880905 0.13163480 0.00047898
0.31785113 0.13163480 0.00047914
0.34762565 0.13163480 0.00047898
0.37810993 0.13163480 0.00047916
0.40928350 0.13163480 0.00047898
0.44112784 0.13163480 0.00047898
0.47362602 0.13163480 0.00047898
0.50676252 0.13163480 0.00047898
0.54052303 0.13163480 0.00047898
0.57489434 0.13163480 0.00047923
0.60986415 0.13163480 0.00047898
0.64542102 0.13163480 0.00047898
0.68155425 0.13163480 0.00047898
0.71825381 0.13163480 0.00047898
0.75551027 0.13163480 0.00047898
0.79331476 0.13163480 0.00047935
0.83165888 0.13163480 0.00047898
0.87053471 0.13163480 0.00047898
0.00047912 0.15560377 0.00047898
0.00047912 0.15560377 0.00047898
0.00047912 0.15560377 0.00047898
0.01329876 0.15560377 0.00047898
0.02910960 0.15560377 0.00047898
0.04686047 0.15560377 0.00047898
0.06617140 0.15560377 0.00047898
0.08682658 0.15560377 0.00047898
0.10868243 0.15560377 0.00047898
0.13163480 0.15560377 0.00047898
0.15560377 0.15560377 0.00047898
0.18052561 0.15560377 0.00047898
0.20634796 0.15560377 0.00047898
0.23302686 0.15560377 0.00047898
0.26052476 0.15560377 0.00047898
0.28880905 0.15560377 0.00047912
0.31785113 0.15560377 0.00047914
0.34762565 0.15560377 0.00047914
0.37810993 0.15560377 0.00047898
0.40928350 0.15560377 0.00047898
0.44112784 0.15560377 0.00047898
0.47362602 0.15560377 0.00047898
0.50676252 0.15560377 0.00047898
0.54052303 0.15560377 0.00047920
0.57489434 0.15560377 0.00047898
0.60986415 0.15560377 0.00047898
0.64542102 0.15560377 0.00047898
0.68155425 0.15560377 0.00047898
0.71825381 0.15560377 0.00047931
0.75551027 0.15560377 0.00047898
0.79331476 0.15560377 0.00047935
0.83165888 0.15560377 0.00047898
0.87053471 0.15560377 0.00047898
0.00047910 0.18052561 0.00047898
0.00047910 0.18052561 0.00047898
0.00047910 0.18052561 0.00047898
0.01329876 0.18052561 0.00047898
0.02910960 0.18052561 0.00047898
0.04686047 0.18052561 0.00047898
0.06617140 0.18052561 0.00047909
0.08682658 0.18052561 0.00047898
0.10868243 0.18052561 0.00047909
0.13163480 0.18052561 0.00047898
0.15560377 0.18052561 0.00047898
0.18052561 0.18052561 0.00047898
0.20634796 0.18052561 0.00047898
0.23302686 0.18052561 0.00047898
0.26052476 0.18052561 0.00047898
0.28880905 0.18052561 0.00047914
0.31785113 0.18052561 0.00047898
0.34762565 0.18052561 0.00047898
0.37810993 0.18052561 0.00047898
0.40928350 0.18052561 0.00047898
0.44112784 0.18052561 0.00047898
0.47362602 0.18052561 0.00047898
0.50676252 0.18052561 0.00047920
0.54052303 0.18052561 0.00047920
0.57489434 0.18052561 0.00047898
0.60986415 0.18052561 0.00047923
0.64542102 0.18052561 0.00047898
0.68155425 0.18052561 0.00047898
0.71825381 0.18052561 0.00047931
0.75551027 0.18052561 0.00047898
0.79331476 0.18052561 0.00047898
0.83165888 0.18052561 0.00047898
0.87053471 0.18052561 0.00047898
0.00047911 0.20634796 0.00047910
0.00047911 0.20634796 0.00047910
0.00047911 0.20634796 0.00047910
0.01329876 0.20634796 0.00047910
0.02910960 0.20634796 0.00047898
0.04686047 0.20634796 0.00047910
0.06617140 0.20634796 0.00047910
0.08682658 0.20634796 0.00047910
0.10868243 0.20634796 0.00047898
0.13163480 0.20634796 0.00047910
0.15560377 0.20634796 0.00047898
0.18052561 0.20634796 0.00047898
0.20634796 0.20634796 0.00047912
0.23302686 0.20634796 0.00047898
0.26052476 0.20634796 0.00047898
0.28880905 0.20634796 0.00047898
0.31785113 0.20634796 0.00047898
0.34762565 0.20634796 0.00047898
0.37810993 0.20634796 0.00047898
0.40928350 0.20634796 0.00047898
0.44112784 0.20634796 0.00047898
0.47362602 0.20634796 0.00047898
0.50676252 0.20634796 0.00047898
0.54052303 0.20634796 0.00047898
0.57489434 0.20634796 0.00047898
0.60986415 0.20634796 0.00047898
0.64542102 0.20634796 0.00047927
0.68155425 0.20634796 0.00047927
0.71825381 0.20634796 0.00047931
0.75551027 0.20634796 0.00047898
0.79331476 0.20634796 0.00047898
0.83165888 0.20634796 0.00047898
0.87053471 0.20634796 0.00047898
0.00047913 0.23302686 0.00047898
0.00047913 0.23302686 0.00047898
0.00047913 0.23302686 0.00047898
0.01329876 0.23302686 0.00047910
0.02910960 0.23302686 0.00047898
0.04686047 0.23302686 0.00047898
0.06617140 0.23302686 0.00047910
0.08682658 0.23302686 0.00047898
0.10868243 0.23302686 0.00047898
0.13163480 0.23302686 0.00047912
0.15560377 0.23302686 0.00047898
0.18052561 0.23302686 0.00047912
0.20634796 0.23302686 0.00047898
0.23302686 0.23302686 0.00047912
0.26052476 0.23302686 0.00047898
0.28880905 0.23302686 0.00047898
0.31785113 0.23302686 0.00047898
0.34762565 0.23302686 0.00047898
0.37810993 0.23302686 0.00047898
0.40928350 0.23302686 0.00047916
0.44112784 0.23302686 0.00047898
0.47362602 0.23302686 0.00047898
0.50676252 0.23302686 0.00047898
0.54052303 0.23302686 0.00047920
0.57489434 0.23302686 0.00047898
0.60986415 0.23302686 0.00047923
0.64542102 0.23302686 0.00047898
0.68155425 0.23302686 0.00047898
0.71825381 0.23302686 0.00047898
0.75551027 0.23302686 0.00047898
0.79331476 0.23302686 0.00047935
0.83165888 0.23302686 0.00047898
0.87053471 0.23302686 0.00047940
0.00047913 0.26052476 0.00047898
0.00047913 0.26052476 0.00047898
0.00047913 0.26052476 0.00047898
0.01329876 0.26052476 0.00047898
0.02910960 0.26052476 0.00047898
0.04686047 0.26052476 0.00047898
0.06617140 0.26052476 0.00047898
0.08682658 0.26052476 0.00047898
0.10868243 0.26052476 0.00047898
0.13163480 0.26052476 0.00047898
0.15560377 0.26052476 0.00047898
0.18052561 0.26052476 0.00047898
0.20634796 0.26052476 0.00047898
0.23302686 0.26052476 0.00047898
0.26052476 0.26052476 0.00047898
0.28880905 0.26052476 0.00047898
0.31785113 0.26052476 0.00047898
0.34762565 0.26052476 0.00047916
0.37810993 0.26052476 0.00047898
0.40928350 0.26052476 0.00047898
0.44112784 0.26052476 0.00047898
0.47362602 0.26052476 0.00047898
0.50676252 0.26052476 0.00047898
0.54052303 0.26052476 0.00047898
0.57489434 0.26052476 0.00047898
0.60986415 0.26052476 0.00047898
0.64542102 0.26052476 0.00047898
0.68155425 0.26052476 0.00047898
0.71825381 0.26052476 0.00047898
0.75551027 0.26052476 0.00047898
0.79331476 0.26052476 0.00047898
0.83165888 0.26052476 0.00047898
0.87053471 0.26052476 0.00047940
0.00047916 0.28880905 0.00047898
0.00047916 0.28880905 0.00047898
0.00047916 0.28880905 0.00047898
0.01329876 0.28880905 0.00047898
0.02910960 0.28880905 0.00047898
0.04686047 0.28880905 0.00047898
0.06617140 0.28880905 0.00047898
0.08682658 0.28880905 0.00047898
0.10868243 0.28880905 0.00047898
0.13163480 0.28880905 0.00047898
0.15560377 0.28880905 0.00047898
0.18052561 0.28880905 0.00047898
0.20634796 0.28880905 0.00047898
0.23302686 0.28880905 0.00047898
0.26052476 0.28880905 0.00047898
0.28880905 0.28880905 0.00047914
0.31785113 0.28880905 0.00047898
0.34762565 0.28880905 0.00047898
0.37810993 0.28880905 0.00047898
0.40928350 0.28880905 0.00047898
0.44112784 0.28880905 0.00047898
0.47362602 0.28880905 0.00047898
0.50676252 0.28880905 0.00047898
0.54052303 0.28880905 0.00047898
0.57489434 0.28880905 0.00047898
0.60986415 0.28880905 0.00047898
0.64542102 0.28880905 0.00047898
0.68155425 0.28880905 0.00047898
0.71825381 0.28880905 0.00047898
0.75551027 0.28880905 0.00047898
0.79331476 0.28880905 0.00047898
0.83165888 0.28880905 0.00047898
0.87053471 0.28880905 0.00047898
0.00047898 0.31785113 0.00047898
0.00047898 0.31785113 0.00047898
0.00047898 0.31785113 0.00047898
0.01329876 0.31785113 0.00047898
0.02910960 0.31785113 0.00047898
0.04686047 0.31785113 0.00047898
0.06617140 0.31785113 0.00047898
0.08682658 0.31785113 0.00047898
0.10868243 0.31785113 0.00047898
0.13163480 0.31785113 0.00047898
0.15560377 0.31785113 0.00047898
0.18052561 0.31785113 0.00047898
0.20634796 0.31785113 0.00047898
0.23302686 0.31785113 0.00047898
0.26052476 0.31785113 0.00047898
0.28880905 0.31785113 0.00047898
0.31785113 0.31785113 0.00047898
0.34762565 0.31785113 0.00047916
0.37810993 0.31785113 0.00047898
0.40928350 0.31785113 0.00047898
0.44112784 0.31785113 0.00047898
0.47362602 0.31785113 0.00047898
0.50676252 0.31785113 0.00047920
0.54052303 0.31785113 0.00047920
0.57489434 0.31785113 0.00047898
0.60986415 0.31785113 0.00047923
0.64542102 0.31785113 0.00047898
0.68155425 0.31785113 0.00047898
0.71825381 0.31785113 0.00047898
0.75551027 0.31785113 0.00047898
0.79331476 0.31785113 0.00047935
0.83165888 0.31785113 0.00047898
0.87053471 0.31785113 0.00047898
0.00047918 0.34762565 0.00047916
0.00047918 0.34762565 0.00047916
0.00047918 0.34762565 0.00047916
0.01329876 0.34762565 0.00047916
0.02910960 0.34762565 0.00047916
0.04686047 0.34762565 0.00047898
0.06617140 0.34762565 0.00047898
0.08682658 0.34762565 0.00047898
0.10868243 0.34762565 0.00047898
0.13163480 0.34762565 0.00047898
0.15560377 0.34762565 0.00047898
0.18052561 0.34762565 0.00047916
0.20634796 0.34762565 0.00047898
0.23302686 0.34762565 0.00047916
0.26052476 0.34762565 0.00047898
0.28880905 0.34762565 0.00047898
0.31785113 0.34762565 0.00047898
0.34762565 0.34762565 0.00047916
0.37810993 0.34762565 0.00047918
0.40928350 0.34762565 0.00047898
0.44112784 0.34762565 0.00047898
0.47362602 0.34762565 0.00047898
0.50676252 0.34762565 0.00047898
0.54052303 0.34762565 0.00047920
0.57489434 0.34762565 0.00047898
0.60986415 0.34762565 0.00047898
0.64542102 0.34762565 0.00047898
0.68155425 0.34762565 0.00047898
0.71825381 0.34762565 0.00047931
0.75551027 0.34762565 0.00047898
0.79331476 0.34762565 0.00047898
0.83165888 0.34762565 0.00047898
0.87053471 0.34762565 0.00047940
0.00047919 0.37810993 0.00047898
0.00047919 0.37810993 0.00047898
0.00047919 0.37810993 0.00047898
0.01329876 0.37810993 0.00047898
0.02910960 0.37810993 0.00047898
0.04686047 0.37810993 0.00047898
0.06617140 0.37810993 0.00047898
0.08682658 0.37810993 0.00047898
0.10868243 0.37810993 0.00047898
0.13163480 0.37810993 0.00047898
0.15560377 0.37810993 0.00047898
0.18052561 0.37810993 0.00047898
0.20634796 0.37810993 0.00047898
0.23302686 0.37810993 0.00047898
0.26052476 0.37810993 0.00047916
0.28880905 0.37810993 0.00047898
0.31785113 0.37810993 0.00047898
0.34762565 0.37810993 0.00047898
0.37810993 0.37810993 0.00047898
0.40928350 0.37810993 0.00047898
0.44112784 0.37810993 0.00047898
0.47362602 0.37810993 0.00047898
0.50676252 0.37810993 0.00047898
0.54052303 0.37810993 0.00047898
0.57489434 0.37810993 0.00047898
0.60986415 0.37810993 0.00047927
0.64542102 0.37810993 0.00047898
0.68155425 0.37810993 0.00047898
0.71825381 0.37810993 0.00047931
0.75551027 0.37810993 0.00047898
0.79331476 0.37810993 0.00047898
0.83165888 0.37810993 0.00047898
0.87053471 0.37810993 0.00047898
0.00047917 0.40928350 0.00047898
0.00047917 0.40928350 0.00047898
0.00047917 0.40928350 0.00047898
0.01329876 0.40928350 0.00047898
0.02910960 0.40928350 0.00047898
0.04686047 0.40928350 0.00047898
0.06617140 0.40928350 0.00047898
0.08682658 0.40928350 0.00047898
0.10868243 0.40928350 0.00047898
0.13163480 0.40928350 0.00047898
0.15560377 0.40928350 0.00047898
0.18052561 0.40928350 0.00047898
0.20634796 0.40928350 0.00047898
0.23302686 0.40928350 0.00047898
0.26052476 0.40928350 0.00047898
0.28880905 0.40928350 0.00047898
0.31785113 0.40928350 0.00047898
0.34762565 0.40928350 0.00047898
0.37810993 0.40928350 0.00047898
0.40928350 0.40928350 0.00047898
0.44112784 0.40928350 0.00047898
0.47362602 0.40928350 0.00047898
0.50676252 0.40928350 0.00047898
0.54052303 0.40928350 0.00047898
0.57489434 0.40928350 0.00047898
0.60986415 0.40928350 0.00047898
0.64542102 0.40928350 0.00047927
0.68155425 0.40928350 0.00047927
0.71825381 0.40928350 0.00047931
0.75551027 0.40928350 0.00047898
0.79331476 0.40928350 0.00047898
0.83165888 0.40928350 0.00047898
0.87053471 0.40928350 0.00047940
0.00047912 0.44112784 0.00047898
0.00047912 0.44112784 0.00047898
0.00047912 0.44112784 0.00047898
0.01329876 0.44112784 0.00047898
0.02910960 0.44112784 0.00047898
0.04686047 0.44112784 0.00047898
0.06617140 0.44112784 0.00047898
0.08682658 0.44112784 0.00047898
0.10868243 0.44112784 0.00047898
0.13163480 0.44112784 0.00047898
0.15560377 0.44112784 0.00047898
0.18052561 0.44112784 0.00047898
0.20634796 0.44112784 0.00047898
0.23302686 0.44112784 0.00047898
0.26052476 0.44112784 0.00047898
0.28880905 0.44112784 0.00047898
0.31785113 0.44112784 0.00047918
0.34762565 0.44112784 0.00047898
0.37810993 0.44112784 0.00047898
0.40928350 0.44112784 0.00047898
0.44112784 0.44112784 0.00047898
0.47362602 0.44112784 0.00047898
0.50676252 0.44112784 0.00047898
0.54052303 0.44112784 0.00047923
0.57489434 0.44112784 0.00047898
0.60986415 0.44112784 0.00047898
0.64542102 0.44112784 0.00047898
0.68155425 0.44112784 0.00047898
0.71825381 0.44112784 0.00047898
0.75551027 0.44112784 0.00047898
0.79331476 0.44112784 0.00047898
0.83165888 0.44112784 0.00047935
0.87053471 0.44112784 0.00047898
0.00047921 0.47362602 0.00047898
0.00047921 0.47362602 0.00047898
0.00047921 0.47362602 0.00047898
0.01329876 0.47362602 0.00047898
0.02910960 0.47362602 0.00047898
0.04686047 0.47362602 0.00047920
0.06617140 0.47362602 0.00047898
0.08682658 0.47362602 0.00047898
0.10868243 0.47362602 0.00047898
0.13163480 0.47362602 0.00047920
0.15560377 0.47362602 0.00047898
0.18052561 0.47362602 0.00047898
0.20634796 0.47362602 0.00047898
0.23302686 0.47362602 0.00047898
0.26052476 0.47362602 0.00047920
0.28880905 0.47362602 0.00047898
0.31785113 0.47362602 0.00047898
0.34762565 0.47362602 0.00047898
0.37810993 0.47362602 0.00047898
0.40928350 0.47362602 0.00047898
0.44112784 0.47362602 0.00047898
0.47362602 0.47362602 0.00047898
0.50676252 0.47362602 0.00047898
0.54052303 0.47362602 0.00047898
0.57489434 0.47362602 0.00047898
0.60986415 0.47362602 0.00047923
0.64542102 0.47362602 0.00047898
