src/ffmpeg_scripts/luts/luminance-unclipped_1p67.cube
TITLE "luminance-unclipped_1p67"
LUT_3D_SIZE 9
# PQ (EOTF Only)/Rec2020 -> PQ (EOTF Only)/Rec2020, CineEI Shift 1.67, Black Level -7.25% IRE, Input 109% -> Output 109% - Created with LUTCalc v4.01 by Ben Turley October 2020
0.00047898 0.00047898 0.00047898
0.11379047 0.00047907 0.00047898
0.30078275 0.00047898 0.00047898
0.46890816 0.00047898 0.00047898
0.62647255 0.00047920 0.00047927
0.77669923 0.00047898 0.00047898
0.91886608 0.00047898 0.00047898
0.91886608 0.00047898 0.00047953
0.91886608 0.00047989 0.00047971
0.00047909 0.11379047 0.00047898
0.11379047 0.11379047 0.00047898
0.30078275 0.11379047 0.00047898
0.46890816 0.11379047 0.00047898
0.62647255 0.11379047 0.00047898
0.77669923 0.11379047 0.00047898
0.91886608 0.11379047 0.00047898
0.91886608 0.11379047 0.00047953
0.91886608 0.11379047 0.00047898
0.00047898 0.30078275 0.00047898
0.11379047 0.30078275 0.00047898
0.30078275 0.30078275 0.00047898
0.46890816 0.30078275 0.00047898
0.62647255 0.30078275 0.00047923
0.77669923 0.30078275 0.00047898
0.91886608 0.30078275 0.00047898
0.91886608 0.30078275 0.00047898
0.91886608 0.30078275 0.00047898
0.00047922 0.46890816 0.00047920
0.11379047 0.46890816 0.00047898
0.30078275 0.46890816 0.00047898
0.46890816 0.46890816 0.00047923
0.62647255 0.46890816 0.00047898
0.77669923 0.46890816 0.00047898
0.91886608 0.46890816 0.00047898
0.91886608 0.46890816 0.00047953
0.91886608 0.46890816 0.00047898
0.00047898 0.62647255 0.00047898
0.11379047 0.62647255 0.00047898
0.30078275 0.62647255 0.00047898
0.46890816 0.62647255 0.00047898
0.62647255 0.62647255 0.00047898
0.77669923 0.62647255 0.00047898
0.91886608 0.62647255 0.00047940
0.91886608 0.62647255 0.00047898
0.91886608 0.62647255 0.00047898
0.00047932 0.77669923 0.00047898
0.11379047 0.77669923 0.00047898
0.30078275 0.77669923 0.00047898
0.46890816 0.77669923 0.00047898
0.62647255 0.77669923 0.00047935
0.77669923 0.77669923 0.00047898
0.91886608 0.77669923 0.00047946
0.91886608 0.77669923 0.00047898
0.91886608 0.77669923 0.00047898
0.00047898 0.91886608 0.00047946
0.11379047 0.91886608 0.00047898
0.30078275 0.91886608 0.00047898
0.46890816 0.91886608 0.00047898
0.62647255 0.91886608 0.00047898
0.77669923 0.91886608 0.00047898
0.91886608 0.91886608 0.00047898
0.91886608 0.91886608 0.00047961
0.91886608 0.91886608 0.00047971
0.00047958 0.91886608 0.00047898
0.11379047 0.91886608 0.00047898
0.30078275 0.91886608 0.00047898
0.46890816 0.91886608 0.00047898
0.62647255 0.91886608 0.00047898
0.77669923 0.91886608 0.00047898
0.91886608 0.91886608 0.00047898
0.91886608 0.91886608 0.00047898
0.91886608 0.91886608 0.00047898
0.00047986 0.91886608 0.00047983
0.11379047 0.91886608 0.00047983
0.30078275 0.91886608 0.00047898
0.46890816 0.91886608 0.00047983
0.62647255 0.91886608 0.00047898
0.77669923 0.91886608 0.00047898
0.91886608 0.91886608 0.00047898
0.91886608 0.91886608 0.00047983
0.91886608 0.91886608 0.00047898
0.00047898 0.00047910 0.11379047
0.11379047 0.00047909 0.11379047
0.30078275 0.00047898 0.11379047
0.46890816 0.00047914 0.11379047
0.62647255 0.00047898 0.11379047
0.77669923 0.00047898 0.11379047
0.91886608 0.00047945 0.11379047
0.91886608 0.00047960 0.11379047
0.91886608 0.00047971 0.11379047
0.00047898 0.11379047 0.11379047
0.11379047 0.11379047 0.11379047
0.30078275 0.11379047 0.11379047
0.46890816 0.11379047 0.11379047
0.62647255 0.11379047 0.11379047
0.77669923 0.11379047 0.11379047
0.91886608 0.11379047 0.11379047
0.91886608 0.11379047 0.11379047
0.91886608 0.11379047 0.11379047
0.00047915 0.30078275 0.11379047
0.11379047 0.30078275 0.11379047
0.30078275 0.30078275 0.11379047
0.46890816 0.30078275 0.11379047
0.62647255 0.30078275 0.11379047
0.77669923 0.30078275 0.11379047
0.91886608 0.30078275 0.11379047
0.91886608 0.30078275 0.11379047
0.91886608 0.30078275 0.11379047
0.00047918 0.46890816 0.11379047
0.11379047 0.46890816 0.11379047
0.30078275 0.46890816 0.11379047
0.46890816 0.46890816 0.11379047
0.62647255 0.46890816 0.11379047
0.77669923 0.46890816 0.11379047
0.91886608 0.46890816 0.11379047
0.91886608 0.46890816 0.11379047
0.91886608 0.46890816 0.11379047
0.00047898 0.62647255 0.11379047
0.11379047 0.62647255 0.11379047
0.30078275 0.62647255 0.11379047
0.46890816 0.62647255 0.11379047
0.62647255 0.62647255 0.11379047
0.77669923 0.62647255 0.11379047
0.91886608 0.62647255 0.11379047
0.91886608 0.62647255 0.11379047
0.91886608 0.62647255 0.11379047
0.00047925 0.77669923 0.11379047
0.11379047 0.77669923 0.11379047
0.30078275 0.77669923 0.11379047
0.46890816 0.77669923 0.11379047
0.62647255 0.77669923 0.11379047
0.77669923 0.77669923 0.11379047
0.91886608 0.77669923 0.11379047
0.91886608 0.77669923 0.11379047
0.91886608 0.77669923 0.11379047
0.00047898 0.91886608 0.11379047
0.11379047 0.91886608 0.11379047
0.30078275 0.91886608 0.11379047
0.46890816 0.91886608 0.11379047
0.62647255 0.91886608 0.11379047
0.77669923 0.91886608 0.11379047
0.91886608 0.91886608 0.11379047
0.91886608 0.91886608 0.11379047
0.91886608 0.91886608 0.11379047
0.00047961 0.91886608 0.11379047
0.11379047 0.91886608 0.11379047
0.30078275 0.91886608 0.11379047
0.46890816 0.91886608 0.11379047
0.62647255 0.91886608 0.11379047
0.77669923 0.91886608 0.11379047
0.91886608 0.91886608 0.11379047
0.91886608 0.91886608 0.11379047
0.91886608 0.91886608 0.11379047
0.00047999 0.91886608 0.11379047
0.11379047 0.91886608 0.11379047
0.30078275 0.91886608 0.11379047
0.46890816 0.91886608 0.11379047
0.62647255 0.91886608 0.11379047
0.77669923 0.91886608 0.11379047
0.91886608 0.91886608 0.11379047
0.91886608 0.91886608 0.11379047
0.91886608 0.91886608 0.11379047
0.00047898 0.00047918 0.30078275
0.11379047 0.00047918 0.30078275
0.30078275 0.00047898 0.30078275
0.46890816 0.00047918 0.30078275
0.62647255 0.00047927 0.30078275
0.77669923 0.00047929 0.30078275
0.91886608 0.00047898 0.30078275
0.91886608 0.00047946 0.30078275
0.91886608 0.00047971 0.30078275
0.00047914 0.11379047 0.30078275
0.11379047 0.11379047 0.30078275
0.30078275 0.11379047 0.30078275
0.46890816 0.11379047 0.30078275
0.62647255 0.11379047 0.30078275
0.77669923 0.11379047 0.30078275
0.91886608 0.11379047 0.30078275
0.91886608 0.11379047 0.30078275
0.91886608 0.11379047 0.30078275
0.00047916 0.30078275 0.30078275
0.11379047 0.30078275 0.30078275
0.30078275 0.30078275 0.30078275
0.46890816 0.30078275 0.30078275
0.62647255 0.30078275 0.30078275
0.77669923 0.30078275 0.30078275
0.91886608 0.30078275 0.30078275
0.91886608 0.30078275 0.30078275
0.91886608 0.30078275 0.30078275
0.00047924 0.46890816 0.30078275
0.11379047 0.46890816 0.30078275
0.30078275 0.46890816 0.30078275
0.46890816 0.46890816 0.30078275
0.62647255 0.46890816 0.30078275
0.77669923 0.46890816 0.30078275
0.91886608 0.46890816 0.30078275
0.91886608 0.46890816 0.30078275
0.91886608 0.46890816 0.30078275
0.00047931 0.62647255 0.30078275
0.11379047 0.62647255 0.30078275
0.30078275 0.62647255 0.30078275
0.46890816 0.62647255 0.30078275
0.62647255 0.62647255 0.30078275
0.77669923 0.62647255 0.30078275
0.91886608 0.62647255 0.30078275
0.91886608 0.62647255 0.30078275
0.91886608 0.62647255 0.30078275
0.00047941 0.77669923 0.30078275
0.11379047 0.77669923 0.30078275
0.30078275 0.77669923 0.30078275
0.46890816 0.77669923 0.30078275
0.62647255 0.77669923 0.30078275
0.77669923 0.77669923 0.30078275
0.91886608 0.77669923 0.30078275
0.91886608 0.77669923 0.30078275
0.91886608 0.77669923 0.30078275
0.00047954 0.91886608 0.30078275
0.11379047 0.91886608 0.30078275
0.30078275 0.91886608 0.30078275
0.46890816 0.91886608 0.30078275
0.62647255 0.91886608 0.30078275
0.77669923 0.91886608 0.30078275
0.91886608 0.91886608 0.30078275
0.91886608 0.91886608 0.30078275
0.91886608 0.91886608 0.30078275
0.00047972 0.91886608 0.30078275
0.11379047 0.91886608 0.30078275
0.30078275 0.91886608 0.30078275
0.46890816 0.91886608 0.30078275
0.62647255 0.91886608 0.30078275
0.77669923 0.91886608 0.30078275
0.91886608 0.91886608 0.30078275
0.91886608 0.91886608 0.30078275
0.91886608 0.91886608 0.30078275
0.00047898 0.91886608 0.30078275
0.11379047 0.91886608 0.30078275
0.30078275 0.91886608 0.30078275
0.46890816 0.91886608 0.30078275
0.62647255 0.91886608 0.30078275
0.77669923 0.91886608 0.30078275
0.91886608 0.91886608 0.30078275
0.91886608 0.91886608 0.30078275
0.91886608 0.91886608 0.30078275
0.00047898 0.00047927 0.46890816
0.11379047 0.00047927 0.46890816
0.30078275 0.00047927 0.46890816
0.46890816 0.00047927 0.46890816
0.62647255 0.00047931 0.46890816
0.77669923 0.00047898 0.46890816
0.91886608 0.00047945 0.46890816
0.91886608 0.00047898 0.46890816
0.91886608 0.00047961 0.46890816
0.00047898 0.11379047 0.46890816
0.11379047 0.11379047 0.46890816
0.30078275 0.11379047 0.46890816
0.46890816 0.11379047 0.46890816
0.62647255 0.11379047 0.46890816
0.77669923 0.11379047 0.46890816
0.91886608 0.11379047 0.46890816
0.91886608 0.11379047 0.46890816
0.91886608 0.11379047 0.46890816
0.00047898 0.30078275 0.46890816
0.11379047 0.30078275 0.46890816
0.30078275 0.30078275 0.46890816
0.46890816 0.30078275 0.46890816
0.62647255 0.30078275 0.46890816
0.77669923 0.30078275 0.46890816
0.91886608 0.30078275 0.46890816
0.91886608 0.30078275 0.46890816
0.91886608 0.30078275 0.46890816
0.00047923 0.46890816 0.46890816
0.11379047 0.46890816 0.46890816
0.30078275 0.46890816 0.46890816
0.46890816 0.46890816 0.46890816
0.62647255 0.46890816 0.46890816
0.77669923 0.46890816 0.46890816
0.91886608 0.46890816 0.46890816
0.91886608 0.46890816 0.46890816
0.91886608 0.46890816 0.46890816
0.00047898 0.62647255 0.46890816
0.11379047 0.62647255 0.46890816
0.30078275 0.62647255 0.46890816
0.46890816 0.62647255 0.46890816
0.62647255 0.62647255 0.46890816
0.77669923 0.62647255 0.46890816
0.91886608 0.62647255 0.46890816
0.91886608 0.62647255 0.46890816
0.91886608 0.62647255 0.46890816
0.00047898 0.77669923 0.46890816
0.11379047 0.77669923 0.46890816
0.30078275 0.77669923 0.46890816
0.46890816 0.77669923 0.46890816
0.62647255 0.77669923 0.46890816
0.77669923 0.77669923 0.46890816
0.91886608 0.77669923 0.46890816
0.91886608 0.77669923 0.46890816
0.91886608 0.77669923 0.46890816
0.00047957 0.91886608 0.46890816
0.11379047 0.91886608 0.46890816
0.30078275 0.91886608 0.46890816
0.46890816 0.91886608 0.46890816
0.62647255 0.91886608 0.46890816
0.77669923 0.91886608 0.46890816
0.91886608 0.91886608 0.46890816
0.91886608 0.91886608 0.46890816
0.91886608 0.91886608 0.46890816
0.00047970 0.91886608 0.46890816
0.11379047 0.91886608 0.46890816
0.30078275 0.91886608 0.46890816
0.46890816 0.91886608 0.46890816
0.62647255 0.91886608 0.46890816
0.77669923 0.91886608 0.46890816
0.91886608 0.91886608 0.46890816
0.91886608 0.91886608 0.46890816
0.91886608 0.91886608 0.46890816
0.00047982 0.91886608 0.46890816
0.11379047 0.91886608 0.46890816
0.30078275 0.91886608 0.46890816
0.46890816 0.91886608 0.46890816
0.62647255 0.91886608 0.46890816
0.77669923 0.91886608 0.46890816
0.91886608 0.91886608 0.46890816
0.91886608 0.91886608 0.46890816
0.91886608 0.91886608 0.46890816
0.00047927 0.00047935 0.62647255
0.11379047 0.00047935 0.62647255
0.30078275 0.00047935 0.62647255
0.46890816 0.00047935 0.62647255
0.62647255 0.00047935 0.62647255
0.77669923 0.00047898 0.62647255
0.91886608 0.00047944 0.62647255
0.91886608 0.00047940 0.62647255
0.91886608 0.00047999 0.62647255
0.00047898 0.11379047 0.62647255
0.11379047 0.11379047 0.62647255
0.30078275 0.11379047 0.62647255
0.46890816 0.11379047 0.62647255
0.62647255 0.11379047 0.62647255
0.77669923 0.11379047 0.62647255
0.91886608 0.11379047 0.62647255
0.91886608 0.11379047 0.62647255
0.91886608 0.11379047 0.62647255
0.00047898 0.30078275 0.62647255
0.11379047 0.30078275 0.62647255
0.30078275 0.30078275 0.62647255
0.46890816 0.30078275 0.62647255
0.62647255 0.30078275 0.62647255
0.77669923 0.30078275 0.62647255
0.91886608 0.30078275 0.62647255
0.91886608 0.30078275 0.62647255
0.91886608 0.30078275 0.62647255
0.00047927 0.46890816 0.62647255
0.11379047 0.46890816 0.62647255
0.30078275 0.46890816 0.62647255
0.46890816 0.46890816 0.62647255
0.62647255 0.46890816 0.62647255
0.77669923 0.46890816 0.62647255
0.91886608 0.46890816 0.62647255
0.91886608 0.46890816 0.62647255
0.91886608 0.46890816 0.62647255
0.00047898 0.62647255 0.62647255
0.11379047 0.62647255 0.62647255
0.30078275 0.62647255 0.62647255
0.46890816 0.62647255 0.62647255
0.62647255 0.62647255 0.62647255
0.77669923 0.62647255 0.62647255
0.91886608 0.62647255 0.62647255
0.91886608 0.62647255 0.62647255
0.91886608 0.62647255 0.62647255
0.00047898 0.77669923 0.62647255
0.11379047 0.77669923 0.62647255
0.30078275 0.77669923 0.62647255
0.46890816 0.77669923 0.62647255
0.62647255 0.77669923 0.62647255
0.77669923 0.77669923 0.62647255
0.91886608 0.77669923 0.62647255
0.91886608 0.77669923 0.62647255
0.91886608 0.77669923 0.62647255
0.00047949 0.91886608 0.62647255
0.11379047 0.91886608 0.62647255
0.30078275 0.91886608 0.62647255
0.46890816 0.91886608 0.62647255
0.62647255 0.91886608 0.62647255
0.77669923 0.91886608 0.62647255
0.91886608 0.91886608 0.62647255
0.91886608 0.91886608 0.62647255
0.91886608 0.91886608 0.62647255
0.00047971 0.91886608 0.62647255
0.11379047 0.91886608 0.62647255
0.30078275 0.91886608 0.62647255
0.46890816 0.91886608 0.62647255
0.62647255 0.91886608 0.62647255
0.77669923 0.91886608 0.62647255
0.91886608 0.91886608 0.62647255
0.91886608 0.91886608 0.62647255
0.91886608 0.91886608 0.62647255
0.00047969 0.91886608 0.62647255
0.11379047 0.91886608 0.62647255
0.30078275 0.91886608 0.62647255
0.46890816 0.91886608 0.62647255
0.62647255 0.91886608 0.62647255
0.77669923 0.91886608 0.62647255
0.91886608 0.91886608 0.62647255
0.91886608 0.91886608 0.62647255
0.91886608 0.91886608 0.62647255
0.00047898 0.00047953 0.77669923
0.11379047 0.00047953 0.77669923
0.30078275 0.00047953 0.77669923
0.46890816 0.00047953 0.77669923
0.62647255 0.00047958 0.77669923
0.77669923 0.00047946 0.77669923
0.91886608 0.00047953 0.77669923
0.91886608 0.00047898 0.77669923
0.91886608 0.00047898 0.77669923
0.00047898 0.11379047 0.77669923
0.11379047 0.11379047 0.77669923
0.30078275 0.11379047 0.77669923
0.46890816 0.11379047 0.77669923
0.62647255 0.11379047 0.77669923
0.77669923 0.11379047 0.77669923
0.91886608 0.11379047 0.77669923
0.91886608 0.11379047 0.77669923
0.91886608 0.11379047 0.77669923
0.00047898 0.30078275 0.77669923
0.11379047 0.30078275 0.77669923
0.30078275 0.30078275 0.77669923
0.46890816 0.30078275 0.77669923
0.62647255 0.30078275 0.77669923
0.77669923 0.30078275 0.77669923
0.91886608 0.30078275 0.77669923
0.91886608 0.30078275 0.77669923
0.91886608 0.30078275 0.77669923
0.00047898 0.46890816 0.77669923
0.11379047 0.46890816 0.77669923
0.30078275 0.46890816 0.77669923
0.46890816 0.46890816 0.77669923
0.62647255 0.46890816 0.77669923
0.77669923 0.46890816 0.77669923
0.91886608 0.46890816 0.77669923
0.91886608 0.46890816 0.77669923
0.91886608 0.46890816 0.77669923
0.00047935 0.62647255 0.77669923
0.11379047 0.62647255 0.77669923
0.30078275 0.62647255 0.77669923
0.46890816 0.62647255 0.77669923
0.62647255 0.62647255 0.77669923
0.77669923 0.62647255 0.77669923
0.91886608 0.62647255 0.77669923
0.91886608 0.62647255 0.77669923
0.91886608 0.62647255 0.77669923
0.00047898 0.77669923 0.77669923
0.11379047 0.77669923 0.77669923
0.30078275 0.77669923 0.77669923
0.46890816 0.77669923 0.77669923
0.62647255 0.77669923 0.77669923
0.77669923 0.77669923 0.77669923
0.91886608 0.77669923 0.77669923
0.91886608 0.77669923 0.77669923
0.91886608 0.77669923 0.77669923
0.00047946 0.91886608 0.77669923
0.11379047 0.91886608 0.77669923
0.30078275 0.91886608 0.77669923
0.46890816 0.91886608 0.77669923
0.62647255 0.91886608 0.77669923
0.77669923 0.91886608 0.77669923
0.91886608 0.91886608 0.77669923
0.91886608 0.91886608 0.77669923
0.91886608 0.91886608 0.77669923
0.00047898 0.91886608 0.77669923
0.11379047 0.91886608 0.77669923
0.30078275 0.91886608 0.77669923
0.46890816 0.91886608 0.77669923
0.62647255 0.91886608 0.77669923
0.77669923 0.91886608 0.77669923
0.91886608 0.91886608 0.77669923
0.91886608 0.91886608 0.77669923
0.91886608 0.91886608 0.77669923
0.00047995 0.91886608 0.77669923
0.11379047 0.91886608 0.77669923
0.30078275 0.91886608 0.77669923
0.46890816 0.91886608 0.77669923
0.62647255 0.91886608 0.77669923
0.77669923 0.91886608 0.77669923
0.91886608 0.91886608 0.77669923
0.91886608 0.91886608 0.77669923
0.91886608 0.91886608 0.77669923
0.00047898 0.00047898 0.91886608
0.11379047 0.00047961 0.91886608
0.30078275 0.00047898 0.91886608
0.46890816 0.00047898 0.91886608
0.62647255 0.00047898 0.91886608
0.77669923 0.00047898 0.91886608
0.91886608 0.00047961 0.91886608
0.91886608 0.00047898 0.91886608
0.91886608 0.00047898 0.91886608
0.00047898 0.11379047 0.91886608
0.11379047 0.11379047 0.91886608
0.30078275 0.11379047 0.91886608
0.46890816 0.11379047 0.91886608
0.62647255 0.11379047 0.91886608
0.77669923 0.11379047 0.91886608
0.91886608 0.11379047 0.91886608
0.91886608 0.11379047 0.91886608
0.91886608 0.11379047 0.91886608
0.00047898 0.30078275 0.91886608
0.11379047 0.30078275 0.91886608
0.30078275 0.30078275 0.91886608
0.46890816 0.30078275 0.91886608
0.62647255 0.30078275 0.91886608
0.77669923 0.30078275 0.91886608
0.91886608 0.30078275 0.91886608
0.91886608 0.30078275 0.91886608
0.91886608 0.30078275 0.91886608
0.00047898 0.46890816 0.91886608
0.11379047 0.46890816 0.91886608
0.30078275 0.46890816 0.91886608
0.46890816 0.46890816 0.91886608
0.62647255 0.46890816 0.91886608
0.77669923 0.46890816 0.91886608
0.91886608 0.46890816 0.91886608
0.91886608 0.46890816 0.91886608
0.91886608 0.46890816 0.91886608
0.00047898 0.62647255 0.91886608
0.11379047 0.62647255 0.91886608
0.30078275 0.62647255 0.91886608
0.46890816 0.62647255 0.91886608
0.62647255 0.62647255 0.91886608
0.77669923 0.62647255 0.91886608
0.91886608 0.62647255 0.91886608
0.91886608 0.62647255 0.91886608
0.91886608 0.62647255 0.91886608
0.00047898 0.77669923 0.91886608
0.11379047 0.77669923 0.91886608
0.30078275 0.77669923 0.91886608
0.46890816 0.77669923 0.91886608
0.62647255 0.77669923 0.91886608
0.77669923 0.77669923 0.91886608
0.91886608 0.77669923 0.91886608
0.91886608 0.77669923 0.91886608
0.91886608 0.77669923 0.91886608
0.00047898 0.91886608 0.91886608
0.11379047 0.91886608 0.91886608
0.30078275 0.91886608 0.91886608
0.46890816 0.91886608 0.91886608
0.62647255 0.91886608 0.91886608
0.77669923 0.91886608 0.91886608
0.91886608 0.91886608 0.91886608
0.91886608 0.91886608 0.91886608
0.91886608 0.91886608 0.91886608
0.00047898 0.91886608 0.91886608
0.11379047 0.91886608 0.91886608
0.30078275 0.91886608 0.91886608
0.46890816 0.91886608 0.91886608
0.62647255 0.91886608 0.91886608
0.77669923 0.91886608 0.91886608
0.91886608 0.91886608 0.91886608
0.91886608 0.91886608 0.91886608
0.91886608 0.91886608 0.91886608
0.00047989 0.91886608 0.91886608
0.11379047 0.91886608 0.91886608
0.30078275 0.91886608 0.91886608
0.46890816 0.91886608 0.91886608
0.62647255 0.91886608 0.91886608
0.77669923 0.91886608 0.91886608
0.91886608 0.91886608 0.91886608
0.91886608 0.91886608 0.91886608
0.91886608 0.91886608 0.91886608
0.00047898 0.00047997 0.91886608
0.11379047 0.00047997 0.91886608
0.30078275 0.00047983 0.91886608
0.46890816 0.00047898 0.91886608
0.62647255 0.00047898 0.91886608
0.77669923 0.00047983 0.91886608
0.91886608 0.00047983 0.91886608
0.91886608 0.00047983 0.91886608
0.91886608 0.00048006 0.91886608
0.00047898 0.11379047 0.91886608
0.11379047 0.11379047 0.91886608
0.30078275 0.11379047 0.91886608
0.46890816 0.11379047 0.91886608
0.62647255 0.11379047 0.91886608
0.77669923 0.11379047 0.91886608
0.91886608 0.11379047 0.91886608
0.91886608 0.11379047 0.91886608
0.91886608 0.11379047 0.91886608
0.00047898 0.30078275 0.91886608
0.11379047 0.30078275 0.91886608
0.30078275 0.30078275 0.91886608
0.46890816 0.30078275 0.91886608
0.62647255 0.30078275 0.91886608
0.77669923 0.30078275 0.91886608
0.91886608 0.30078275 0.91886608
0.91886608 0.30078275 0.91886608
0.91886608 0.30078275 0.91886608
0.00047898 0.46890816 0.91886608
0.11379047 0.46890816 0.91886608
0.30078275 0.46890816 0.91886608
0.46890816 0.46890816 0.91886608
0.62647255 0.46890816 0.91886608
0.77669923 0.46890816 0.91886608
0.91886608 0.46890816 0.91886608
0.91886608 0.46890816 0.91886608
0.91886608 0.46890816 0.91886608
0.00047898 0.62647255 0.91886608
0.11379047 0.62647255 0.91886608
0.30078275 0.62647255 0.91886608
0.46890816 0.62647255 0.91886608
0.62647255 0.62647255 0.91886608
0.77669923 0.62647255 0.91886608
0.91886608 0.62647255 0.91886608
0.91886608 0.62647255 0.91886608
0.91886608 0.62647255 0.91886608
0.00047961 0.77669923 0.91886608
0.11379047 0.77669923 0.91886608
0.30078275 0.77669923 0.91886608
0.46890816 0.77669923 0.91886608
0.62647255 0.77669923 0.91886608
0.77669923 0.77669923 0.91886608
0.91886608 0.77669923 0.91886608
0.91886608 0.77669923 0.91886608
0.91886608 0.77669923 0.91886608
0.00047898 0.91886608 0.91886608
0.11379047 0.91886608 0.91886608
0.30078275 0.91886608 0.91886608
0.46890816 0.91886608 0.91886608
0.62647255 0.91886608 0.91886608
0.77669923 0.91886608 0.91886608
0.91886608 0.91886608 0.91886608
0.91886608 0.91886608 0.91886608
0.91886608 0.91886608 0.91886608
0.00047898 0.91886608 0.91886608
0.11379047 0.91886608 0.91886608
0.30078275 0.91886608 0.91886608
0.46890816 0.91886608 0.91886608
0.62647255 0.91886608 0.91886608
0.77669923 0.91886608 0.91886608
0.91886608 0.91886608 0.91886608
0.91886608 0.91886608 0.91886608
0.91886608 0.91886608 0.91886608
0.00047983 0.91886608 0.91886608
0.11379047 0.91886608 0.91886608
0.30078275 0.91886608 0.91886608
0.46890816 0.91886608 0.91886608
0.62647255 0.91886608 0.91886608
0.77669923 0.91886608 0.91886608
0.91886608 0.91886608 0.91886608
0.91886608 0.91886608 0.91886608
0.91886608 0.91886608 0.91886608
0.00047898 0.00048014 0.91886608
0.11379047 0.00048014 0.91886608
0.30078275 0.00048014 0.91886608
0.46890816 0.00048014 0.91886608
0.62647255 0.00048014 0.91886608
0.77669923 0.00047898 0.91886608
0.91886608 0.00048014 0.91886608
0.91886608 0.00048014 0.91886608
0.91886608 0.00047898 0.91886608
0.00047983 0.11379047 0.91886608
0.11379047 0.11379047 0.91886608
0.30078275 0.11379047 0.91886608
0.46890816 0.11379047 0.91886608
0.62647255 0.11379047 0.91886608
0.77669923 0.11379047 0.91886608
0.91886608 0.11379047 0.91886608
0.91886608 0.11379047 0.91886608
0.91886608 0.11379047 0.91886608
0.00047997 0.30078275 0.91886608
0.11379047 0.30078275 0.91886608
0.30078275 0.30078275 0.91886608
0.46890816 0.30078275 0.91886608
0.62647255 0.30078275 0.91886608
0.77669923 0.30078275 0.91886608
0.91886608 0.30078275 0.91886608
0.91886608 0.30078275 0.91886608
0.91886608 0.30078275 0.91886608
0.00047898 0.46890816 0.91886608
0.11379047 0.46890816 0.91886608
0.30078275 0.46890816 0.91886608
0.46890816 0.46890816 0.91886608
0.62647255 0.46890816 0.91886608
0.77669923 0.46890816 0.91886608
0.91886608 0.46890816 0.91886608
0.91886608 0.46890816 0.91886608
0.91886608 0.46890816 0.91886608
0.00047898 0.62647255 0.91886608
0.11379047 0.62647255 0.91886608
0.30078275 0.62647255 0.91886608
0.46890816 0.62647255 0.91886608
0.62647255 0.62647255 0.91886608
0.77669923 0.62647255 0.91886608
0.91886608 0.62647255 0.91886608
0.91886608 0.62647255 0.91886608
0.91886608 0.62647255 0.91886608
0.00047898 0.77669923 0.91886608
0.11379047 0.77669923 0.91886608
0.30078275 0.77669923 0.91886608
0.46890816 0.77669923 0.91886608
0.62647255 0.77669923 0.91886608
0.77669923 0.77669923 0.91886608
0.91886608 0.77669923 0.91886608
0.91886608 0.77669923 0.91886608
0.91886608 0.77669923 0.91886608
0.00047983 0.91886608 0.91886608
0.11379047 0.91886608 0.91886608
0.30078275 0.91886608 0.91886608
0.46890816 0.91886608 0.91886608
0.62647255 0.91886608 0.91886608
0.77669923 0.91886608 0.91886608
0.91886608 0.91886608 0.91886608
0.91886608 0.91886608 0.91886608
0.91886608 0.91886608 0.91886608
0.00047983 0.91886608 0.91886608
0.11379047 0.91886608 0.91886608
0.30078275 0.91886608 0.91886608
0.46890816 0.91886608 0.91886608
0.62647255 0.91886608 0.91886608
0.77669923 0.91886608 0.91886608
0.91886608 0.91886608 0.91886608
0.91886608 0.91886608 0.91886608
0.91886608 0.91886608 0.91886608
0.00047983 0.91886608 0.91886608
0.11379047 0.91886608 0.91886608
0.30078275 0.91886608 0.91886608
0.46890816 0.91886608 0.91886608
0.62647255 0.91886608 0.91886608
0.77669923 0.91886608 0.91886608
0.91886608 0.91886608 0.91886608
0.91886608 0.91886608 0.91886608
0.91886608 0.91886608 0.91886608
