src/ffmpeg_scripts/luts/luminance-unclipped_0p67.cube
TITLE "luminance-unclipped_0p67"
LUT_3D_SIZE 33
# PQ (EOTF Only)/Rec2020 -> PQ (EOTF Only)/Rec2020, CineEI Shift 0.67, Black Level -7.25% IRE, Input 109% -> Output 109% - Created with LUTCalc v4.01 by Ben Turley October 2020
0.00047898 0.00047898 0.00047898
0.00047898 0.00047898 0.00047898
0.00047898 0.00047898 0.00047898
0.04512351 0.00047898 0.00047898
0.08755798 0.00047906 0.00047898
0.12889746 0.00047898 0.00047898
0.16948443 0.00047908 0.00047908
0.20949283 0.00047909 0.00047898
0.24902938 0.00047898 0.00047898
0.28816666 0.00047898 0.00047898
0.32695743 0.00047898 0.00047898
0.36544185 0.00047913 0.00047898
0.40365153 0.00047898 0.00047916
0.44161207 0.00047912 0.00047918
0.47934461 0.00047914 0.00047898
0.51686692 0.00047898 0.00047898
0.55419416 0.00047918 0.00047923
0.59133940 0.00047898 0.00047923
0.62831405 0.00047923 0.00047923
0.66512816 0.00047928 0.00047898
0.70179064 0.00047898 0.00047898
0.73830944 0.00047935 0.00047931
0.77469172 0.00047898 0.00047898
0.81094395 0.00047898 0.00047898
0.84707199 0.00047898 0.00047898
0.88308122 0.00047898 0.00047940
0.91886608 0.00047935 0.00047898
0.91886608 0.00047940 0.00047898
0.91886608 0.00047952 0.00047898
0.91886608 0.00047898 0.00047898
0.91886608 0.00047940 0.00047898
0.91886608 0.00047898 0.00047898
0.91886608 0.00047953 0.00047961
0.00047898 0.00047898 0.00047898
0.00047898 0.00047898 0.00047898
0.00047898 0.00047898 0.00047898
0.04512351 0.00047898 0.00047898
0.08755798 0.00047906 0.00047898
0.12889746 0.00047898 0.00047898
0.16948443 0.00047908 0.00047908
0.20949283 0.00047909 0.00047898
0.24902938 0.00047898 0.00047898
0.28816666 0.00047898 0.00047898
0.32695743 0.00047898 0.00047898
0.36544185 0.00047913 0.00047898
0.40365153 0.00047898 0.00047916
0.44161207 0.00047912 0.00047918
0.47934461 0.00047914 0.00047898
0.51686692 0.00047898 0.00047898
0.55419416 0.00047918 0.00047923
0.59133940 0.00047898 0.00047923
0.62831405 0.00047923 0.00047923
0.66512816 0.00047928 0.00047898
0.70179064 0.00047898 0.00047898
0.73830944 0.00047935 0.00047931
0.77469172 0.00047898 0.00047898
0.81094395 0.00047898 0.00047898
0.84707199 0.00047898 0.00047898
0.88308122 0.00047898 0.00047940
0.91886608 0.00047935 0.00047898
0.91886608 0.00047940 0.00047898
0.91886608 0.00047952 0.00047898
0.91886608 0.00047898 0.00047898
0.91886608 0.00047940 0.00047898
0.91886608 0.00047898 0.00047898
0.91886608 0.00047953 0.00047961
0.00047898 0.00047898 0.00047898
0.00047898 0.00047898 0.00047898
0.00047898 0.00047898 0.00047898
0.04512351 0.00047898 0.00047898
0.08755798 0.00047906 0.00047898
0.12889746 0.00047898 0.00047898
0.16948443 0.00047908 0.00047908
0.20949283 0.00047909 0.00047898
0.24902938 0.00047898 0.00047898
0.28816666 0.00047898 0.00047898
0.32695743 0.00047898 0.00047898
0.36544185 0.00047913 0.00047898
0.40365153 0.00047898 0.00047916
0.44161207 0.00047912 0.00047918
0.47934461 0.00047914 0.00047898
0.51686692 0.00047898 0.00047898
0.55419416 0.00047918 0.00047923
0.59133940 0.00047898 0.00047923
0.62831405 0.00047923 0.00047923
0.66512816 0.00047928 0.00047898
0.70179064 0.00047898 0.00047898
0.73830944 0.00047935 0.00047931
0.77469172 0.00047898 0.00047898
0.81094395 0.00047898 0.00047898
0.84707199 0.00047898 0.00047898
0.88308122 0.00047898 0.00047940
0.91886608 0.00047935 0.00047898
0.91886608 0.00047940 0.00047898
0.91886608 0.00047952 0.00047898
0.91886608 0.00047898 0.00047898
0.91886608 0.00047940 0.00047898
0.91886608 0.00047898 0.00047898
0.91886608 0.00047953 0.00047961
0.00047905 0.04512351 0.00047898
0.00047905 0.04512351 0.00047898
0.00047905 0.04512351 0.00047898
0.04512351 0.04512351 0.00047898
0.08755798 0.04512351 0.00047898
0.12889746 0.04512351 0.00047898
0.16948443 0.04512351 0.00047898
0.20949283 0.04512351 0.00047898
0.24902938 0.04512351 0.00047898
0.28816666 0.04512351 0.00047912
0.32695743 0.04512351 0.00047898
0.36544185 0.04512351 0.00047898
0.40365153 0.04512351 0.00047898
0.44161207 0.04512351 0.00047898
0.47934461 0.04512351 0.00047918
0.51686692 0.04512351 0.00047898
0.55419416 0.04512351 0.00047923
0.59133940 0.04512351 0.00047898
0.62831405 0.04512351 0.00047898
0.66512816 0.04512351 0.00047898
0.70179064 0.04512351 0.00047927
0.73830944 0.04512351 0.00047898
0.77469172 0.04512351 0.00047931
0.81094395 0.04512351 0.00047898
0.84707199 0.04512351 0.00047898
0.88308122 0.04512351 0.00047898
0.91886608 0.04512351 0.00047898
0.91886608 0.04512351 0.00047898
0.91886608 0.04512351 0.00047898
0.91886608 0.04512351 0.00047898
0.91886608 0.04512351 0.00047961
0.91886608 0.04512351 0.00047898
0.91886608 0.04512351 0.00047971
0.00047907 0.08755798 0.00047898
0.00047907 0.08755798 0.00047898
0.00047907 0.08755798 0.00047898
0.04512351 0.08755798 0.00047898
0.08755798 0.08755798 0.00047898
0.12889746 0.08755798 0.00047898
0.16948443 0.08755798 0.00047910
0.20949283 0.08755798 0.00047910
0.24902938 0.08755798 0.00047898
0.28816666 0.08755798 0.00047912
0.32695743 0.08755798 0.00047898
0.36544185 0.08755798 0.00047914
0.40365153 0.08755798 0.00047898
0.44161207 0.08755798 0.00047898
0.47934461 0.08755798 0.00047918
0.51686692 0.08755798 0.00047898
0.55419416 0.08755798 0.00047898
0.59133940 0.08755798 0.00047923
0.62831405 0.08755798 0.00047898
0.66512816 0.08755798 0.00047898
0.70179064 0.08755798 0.00047898
0.73830944 0.08755798 0.00047898
0.77469172 0.08755798 0.00047898
0.81094395 0.08755798 0.00047935
0.84707199 0.08755798 0.00047898
0.88308122 0.08755798 0.00047898
0.91886608 0.08755798 0.00047940
0.91886608 0.08755798 0.00047898
0.91886608 0.08755798 0.00047946
0.91886608 0.08755798 0.00047898
0.91886608 0.08755798 0.00047898
0.91886608 0.08755798 0.00047898
0.91886608 0.08755798 0.00047898
0.00047898 0.12889746 0.00047898
0.00047898 0.12889746 0.00047898
0.00047898 0.12889746 0.00047898
0.04512351 0.12889746 0.00047898
0.08755798 0.12889746 0.00047898
0.12889746 0.12889746 0.00047898
0.16948443 0.12889746 0.00047909
0.20949283 0.12889746 0.00047910
0.24902938 0.12889746 0.00047912
0.28816666 0.12889746 0.00047912
0.32695743 0.12889746 0.00047898
0.36544185 0.12889746 0.00047898
0.40365153 0.12889746 0.00047898
0.44161207 0.12889746 0.00047898
0.47934461 0.12889746 0.00047898
0.51686692 0.12889746 0.00047898
0.55419416 0.12889746 0.00047898
0.59133940 0.12889746 0.00047898
0.62831405 0.12889746 0.00047898
0.66512816 0.12889746 0.00047898
0.70179064 0.12889746 0.00047927
0.73830944 0.12889746 0.00047931
0.77469172 0.12889746 0.00047898
0.81094395 0.12889746 0.00047898
0.84707199 0.12889746 0.00047898
0.88308122 0.12889746 0.00047898
0.91886608 0.12889746 0.00047940
0.91886608 0.12889746 0.00047898
0.91886608 0.12889746 0.00047946
0.91886608 0.12889746 0.00047898
0.91886608 0.12889746 0.00047898
0.91886608 0.12889746 0.00047898
0.91886608 0.12889746 0.00047961
0.00047905 0.16948443 0.00047898
0.00047905 0.16948443 0.00047898
0.00047905 0.16948443 0.00047898
0.04512351 0.16948443 0.00047898
0.08755798 0.16948443 0.00047898
0.12889746 0.16948443 0.00047898
0.16948443 0.16948443 0.00047898
0.20949283 0.16948443 0.00047910
0.24902938 0.16948443 0.00047898
0.28816666 0.16948443 0.00047912
0.32695743 0.16948443 0.00047898
0.36544185 0.16948443 0.00047898
0.40365153 0.16948443 0.00047898
0.44161207 0.16948443 0.00047898
0.47934461 0.16948443 0.00047920
0.51686692 0.16948443 0.00047920
0.55419416 0.16948443 0.00047898
0.59133940 0.16948443 0.00047923
0.62831405 0.16948443 0.00047898
0.66512816 0.16948443 0.00047898
0.70179064 0.16948443 0.00047898
0.73830944 0.16948443 0.00047898
0.77469172 0.16948443 0.00047931
0.81094395 0.16948443 0.00047898
0.84707199 0.16948443 0.00047898
0.88308122 0.16948443 0.00047898
0.91886608 0.16948443 0.00047940
0.91886608 0.16948443 0.00047898
0.91886608 0.16948443 0.00047898
0.91886608 0.16948443 0.00047898
0.91886608 0.16948443 0.00047953
0.91886608 0.16948443 0.00047898
0.91886608 0.16948443 0.00047898
0.00047912 0.20949283 0.00047898
0.00047912 0.20949283 0.00047898
0.00047912 0.20949283 0.00047898
0.04512351 0.20949283 0.00047898
0.08755798 0.20949283 0.00047898
0.12889746 0.20949283 0.00047898
0.16948443 0.20949283 0.00047898
0.20949283 0.20949283 0.00047898
0.24902938 0.20949283 0.00047898
0.28816666 0.20949283 0.00047898
0.32695743 0.20949283 0.00047914
0.36544185 0.20949283 0.00047898
0.40365153 0.20949283 0.00047898
0.44161207 0.20949283 0.00047918
0.47934461 0.20949283 0.00047918
0.51686692 0.20949283 0.00047898
0.55419416 0.20949283 0.00047898
0.59133940 0.20949283 0.00047923
0.62831405 0.20949283 0.00047923
0.66512816 0.20949283 0.00047898
0.70179064 0.20949283 0.00047898
0.73830944 0.20949283 0.00047898
0.77469172 0.20949283 0.00047898
0.81094395 0.20949283 0.00047898
0.84707199 0.20949283 0.00047898
0.88308122 0.20949283 0.00047898
0.91886608 0.20949283 0.00047898
0.91886608 0.20949283 0.00047898
0.91886608 0.20949283 0.00047898
0.91886608 0.20949283 0.00047898
0.91886608 0.20949283 0.00047898
0.91886608 0.20949283 0.00047898
0.91886608 0.20949283 0.00047898
0.00047912 0.24902938 0.00047898
0.00047912 0.24902938 0.00047898
0.00047912 0.24902938 0.00047898
0.04512351 0.24902938 0.00047912
0.08755798 0.24902938 0.00047898
0.12889746 0.24902938 0.00047898
0.16948443 0.24902938 0.00047898
0.20949283 0.24902938 0.00047898
0.24902938 0.24902938 0.00047898
0.28816666 0.24902938 0.00047898
0.32695743 0.24902938 0.00047914
0.36544185 0.24902938 0.00047898
0.40365153 0.24902938 0.00047898
0.44161207 0.24902938 0.00047898
0.47934461 0.24902938 0.00047898
0.51686692 0.24902938 0.00047898
0.55419416 0.24902938 0.00047920
0.59133940 0.24902938 0.00047898
0.62831405 0.24902938 0.00047898
0.66512816 0.24902938 0.00047898
0.70179064 0.24902938 0.00047898
0.73830944 0.24902938 0.00047898
0.77469172 0.24902938 0.00047898
0.81094395 0.24902938 0.00047898
0.84707199 0.24902938 0.00047898
0.88308122 0.24902938 0.00047898
0.91886608 0.24902938 0.00047898
0.91886608 0.24902938 0.00047898
0.91886608 0.24902938 0.00047898
0.91886608 0.24902938 0.00047898
0.91886608 0.24902938 0.00047898
0.91886608 0.24902938 0.00047898
0.91886608 0.24902938 0.00047898
0.00047915 0.28816666 0.00047898
0.00047915 0.28816666 0.00047898
0.00047915 0.28816666 0.00047898
0.04512351 0.28816666 0.00047898
0.08755798 0.28816666 0.00047898
0.12889746 0.28816666 0.00047898
0.16948443 0.28816666 0.00047898
0.20949283 0.28816666 0.00047898
0.24902938 0.28816666 0.00047898
0.28816666 0.28816666 0.00047898
0.32695743 0.28816666 0.00047898
0.36544185 0.28816666 0.00047916
0.40365153 0.28816666 0.00047898
0.44161207 0.28816666 0.00047918
0.47934461 0.28816666 0.00047898
0.51686692 0.28816666 0.00047898
0.55419416 0.28816666 0.00047920
0.59133940 0.28816666 0.00047923
0.62831405 0.28816666 0.00047923
0.66512816 0.28816666 0.00047927
0.70179064 0.28816666 0.00047898
0.73830944 0.28816666 0.00047898
0.77469172 0.28816666 0.00047898
0.81094395 0.28816666 0.00047935
0.84707199 0.28816666 0.00047935
0.88308122 0.28816666 0.00047940
0.91886608 0.28816666 0.00047898
0.91886608 0.28816666 0.00047898
0.91886608 0.28816666 0.00047946
0.91886608 0.28816666 0.00047898
0.91886608 0.28816666 0.00047953
0.91886608 0.28816666 0.00047898
0.91886608 0.28816666 0.00047898
0.00047916 0.32695743 0.00047898
0.00047916 0.32695743 0.00047898
0.00047916 0.32695743 0.00047898
0.04512351 0.32695743 0.00047898
0.08755798 0.32695743 0.00047898
0.12889746 0.32695743 0.00047898
0.16948443 0.32695743 0.00047898
0.20949283 0.32695743 0.00047898
0.24902938 0.32695743 0.00047898
0.28816666 0.32695743 0.00047898
0.32695743 0.32695743 0.00047898
0.36544185 0.32695743 0.00047898
0.40365153 0.32695743 0.00047898
0.44161207 0.32695743 0.00047918
0.47934461 0.32695743 0.00047898
0.51686692 0.32695743 0.00047898
0.55419416 0.32695743 0.00047898
0.59133940 0.32695743 0.00047898
0.62831405 0.32695743 0.00047898
0.66512816 0.32695743 0.00047898
0.70179064 0.32695743 0.00047898
0.73830944 0.32695743 0.00047898
0.77469172 0.32695743 0.00047898
0.81094395 0.32695743 0.00047898
0.84707199 0.32695743 0.00047898
0.88308122 0.32695743 0.00047940
0.91886608 0.32695743 0.00047898
0.91886608 0.32695743 0.00047898
0.91886608 0.32695743 0.00047898
0.91886608 0.32695743 0.00047898
0.91886608 0.32695743 0.00047898
0.91886608 0.32695743 0.00047898
0.91886608 0.32695743 0.00047898
0.00047914 0.36544185 0.00047898
0.00047914 0.36544185 0.00047898
0.00047914 0.36544185 0.00047898
0.04512351 0.36544185 0.00047898
0.08755798 0.36544185 0.00047898
0.12889746 0.36544185 0.00047898
0.16948443 0.36544185 0.00047898
0.20949283 0.36544185 0.00047898
0.24902938 0.36544185 0.00047898
0.28816666 0.36544185 0.00047898
0.32695743 0.36544185 0.00047898
0.36544185 0.36544185 0.00047918
0.40365153 0.36544185 0.00047898
0.44161207 0.36544185 0.00047898
0.47934461 0.36544185 0.00047898
0.51686692 0.36544185 0.00047898
0.55419416 0.36544185 0.00047898
0.59133940 0.36544185 0.00047898
0.62831405 0.36544185 0.00047898
0.66512816 0.36544185 0.00047898
0.70179064 0.36544185 0.00047898
0.73830944 0.36544185 0.00047898
0.77469172 0.36544185 0.00047931
0.81094395 0.36544185 0.00047898
0.84707199 0.36544185 0.00047898
0.88308122 0.36544185 0.00047898
0.91886608 0.36544185 0.00047898
0.91886608 0.36544185 0.00047898
0.91886608 0.36544185 0.00047898
0.91886608 0.36544185 0.00047898
0.91886608 0.36544185 0.00047953
0.91886608 0.36544185 0.00047898
0.91886608 0.36544185 0.00047898
0.00047919 0.40365153 0.00047916
0.00047919 0.40365153 0.00047916
0.00047919 0.40365153 0.00047916
0.04512351 0.40365153 0.00047898
0.08755798 0.40365153 0.00047898
0.12889746 0.40365153 0.00047918
0.16948443 0.40365153 0.00047918
0.20949283 0.40365153 0.00047898
0.24902938 0.40365153 0.00047898
0.28816666 0.40365153 0.00047918
0.32695743 0.40365153 0.00047898
0.36544185 0.40365153 0.00047898
0.40365153 0.40365153 0.00047918
0.44161207 0.40365153 0.00047898
0.47934461 0.40365153 0.00047898
0.51686692 0.40365153 0.00047898
0.55419416 0.40365153 0.00047923
0.59133940 0.40365153 0.00047898
0.62831405 0.40365153 0.00047923
0.66512816 0.40365153 0.00047898
0.70179064 0.40365153 0.00047898
0.73830944 0.40365153 0.00047898
0.77469172 0.40365153 0.00047931
0.81094395 0.40365153 0.00047898
0.84707199 0.40365153 0.00047898
0.88308122 0.40365153 0.00047940
0.91886608 0.40365153 0.00047898
0.91886608 0.40365153 0.00047946
0.91886608 0.40365153 0.00047946
0.91886608 0.40365153 0.00047898
0.91886608 0.40365153 0.00047953
0.91886608 0.40365153 0.00047898
0.91886608 0.40365153 0.00047898
0.00047919 0.44161207 0.00047898
0.00047919 0.44161207 0.00047898
0.00047919 0.44161207 0.00047898
0.04512351 0.44161207 0.00047918
0.08755798 0.44161207 0.00047898
0.12889746 0.44161207 0.00047898
0.16948443 0.44161207 0.00047918
0.20949283 0.44161207 0.00047898
0.24902938 0.44161207 0.00047898
0.28816666 0.44161207 0.00047898
0.32695743 0.44161207 0.00047918
0.36544185 0.44161207 0.00047898
0.40365153 0.44161207 0.00047898
0.44161207 0.44161207 0.00047920
0.47934461 0.44161207 0.00047898
0.51686692 0.44161207 0.00047898
0.55419416 0.44161207 0.00047898
0.59133940 0.44161207 0.00047898
0.62831405 0.44161207 0.00047927
0.66512816 0.44161207 0.00047898
0.70179064 0.44161207 0.00047898
0.73830944 0.44161207 0.00047898
0.77469172 0.44161207 0.00047898
0.81094395 0.44161207 0.00047898
0.84707199 0.44161207 0.00047898
0.88308122 0.44161207 0.00047898
0.91886608 0.44161207 0.00047898
0.91886608 0.44161207 0.00047898
0.91886608 0.44161207 0.00047946
0.91886608 0.44161207 0.00047898
0.91886608 0.44161207 0.00047898
0.91886608 0.44161207 0.00047898
0.91886608 0.44161207 0.00047898
0.00047919 0.47934461 0.00047898
0.00047919 0.47934461 0.00047898
0.00047919 0.47934461 0.00047898
0.04512351 0.47934461 0.00047898
0.08755798 0.47934461 0.00047898
0.12889746 0.47934461 0.00047898
0.16948443 0.47934461 0.00047898
0.20949283 0.47934461 0.00047898
0.24902938 0.47934461 0.00047898
0.28816666 0.47934461 0.00047898
0.32695743 0.47934461 0.00047923
0.36544185 0.47934461 0.00047920
0.40365153 0.47934461 0.00047898
0.44161207 0.47934461 0.00047920
0.47934461 0.47934461 0.00047898
0.51686692 0.47934461 0.00047898
0.55419416 0.47934461 0.00047923
0.59133940 0.47934461 0.00047927
0.62831405 0.47934461 0.00047927
0.66512816 0.47934461 0.00047898
0.70179064 0.47934461 0.00047898
0.73830944 0.47934461 0.00047898
0.77469172 0.47934461 0.00047931
0.81094395 0.47934461 0.00047898
0.84707199 0.47934461 0.00047935
0.88308122 0.47934461 0.00047898
0.91886608 0.47934461 0.00047898
0.91886608 0.47934461 0.00047898
0.91886608 0.47934461 0.00047898
0.91886608 0.47934461 0.00047898
0.91886608 0.47934461 0.00047898
0.91886608 0.47934461 0.00047898
0.91886608 0.47934461 0.00047961
0.00047926 0.51686692 0.00047898
0.00047926 0.51686692 0.00047898
0.00047926 0.51686692 0.00047898
0.04512351 0.51686692 0.00047898
0.08755798 0.51686692 0.00047898
0.12889746 0.51686692 0.00047898
0.16948443 0.51686692 0.00047898
0.20949283 0.51686692 0.00047898
0.24902938 0.51686692 0.00047898
0.28816666 0.51686692 0.00047898
0.32695743 0.51686692 0.00047898
0.36544185 0.51686692 0.00047898
0.40365153 0.51686692 0.00047898
0.44161207 0.51686692 0.00047898
0.47934461 0.51686692 0.00047898
0.51686692 0.51686692 0.00047898
0.55419416 0.51686692 0.00047898
0.59133940 0.51686692 0.00047898
0.62831405 0.51686692 0.00047898
0.66512816 0.51686692 0.00047898
0.70179064 0.51686692 0.00047898
0.73830944 0.51686692 0.00047898
0.77469172 0.51686692 0.00047931
0.81094395 0.51686692 0.00047898
0.84707199 0.51686692 0.00047898
0.88308122 0.51686692 0.00047898
0.91886608 0.51686692 0.00047898
0.91886608 0.51686692 0.00047898
0.91886608 0.51686692 0.00047898
0.91886608 0.51686692 0.00047898
0.91886608 0.51686692 0.00047898
0.91886608 0.51686692 0.00047898
0.91886608 0.51686692 0.00047961
0.00047898 0.55419416 0.00047898
0.00047898 0.55419416 0.00047898
0.00047898 0.55419416 0.00047898
0.04512351 0.55419416 0.00047898
0.08755798 0.55419416 0.00047898
0.12889746 0.55419416 0.00047898
0.16948443 0.55419416 0.00047898
0.20949283 0.55419416 0.00047898
0.24902938 0.55419416 0.00047898
0.28816666 0.55419416 0.00047898
0.32695743 0.55419416 0.00047898
0.36544185 0.55419416 0.00047898
0.40365153 0.55419416 0.00047898
0.44161207 0.55419416 0.00047898
0.47934461 0.55419416 0.00047923
0.51686692 0.55419416 0.00047923
0.55419416 0.55419416 0.00047898
0.59133940 0.55419416 0.00047898
0.62831405 0.55419416 0.00047898
0.66512816 0.55419416 0.00047898
0.70179064 0.55419416 0.00047898
0.73830944 0.55419416 0.00047898
0.77469172 0.55419416 0.00047931
0.81094395 0.55419416 0.00047898
0.84707199 0.55419416 0.00047898
0.88308122 0.55419416 0.00047898
0.91886608 0.55419416 0.00047898
0.91886608 0.55419416 0.00047898
0.91886608 0.55419416 0.00047898
0.91886608 0.55419416 0.00047898
0.91886608 0.55419416 0.00047898
0.91886608 0.55419416 0.00047898
0.91886608 0.55419416 0.00047898
0.00047928 0.59133940 0.00047898
0.00047928 0.59133940 0.00047898
0.00047928 0.59133940 0.00047898
0.04512351 0.59133940 0.00047898
0.08755798 0.59133940 0.00047898
0.12889746 0.59133940 0.00047898
0.16948443 0.59133940 0.00047898
0.20949283 0.59133940 0.00047898
0.24902938 0.59133940 0.00047923
0.28816666 0.59133940 0.00047898
0.32695743 0.59133940 0.00047923
0.36544185 0.59133940 0.00047923
0.40365153 0.59133940 0.00047898
0.44161207 0.59133940 0.00047923
0.47934461 0.59133940 0.00047898
0.51686692 0.59133940 0.00047898
0.55419416 0.59133940 0.00047927
0.59133940 0.59133940 0.00047898
0.62831405 0.59133940 0.00047898
0.66512816 0.59133940 0.00047898
0.70179064 0.59133940 0.00047898
0.73830944 0.59133940 0.00047931
0.77469172 0.59133940 0.00047898
0.81094395 0.59133940 0.00047898
0.84707199 0.59133940 0.00047898
0.88308122 0.59133940 0.00047898
0.91886608 0.59133940 0.00047898
0.91886608 0.59133940 0.00047946
0.91886608 0.59133940 0.00047946
0.91886608 0.59133940 0.00047898
0.91886608 0.59133940 0.00047898
0.91886608 0.59133940 0.00047961
0.91886608 0.59133940 0.00047961
0.00047931 0.62831405 0.00047898
0.00047931 0.62831405 0.00047898
0.00047931 0.62831405 0.00047898
0.04512351 0.62831405 0.00047898
0.08755798 0.62831405 0.00047898
0.12889746 0.62831405 0.00047898
0.16948443 0.62831405 0.00047898
0.20949283 0.62831405 0.00047898
0.24902938 0.62831405 0.00047898
0.28816666 0.62831405 0.00047898
0.32695743 0.62831405 0.00047898
0.36544185 0.62831405 0.00047927
0.40365153 0.62831405 0.00047898
0.44161207 0.62831405 0.00047898
0.47934461 0.62831405 0.00047898
0.51686692 0.62831405 0.00047898
0.55419416 0.62831405 0.00047898
0.59133940 0.62831405 0.00047898
0.62831405 0.62831405 0.00047898
0.66512816 0.62831405 0.00047898
0.70179064 0.62831405 0.00047898
0.73830944 0.62831405 0.00047898
0.77469172 0.62831405 0.00047898
0.81094395 0.62831405 0.00047898
0.84707199 0.62831405 0.00047898
0.88308122 0.62831405 0.00047898
0.91886608 0.62831405 0.00047898
0.91886608 0.62831405 0.00047946
0.91886608 0.62831405 0.00047898
0.91886608 0.62831405 0.00047898
0.91886608 0.62831405 0.00047898
0.91886608 0.62831405 0.00047898
0.91886608 0.62831405 0.00047961
0.00047931 0.66512816 0.00047898
0.00047931 0.66512816 0.00047898
0.00047931 0.66512816 0.00047898
0.04512351 0.66512816 0.00047898
0.08755798 0.66512816 0.00047898
0.12889746 0.66512816 0.00047898
0.16948443 0.66512816 0.00047898
0.20949283 0.66512816 0.00047898
0.24902938 0.66512816 0.00047898
0.28816666 0.66512816 0.00047898
0.32695743 0.66512816 0.00047898
0.36544185 0.66512816 0.00047927
0.40365153 0.66512816 0.00047898
0.44161207 0.66512816 0.00047898
0.47934461 0.66512816 0.00047898
0.51686692 0.66512816 0.00047898
0.55419416 0.66512816 0.00047898
0.59133940 0.66512816 0.00047898
0.62831405 0.66512816 0.00047931
0.66512816 0.66512816 0.00047898
0.70179064 0.66512816 0.00047898
0.73830944 0.66512816 0.00047898
0.77469172 0.66512816 0.00047898
0.81094395 0.66512816 0.00047898
0.84707199 0.66512816 0.00047898
0.88308122 0.66512816 0.00047898
0.91886608 0.66512816 0.00047940
0.91886608 0.66512816 0.00047898
0.91886608 0.66512816 0.00047953
0.91886608 0.66512816 0.00047898
0.91886608 0.66512816 0.00047898
0.91886608 0.66512816 0.00047898
0.91886608 0.66512816 0.00047971
0.00047928 0.70179064 0.00047931
0.00047928 0.70179064 0.00047931
0.00047928 0.70179064 0.00047931
0.04512351 0.70179064 0.00047898
0.08755798 0.70179064 0.00047898
0.12889746 0.70179064 0.00047898
0.16948443 0.70179064 0.00047931
0.20949283 0.70179064 0.00047898
0.24902938 0.70179064 0.00047931
0.28816666 0.70179064 0.00047898
0.32695743 0.70179064 0.00047931
0.36544185 0.70179064 0.00047931
0.40365153 0.70179064 0.00047898
0.44161207 0.70179064 0.00047931
0.47934461 0.70179064 0.00047898
0.51686692 0.70179064 0.00047898
0.55419416 0.70179064 0.00047931
0.59133940 0.70179064 0.00047898
0.62831405 0.70179064 0.00047931
0.66512816 0.70179064 0.00047898
0.70179064 0.70179064 0.00047898
0.73830944 0.70179064 0.00047898
0.77469172 0.70179064 0.00047898
0.81094395 0.70179064 0.00047898
0.84707199 0.70179064 0.00047898
0.88308122 0.70179064 0.00047898
0.91886608 0.70179064 0.00047898
0.91886608 0.70179064 0.00047946
0.91886608 0.70179064 0.00047898
0.91886608 0.70179064 0.00047898
0.91886608 0.70179064 0.00047953
0.91886608 0.70179064 0.00047961
0.91886608 0.70179064 0.00047898
0.00047923 0.73830944 0.00047898
0.00047923 0.73830944 0.00047898
0.00047923 0.73830944 0.00047898
0.04512351 0.73830944 0.00047898
0.08755798 0.73830944 0.00047931
0.12889746 0.73830944 0.00047931
0.16948443 0.73830944 0.00047898
0.20949283 0.73830944 0.00047898
0.24902938 0.73830944 0.00047931
0.28816666 0.73830944 0.00047898
0.32695743 0.73830944 0.00047931
0.36544185 0.73830944 0.00047898
0.40365153 0.73830944 0.00047898
0.44161207 0.73830944 0.00047931
0.47934461 0.73830944 0.00047931
0.51686692 0.73830944 0.00047898
0.55419416 0.73830944 0.00047898
0.59133940 0.73830944 0.00047931
0.62831405 0.73830944 0.00047898
0.66512816 0.73830944 0.00047898
0.70179064 0.73830944 0.00047898
0.73830944 0.73830944 0.00047898
0.77469172 0.73830944 0.00047898
0.81094395 0.73830944 0.00047898
0.84707199 0.73830944 0.00047940
0.88308122 0.73830944 0.00047898
0.91886608 0.73830944 0.00047898
