src/ffmpeg_scripts/luts/luminance-unclipped_-1p33.cube
TITLE "luminance-unclipped_-1p33"
LUT_3D_SIZE 33
# PQ (EOTF Only)/Rec2020 -> PQ (EOTF Only)/Rec2020, CineEI Shift -1.33, Black Level -7.25% IRE, Input 109% -> Output 109% - Created with LUTCalc v4.01 by Ben Turley October 2020
0.00047898 0.00047898 0.00047898
0.00047898 0.00047898 0.00047898
0.00047898 0.00047898 0.00047898
0.02366304 0.00047898 0.00047898
0.04930408 0.00047904 0.00047898
0.07631807 0.00047898 0.00047898
0.10435953 0.00047906 0.00047898
0.13324070 0.00047906 0.00047907
0.16284065 0.00047898 0.00047898
0.19307382 0.00047908 0.00047898
0.22387598 0.00047898 0.00047898
0.25519681 0.00047909 0.00047898
0.28699568 0.00047898 0.00047898
0.31923896 0.00047898 0.00047914
0.35189830 0.00047898 0.00047898
0.38494941 0.00047898 0.00047898
0.41837119 0.00047918 0.00047918
0.45214515 0.00047898 0.00047918
0.48625491 0.00047898 0.00047898
0.52068584 0.00047920 0.00047898
0.55542479 0.00047898 0.00047898
0.59045985 0.00047898 0.00047923
0.62578019 0.00047925 0.00047898
0.66137590 0.00047898 0.00047898
0.69723790 0.00047898 0.00047898
0.73335779 0.00047898 0.00047898
0.76972779 0.00047898 0.00047898
0.80634071 0.00047898 0.00047898
0.84318981 0.00047898 0.00047898
0.88026881 0.00047931 0.00047898
0.91757184 0.00047898 0.00047898
0.91886608 0.00047898 0.00047898
0.91886608 0.00047935 0.00047946
0.00047898 0.00047898 0.00047898
0.00047898 0.00047898 0.00047898
0.00047898 0.00047898 0.00047898
0.02366304 0.00047898 0.00047898
0.04930408 0.00047904 0.00047898
0.07631807 0.00047898 0.00047898
0.10435953 0.00047906 0.00047898
0.13324070 0.00047906 0.00047907
0.16284065 0.00047898 0.00047898
0.19307382 0.00047908 0.00047898
0.22387598 0.00047898 0.00047898
0.25519681 0.00047909 0.00047898
0.28699568 0.00047898 0.00047898
0.31923896 0.00047898 0.00047914
0.35189830 0.00047898 0.00047898
0.38494941 0.00047898 0.00047898
0.41837119 0.00047918 0.00047918
0.45214515 0.00047898 0.00047918
0.48625491 0.00047898 0.00047898
0.52068584 0.00047920 0.00047898
0.55542479 0.00047898 0.00047898
0.59045985 0.00047898 0.00047923
0.62578019 0.00047925 0.00047898
0.66137590 0.00047898 0.00047898
0.69723790 0.00047898 0.00047898
0.73335779 0.00047898 0.00047898
0.76972779 0.00047898 0.00047898
0.80634071 0.00047898 0.00047898
0.84318981 0.00047898 0.00047898
0.88026881 0.00047931 0.00047898
0.91757184 0.00047898 0.00047898
0.91886608 0.00047898 0.00047898
0.91886608 0.00047935 0.00047946
0.00047898 0.00047898 0.00047898
0.00047898 0.00047898 0.00047898
0.00047898 0.00047898 0.00047898
0.02366304 0.00047898 0.00047898
0.04930408 0.00047904 0.00047898
0.07631807 0.00047898 0.00047898
0.10435953 0.00047906 0.00047898
0.13324070 0.00047906 0.00047907
0.16284065 0.00047898 0.00047898
0.19307382 0.00047908 0.00047898
0.22387598 0.00047898 0.00047898
0.25519681 0.00047909 0.00047898
0.28699568 0.00047898 0.00047898
0.31923896 0.00047898 0.00047914
0.35189830 0.00047898 0.00047898
0.38494941 0.00047898 0.00047898
0.41837119 0.00047918 0.00047918
0.45214515 0.00047898 0.00047918
0.48625491 0.00047898 0.00047898
0.52068584 0.00047920 0.00047898
0.55542479 0.00047898 0.00047898
0.59045985 0.00047898 0.00047923
0.62578019 0.00047925 0.00047898
0.66137590 0.00047898 0.00047898
0.69723790 0.00047898 0.00047898
0.73335779 0.00047898 0.00047898
0.76972779 0.00047898 0.00047898
0.80634071 0.00047898 0.00047898
0.84318981 0.00047898 0.00047898
0.88026881 0.00047931 0.00047898
0.91757184 0.00047898 0.00047898
0.91886608 0.00047898 0.00047898
0.91886608 0.00047935 0.00047946
0.00047903 0.02366304 0.00047898
0.00047903 0.02366304 0.00047898
0.00047903 0.02366304 0.00047898
0.02366304 0.02366304 0.00047898
0.04930408 0.02366304 0.00047898
0.07631807 0.02366304 0.00047898
0.10435953 0.02366304 0.00047898
0.13324070 0.02366304 0.00047898
0.16284065 0.02366304 0.00047898
0.19307382 0.02366304 0.00047909
0.22387598 0.02366304 0.00047910
0.25519681 0.02366304 0.00047898
0.28699568 0.02366304 0.00047898
0.31923896 0.02366304 0.00047898
0.35189830 0.02366304 0.00047914
0.38494941 0.02366304 0.00047898
0.41837119 0.02366304 0.00047916
0.45214515 0.02366304 0.00047898
0.48625491 0.02366304 0.00047898
0.52068584 0.02366304 0.00047898
0.55542479 0.02366304 0.00047920
0.59045985 0.02366304 0.00047898
0.62578019 0.02366304 0.00047923
0.66137590 0.02366304 0.00047898
0.69723790 0.02366304 0.00047898
0.73335779 0.02366304 0.00047931
0.76972779 0.02366304 0.00047898
0.80634071 0.02366304 0.00047898
0.84318981 0.02366304 0.00047898
0.88026881 0.02366304 0.00047898
0.91757184 0.02366304 0.00047946
0.91886608 0.02366304 0.00047898
0.91886608 0.02366304 0.00047946
0.00047906 0.04930408 0.00047898
0.00047906 0.04930408 0.00047898
0.00047906 0.04930408 0.00047898
0.02366304 0.04930408 0.00047898
0.04930408 0.04930408 0.00047898
0.07631807 0.04930408 0.00047898
0.10435953 0.04930408 0.00047907
0.13324070 0.04930408 0.00047908
0.16284065 0.04930408 0.00047898
0.19307382 0.04930408 0.00047909
0.22387598 0.04930408 0.00047898
0.25519681 0.04930408 0.00047910
0.28699568 0.04930408 0.00047898
0.31923896 0.04930408 0.00047898
0.35189830 0.04930408 0.00047914
0.38494941 0.04930408 0.00047898
0.41837119 0.04930408 0.00047898
0.45214515 0.04930408 0.00047918
0.48625491 0.04930408 0.00047898
0.52068584 0.04930408 0.00047898
0.55542479 0.04930408 0.00047898
0.59045985 0.04930408 0.00047898
0.62578019 0.04930408 0.00047898
0.66137590 0.04930408 0.00047898
0.69723790 0.04930408 0.00047927
0.73335779 0.04930408 0.00047898
0.76972779 0.04930408 0.00047931
0.80634071 0.04930408 0.00047935
0.84318981 0.04930408 0.00047935
0.88026881 0.04930408 0.00047898
0.91757184 0.04930408 0.00047898
0.91886608 0.04930408 0.00047898
0.91886608 0.04930408 0.00047946
0.00047898 0.07631807 0.00047898
0.00047898 0.07631807 0.00047898
0.00047898 0.07631807 0.00047898
0.02366304 0.07631807 0.00047898
0.04930408 0.07631807 0.00047898
0.07631807 0.07631807 0.00047898
0.10435953 0.07631807 0.00047907
0.13324070 0.07631807 0.00047908
0.16284065 0.07631807 0.00047898
0.19307382 0.07631807 0.00047898
0.22387598 0.07631807 0.00047898
0.25519681 0.07631807 0.00047898
0.28699568 0.07631807 0.00047898
0.31923896 0.07631807 0.00047898
0.35189830 0.07631807 0.00047898
0.38494941 0.07631807 0.00047898
0.41837119 0.07631807 0.00047898
0.45214515 0.07631807 0.00047898
0.48625491 0.07631807 0.00047898
0.52068584 0.07631807 0.00047898
0.55542479 0.07631807 0.00047920
0.59045985 0.07631807 0.00047898
0.62578019 0.07631807 0.00047898
0.66137590 0.07631807 0.00047898
0.69723790 0.07631807 0.00047898
0.73335779 0.07631807 0.00047931
0.76972779 0.07631807 0.00047931
0.80634071 0.07631807 0.00047898
0.84318981 0.07631807 0.00047940
0.88026881 0.07631807 0.00047898
0.91757184 0.07631807 0.00047898
0.91886608 0.07631807 0.00047898
0.91886608 0.07631807 0.00047946
0.00047898 0.10435953 0.00047898
0.00047898 0.10435953 0.00047898
0.00047898 0.10435953 0.00047898
0.02366304 0.10435953 0.00047898
0.04930408 0.10435953 0.00047898
0.07631807 0.10435953 0.00047898
0.10435953 0.10435953 0.00047898
0.13324070 0.10435953 0.00047908
0.16284065 0.10435953 0.00047898
0.19307382 0.10435953 0.00047898
0.22387598 0.10435953 0.00047898
0.25519681 0.10435953 0.00047898
0.28699568 0.10435953 0.00047898
0.31923896 0.10435953 0.00047898
0.35189830 0.10435953 0.00047898
0.38494941 0.10435953 0.00047898
0.41837119 0.10435953 0.00047898
0.45214515 0.10435953 0.00047898
0.48625491 0.10435953 0.00047898
0.52068584 0.10435953 0.00047898
0.55542479 0.10435953 0.00047898
0.59045985 0.10435953 0.00047898
0.62578019 0.10435953 0.00047923
0.66137590 0.10435953 0.00047927
0.69723790 0.10435953 0.00047898
0.73335779 0.10435953 0.00047898
0.76972779 0.10435953 0.00047931
0.80634071 0.10435953 0.00047898
0.84318981 0.10435953 0.00047898
0.88026881 0.10435953 0.00047898
0.91757184 0.10435953 0.00047940
0.91886608 0.10435953 0.00047898
0.91886608 0.10435953 0.00047898
0.00047909 0.13324070 0.00047898
0.00047909 0.13324070 0.00047898
0.00047909 0.13324070 0.00047898
0.02366304 0.13324070 0.00047898
0.04930408 0.13324070 0.00047898
0.07631807 0.13324070 0.00047898
0.10435953 0.13324070 0.00047898
0.13324070 0.13324070 0.00047909
0.16284065 0.13324070 0.00047898
0.19307382 0.13324070 0.00047898
0.22387598 0.13324070 0.00047910
0.25519681 0.13324070 0.00047912
0.28699568 0.13324070 0.00047898
0.31923896 0.13324070 0.00047898
0.35189830 0.13324070 0.00047914
0.38494941 0.13324070 0.00047898
0.41837119 0.13324070 0.00047898
0.45214515 0.13324070 0.00047898
0.48625491 0.13324070 0.00047918
0.52068584 0.13324070 0.00047898
0.55542479 0.13324070 0.00047898
0.59045985 0.13324070 0.00047898
0.62578019 0.13324070 0.00047898
0.66137590 0.13324070 0.00047898
0.69723790 0.13324070 0.00047898
0.73335779 0.13324070 0.00047931
0.76972779 0.13324070 0.00047898
0.80634071 0.13324070 0.00047898
0.84318981 0.13324070 0.00047898
0.88026881 0.13324070 0.00047898
0.91757184 0.13324070 0.00047940
0.91886608 0.13324070 0.00047898
0.91886608 0.13324070 0.00047898
0.00047909 0.16284065 0.00047898
0.00047909 0.16284065 0.00047898
0.00047909 0.16284065 0.00047898
0.02366304 0.16284065 0.00047909
0.04930408 0.16284065 0.00047898
0.07631807 0.16284065 0.00047898
0.10435953 0.16284065 0.00047898
0.13324070 0.16284065 0.00047898
0.16284065 0.16284065 0.00047898
0.19307382 0.16284065 0.00047898
0.22387598 0.16284065 0.00047910
0.25519681 0.16284065 0.00047898
0.28699568 0.16284065 0.00047898
0.31923896 0.16284065 0.00047914
0.35189830 0.16284065 0.00047898
0.38494941 0.16284065 0.00047916
0.41837119 0.16284065 0.00047916
0.45214515 0.16284065 0.00047898
0.48625491 0.16284065 0.00047898
0.52068584 0.16284065 0.00047898
0.55542479 0.16284065 0.00047898
0.59045985 0.16284065 0.00047898
0.62578019 0.16284065 0.00047898
0.66137590 0.16284065 0.00047898
0.69723790 0.16284065 0.00047898
0.73335779 0.16284065 0.00047898
0.76972779 0.16284065 0.00047898
0.80634071 0.16284065 0.00047898
0.84318981 0.16284065 0.00047935
0.88026881 0.16284065 0.00047898
0.91757184 0.16284065 0.00047898
0.91886608 0.16284065 0.00047898
0.91886608 0.16284065 0.00047898
0.00047911 0.19307382 0.00047898
0.00047911 0.19307382 0.00047898
0.00047911 0.19307382 0.00047898
0.02366304 0.19307382 0.00047898
0.04930408 0.19307382 0.00047898
0.07631807 0.19307382 0.00047898
0.10435953 0.19307382 0.00047898
0.13324070 0.19307382 0.00047898
0.16284065 0.19307382 0.00047910
0.19307382 0.19307382 0.00047898
0.22387598 0.19307382 0.00047912
0.25519681 0.19307382 0.00047898
0.28699568 0.19307382 0.00047912
0.31923896 0.19307382 0.00047914
0.35189830 0.19307382 0.00047898
0.38494941 0.19307382 0.00047898
0.41837119 0.19307382 0.00047916
0.45214515 0.19307382 0.00047918
0.48625491 0.19307382 0.00047898
0.52068584 0.19307382 0.00047898
0.55542479 0.19307382 0.00047920
0.59045985 0.19307382 0.00047898
0.62578019 0.19307382 0.00047898
0.66137590 0.19307382 0.00047927
0.69723790 0.19307382 0.00047927
0.73335779 0.19307382 0.00047898
0.76972779 0.19307382 0.00047898
0.80634071 0.19307382 0.00047898
0.84318981 0.19307382 0.00047935
0.88026881 0.19307382 0.00047898
0.91757184 0.19307382 0.00047898
0.91886608 0.19307382 0.00047898
0.91886608 0.19307382 0.00047898
0.00047912 0.22387598 0.00047898
0.00047912 0.22387598 0.00047898
0.00047912 0.22387598 0.00047898
0.02366304 0.22387598 0.00047898
0.04930408 0.22387598 0.00047898
0.07631807 0.22387598 0.00047898
0.10435953 0.22387598 0.00047898
0.13324070 0.22387598 0.00047898
0.16284065 0.22387598 0.00047898
0.19307382 0.22387598 0.00047898
0.22387598 0.22387598 0.00047898
0.25519681 0.22387598 0.00047898
0.28699568 0.22387598 0.00047898
0.31923896 0.22387598 0.00047898
0.35189830 0.22387598 0.00047898
0.38494941 0.22387598 0.00047898
0.41837119 0.22387598 0.00047898
0.45214515 0.22387598 0.00047918
0.48625491 0.22387598 0.00047898
0.52068584 0.22387598 0.00047898
0.55542479 0.22387598 0.00047898
0.59045985 0.22387598 0.00047898
0.62578019 0.22387598 0.00047898
0.66137590 0.22387598 0.00047898
0.69723790 0.22387598 0.00047898
0.73335779 0.22387598 0.00047898
0.76972779 0.22387598 0.00047898
0.80634071 0.22387598 0.00047898
0.84318981 0.22387598 0.00047898
0.88026881 0.22387598 0.00047898
0.91757184 0.22387598 0.00047898
0.91886608 0.22387598 0.00047898
0.91886608 0.22387598 0.00047946
0.00047911 0.25519681 0.00047898
0.00047911 0.25519681 0.00047898
0.00047911 0.25519681 0.00047898
0.02366304 0.25519681 0.00047898
0.04930408 0.25519681 0.00047898
0.07631807 0.25519681 0.00047898
0.10435953 0.25519681 0.00047898
0.13324070 0.25519681 0.00047898
0.16284065 0.25519681 0.00047898
0.19307382 0.25519681 0.00047898
0.22387598 0.25519681 0.00047898
0.25519681 0.25519681 0.00047914
0.28699568 0.25519681 0.00047898
0.31923896 0.25519681 0.00047898
0.35189830 0.25519681 0.00047898
0.38494941 0.25519681 0.00047898
0.41837119 0.25519681 0.00047898
0.45214515 0.25519681 0.00047898
0.48625491 0.25519681 0.00047918
0.52068584 0.25519681 0.00047898
0.55542479 0.25519681 0.00047898
0.59045985 0.25519681 0.00047898
0.62578019 0.25519681 0.00047898
0.66137590 0.25519681 0.00047898
0.69723790 0.25519681 0.00047898
0.73335779 0.25519681 0.00047898
0.76972779 0.25519681 0.00047898
0.80634071 0.25519681 0.00047898
0.84318981 0.25519681 0.00047898
0.88026881 0.25519681 0.00047898
0.91757184 0.25519681 0.00047940
0.91886608 0.25519681 0.00047898
0.91886608 0.25519681 0.00047898
0.00047914 0.28699568 0.00047898
0.00047914 0.28699568 0.00047898
0.00047914 0.28699568 0.00047898
0.02366304 0.28699568 0.00047914
0.04930408 0.28699568 0.00047914
0.07631807 0.28699568 0.00047914
0.10435953 0.28699568 0.00047898
0.13324070 0.28699568 0.00047914
0.16284065 0.28699568 0.00047914
0.19307382 0.28699568 0.00047914
0.22387598 0.28699568 0.00047898
0.25519681 0.28699568 0.00047898
0.28699568 0.28699568 0.00047898
0.31923896 0.28699568 0.00047898
0.35189830 0.28699568 0.00047916
0.38494941 0.28699568 0.00047898
0.41837119 0.28699568 0.00047898
0.45214515 0.28699568 0.00047918
0.48625491 0.28699568 0.00047898
0.52068584 0.28699568 0.00047898
0.55542479 0.28699568 0.00047898
0.59045985 0.28699568 0.00047898
0.62578019 0.28699568 0.00047923
0.66137590 0.28699568 0.00047898
0.69723790 0.28699568 0.00047898
0.73335779 0.28699568 0.00047898
0.76972779 0.28699568 0.00047898
0.80634071 0.28699568 0.00047898
0.84318981 0.28699568 0.00047940
0.88026881 0.28699568 0.00047898
0.91757184 0.28699568 0.00047940
0.91886608 0.28699568 0.00047898
0.91886608 0.28699568 0.00047898
0.00047914 0.31923896 0.00047898
0.00047914 0.31923896 0.00047898
0.00047914 0.31923896 0.00047898
0.02366304 0.31923896 0.00047898
0.04930408 0.31923896 0.00047898
0.07631807 0.31923896 0.00047898
0.10435953 0.31923896 0.00047914
0.13324070 0.31923896 0.00047898
0.16284065 0.31923896 0.00047898
0.19307382 0.31923896 0.00047898
0.22387598 0.31923896 0.00047914
0.25519681 0.31923896 0.00047898
0.28699568 0.31923896 0.00047898
0.31923896 0.31923896 0.00047898
0.35189830 0.31923896 0.00047898
0.38494941 0.31923896 0.00047898
0.41837119 0.31923896 0.00047918
0.45214515 0.31923896 0.00047898
0.48625491 0.31923896 0.00047898
0.52068584 0.31923896 0.00047898
0.55542479 0.31923896 0.00047898
0.59045985 0.31923896 0.00047898
0.62578019 0.31923896 0.00047898
0.66137590 0.31923896 0.00047898
0.69723790 0.31923896 0.00047898
0.73335779 0.31923896 0.00047898
0.76972779 0.31923896 0.00047931
0.80634071 0.31923896 0.00047898
0.84318981 0.31923896 0.00047935
0.88026881 0.31923896 0.00047898
0.91757184 0.31923896 0.00047946
0.91886608 0.31923896 0.00047898
0.91886608 0.31923896 0.00047898
0.00047898 0.35189830 0.00047898
0.00047898 0.35189830 0.00047898
0.00047898 0.35189830 0.00047898
0.02366304 0.35189830 0.00047898
0.04930408 0.35189830 0.00047898
0.07631807 0.35189830 0.00047898
0.10435953 0.35189830 0.00047898
0.13324070 0.35189830 0.00047898
0.16284065 0.35189830 0.00047916
0.19307382 0.35189830 0.00047898
0.22387598 0.35189830 0.00047916
0.25519681 0.35189830 0.00047916
0.28699568 0.35189830 0.00047898
0.31923896 0.35189830 0.00047918
0.35189830 0.35189830 0.00047898
0.38494941 0.35189830 0.00047898
0.41837119 0.35189830 0.00047898
0.45214515 0.35189830 0.00047920
0.48625491 0.35189830 0.00047898
0.52068584 0.35189830 0.00047920
0.55542479 0.35189830 0.00047898
0.59045985 0.35189830 0.00047898
0.62578019 0.35189830 0.00047898
0.66137590 0.35189830 0.00047898
0.69723790 0.35189830 0.00047927
0.73335779 0.35189830 0.00047898
0.76972779 0.35189830 0.00047898
0.80634071 0.35189830 0.00047898
0.84318981 0.35189830 0.00047898
0.88026881 0.35189830 0.00047898
0.91757184 0.35189830 0.00047940
0.91886608 0.35189830 0.00047898
0.91886608 0.35189830 0.00047946
0.00047917 0.38494941 0.00047898
0.00047917 0.38494941 0.00047898
0.00047917 0.38494941 0.00047898
0.02366304 0.38494941 0.00047898
0.04930408 0.38494941 0.00047898
0.07631807 0.38494941 0.00047898
0.10435953 0.38494941 0.00047898
0.13324070 0.38494941 0.00047898
0.16284065 0.38494941 0.00047898
0.19307382 0.38494941 0.00047898
0.22387598 0.38494941 0.00047898
0.25519681 0.38494941 0.00047898
0.28699568 0.38494941 0.00047898
0.31923896 0.38494941 0.00047898
0.35189830 0.38494941 0.00047898
0.38494941 0.38494941 0.00047918
0.41837119 0.38494941 0.00047898
0.45214515 0.38494941 0.00047898
0.48625491 0.38494941 0.00047898
0.52068584 0.38494941 0.00047898
0.55542479 0.38494941 0.00047898
0.59045985 0.38494941 0.00047898
0.62578019 0.38494941 0.00047923
0.66137590 0.38494941 0.00047898
0.69723790 0.38494941 0.00047898
0.73335779 0.38494941 0.00047931
0.76972779 0.38494941 0.00047898
0.80634071 0.38494941 0.00047898
0.84318981 0.38494941 0.00047898
0.88026881 0.38494941 0.00047898
0.91757184 0.38494941 0.00047898
0.91886608 0.38494941 0.00047898
0.91886608 0.38494941 0.00047946
0.00047898 0.41837119 0.00047898
0.00047898 0.41837119 0.00047898
0.00047898 0.41837119 0.00047898
0.02366304 0.41837119 0.00047898
0.04930408 0.41837119 0.00047898
0.07631807 0.41837119 0.00047918
0.10435953 0.41837119 0.00047898
0.13324070 0.41837119 0.00047898
0.16284065 0.41837119 0.00047918
0.19307382 0.41837119 0.00047898
0.22387598 0.41837119 0.00047898
0.25519681 0.41837119 0.00047898
0.28699568 0.41837119 0.00047898
0.31923896 0.41837119 0.00047898
0.35189830 0.41837119 0.00047898
0.38494941 0.41837119 0.00047898
0.41837119 0.41837119 0.00047898
0.45214515 0.41837119 0.00047920
0.48625491 0.41837119 0.00047898
0.52068584 0.41837119 0.00047898
0.55542479 0.41837119 0.00047898
0.59045985 0.41837119 0.00047898
0.62578019 0.41837119 0.00047923
0.66137590 0.41837119 0.00047898
0.69723790 0.41837119 0.00047898
0.73335779 0.41837119 0.00047898
0.76972779 0.41837119 0.00047898
0.80634071 0.41837119 0.00047898
0.84318981 0.41837119 0.00047898
0.88026881 0.41837119 0.00047898
0.91757184 0.41837119 0.00047898
0.91886608 0.41837119 0.00047898
0.91886608 0.41837119 0.00047898
0.00047921 0.45214515 0.00047898
0.00047921 0.45214515 0.00047898
0.00047921 0.45214515 0.00047898
0.02366304 0.45214515 0.00047898
0.04930408 0.45214515 0.00047898
0.07631807 0.45214515 0.00047898
0.10435953 0.45214515 0.00047898
0.13324070 0.45214515 0.00047898
0.16284065 0.45214515 0.00047918
0.19307382 0.45214515 0.00047898
0.22387598 0.45214515 0.00047918
0.25519681 0.45214515 0.00047918
0.28699568 0.45214515 0.00047898
0.31923896 0.45214515 0.00047918
0.35189830 0.45214515 0.00047898
0.38494941 0.45214515 0.00047898
0.41837119 0.45214515 0.00047898
0.45214515 0.45214515 0.00047898
0.48625491 0.45214515 0.00047898
0.52068584 0.45214515 0.00047898
0.55542479 0.45214515 0.00047898
0.59045985 0.45214515 0.00047898
0.62578019 0.45214515 0.00047898
0.66137590 0.45214515 0.00047898
0.69723790 0.45214515 0.00047898
0.73335779 0.45214515 0.00047931
0.76972779 0.45214515 0.00047898
0.80634071 0.45214515 0.00047898
0.84318981 0.45214515 0.00047940
0.88026881 0.45214515 0.00047898
0.91757184 0.45214515 0.00047898
0.91886608 0.45214515 0.00047898
0.91886608 0.45214515 0.00047946
0.00047924 0.48625491 0.00047898
0.00047924 0.48625491 0.00047898
0.00047924 0.48625491 0.00047898
0.02366304 0.48625491 0.00047898
0.04930408 0.48625491 0.00047898
0.07631807 0.48625491 0.00047898
0.10435953 0.48625491 0.00047898
0.13324070 0.48625491 0.00047898
0.16284065 0.48625491 0.00047898
0.19307382 0.48625491 0.00047898
0.22387598 0.48625491 0.00047898
0.25519681 0.48625491 0.00047898
0.28699568 0.48625491 0.00047898
0.31923896 0.48625491 0.00047898
0.35189830 0.48625491 0.00047898
0.38494941 0.48625491 0.00047920
0.41837119 0.48625491 0.00047898
0.45214515 0.48625491 0.00047898
0.48625491 0.48625491 0.00047898
0.52068584 0.48625491 0.00047898
0.55542479 0.48625491 0.00047898
0.59045985 0.48625491 0.00047898
0.62578019 0.48625491 0.00047898
0.66137590 0.48625491 0.00047898
0.69723790 0.48625491 0.00047898
0.73335779 0.48625491 0.00047931
0.76972779 0.48625491 0.00047898
0.80634071 0.48625491 0.00047898
0.84318981 0.48625491 0.00047898
0.88026881 0.48625491 0.00047898
0.91757184 0.48625491 0.00047898
0.91886608 0.48625491 0.00047898
0.91886608 0.48625491 0.00047946
0.00047924 0.52068584 0.00047898
0.00047924 0.52068584 0.00047898
0.00047924 0.52068584 0.00047898
0.02366304 0.52068584 0.00047898
0.04930408 0.52068584 0.00047898
0.07631807 0.52068584 0.00047898
0.10435953 0.52068584 0.00047898
0.13324070 0.52068584 0.00047898
0.16284065 0.52068584 0.00047898
0.19307382 0.52068584 0.00047920
0.22387598 0.52068584 0.00047898
0.25519681 0.52068584 0.00047920
0.28699568 0.52068584 0.00047898
0.31923896 0.52068584 0.00047898
0.35189830 0.52068584 0.00047898
0.38494941 0.52068584 0.00047898
0.41837119 0.52068584 0.00047923
0.45214515 0.52068584 0.00047898
0.48625491 0.52068584 0.00047898
0.52068584 0.52068584 0.00047898
0.55542479 0.52068584 0.00047898
0.59045985 0.52068584 0.00047898
0.62578019 0.52068584 0.00047898
0.66137590 0.52068584 0.00047898
0.69723790 0.52068584 0.00047898
0.73335779 0.52068584 0.00047898
0.76972779 0.52068584 0.00047931
0.80634071 0.52068584 0.00047935
0.84318981 0.52068584 0.00047935
0.88026881 0.52068584 0.00047898
0.91757184 0.52068584 0.00047898
0.91886608 0.52068584 0.00047898
0.91886608 0.52068584 0.00047953
0.00047921 0.55542479 0.00047898
0.00047921 0.55542479 0.00047898
0.00047921 0.55542479 0.00047898
0.02366304 0.55542479 0.00047898
0.04930408 0.55542479 0.00047898
0.07631807 0.55542479 0.00047898
0.10435953 0.55542479 0.00047923
0.13324070 0.55542479 0.00047898
0.16284065 0.55542479 0.00047898
0.19307382 0.55542479 0.00047898
0.22387598 0.55542479 0.00047923
0.25519681 0.55542479 0.00047923
0.28699568 0.55542479 0.00047898
0.31923896 0.55542479 0.00047898
0.35189830 0.55542479 0.00047898
0.38494941 0.55542479 0.00047898
0.41837119 0.55542479 0.00047898
0.45214515 0.55542479 0.00047898
0.48625491 0.55542479 0.00047923
0.52068584 0.55542479 0.00047898
0.55542479 0.55542479 0.00047898
0.59045985 0.55542479 0.00047898
0.62578019 0.55542479 0.00047927
0.66137590 0.55542479 0.00047898
0.69723790 0.55542479 0.00047898
0.73335779 0.55542479 0.00047898
0.76972779 0.55542479 0.00047898
0.80634071 0.55542479 0.00047898
0.84318981 0.55542479 0.00047898
0.88026881 0.55542479 0.00047898
0.91757184 0.55542479 0.00047940
0.91886608 0.55542479 0.00047946
0.91886608 0.55542479 0.00047898
0.00047916 0.59045985 0.00047898
0.00047916 0.59045985 0.00047898
0.00047916 0.59045985 0.00047898
0.02366304 0.59045985 0.00047898
0.04930408 0.59045985 0.00047898
0.07631807 0.59045985 0.00047923
0.10435953 0.59045985 0.00047898
0.13324070 0.59045985 0.00047898
0.16284065 0.59045985 0.00047923
0.19307382 0.59045985 0.00047898
0.22387598 0.59045985 0.00047923
0.25519681 0.59045985 0.00047898
0.28699568 0.59045985 0.00047898
0.31923896 0.59045985 0.00047923
0.35189830 0.59045985 0.00047923
0.38494941 0.59045985 0.00047898
0.41837119 0.59045985 0.00047898
0.45214515 0.59045985 0.00047898
0.48625491 0.59045985 0.00047898
0.52068584 0.59045985 0.00047898
0.55542479 0.59045985 0.00047898
0.59045985 0.59045985 0.00047898
0.62578019 0.59045985 0.00047898
0.66137590 0.59045985 0.00047898
0.69723790 0.59045985 0.00047898
0.73335779 0.59045985 0.00047898
0.76972779 0.59045985 0.00047898
