src/ffmpeg_scripts/luts/luminance-unclipped_0-Native.cube
TITLE "luminance-unclipped_0-Native"
LUT_3D_SIZE 9
# PQ (EOTF Only)/Rec2020 -> PQ (EOTF Only)/Rec2020, CineEI Shift 0.00, Black Level -7.25% IRE, Input 109% -> Output 109% - Created with LUTCalc v4.01 by Ben Turley October 2020
0.00047898 0.00047898 0.00047898
0.07283721 0.00047904 0.00047898
0.21769671 0.00047898 0.00047898
0.36255622 0.00047898 0.00047898
0.50741572 0.00047923 0.00047898
0.65227523 0.00047924 0.00047898
0.79713473 0.00047932 0.00047898
0.91886608 0.00047898 0.00047898
0.91886608 0.00047963 0.00047961
0.00047907 0.07283721 0.00047898
0.07283721 0.07283721 0.00047898
0.21769671 0.07283721 0.00047898
0.36255622 0.07283721 0.00047898
0.50741572 0.07283721 0.00047898
0.65227523 0.07283721 0.00047898
0.79713473 0.07283721 0.00047898
0.91886608 0.07283721 0.00047946
0.91886608 0.07283721 0.00047898
0.00047898 0.21769671 0.00047898
0.07283721 0.21769671 0.00047898
0.21769671 0.21769671 0.00047898
0.36255622 0.21769671 0.00047898
0.50741572 0.21769671 0.00047898
0.65227523 0.21769671 0.00047898
0.79713473 0.21769671 0.00047898
0.91886608 0.21769671 0.00047898
0.91886608 0.21769671 0.00047898
0.00047917 0.36255622 0.00047916
0.07283721 0.36255622 0.00047898
0.21769671 0.36255622 0.00047898
0.36255622 0.36255622 0.00047918
0.50741572 0.36255622 0.00047898
0.65227523 0.36255622 0.00047898
0.79713473 0.36255622 0.00047898
0.91886608 0.36255622 0.00047946
0.91886608 0.36255622 0.00047898
0.00047898 0.50741572 0.00047898
0.07283721 0.50741572 0.00047898
0.21769671 0.50741572 0.00047898
0.36255622 0.50741572 0.00047898
0.50741572 0.50741572 0.00047898
0.65227523 0.50741572 0.00047898
0.79713473 0.50741572 0.00047898
0.91886608 0.50741572 0.00047898
0.91886608 0.50741572 0.00047898
0.00047918 0.65227523 0.00047898
0.07283721 0.65227523 0.00047898
0.21769671 0.65227523 0.00047898
0.36255622 0.65227523 0.00047898
0.50741572 0.65227523 0.00047927
0.65227523 0.65227523 0.00047898
0.79713473 0.65227523 0.00047898
0.91886608 0.65227523 0.00047898
0.91886608 0.65227523 0.00047898
0.00047937 0.79713473 0.00047898
0.07283721 0.79713473 0.00047898
0.21769671 0.79713473 0.00047898
0.36255622 0.79713473 0.00047898
0.50741572 0.79713473 0.00047898
0.65227523 0.79713473 0.00047935
0.79713473 0.79713473 0.00047898
0.91886608 0.79713473 0.00047946
0.91886608 0.79713473 0.00047961
0.00047961 0.91886608 0.00047898
0.07283721 0.91886608 0.00047898
0.21769671 0.91886608 0.00047898
0.36255622 0.91886608 0.00047898
0.50741572 0.91886608 0.00047898
0.65227523 0.91886608 0.00047898
0.79713473 0.91886608 0.00047898
0.91886608 0.91886608 0.00047898
0.91886608 0.91886608 0.00047898
0.00047971 0.91886608 0.00047898
0.07283721 0.91886608 0.00047898
0.21769671 0.91886608 0.00047898
0.36255622 0.91886608 0.00047898
0.50741572 0.91886608 0.00047898
0.65227523 0.91886608 0.00047898
0.79713473 0.91886608 0.00047898
0.91886608 0.91886608 0.00047898
0.91886608 0.91886608 0.00047898
0.00047898 0.00047909 0.07283721
0.07283721 0.00047908 0.07283721
0.21769671 0.00047898 0.07283721
0.36255622 0.00047898 0.07283721
0.50741572 0.00047924 0.07283721
0.65227523 0.00047898 0.07283721
0.79713473 0.00047927 0.07283721
0.91886608 0.00047938 0.07283721
0.91886608 0.00047953 0.07283721
0.00047907 0.07283721 0.07283721
0.07283721 0.07283721 0.07283721
0.21769671 0.07283721 0.07283721
0.36255622 0.07283721 0.07283721
0.50741572 0.07283721 0.07283721
0.65227523 0.07283721 0.07283721
0.79713473 0.07283721 0.07283721
0.91886608 0.07283721 0.07283721
0.91886608 0.07283721 0.07283721
0.00047911 0.21769671 0.07283721
0.07283721 0.21769671 0.07283721
0.21769671 0.21769671 0.07283721
0.36255622 0.21769671 0.07283721
0.50741572 0.21769671 0.07283721
0.65227523 0.21769671 0.07283721
0.79713473 0.21769671 0.07283721
0.91886608 0.21769671 0.07283721
0.91886608 0.21769671 0.07283721
0.00047917 0.36255622 0.07283721
0.07283721 0.36255622 0.07283721
0.21769671 0.36255622 0.07283721
0.36255622 0.36255622 0.07283721
0.50741572 0.36255622 0.07283721
0.65227523 0.36255622 0.07283721
0.79713473 0.36255622 0.07283721
0.91886608 0.36255622 0.07283721
0.91886608 0.36255622 0.07283721
0.00047924 0.50741572 0.07283721
0.07283721 0.50741572 0.07283721
0.21769671 0.50741572 0.07283721
0.36255622 0.50741572 0.07283721
0.50741572 0.50741572 0.07283721
0.65227523 0.50741572 0.07283721
0.79713473 0.50741572 0.07283721
0.91886608 0.50741572 0.07283721
0.91886608 0.50741572 0.07283721
0.00047929 0.65227523 0.07283721
0.07283721 0.65227523 0.07283721
0.21769671 0.65227523 0.07283721
0.36255622 0.65227523 0.07283721
0.50741572 0.65227523 0.07283721
0.65227523 0.65227523 0.07283721
0.79713473 0.65227523 0.07283721
0.91886608 0.65227523 0.07283721
0.91886608 0.65227523 0.07283721
0.00047939 0.79713473 0.07283721
0.07283721 0.79713473 0.07283721
0.21769671 0.79713473 0.07283721
0.36255622 0.79713473 0.07283721
0.50741572 0.79713473 0.07283721
0.65227523 0.79713473 0.07283721
0.79713473 0.79713473 0.07283721
0.91886608 0.79713473 0.07283721
0.91886608 0.79713473 0.07283721
0.00047956 0.91886608 0.07283721
0.07283721 0.91886608 0.07283721
0.21769671 0.91886608 0.07283721
0.36255622 0.91886608 0.07283721
0.50741572 0.91886608 0.07283721
0.65227523 0.91886608 0.07283721
0.79713473 0.91886608 0.07283721
0.91886608 0.91886608 0.07283721
0.91886608 0.91886608 0.07283721
0.00047968 0.91886608 0.07283721
0.07283721 0.91886608 0.07283721
0.21769671 0.91886608 0.07283721
0.36255622 0.91886608 0.07283721
0.50741572 0.91886608 0.07283721
0.65227523 0.91886608 0.07283721
0.79713473 0.91886608 0.07283721
0.91886608 0.91886608 0.07283721
0.91886608 0.91886608 0.07283721
0.00047898 0.00047898 0.21769671
0.07283721 0.00047898 0.21769671
0.21769671 0.00047914 0.21769671
0.36255622 0.00047898 0.21769671
0.50741572 0.00047920 0.21769671
0.65227523 0.00047925 0.21769671
0.79713473 0.00047927 0.21769671
0.91886608 0.00047898 0.21769671
0.91886608 0.00047963 0.21769671
0.00047898 0.07283721 0.21769671
0.07283721 0.07283721 0.21769671
0.21769671 0.07283721 0.21769671
0.36255622 0.07283721 0.21769671
0.50741572 0.07283721 0.21769671
0.65227523 0.07283721 0.21769671
0.79713473 0.07283721 0.21769671
0.91886608 0.07283721 0.21769671
0.91886608 0.07283721 0.21769671
0.00047898 0.21769671 0.21769671
0.07283721 0.21769671 0.21769671
0.21769671 0.21769671 0.21769671
0.36255622 0.21769671 0.21769671
0.50741572 0.21769671 0.21769671
0.65227523 0.21769671 0.21769671
0.79713473 0.21769671 0.21769671
0.91886608 0.21769671 0.21769671
0.91886608 0.21769671 0.21769671
0.00047917 0.36255622 0.21769671
0.07283721 0.36255622 0.21769671
0.21769671 0.36255622 0.21769671
0.36255622 0.36255622 0.21769671
0.50741572 0.36255622 0.21769671
0.65227523 0.36255622 0.21769671
0.79713473 0.36255622 0.21769671
0.91886608 0.36255622 0.21769671
0.91886608 0.36255622 0.21769671
0.00047921 0.50741572 0.21769671
0.07283721 0.50741572 0.21769671
0.21769671 0.50741572 0.21769671
0.36255622 0.50741572 0.21769671
0.50741572 0.50741572 0.21769671
0.65227523 0.50741572 0.21769671
0.79713473 0.50741572 0.21769671
0.91886608 0.50741572 0.21769671
0.91886608 0.50741572 0.21769671
0.00047932 0.65227523 0.21769671
0.07283721 0.65227523 0.21769671
0.21769671 0.65227523 0.21769671
0.36255622 0.65227523 0.21769671
0.50741572 0.65227523 0.21769671
0.65227523 0.65227523 0.21769671
0.79713473 0.65227523 0.21769671
0.91886608 0.65227523 0.21769671
0.91886608 0.65227523 0.21769671
0.00047938 0.79713473 0.21769671
0.07283721 0.79713473 0.21769671
0.21769671 0.79713473 0.21769671
0.36255622 0.79713473 0.21769671
0.50741572 0.79713473 0.21769671
0.65227523 0.79713473 0.21769671
0.79713473 0.79713473 0.21769671
0.91886608 0.79713473 0.21769671
0.91886608 0.79713473 0.21769671
0.00047963 0.91886608 0.21769671
0.07283721 0.91886608 0.21769671
0.21769671 0.91886608 0.21769671
0.36255622 0.91886608 0.21769671
0.50741572 0.91886608 0.21769671
0.65227523 0.91886608 0.21769671
0.79713473 0.91886608 0.21769671
0.91886608 0.91886608 0.21769671
0.91886608 0.91886608 0.21769671
0.00047968 0.91886608 0.21769671
0.07283721 0.91886608 0.21769671
0.21769671 0.91886608 0.21769671
0.36255622 0.91886608 0.21769671
0.50741572 0.91886608 0.21769671
0.65227523 0.91886608 0.21769671
0.79713473 0.91886608 0.21769671
0.91886608 0.91886608 0.21769671
0.91886608 0.91886608 0.21769671
0.00047898 0.00047920 0.36255622
0.07283721 0.00047898 0.36255622
0.21769671 0.00047898 0.36255622
0.36255622 0.00047923 0.36255622
0.50741572 0.00047898 0.36255622
0.65227523 0.00047931 0.36255622
0.79713473 0.00047927 0.36255622
0.91886608 0.00047898 0.36255622
0.91886608 0.00047960 0.36255622
0.00047898 0.07283721 0.36255622
0.07283721 0.07283721 0.36255622
0.21769671 0.07283721 0.36255622
0.36255622 0.07283721 0.36255622
0.50741572 0.07283721 0.36255622
0.65227523 0.07283721 0.36255622
0.79713473 0.07283721 0.36255622
0.91886608 0.07283721 0.36255622
0.91886608 0.07283721 0.36255622
0.00047898 0.21769671 0.36255622
0.07283721 0.21769671 0.36255622
0.21769671 0.21769671 0.36255622
0.36255622 0.21769671 0.36255622
0.50741572 0.21769671 0.36255622
0.65227523 0.21769671 0.36255622
0.79713473 0.21769671 0.36255622
0.91886608 0.21769671 0.36255622
0.91886608 0.21769671 0.36255622
0.00047918 0.36255622 0.36255622
0.07283721 0.36255622 0.36255622
0.21769671 0.36255622 0.36255622
0.36255622 0.36255622 0.36255622
0.50741572 0.36255622 0.36255622
0.65227523 0.36255622 0.36255622
0.79713473 0.36255622 0.36255622
0.91886608 0.36255622 0.36255622
0.91886608 0.36255622 0.36255622
0.00047922 0.50741572 0.36255622
0.07283721 0.50741572 0.36255622
0.21769671 0.50741572 0.36255622
0.36255622 0.50741572 0.36255622
0.50741572 0.50741572 0.36255622
0.65227523 0.50741572 0.36255622
0.79713473 0.50741572 0.36255622
0.91886608 0.50741572 0.36255622
0.91886608 0.50741572 0.36255622
0.00047926 0.65227523 0.36255622
0.07283721 0.65227523 0.36255622
0.21769671 0.65227523 0.36255622
0.36255622 0.65227523 0.36255622
0.50741572 0.65227523 0.36255622
0.65227523 0.65227523 0.36255622
0.79713473 0.65227523 0.36255622
0.91886608 0.65227523 0.36255622
0.91886608 0.65227523 0.36255622
0.00047938 0.79713473 0.36255622
0.07283721 0.79713473 0.36255622
0.21769671 0.79713473 0.36255622
0.36255622 0.79713473 0.36255622
0.50741572 0.79713473 0.36255622
0.65227523 0.79713473 0.36255622
0.79713473 0.79713473 0.36255622
0.91886608 0.79713473 0.36255622
0.91886608 0.79713473 0.36255622
0.00047958 0.91886608 0.36255622
0.07283721 0.91886608 0.36255622
0.21769671 0.91886608 0.36255622
0.36255622 0.91886608 0.36255622
0.50741572 0.91886608 0.36255622
0.65227523 0.91886608 0.36255622
0.79713473 0.91886608 0.36255622
0.91886608 0.91886608 0.36255622
0.91886608 0.91886608 0.36255622
0.00047969 0.91886608 0.36255622
0.07283721 0.91886608 0.36255622
0.21769671 0.91886608 0.36255622
0.36255622 0.91886608 0.36255622
0.50741572 0.91886608 0.36255622
0.65227523 0.91886608 0.36255622
0.79713473 0.91886608 0.36255622
0.91886608 0.91886608 0.36255622
0.91886608 0.91886608 0.36255622
0.00047898 0.00047898 0.50741572
0.07283721 0.00047927 0.50741572
0.21769671 0.00047927 0.50741572
0.36255622 0.00047898 0.50741572
0.50741572 0.00047931 0.50741572
0.65227523 0.00047898 0.50741572
0.79713473 0.00047935 0.50741572
0.91886608 0.00047944 0.50741572
0.91886608 0.00047970 0.50741572
0.00047898 0.07283721 0.50741572
0.07283721 0.07283721 0.50741572
0.21769671 0.07283721 0.50741572
0.36255622 0.07283721 0.50741572
0.50741572 0.07283721 0.50741572
0.65227523 0.07283721 0.50741572
0.79713473 0.07283721 0.50741572
0.91886608 0.07283721 0.50741572
0.91886608 0.07283721 0.50741572
0.00047898 0.21769671 0.50741572
0.07283721 0.21769671 0.50741572
0.21769671 0.21769671 0.50741572
0.36255622 0.21769671 0.50741572
0.50741572 0.21769671 0.50741572
0.65227523 0.21769671 0.50741572
0.79713473 0.21769671 0.50741572
0.91886608 0.21769671 0.50741572
0.91886608 0.21769671 0.50741572
0.00047898 0.36255622 0.50741572
0.07283721 0.36255622 0.50741572
0.21769671 0.36255622 0.50741572
0.36255622 0.36255622 0.50741572
0.50741572 0.36255622 0.50741572
0.65227523 0.36255622 0.50741572
0.79713473 0.36255622 0.50741572
0.91886608 0.36255622 0.50741572
0.91886608 0.36255622 0.50741572
0.00047898 0.50741572 0.50741572
0.07283721 0.50741572 0.50741572
0.21769671 0.50741572 0.50741572
0.36255622 0.50741572 0.50741572
0.50741572 0.50741572 0.50741572
0.65227523 0.50741572 0.50741572
0.79713473 0.50741572 0.50741572
0.91886608 0.50741572 0.50741572
0.91886608 0.50741572 0.50741572
0.00047932 0.65227523 0.50741572
0.07283721 0.65227523 0.50741572
0.21769671 0.65227523 0.50741572
0.36255622 0.65227523 0.50741572
0.50741572 0.65227523 0.50741572
0.65227523 0.65227523 0.50741572
0.79713473 0.65227523 0.50741572
0.91886608 0.65227523 0.50741572
0.91886608 0.65227523 0.50741572
0.00047948 0.79713473 0.50741572
0.07283721 0.79713473 0.50741572
0.21769671 0.79713473 0.50741572
0.36255622 0.79713473 0.50741572
0.50741572 0.79713473 0.50741572
0.65227523 0.79713473 0.50741572
0.79713473 0.79713473 0.50741572
0.91886608 0.79713473 0.50741572
0.91886608 0.79713473 0.50741572
0.00047959 0.91886608 0.50741572
0.07283721 0.91886608 0.50741572
0.21769671 0.91886608 0.50741572
0.36255622 0.91886608 0.50741572
0.50741572 0.91886608 0.50741572
0.65227523 0.91886608 0.50741572
0.79713473 0.91886608 0.50741572
0.91886608 0.91886608 0.50741572
0.91886608 0.91886608 0.50741572
0.00047970 0.91886608 0.50741572
0.07283721 0.91886608 0.50741572
0.21769671 0.91886608 0.50741572
0.36255622 0.91886608 0.50741572
0.50741572 0.91886608 0.50741572
0.65227523 0.91886608 0.50741572
0.79713473 0.91886608 0.50741572
0.91886608 0.91886608 0.50741572
0.91886608 0.91886608 0.50741572
0.00047898 0.00047935 0.65227523
0.07283721 0.00047935 0.65227523
0.21769671 0.00047940 0.65227523
0.36255622 0.00047935 0.65227523
0.50741572 0.00047940 0.65227523
0.65227523 0.00047944 0.65227523
0.79713473 0.00047898 0.65227523
0.91886608 0.00047940 0.65227523
0.91886608 0.00047898 0.65227523
0.00047898 0.07283721 0.65227523
0.07283721 0.07283721 0.65227523
0.21769671 0.07283721 0.65227523
0.36255622 0.07283721 0.65227523
0.50741572 0.07283721 0.65227523
0.65227523 0.07283721 0.65227523
0.79713473 0.07283721 0.65227523
0.91886608 0.07283721 0.65227523
0.91886608 0.07283721 0.65227523
0.00047931 0.21769671 0.65227523
0.07283721 0.21769671 0.65227523
0.21769671 0.21769671 0.65227523
0.36255622 0.21769671 0.65227523
0.50741572 0.21769671 0.65227523
0.65227523 0.21769671 0.65227523
0.79713473 0.21769671 0.65227523
0.91886608 0.21769671 0.65227523
0.91886608 0.21769671 0.65227523
0.00047898 0.36255622 0.65227523
0.07283721 0.36255622 0.65227523
0.21769671 0.36255622 0.65227523
0.36255622 0.36255622 0.65227523
0.50741572 0.36255622 0.65227523
0.65227523 0.36255622 0.65227523
0.79713473 0.36255622 0.65227523
0.91886608 0.36255622 0.65227523
0.91886608 0.36255622 0.65227523
0.00047898 0.50741572 0.65227523
0.07283721 0.50741572 0.65227523
0.21769671 0.50741572 0.65227523
0.36255622 0.50741572 0.65227523
0.50741572 0.50741572 0.65227523
0.65227523 0.50741572 0.65227523
0.79713473 0.50741572 0.65227523
0.91886608 0.50741572 0.65227523
0.91886608 0.50741572 0.65227523
0.00047931 0.65227523 0.65227523
0.07283721 0.65227523 0.65227523
0.21769671 0.65227523 0.65227523
0.36255622 0.65227523 0.65227523
0.50741572 0.65227523 0.65227523
0.65227523 0.65227523 0.65227523
0.79713473 0.65227523 0.65227523
0.91886608 0.65227523 0.65227523
0.91886608 0.65227523 0.65227523
0.00047944 0.79713473 0.65227523
0.07283721 0.79713473 0.65227523
0.21769671 0.79713473 0.65227523
0.36255622 0.79713473 0.65227523
0.50741572 0.79713473 0.65227523
0.65227523 0.79713473 0.65227523
0.79713473 0.79713473 0.65227523
0.91886608 0.79713473 0.65227523
0.91886608 0.79713473 0.65227523
0.00047957 0.91886608 0.65227523
0.07283721 0.91886608 0.65227523
0.21769671 0.91886608 0.65227523
0.36255622 0.91886608 0.65227523
0.50741572 0.91886608 0.65227523
0.65227523 0.91886608 0.65227523
0.79713473 0.91886608 0.65227523
0.91886608 0.91886608 0.65227523
0.91886608 0.91886608 0.65227523
0.00047984 0.91886608 0.65227523
0.07283721 0.91886608 0.65227523
0.21769671 0.91886608 0.65227523
0.36255622 0.91886608 0.65227523
0.50741572 0.91886608 0.65227523
0.65227523 0.91886608 0.65227523
0.79713473 0.91886608 0.65227523
0.91886608 0.91886608 0.65227523
0.91886608 0.91886608 0.65227523
0.00047898 0.00047898 0.79713473
0.07283721 0.00047898 0.79713473
0.21769671 0.00047898 0.79713473
0.36255622 0.00047946 0.79713473
0.50741572 0.00047898 0.79713473
0.65227523 0.00047898 0.79713473
0.79713473 0.00047898 0.79713473
0.91886608 0.00047898 0.79713473
0.91886608 0.00047898 0.79713473
0.00047898 0.07283721 0.79713473
0.07283721 0.07283721 0.79713473
0.21769671 0.07283721 0.79713473
0.36255622 0.07283721 0.79713473
0.50741572 0.07283721 0.79713473
0.65227523 0.07283721 0.79713473
0.79713473 0.07283721 0.79713473
0.91886608 0.07283721 0.79713473
0.91886608 0.07283721 0.79713473
0.00047898 0.21769671 0.79713473
0.07283721 0.21769671 0.79713473
0.21769671 0.21769671 0.79713473
0.36255622 0.21769671 0.79713473
0.50741572 0.21769671 0.79713473
0.65227523 0.21769671 0.79713473
0.79713473 0.21769671 0.79713473
0.91886608 0.21769671 0.79713473
0.91886608 0.21769671 0.79713473
0.00047898 0.36255622 0.79713473
0.07283721 0.36255622 0.79713473
0.21769671 0.36255622 0.79713473
0.36255622 0.36255622 0.79713473
0.50741572 0.36255622 0.79713473
0.65227523 0.36255622 0.79713473
0.79713473 0.36255622 0.79713473
0.91886608 0.36255622 0.79713473
0.91886608 0.36255622 0.79713473
0.00047898 0.50741572 0.79713473
0.07283721 0.50741572 0.79713473
0.21769671 0.50741572 0.79713473
0.36255622 0.50741572 0.79713473
0.50741572 0.50741572 0.79713473
0.65227523 0.50741572 0.79713473
0.79713473 0.50741572 0.79713473
0.91886608 0.50741572 0.79713473
0.91886608 0.50741572 0.79713473
0.00047898 0.65227523 0.79713473
0.07283721 0.65227523 0.79713473
0.21769671 0.65227523 0.79713473
0.36255622 0.65227523 0.79713473
0.50741572 0.65227523 0.79713473
0.65227523 0.65227523 0.79713473
0.79713473 0.65227523 0.79713473
0.91886608 0.65227523 0.79713473
0.91886608 0.65227523 0.79713473
0.00047898 0.79713473 0.79713473
0.07283721 0.79713473 0.79713473
0.21769671 0.79713473 0.79713473
0.36255622 0.79713473 0.79713473
0.50741572 0.79713473 0.79713473
0.65227523 0.79713473 0.79713473
0.79713473 0.79713473 0.79713473
0.91886608 0.79713473 0.79713473
0.91886608 0.79713473 0.79713473
0.00047953 0.91886608 0.79713473
0.07283721 0.91886608 0.79713473
0.21769671 0.91886608 0.79713473
0.36255622 0.91886608 0.79713473
0.50741572 0.91886608 0.79713473
0.65227523 0.91886608 0.79713473
0.79713473 0.91886608 0.79713473
0.91886608 0.91886608 0.79713473
0.91886608 0.91886608 0.79713473
0.00047974 0.91886608 0.79713473
0.07283721 0.91886608 0.79713473
0.21769671 0.91886608 0.79713473
0.36255622 0.91886608 0.79713473
0.50741572 0.91886608 0.79713473
0.65227523 0.91886608 0.79713473
0.79713473 0.91886608 0.79713473
0.91886608 0.91886608 0.79713473
0.91886608 0.91886608 0.79713473
0.00047898 0.00047971 0.91886608
0.07283721 0.00047961 0.91886608
0.21769671 0.00047961 0.91886608
0.36255622 0.00047971 0.91886608
0.50741572 0.00047898 0.91886608
0.65227523 0.00047898 0.91886608
0.79713473 0.00047961 0.91886608
0.91886608 0.00047971 0.91886608
0.91886608 0.00047971 0.91886608
0.00047898 0.07283721 0.91886608
0.07283721 0.07283721 0.91886608
0.21769671 0.07283721 0.91886608
0.36255622 0.07283721 0.91886608
0.50741572 0.07283721 0.91886608
0.65227523 0.07283721 0.91886608
0.79713473 0.07283721 0.91886608
0.91886608 0.07283721 0.91886608
0.91886608 0.07283721 0.91886608
0.00047898 0.21769671 0.91886608
0.07283721 0.21769671 0.91886608
0.21769671 0.21769671 0.91886608
0.36255622 0.21769671 0.91886608
0.50741572 0.21769671 0.91886608
0.65227523 0.21769671 0.91886608
0.79713473 0.21769671 0.91886608
0.91886608 0.21769671 0.91886608
0.91886608 0.21769671 0.91886608
0.00047898 0.36255622 0.91886608
0.07283721 0.36255622 0.91886608
0.21769671 0.36255622 0.91886608
0.36255622 0.36255622 0.91886608
0.50741572 0.36255622 0.91886608
0.65227523 0.36255622 0.91886608
0.79713473 0.36255622 0.91886608
0.91886608 0.36255622 0.91886608
0.91886608 0.36255622 0.91886608
0.00047898 0.50741572 0.91886608
0.07283721 0.50741572 0.91886608
0.21769671 0.50741572 0.91886608
0.36255622 0.50741572 0.91886608
0.50741572 0.50741572 0.91886608
0.65227523 0.50741572 0.91886608
0.79713473 0.50741572 0.91886608
0.91886608 0.50741572 0.91886608
0.91886608 0.50741572 0.91886608
0.00047898 0.65227523 0.91886608
0.07283721 0.65227523 0.91886608
0.21769671 0.65227523 0.91886608
0.36255622 0.65227523 0.91886608
0.50741572 0.65227523 0.91886608
0.65227523 0.65227523 0.91886608
0.79713473 0.65227523 0.91886608
0.91886608 0.65227523 0.91886608
0.91886608 0.65227523 0.91886608
0.00047898 0.79713473 0.91886608
0.07283721 0.79713473 0.91886608
0.21769671 0.79713473 0.91886608
0.36255622 0.79713473 0.91886608
0.50741572 0.79713473 0.91886608
0.65227523 0.79713473 0.91886608
0.79713473 0.79713473 0.91886608
0.91886608 0.79713473 0.91886608
0.91886608 0.79713473 0.91886608
0.00047898 0.91886608 0.91886608
0.07283721 0.91886608 0.91886608
0.21769671 0.91886608 0.91886608
0.36255622 0.91886608 0.91886608
0.50741572 0.91886608 0.91886608
0.65227523 0.91886608 0.91886608
0.79713473 0.91886608 0.91886608
0.91886608 0.91886608 0.91886608
0.91886608 0.91886608 0.91886608
0.00047985 0.91886608 0.91886608
0.07283721 0.91886608 0.91886608
0.21769671 0.91886608 0.91886608
0.36255622 0.91886608 0.91886608
0.50741572 0.91886608 0.91886608
0.65227523 0.91886608 0.91886608
0.79713473 0.91886608 0.91886608
0.91886608 0.91886608 0.91886608
0.91886608 0.91886608 0.91886608
0.00047898 0.00047898 0.91886608
0.07283721 0.00047898 0.91886608
0.21769671 0.00047997 0.91886608
0.36255622 0.00047983 0.91886608
0.50741572 0.00047983 0.91886608
0.65227523 0.00047983 0.91886608
0.79713473 0.00047983 0.91886608
0.91886608 0.00047983 0.91886608
0.91886608 0.00047983 0.91886608
0.00047898 0.07283721 0.91886608
0.07283721 0.07283721 0.91886608
0.21769671 0.07283721 0.91886608
0.36255622 0.07283721 0.91886608
0.50741572 0.07283721 0.91886608
0.65227523 0.07283721 0.91886608
0.79713473 0.07283721 0.91886608
0.91886608 0.07283721 0.91886608
0.91886608 0.07283721 0.91886608
0.00047898 0.21769671 0.91886608
0.07283721 0.21769671 0.91886608
0.21769671 0.21769671 0.91886608
0.36255622 0.21769671 0.91886608
0.50741572 0.21769671 0.91886608
0.65227523 0.21769671 0.91886608
0.79713473 0.21769671 0.91886608
0.91886608 0.21769671 0.91886608
0.91886608 0.21769671 0.91886608
0.00047971 0.36255622 0.91886608
0.07283721 0.36255622 0.91886608
0.21769671 0.36255622 0.91886608
0.36255622 0.36255622 0.91886608
0.50741572 0.36255622 0.91886608
0.65227523 0.36255622 0.91886608
0.79713473 0.36255622 0.91886608
0.91886608 0.36255622 0.91886608
0.91886608 0.36255622 0.91886608
0.00047898 0.50741572 0.91886608
0.07283721 0.50741572 0.91886608
0.21769671 0.50741572 0.91886608
0.36255622 0.50741572 0.91886608
0.50741572 0.50741572 0.91886608
0.65227523 0.50741572 0.91886608
0.79713473 0.50741572 0.91886608
0.91886608 0.50741572 0.91886608
0.91886608 0.50741572 0.91886608
0.00047898 0.65227523 0.91886608
0.07283721 0.65227523 0.91886608
0.21769671 0.65227523 0.91886608
0.36255622 0.65227523 0.91886608
0.50741572 0.65227523 0.91886608
0.65227523 0.65227523 0.91886608
0.79713473 0.65227523 0.91886608
0.91886608 0.65227523 0.91886608
0.91886608 0.65227523 0.91886608
0.00047898 0.79713473 0.91886608
0.07283721 0.79713473 0.91886608
0.21769671 0.79713473 0.91886608
0.36255622 0.79713473 0.91886608
0.50741572 0.79713473 0.91886608
0.65227523 0.79713473 0.91886608
0.79713473 0.79713473 0.91886608
0.91886608 0.79713473 0.91886608
0.91886608 0.79713473 0.91886608
0.00047898 0.91886608 0.91886608
0.07283721 0.91886608 0.91886608
0.21769671 0.91886608 0.91886608
0.36255622 0.91886608 0.91886608
0.50741572 0.91886608 0.91886608
0.65227523 0.91886608 0.91886608
0.79713473 0.91886608 0.91886608
0.91886608 0.91886608 0.91886608
0.91886608 0.91886608 0.91886608
0.00047971 0.91886608 0.91886608
0.07283721 0.91886608 0.91886608
0.21769671 0.91886608 0.91886608
0.36255622 0.91886608 0.91886608
0.50741572 0.91886608 0.91886608
0.65227523 0.91886608 0.91886608
0.79713473 0.91886608 0.91886608
0.91886608 0.91886608 0.91886608
0.91886608 0.91886608 0.91886608
