src/ffmpeg_scripts/luts/luminance-unclipped_-0p67.cube
TITLE "luminance-unclipped_-0p67"
LUT_3D_SIZE 33
# PQ (EOTF Only)/Rec2020 -> PQ (EOTF Only)/Rec2020, CineEI Shift -0.67, Black Level -7.25% IRE, Input 109% -> Output 109% - Created with LUTCalc v4.01 by Ben Turley October 2020
0.00047898 0.00047898 0.00047898
0.00047898 0.00047898 0.00047898
0.00047898 0.00047898 0.00047898
0.02952818 0.00047898 0.00047898
0.06014427 0.00047905 0.00047898
0.09157135 0.00047898 0.00047898
0.12358819 0.00047898 0.00047907
0.15607714 0.00047908 0.00047908
0.18896359 0.00047908 0.00047898
0.22219541 0.00047909 0.00047910
0.25573388 0.00047912 0.00047910
0.28954895 0.00047914 0.00047898
0.32361656 0.00047898 0.00047898
0.35791692 0.00047898 0.00047898
0.39243347 0.00047898 0.00047898
0.42715211 0.00047898 0.00047898
0.46206066 0.00047914 0.00047918
0.49714851 0.00047898 0.00047898
0.53240629 0.00047922 0.00047920
0.56782568 0.00047920 0.00047898
0.60339924 0.00047898 0.00047898
0.63912027 0.00047923 0.00047898
0.67498267 0.00047930 0.00047898
0.71098091 0.00047898 0.00047898
0.74710993 0.00047898 0.00047898
0.78336505 0.00047933 0.00047931
0.81974198 0.00047898 0.00047898
0.85623675 0.00047898 0.00047898
0.89284566 0.00047898 0.00047898
0.91886608 0.00047898 0.00047898
0.91886608 0.00047898 0.00047946
0.91886608 0.00047898 0.00047898
0.91886608 0.00047953 0.00047953
0.00047898 0.00047898 0.00047898
0.00047898 0.00047898 0.00047898
0.00047898 0.00047898 0.00047898
0.02952818 0.00047898 0.00047898
0.06014427 0.00047905 0.00047898
0.09157135 0.00047898 0.00047898
0.12358819 0.00047898 0.00047907
0.15607714 0.00047908 0.00047908
0.18896359 0.00047908 0.00047898
0.22219541 0.00047909 0.00047910
0.25573388 0.00047912 0.00047910
0.28954895 0.00047914 0.00047898
0.32361656 0.00047898 0.00047898
0.35791692 0.00047898 0.00047898
0.39243347 0.00047898 0.00047898
0.42715211 0.00047898 0.00047898
0.46206066 0.00047914 0.00047918
0.49714851 0.00047898 0.00047898
0.53240629 0.00047922 0.00047920
0.56782568 0.00047920 0.00047898
0.60339924 0.00047898 0.00047898
0.63912027 0.00047923 0.00047898
0.67498267 0.00047930 0.00047898
0.71098091 0.00047898 0.00047898
0.74710993 0.00047898 0.00047898
0.78336505 0.00047933 0.00047931
0.81974198 0.00047898 0.00047898
0.85623675 0.00047898 0.00047898
0.89284566 0.00047898 0.00047898
0.91886608 0.00047898 0.00047898
0.91886608 0.00047898 0.00047946
0.91886608 0.00047898 0.00047898
0.91886608 0.00047953 0.00047953
0.00047898 0.00047898 0.00047898
0.00047898 0.00047898 0.00047898
0.00047898 0.00047898 0.00047898
0.02952818 0.00047898 0.00047898
0.06014427 0.00047905 0.00047898
0.09157135 0.00047898 0.00047898
0.12358819 0.00047898 0.00047907
0.15607714 0.00047908 0.00047908
0.18896359 0.00047908 0.00047898
0.22219541 0.00047909 0.00047910
0.25573388 0.00047912 0.00047910
0.28954895 0.00047914 0.00047898
0.32361656 0.00047898 0.00047898
0.35791692 0.00047898 0.00047898
0.39243347 0.00047898 0.00047898
0.42715211 0.00047898 0.00047898
0.46206066 0.00047914 0.00047918
0.49714851 0.00047898 0.00047898
0.53240629 0.00047922 0.00047920
0.56782568 0.00047920 0.00047898
0.60339924 0.00047898 0.00047898
0.63912027 0.00047923 0.00047898
0.67498267 0.00047930 0.00047898
0.71098091 0.00047898 0.00047898
0.74710993 0.00047898 0.00047898
0.78336505 0.00047933 0.00047931
0.81974198 0.00047898 0.00047898
0.85623675 0.00047898 0.00047898
0.89284566 0.00047898 0.00047898
0.91886608 0.00047898 0.00047898
0.91886608 0.00047898 0.00047946
0.91886608 0.00047898 0.00047898
0.91886608 0.00047953 0.00047953
0.00047904 0.02952818 0.00047898
0.00047904 0.02952818 0.00047898
0.00047904 0.02952818 0.00047898
0.02952818 0.02952818 0.00047898
0.06014427 0.02952818 0.00047898
0.09157135 0.02952818 0.00047898
0.12358819 0.02952818 0.00047907
0.15607714 0.02952818 0.00047908
0.18896359 0.02952818 0.00047898
0.22219541 0.02952818 0.00047898
0.25573388 0.02952818 0.00047898
0.28954895 0.02952818 0.00047898
0.32361656 0.02952818 0.00047898
0.35791692 0.02952818 0.00047898
0.39243347 0.02952818 0.00047898
0.42715211 0.02952818 0.00047898
0.46206066 0.02952818 0.00047918
0.49714851 0.02952818 0.00047898
0.53240629 0.02952818 0.00047898
0.56782568 0.02952818 0.00047898
0.60339924 0.02952818 0.00047923
0.63912027 0.02952818 0.00047923
0.67498267 0.02952818 0.00047898
0.71098091 0.02952818 0.00047898
0.74710993 0.02952818 0.00047898
0.78336505 0.02952818 0.00047898
0.81974198 0.02952818 0.00047898
0.85623675 0.02952818 0.00047898
0.89284566 0.02952818 0.00047898
0.91886608 0.02952818 0.00047940
0.91886608 0.02952818 0.00047946
0.91886608 0.02952818 0.00047898
0.91886608 0.02952818 0.00047898
0.00047907 0.06014427 0.00047898
0.00047907 0.06014427 0.00047898
0.00047907 0.06014427 0.00047898
0.02952818 0.06014427 0.00047898
0.06014427 0.06014427 0.00047898
0.09157135 0.06014427 0.00047898
0.12358819 0.06014427 0.00047907
0.15607714 0.06014427 0.00047908
0.18896359 0.06014427 0.00047898
0.22219541 0.06014427 0.00047898
0.25573388 0.06014427 0.00047898
0.28954895 0.06014427 0.00047898
0.32361656 0.06014427 0.00047914
0.35791692 0.06014427 0.00047914
0.39243347 0.06014427 0.00047916
0.42715211 0.06014427 0.00047898
0.46206066 0.06014427 0.00047898
0.49714851 0.06014427 0.00047918
0.53240629 0.06014427 0.00047898
0.56782568 0.06014427 0.00047898
0.60339924 0.06014427 0.00047898
0.63912027 0.06014427 0.00047898
0.67498267 0.06014427 0.00047898
0.71098091 0.06014427 0.00047898
0.74710993 0.06014427 0.00047898
0.78336505 0.06014427 0.00047898
0.81974198 0.06014427 0.00047898
0.85623675 0.06014427 0.00047935
0.89284566 0.06014427 0.00047946
0.91886608 0.06014427 0.00047898
0.91886608 0.06014427 0.00047946
0.91886608 0.06014427 0.00047898
0.91886608 0.06014427 0.00047953
0.00047905 0.09157135 0.00047898
0.00047905 0.09157135 0.00047898
0.00047905 0.09157135 0.00047898
0.02952818 0.09157135 0.00047898
0.06014427 0.09157135 0.00047898
0.09157135 0.09157135 0.00047898
0.12358819 0.09157135 0.00047909
0.15607714 0.09157135 0.00047898
0.18896359 0.09157135 0.00047898
0.22219541 0.09157135 0.00047910
0.25573388 0.09157135 0.00047912
0.28954895 0.09157135 0.00047898
0.32361656 0.09157135 0.00047898
0.35791692 0.09157135 0.00047898
0.39243347 0.09157135 0.00047916
0.42715211 0.09157135 0.00047898
0.46206066 0.09157135 0.00047898
0.49714851 0.09157135 0.00047898
0.53240629 0.09157135 0.00047898
0.56782568 0.09157135 0.00047898
0.60339924 0.09157135 0.00047898
0.63912027 0.09157135 0.00047898
0.67498267 0.09157135 0.00047898
0.71098091 0.09157135 0.00047898
0.74710993 0.09157135 0.00047898
0.78336505 0.09157135 0.00047931
0.81974198 0.09157135 0.00047935
0.85623675 0.09157135 0.00047898
0.89284566 0.09157135 0.00047940
0.91886608 0.09157135 0.00047898
0.91886608 0.09157135 0.00047898
0.91886608 0.09157135 0.00047898
0.91886608 0.09157135 0.00047953
0.00047908 0.12358819 0.00047898
0.00047908 0.12358819 0.00047898
0.00047908 0.12358819 0.00047898
0.02952818 0.12358819 0.00047898
0.06014427 0.12358819 0.00047898
0.09157135 0.12358819 0.00047898
0.12358819 0.12358819 0.00047908
0.15607714 0.12358819 0.00047898
0.18896359 0.12358819 0.00047898
0.22219541 0.12358819 0.00047898
0.25573388 0.12358819 0.00047898
0.28954895 0.12358819 0.00047898
0.32361656 0.12358819 0.00047898
0.35791692 0.12358819 0.00047914
0.39243347 0.12358819 0.00047916
0.42715211 0.12358819 0.00047898
0.46206066 0.12358819 0.00047898
0.49714851 0.12358819 0.00047898
0.53240629 0.12358819 0.00047898
0.56782568 0.12358819 0.00047898
0.60339924 0.12358819 0.00047898
0.63912027 0.12358819 0.00047898
0.67498267 0.12358819 0.00047927
0.71098091 0.12358819 0.00047927
0.74710993 0.12358819 0.00047898
0.78336505 0.12358819 0.00047931
0.81974198 0.12358819 0.00047898
0.85623675 0.12358819 0.00047940
0.89284566 0.12358819 0.00047940
0.91886608 0.12358819 0.00047898
0.91886608 0.12358819 0.00047898
0.91886608 0.12358819 0.00047898
0.91886608 0.12358819 0.00047898
0.00047911 0.15607714 0.00047898
0.00047911 0.15607714 0.00047898
0.00047911 0.15607714 0.00047898
0.02952818 0.15607714 0.00047898
0.06014427 0.15607714 0.00047898
0.09157135 0.15607714 0.00047898
0.12358819 0.15607714 0.00047898
0.15607714 0.15607714 0.00047898
0.18896359 0.15607714 0.00047898
0.22219541 0.15607714 0.00047898
0.25573388 0.15607714 0.00047912
0.28954895 0.15607714 0.00047898
0.32361656 0.15607714 0.00047898
0.35791692 0.15607714 0.00047898
0.39243347 0.15607714 0.00047916
0.42715211 0.15607714 0.00047898
0.46206066 0.15607714 0.00047898
0.49714851 0.15607714 0.00047898
0.53240629 0.15607714 0.00047920
0.56782568 0.15607714 0.00047920
0.60339924 0.15607714 0.00047898
0.63912027 0.15607714 0.00047898
0.67498267 0.15607714 0.00047898
0.71098091 0.15607714 0.00047927
0.74710993 0.15607714 0.00047898
0.78336505 0.15607714 0.00047898
0.81974198 0.15607714 0.00047898
0.85623675 0.15607714 0.00047898
0.89284566 0.15607714 0.00047898
0.91886608 0.15607714 0.00047898
0.91886608 0.15607714 0.00047898
0.91886608 0.15607714 0.00047898
0.91886608 0.15607714 0.00047898
0.00047898 0.18896359 0.00047898
0.00047898 0.18896359 0.00047898
0.00047898 0.18896359 0.00047898
0.02952818 0.18896359 0.00047898
0.06014427 0.18896359 0.00047898
0.09157135 0.18896359 0.00047910
0.12358819 0.18896359 0.00047898
0.15607714 0.18896359 0.00047898
0.18896359 0.18896359 0.00047898
0.22219541 0.18896359 0.00047898
0.25573388 0.18896359 0.00047898
0.28954895 0.18896359 0.00047898
0.32361656 0.18896359 0.00047898
0.35791692 0.18896359 0.00047914
0.39243347 0.18896359 0.00047916
0.42715211 0.18896359 0.00047898
0.46206066 0.18896359 0.00047918
0.49714851 0.18896359 0.00047920
0.53240629 0.18896359 0.00047898
0.56782568 0.18896359 0.00047898
0.60339924 0.18896359 0.00047898
0.63912027 0.18896359 0.00047898
0.67498267 0.18896359 0.00047898
0.71098091 0.18896359 0.00047898
0.74710993 0.18896359 0.00047898
0.78336505 0.18896359 0.00047931
0.81974198 0.18896359 0.00047898
0.85623675 0.18896359 0.00047935
0.89284566 0.18896359 0.00047898
0.91886608 0.18896359 0.00047898
0.91886608 0.18896359 0.00047898
0.91886608 0.18896359 0.00047898
0.91886608 0.18896359 0.00047898
0.00047912 0.22219541 0.00047898
0.00047912 0.22219541 0.00047898
0.00047912 0.22219541 0.00047898
0.02952818 0.22219541 0.00047898
0.06014427 0.22219541 0.00047898
0.09157135 0.22219541 0.00047898
0.12358819 0.22219541 0.00047898
0.15607714 0.22219541 0.00047898
0.18896359 0.22219541 0.00047912
0.22219541 0.22219541 0.00047898
0.25573388 0.22219541 0.00047912
0.28954895 0.22219541 0.00047914
0.32361656 0.22219541 0.00047914
0.35791692 0.22219541 0.00047916
0.39243347 0.22219541 0.00047898
0.42715211 0.22219541 0.00047898
0.46206066 0.22219541 0.00047918
0.49714851 0.22219541 0.00047898
0.53240629 0.22219541 0.00047898
0.56782568 0.22219541 0.00047898
0.60339924 0.22219541 0.00047898
0.63912027 0.22219541 0.00047898
0.67498267 0.22219541 0.00047898
0.71098091 0.22219541 0.00047927
0.74710993 0.22219541 0.00047931
0.78336505 0.22219541 0.00047931
0.81974198 0.22219541 0.00047898
0.85623675 0.22219541 0.00047898
0.89284566 0.22219541 0.00047940
0.91886608 0.22219541 0.00047898
0.91886608 0.22219541 0.00047898
0.91886608 0.22219541 0.00047898
0.91886608 0.22219541 0.00047898
0.00047914 0.25573388 0.00047898
0.00047914 0.25573388 0.00047898
0.00047914 0.25573388 0.00047898
0.02952818 0.25573388 0.00047898
0.06014427 0.25573388 0.00047898
0.09157135 0.25573388 0.00047898
0.12358819 0.25573388 0.00047898
0.15607714 0.25573388 0.00047898
0.18896359 0.25573388 0.00047898
0.22219541 0.25573388 0.00047898
0.25573388 0.25573388 0.00047898
0.28954895 0.25573388 0.00047898
0.32361656 0.25573388 0.00047898
0.35791692 0.25573388 0.00047898
0.39243347 0.25573388 0.00047898
0.42715211 0.25573388 0.00047898
0.46206066 0.25573388 0.00047898
0.49714851 0.25573388 0.00047920
0.53240629 0.25573388 0.00047898
0.56782568 0.25573388 0.00047898
0.60339924 0.25573388 0.00047898
0.63912027 0.25573388 0.00047898
0.67498267 0.25573388 0.00047927
0.71098091 0.25573388 0.00047927
0.74710993 0.25573388 0.00047898
0.78336505 0.25573388 0.00047931
0.81974198 0.25573388 0.00047898
0.85623675 0.25573388 0.00047898
0.89284566 0.25573388 0.00047898
0.91886608 0.25573388 0.00047898
0.91886608 0.25573388 0.00047898
0.91886608 0.25573388 0.00047898
0.91886608 0.25573388 0.00047898
0.00047917 0.28954895 0.00047898
0.00047917 0.28954895 0.00047898
0.00047917 0.28954895 0.00047898
0.02952818 0.28954895 0.00047898
0.06014427 0.28954895 0.00047898
0.09157135 0.28954895 0.00047898
0.12358819 0.28954895 0.00047898
0.15607714 0.28954895 0.00047898
0.18896359 0.28954895 0.00047898
0.22219541 0.28954895 0.00047898
0.25573388 0.28954895 0.00047898
0.28954895 0.28954895 0.00047914
0.32361656 0.28954895 0.00047898
0.35791692 0.28954895 0.00047898
0.39243347 0.28954895 0.00047916
0.42715211 0.28954895 0.00047898
0.46206066 0.28954895 0.00047898
0.49714851 0.28954895 0.00047898
0.53240629 0.28954895 0.00047898
0.56782568 0.28954895 0.00047898
0.60339924 0.28954895 0.00047923
0.63912027 0.28954895 0.00047898
0.67498267 0.28954895 0.00047898
0.71098091 0.28954895 0.00047927
0.74710993 0.28954895 0.00047898
0.78336505 0.28954895 0.00047931
0.81974198 0.28954895 0.00047898
0.85623675 0.28954895 0.00047898
0.89284566 0.28954895 0.00047898
0.91886608 0.28954895 0.00047898
0.91886608 0.28954895 0.00047898
0.91886608 0.28954895 0.00047898
0.91886608 0.28954895 0.00047898
0.00047913 0.32361656 0.00047914
0.00047913 0.32361656 0.00047914
0.00047913 0.32361656 0.00047914
0.02952818 0.32361656 0.00047914
0.06014427 0.32361656 0.00047914
0.09157135 0.32361656 0.00047914
0.12358819 0.32361656 0.00047898
0.15607714 0.32361656 0.00047898
0.18896359 0.32361656 0.00047898
0.22219541 0.32361656 0.00047914
0.25573388 0.32361656 0.00047898
0.28954895 0.32361656 0.00047898
0.32361656 0.32361656 0.00047898
0.35791692 0.32361656 0.00047898
0.39243347 0.32361656 0.00047898
0.42715211 0.32361656 0.00047898
0.46206066 0.32361656 0.00047918
0.49714851 0.32361656 0.00047898
0.53240629 0.32361656 0.00047898
0.56782568 0.32361656 0.00047898
0.60339924 0.32361656 0.00047898
0.63912027 0.32361656 0.00047898
0.67498267 0.32361656 0.00047927
0.71098091 0.32361656 0.00047898
0.74710993 0.32361656 0.00047898
0.78336505 0.32361656 0.00047898
0.81974198 0.32361656 0.00047935
0.85623675 0.32361656 0.00047935
0.89284566 0.32361656 0.00047898
0.91886608 0.32361656 0.00047898
0.91886608 0.32361656 0.00047898
0.91886608 0.32361656 0.00047898
0.91886608 0.32361656 0.00047953
0.00047910 0.35791692 0.00047898
0.00047910 0.35791692 0.00047898
0.00047910 0.35791692 0.00047898
0.02952818 0.35791692 0.00047898
0.06014427 0.35791692 0.00047898
0.09157135 0.35791692 0.00047898
0.12358819 0.35791692 0.00047916
0.15607714 0.35791692 0.00047898
0.18896359 0.35791692 0.00047898
0.22219541 0.35791692 0.00047898
0.25573388 0.35791692 0.00047916
0.28954895 0.35791692 0.00047898
0.32361656 0.35791692 0.00047898
0.35791692 0.35791692 0.00047898
0.39243347 0.35791692 0.00047898
0.42715211 0.35791692 0.00047898
0.46206066 0.35791692 0.00047918
0.49714851 0.35791692 0.00047898
0.53240629 0.35791692 0.00047920
0.56782568 0.35791692 0.00047898
0.60339924 0.35791692 0.00047898
0.63912027 0.35791692 0.00047898
0.67498267 0.35791692 0.00047898
0.71098091 0.35791692 0.00047898
0.74710993 0.35791692 0.00047898
0.78336505 0.35791692 0.00047898
0.81974198 0.35791692 0.00047898
0.85623675 0.35791692 0.00047898
0.89284566 0.35791692 0.00047898
0.91886608 0.35791692 0.00047898
0.91886608 0.35791692 0.00047898
0.91886608 0.35791692 0.00047898
0.91886608 0.35791692 0.00047953
0.00047915 0.39243347 0.00047898
0.00047915 0.39243347 0.00047898
0.00047915 0.39243347 0.00047898
0.02952818 0.39243347 0.00047898
0.06014427 0.39243347 0.00047898
0.09157135 0.39243347 0.00047898
0.12358819 0.39243347 0.00047898
0.15607714 0.39243347 0.00047898
0.18896359 0.39243347 0.00047898
0.22219541 0.39243347 0.00047898
0.25573388 0.39243347 0.00047916
0.28954895 0.39243347 0.00047898
0.32361656 0.39243347 0.00047898
0.35791692 0.39243347 0.00047898
0.39243347 0.39243347 0.00047898
0.42715211 0.39243347 0.00047918
0.46206066 0.39243347 0.00047898
0.49714851 0.39243347 0.00047920
0.53240629 0.39243347 0.00047898
0.56782568 0.39243347 0.00047898
0.60339924 0.39243347 0.00047898
0.63912027 0.39243347 0.00047898
0.67498267 0.39243347 0.00047898
0.71098091 0.39243347 0.00047898
0.74710993 0.39243347 0.00047898
0.78336505 0.39243347 0.00047898
0.81974198 0.39243347 0.00047898
0.85623675 0.39243347 0.00047898
0.89284566 0.39243347 0.00047940
0.91886608 0.39243347 0.00047898
0.91886608 0.39243347 0.00047898
0.91886608 0.39243347 0.00047898
0.91886608 0.39243347 0.00047898
0.00047921 0.42715211 0.00047898
0.00047921 0.42715211 0.00047898
0.00047921 0.42715211 0.00047898
0.02952818 0.42715211 0.00047898
0.06014427 0.42715211 0.00047898
0.09157135 0.42715211 0.00047898
0.12358819 0.42715211 0.00047898
0.15607714 0.42715211 0.00047898
0.18896359 0.42715211 0.00047898
0.22219541 0.42715211 0.00047898
0.25573388 0.42715211 0.00047898
0.28954895 0.42715211 0.00047898
0.32361656 0.42715211 0.00047918
0.35791692 0.42715211 0.00047898
0.39243347 0.42715211 0.00047898
0.42715211 0.42715211 0.00047898
0.46206066 0.42715211 0.00047898
0.49714851 0.42715211 0.00047898
0.53240629 0.42715211 0.00047898
0.56782568 0.42715211 0.00047898
0.60339924 0.42715211 0.00047898
0.63912027 0.42715211 0.00047898
0.67498267 0.42715211 0.00047927
0.71098091 0.42715211 0.00047931
0.74710993 0.42715211 0.00047898
0.78336505 0.42715211 0.00047898
0.81974198 0.42715211 0.00047898
0.85623675 0.42715211 0.00047898
0.89284566 0.42715211 0.00047940
0.91886608 0.42715211 0.00047898
0.91886608 0.42715211 0.00047898
0.91886608 0.42715211 0.00047898
0.91886608 0.42715211 0.00047953
0.00047898 0.46206066 0.00047918
0.00047898 0.46206066 0.00047918
0.00047898 0.46206066 0.00047918
0.02952818 0.46206066 0.00047898
0.06014427 0.46206066 0.00047918
0.09157135 0.46206066 0.00047918
0.12358819 0.46206066 0.00047898
0.15607714 0.46206066 0.00047898
0.18896359 0.46206066 0.00047898
0.22219541 0.46206066 0.00047898
0.25573388 0.46206066 0.00047898
0.28954895 0.46206066 0.00047898
0.32361656 0.46206066 0.00047898
0.35791692 0.46206066 0.00047898
0.39243347 0.46206066 0.00047898
0.42715211 0.46206066 0.00047920
0.46206066 0.46206066 0.00047898
0.49714851 0.46206066 0.00047898
0.53240629 0.46206066 0.00047898
0.56782568 0.46206066 0.00047923
0.60339924 0.46206066 0.00047898
0.63912027 0.46206066 0.00047898
0.67498267 0.46206066 0.00047898
0.71098091 0.46206066 0.00047898
0.74710993 0.46206066 0.00047898
0.78336505 0.46206066 0.00047898
0.81974198 0.46206066 0.00047898
0.85623675 0.46206066 0.00047898
0.89284566 0.46206066 0.00047898
0.91886608 0.46206066 0.00047898
0.91886608 0.46206066 0.00047898
0.91886608 0.46206066 0.00047898
0.91886608 0.46206066 0.00047898
0.00047923 0.49714851 0.00047898
0.00047923 0.49714851 0.00047898
0.00047923 0.49714851 0.00047898
0.02952818 0.49714851 0.00047898
0.06014427 0.49714851 0.00047898
0.09157135 0.49714851 0.00047898
0.12358819 0.49714851 0.00047898
0.15607714 0.49714851 0.00047898
0.18896359 0.49714851 0.00047898
0.22219541 0.49714851 0.00047920
0.25573388 0.49714851 0.00047920
0.28954895 0.49714851 0.00047920
0.32361656 0.49714851 0.00047898
0.35791692 0.49714851 0.00047920
0.39243347 0.49714851 0.00047920
0.42715211 0.49714851 0.00047898
0.46206066 0.49714851 0.00047920
0.49714851 0.49714851 0.00047923
0.53240629 0.49714851 0.00047923
0.56782568 0.49714851 0.00047923
0.60339924 0.49714851 0.00047898
0.63912027 0.49714851 0.00047898
0.67498267 0.49714851 0.00047898
0.71098091 0.49714851 0.00047898
0.74710993 0.49714851 0.00047931
0.78336505 0.49714851 0.00047898
0.81974198 0.49714851 0.00047898
0.85623675 0.49714851 0.00047935
0.89284566 0.49714851 0.00047898
0.91886608 0.49714851 0.00047898
0.91886608 0.49714851 0.00047898
0.91886608 0.49714851 0.00047898
0.91886608 0.49714851 0.00047898
0.00047921 0.53240629 0.00047898
0.00047921 0.53240629 0.00047898
0.00047921 0.53240629 0.00047898
0.02952818 0.53240629 0.00047898
0.06014427 0.53240629 0.00047898
0.09157135 0.53240629 0.00047898
0.12358819 0.53240629 0.00047898
0.15607714 0.53240629 0.00047898
0.18896359 0.53240629 0.00047898
0.22219541 0.53240629 0.00047898
0.25573388 0.53240629 0.00047898
0.28954895 0.53240629 0.00047898
0.32361656 0.53240629 0.00047898
0.35791692 0.53240629 0.00047898
0.39243347 0.53240629 0.00047898
0.42715211 0.53240629 0.00047923
0.46206066 0.53240629 0.00047898
0.49714851 0.53240629 0.00047898
0.53240629 0.53240629 0.00047923
0.56782568 0.53240629 0.00047898
0.60339924 0.53240629 0.00047898
0.63912027 0.53240629 0.00047898
0.67498267 0.53240629 0.00047927
0.71098091 0.53240629 0.00047898
0.74710993 0.53240629 0.00047898
0.78336505 0.53240629 0.00047898
0.81974198 0.53240629 0.00047898
0.85623675 0.53240629 0.00047898
0.89284566 0.53240629 0.00047898
0.91886608 0.53240629 0.00047898
0.91886608 0.53240629 0.00047898
0.91886608 0.53240629 0.00047898
0.91886608 0.53240629 0.00047898
0.00047927 0.56782568 0.00047898
0.00047927 0.56782568 0.00047898
0.00047927 0.56782568 0.00047898
0.02952818 0.56782568 0.00047898
0.06014427 0.56782568 0.00047898
0.09157135 0.56782568 0.00047898
0.12358819 0.56782568 0.00047898
0.15607714 0.56782568 0.00047898
0.18896359 0.56782568 0.00047898
0.22219541 0.56782568 0.00047898
0.25573388 0.56782568 0.00047898
0.28954895 0.56782568 0.00047923
0.32361656 0.56782568 0.00047898
0.35791692 0.56782568 0.00047898
0.39243347 0.56782568 0.00047898
0.42715211 0.56782568 0.00047923
0.46206066 0.56782568 0.00047923
0.49714851 0.56782568 0.00047898
0.53240629 0.56782568 0.00047927
0.56782568 0.56782568 0.00047898
0.60339924 0.56782568 0.00047898
0.63912027 0.56782568 0.00047898
0.67498267 0.56782568 0.00047931
0.71098091 0.56782568 0.00047898
0.74710993 0.56782568 0.00047898
0.78336505 0.56782568 0.00047898
0.81974198 0.56782568 0.00047935
0.85623675 0.56782568 0.00047898
0.89284566 0.56782568 0.00047940
0.91886608 0.56782568 0.00047898
0.91886608 0.56782568 0.00047898
0.91886608 0.56782568 0.00047946
0.91886608 0.56782568 0.00047898
0.00047925 0.60339924 0.00047898
0.00047925 0.60339924 0.00047898
0.00047925 0.60339924 0.00047898
0.02952818 0.60339924 0.00047898
0.06014427 0.60339924 0.00047923
0.09157135 0.60339924 0.00047923
0.12358819 0.60339924 0.00047898
0.15607714 0.60339924 0.00047898
0.18896359 0.60339924 0.00047927
0.22219541 0.60339924 0.00047898
0.25573388 0.60339924 0.00047923
0.28954895 0.60339924 0.00047898
0.32361656 0.60339924 0.00047898
0.35791692 0.60339924 0.00047898
0.39243347 0.60339924 0.00047898
0.42715211 0.60339924 0.00047898
0.46206066 0.60339924 0.00047898
0.49714851 0.60339924 0.00047898
0.53240629 0.60339924 0.00047927
0.56782568 0.60339924 0.00047898
0.60339924 0.60339924 0.00047898
0.63912027 0.60339924 0.00047898
0.67498267 0.60339924 0.00047898
0.71098091 0.60339924 0.00047931
0.74710993 0.60339924 0.00047898
0.78336505 0.60339924 0.00047898
0.81974198 0.60339924 0.00047935
0.85623675 0.60339924 0.00047898
0.89284566 0.60339924 0.00047898
0.91886608 0.60339924 0.00047898
0.91886608 0.60339924 0.00047946
0.91886608 0.60339924 0.00047953
0.91886608 0.60339924 0.00047898
0.00047927 0.63912027 0.00047898
0.00047927 0.63912027 0.00047898
0.00047927 0.63912027 0.00047898
0.02952818 0.63912027 0.00047898
0.06014427 0.63912027 0.00047898
0.09157135 0.63912027 0.00047927
0.12358819 0.63912027 0.00047898
0.15607714 0.63912027 0.00047927
0.18896359 0.63912027 0.00047898
0.22219541 0.63912027 0.00047898
0.25573388 0.63912027 0.00047898
0.28954895 0.63912027 0.00047898
0.32361656 0.63912027 0.00047898
0.35791692 0.63912027 0.00047898
0.39243347 0.63912027 0.00047898
0.42715211 0.63912027 0.00047898
0.46206066 0.63912027 0.00047898
0.49714851 0.63912027 0.00047898
0.53240629 0.63912027 0.00047898
0.56782568 0.63912027 0.00047898
0.60339924 0.63912027 0.00047927
0.63912027 0.63912027 0.00047898
0.67498267 0.63912027 0.00047898
0.71098091 0.63912027 0.00047898
0.74710993 0.63912027 0.00047898
0.78336505 0.63912027 0.00047898
0.81974198 0.63912027 0.00047898
