src/ffmpeg_scripts/luts/luminance_-0p33.cube
TITLE "luminance_-0p33"
LUT_3D_SIZE 33
# PQ (EOTF Only)/Rec2020 -> PQ (EOTF Only)/Rec2020, CineEI Shift -0.33, Black Level 0.00% IRE, Input 109% -> Output 109% - Created with LUTCalc v4.01 by Ben Turley October 2020
0.06256172 0.06256172 0.06256172
0.06256172 0.06256172 0.06256172
0.06256172 0.06256172 0.06256172
0.09054719 0.06256172 0.06256172
0.11931411 0.06256178 0.06256172
0.14845976 0.06256172 0.06256172
0.17787694 0.06256179 0.06256179
0.20750926 0.06256180 0.06256172
0.23732126 0.06256172 0.06256172
0.26728832 0.06256172 0.06256172
0.29739226 0.06256172 0.06256172
0.32761904 0.06256183 0.06256172
0.35795743 0.06256172 0.06256185
0.38839828 0.06256182 0.06256187
0.41893394 0.06256184 0.06256172
0.44955789 0.06256172 0.06256172
0.48026455 0.06256187 0.06256191
0.51104906 0.06256172 0.06256191
0.54190714 0.06256191 0.06256191
0.57283500 0.06256195 0.06256172
0.60382925 0.06256172 0.06256172
0.63488685 0.06256200 0.06256197
0.66600504 0.06256172 0.06256172
0.69718133 0.06256172 0.06256172
0.72841341 0.06256172 0.06256172
0.75969920 0.06256172 0.06256204
0.79103677 0.06256200 0.06256172
0.82242432 0.06256204 0.06256172
0.85386020 0.06256212 0.06256172
0.88534287 0.06256172 0.06256172
0.91687090 0.06256204 0.06256172
0.91886608 0.06256172 0.06256172
0.91886608 0.06256213 0.06256219
0.06256172 0.06256172 0.06256172
0.06256172 0.06256172 0.06256172
0.06256172 0.06256172 0.06256172
0.09054719 0.06256172 0.06256172
0.11931411 0.06256178 0.06256172
0.14845976 0.06256172 0.06256172
0.17787694 0.06256179 0.06256179
0.20750926 0.06256180 0.06256172
0.23732126 0.06256172 0.06256172
0.26728832 0.06256172 0.06256172
0.29739226 0.06256172 0.06256172
0.32761904 0.06256183 0.06256172
0.35795743 0.06256172 0.06256185
0.38839828 0.06256182 0.06256187
0.41893394 0.06256184 0.06256172
0.44955789 0.06256172 0.06256172
0.48026455 0.06256187 0.06256191
0.51104906 0.06256172 0.06256191
0.54190714 0.06256191 0.06256191
0.57283500 0.06256195 0.06256172
0.60382925 0.06256172 0.06256172
0.63488685 0.06256200 0.06256197
0.66600504 0.06256172 0.06256172
0.69718133 0.06256172 0.06256172
0.72841341 0.06256172 0.06256172
0.75969920 0.06256172 0.06256204
0.79103677 0.06256200 0.06256172
0.82242432 0.06256204 0.06256172
0.85386020 0.06256212 0.06256172
0.88534287 0.06256172 0.06256172
0.91687090 0.06256204 0.06256172
0.91886608 0.06256172 0.06256172
0.91886608 0.06256213 0.06256219
0.06256172 0.06256172 0.06256172
0.06256172 0.06256172 0.06256172
0.06256172 0.06256172 0.06256172
0.09054719 0.06256172 0.06256172
0.11931411 0.06256178 0.06256172
0.14845976 0.06256172 0.06256172
0.17787694 0.06256179 0.06256179
0.20750926 0.06256180 0.06256172
0.23732126 0.06256172 0.06256172
0.26728832 0.06256172 0.06256172
0.29739226 0.06256172 0.06256172
0.32761904 0.06256183 0.06256172
0.35795743 0.06256172 0.06256185
0.38839828 0.06256182 0.06256187
0.41893394 0.06256184 0.06256172
0.44955789 0.06256172 0.06256172
0.48026455 0.06256187 0.06256191
0.51104906 0.06256172 0.06256191
0.54190714 0.06256191 0.06256191
0.57283500 0.06256195 0.06256172
0.60382925 0.06256172 0.06256172
0.63488685 0.06256200 0.06256197
0.66600504 0.06256172 0.06256172
0.69718133 0.06256172 0.06256172
0.72841341 0.06256172 0.06256172
0.75969920 0.06256172 0.06256204
0.79103677 0.06256200 0.06256172
0.82242432 0.06256204 0.06256172
0.85386020 0.06256212 0.06256172
0.88534287 0.06256172 0.06256172
0.91687090 0.06256204 0.06256172
0.91886608 0.06256172 0.06256172
0.91886608 0.06256213 0.06256219
0.06256177 0.09054719 0.06256172
0.06256177 0.09054719 0.06256172
0.06256177 0.09054719 0.06256172
0.09054719 0.09054719 0.06256172
0.11931411 0.09054719 0.06256172
0.14845976 0.09054719 0.06256172
0.17787694 0.09054719 0.06256172
0.20750926 0.09054719 0.06256172
0.23732126 0.09054719 0.06256172
0.26728832 0.09054719 0.06256182
0.29739226 0.09054719 0.06256172
0.32761904 0.09054719 0.06256172
0.35795743 0.09054719 0.06256172
0.38839828 0.09054719 0.06256172
0.41893394 0.09054719 0.06256187
0.44955789 0.09054719 0.06256172
0.48026455 0.09054719 0.06256191
0.51104906 0.09054719 0.06256172
0.54190714 0.09054719 0.06256172
0.57283500 0.09054719 0.06256172
0.60382925 0.09054719 0.06256194
0.63488685 0.09054719 0.06256172
0.66600504 0.09054719 0.06256197
0.69718133 0.09054719 0.06256172
0.72841341 0.09054719 0.06256172
0.75969920 0.09054719 0.06256172
0.79103677 0.09054719 0.06256172
0.82242432 0.09054719 0.06256172
0.85386020 0.09054719 0.06256172
0.88534287 0.09054719 0.06256172
0.91687090 0.09054719 0.06256219
0.91886608 0.09054719 0.06256172
0.91886608 0.09054719 0.06256227
0.06256179 0.11931411 0.06256172
0.06256179 0.11931411 0.06256172
0.06256179 0.11931411 0.06256172
0.09054719 0.11931411 0.06256172
0.11931411 0.11931411 0.06256172
0.14845976 0.11931411 0.06256172
0.17787694 0.11931411 0.06256181
0.20750926 0.11931411 0.06256181
0.23732126 0.11931411 0.06256172
0.26728832 0.11931411 0.06256182
0.29739226 0.11931411 0.06256172
0.32761904 0.11931411 0.06256184
0.35795743 0.11931411 0.06256172
0.38839828 0.11931411 0.06256172
0.41893394 0.11931411 0.06256187
0.44955789 0.11931411 0.06256172
0.48026455 0.11931411 0.06256172
0.51104906 0.11931411 0.06256191
0.54190714 0.11931411 0.06256172
0.57283500 0.11931411 0.06256172
0.60382925 0.11931411 0.06256172
0.63488685 0.11931411 0.06256172
0.66600504 0.11931411 0.06256172
0.69718133 0.11931411 0.06256200
0.72841341 0.11931411 0.06256172
0.75969920 0.11931411 0.06256172
0.79103677 0.11931411 0.06256204
0.82242432 0.11931411 0.06256172
0.85386020 0.11931411 0.06256208
0.88534287 0.11931411 0.06256172
0.91687090 0.11931411 0.06256172
0.91886608 0.11931411 0.06256172
0.91886608 0.11931411 0.06256172
0.06256172 0.14845976 0.06256172
0.06256172 0.14845976 0.06256172
0.06256172 0.14845976 0.06256172
0.09054719 0.14845976 0.06256172
0.11931411 0.14845976 0.06256172
0.14845976 0.14845976 0.06256172
0.17787694 0.14845976 0.06256180
0.20750926 0.14845976 0.06256181
0.23732126 0.14845976 0.06256182
0.26728832 0.14845976 0.06256182
0.29739226 0.14845976 0.06256172
0.32761904 0.14845976 0.06256172
0.35795743 0.14845976 0.06256172
0.38839828 0.14845976 0.06256172
0.41893394 0.14845976 0.06256172
0.44955789 0.14845976 0.06256172
0.48026455 0.14845976 0.06256172
0.51104906 0.14845976 0.06256172
0.54190714 0.14845976 0.06256172
0.57283500 0.14845976 0.06256172
0.60382925 0.14845976 0.06256194
0.63488685 0.14845976 0.06256197
0.66600504 0.14845976 0.06256172
0.69718133 0.14845976 0.06256172
0.72841341 0.14845976 0.06256172
0.75969920 0.14845976 0.06256172
0.79103677 0.14845976 0.06256204
0.82242432 0.14845976 0.06256172
0.85386020 0.14845976 0.06256208
0.88534287 0.14845976 0.06256172
0.91687090 0.14845976 0.06256172
0.91886608 0.14845976 0.06256172
0.91886608 0.14845976 0.06256219
0.06256177 0.17787694 0.06256172
0.06256177 0.17787694 0.06256172
0.06256177 0.17787694 0.06256172
0.09054719 0.17787694 0.06256172
0.11931411 0.17787694 0.06256172
0.14845976 0.17787694 0.06256172
0.17787694 0.17787694 0.06256172
0.20750926 0.17787694 0.06256181
0.23732126 0.17787694 0.06256172
0.26728832 0.17787694 0.06256182
0.29739226 0.17787694 0.06256172
0.32761904 0.17787694 0.06256172
0.35795743 0.17787694 0.06256172
0.38839828 0.17787694 0.06256172
0.41893394 0.17787694 0.06256189
0.44955789 0.17787694 0.06256189
0.48026455 0.17787694 0.06256172
0.51104906 0.17787694 0.06256191
0.54190714 0.17787694 0.06256172
0.57283500 0.17787694 0.06256172
0.60382925 0.17787694 0.06256172
0.63488685 0.17787694 0.06256172
0.66600504 0.17787694 0.06256197
0.69718133 0.17787694 0.06256172
0.72841341 0.17787694 0.06256172
0.75969920 0.17787694 0.06256172
0.79103677 0.17787694 0.06256204
0.82242432 0.17787694 0.06256172
0.85386020 0.17787694 0.06256172
0.88534287 0.17787694 0.06256172
0.91687090 0.17787694 0.06256213
0.91886608 0.17787694 0.06256172
0.91886608 0.17787694 0.06256172
0.06256183 0.20750926 0.06256172
0.06256183 0.20750926 0.06256172
0.06256183 0.20750926 0.06256172
0.09054719 0.20750926 0.06256172
0.11931411 0.20750926 0.06256172
0.14845976 0.20750926 0.06256172
0.17787694 0.20750926 0.06256172
0.20750926 0.20750926 0.06256172
0.23732126 0.20750926 0.06256172
0.26728832 0.20750926 0.06256172
0.29739226 0.20750926 0.06256184
0.32761904 0.20750926 0.06256172
0.35795743 0.20750926 0.06256172
0.38839828 0.20750926 0.06256187
0.41893394 0.20750926 0.06256187
0.44955789 0.20750926 0.06256172
0.48026455 0.20750926 0.06256172
0.51104906 0.20750926 0.06256191
0.54190714 0.20750926 0.06256191
0.57283500 0.20750926 0.06256172
0.60382925 0.20750926 0.06256172
0.63488685 0.20750926 0.06256172
0.66600504 0.20750926 0.06256172
0.69718133 0.20750926 0.06256172
0.72841341 0.20750926 0.06256172
0.75969920 0.20750926 0.06256172
0.79103677 0.20750926 0.06256172
0.82242432 0.20750926 0.06256172
0.85386020 0.20750926 0.06256172
0.88534287 0.20750926 0.06256172
0.91687090 0.20750926 0.06256172
0.91886608 0.20750926 0.06256172
0.91886608 0.20750926 0.06256172
0.06256183 0.23732126 0.06256172
0.06256183 0.23732126 0.06256172
0.06256183 0.23732126 0.06256172
0.09054719 0.23732126 0.06256182
0.11931411 0.23732126 0.06256172
0.14845976 0.23732126 0.06256172
0.17787694 0.23732126 0.06256172
0.20750926 0.23732126 0.06256172
0.23732126 0.23732126 0.06256172
0.26728832 0.23732126 0.06256172
0.29739226 0.23732126 0.06256184
0.32761904 0.23732126 0.06256172
0.35795743 0.23732126 0.06256172
0.38839828 0.23732126 0.06256172
0.41893394 0.23732126 0.06256172
0.44955789 0.23732126 0.06256172
0.48026455 0.23732126 0.06256189
0.51104906 0.23732126 0.06256172
0.54190714 0.23732126 0.06256172
0.57283500 0.23732126 0.06256172
0.60382925 0.23732126 0.06256172
0.63488685 0.23732126 0.06256172
0.66600504 0.23732126 0.06256172
0.69718133 0.23732126 0.06256172
0.72841341 0.23732126 0.06256172
0.75969920 0.23732126 0.06256172
0.79103677 0.23732126 0.06256172
0.82242432 0.23732126 0.06256172
0.85386020 0.23732126 0.06256172
0.88534287 0.23732126 0.06256172
0.91687090 0.23732126 0.06256172
0.91886608 0.23732126 0.06256172
0.91886608 0.23732126 0.06256172
0.06256184 0.26728832 0.06256172
0.06256184 0.26728832 0.06256172
0.06256184 0.26728832 0.06256172
0.09054719 0.26728832 0.06256172
0.11931411 0.26728832 0.06256172
0.14845976 0.26728832 0.06256172
0.17787694 0.26728832 0.06256172
0.20750926 0.26728832 0.06256172
0.23732126 0.26728832 0.06256172
0.26728832 0.26728832 0.06256172
0.29739226 0.26728832 0.06256172
0.32761904 0.26728832 0.06256185
0.35795743 0.26728832 0.06256172
0.38839828 0.26728832 0.06256187
0.41893394 0.26728832 0.06256172
0.44955789 0.26728832 0.06256172
0.48026455 0.26728832 0.06256189
0.51104906 0.26728832 0.06256191
0.54190714 0.26728832 0.06256191
0.57283500 0.26728832 0.06256194
0.60382925 0.26728832 0.06256172
0.63488685 0.26728832 0.06256172
0.66600504 0.26728832 0.06256172
0.69718133 0.26728832 0.06256200
0.72841341 0.26728832 0.06256200
0.75969920 0.26728832 0.06256204
0.79103677 0.26728832 0.06256172
0.82242432 0.26728832 0.06256172
0.85386020 0.26728832 0.06256208
0.88534287 0.26728832 0.06256172
0.91687090 0.26728832 0.06256213
0.91886608 0.26728832 0.06256172
0.91886608 0.26728832 0.06256172
0.06256186 0.29739226 0.06256172
0.06256186 0.29739226 0.06256172
0.06256186 0.29739226 0.06256172
0.09054719 0.29739226 0.06256172
0.11931411 0.29739226 0.06256172
0.14845976 0.29739226 0.06256172
0.17787694 0.29739226 0.06256172
0.20750926 0.29739226 0.06256172
0.23732126 0.29739226 0.06256172
0.26728832 0.29739226 0.06256172
0.29739226 0.29739226 0.06256172
0.32761904 0.29739226 0.06256172
0.35795743 0.29739226 0.06256172
0.38839828 0.29739226 0.06256187
0.41893394 0.29739226 0.06256172
0.44955789 0.29739226 0.06256172
0.48026455 0.29739226 0.06256172
0.51104906 0.29739226 0.06256172
0.54190714 0.29739226 0.06256172
0.57283500 0.29739226 0.06256172
0.60382925 0.29739226 0.06256172
0.63488685 0.29739226 0.06256172
0.66600504 0.29739226 0.06256172
0.69718133 0.29739226 0.06256172
0.72841341 0.29739226 0.06256172
0.75969920 0.29739226 0.06256204
0.79103677 0.29739226 0.06256172
0.82242432 0.29739226 0.06256172
0.85386020 0.29739226 0.06256172
0.88534287 0.29739226 0.06256172
0.91687090 0.29739226 0.06256172
0.91886608 0.29739226 0.06256172
0.91886608 0.29739226 0.06256172
0.06256184 0.32761904 0.06256172
0.06256184 0.32761904 0.06256172
0.06256184 0.32761904 0.06256172
0.09054719 0.32761904 0.06256172
0.11931411 0.32761904 0.06256172
0.14845976 0.32761904 0.06256172
0.17787694 0.32761904 0.06256172
0.20750926 0.32761904 0.06256172
0.23732126 0.32761904 0.06256172
0.26728832 0.32761904 0.06256172
0.29739226 0.32761904 0.06256172
0.32761904 0.32761904 0.06256187
0.35795743 0.32761904 0.06256172
0.38839828 0.32761904 0.06256172
0.41893394 0.32761904 0.06256172
0.44955789 0.32761904 0.06256172
0.48026455 0.32761904 0.06256172
0.51104906 0.32761904 0.06256172
0.54190714 0.32761904 0.06256172
0.57283500 0.32761904 0.06256172
0.60382925 0.32761904 0.06256172
0.63488685 0.32761904 0.06256172
0.66600504 0.32761904 0.06256197
0.69718133 0.32761904 0.06256172
0.72841341 0.32761904 0.06256172
0.75969920 0.32761904 0.06256172
0.79103677 0.32761904 0.06256172
0.82242432 0.32761904 0.06256172
0.85386020 0.32761904 0.06256172
0.88534287 0.32761904 0.06256172
0.91687090 0.32761904 0.06256213
0.91886608 0.32761904 0.06256172
0.91886608 0.32761904 0.06256172
0.06256188 0.35795743 0.06256185
0.06256188 0.35795743 0.06256185
0.06256188 0.35795743 0.06256185
0.09054719 0.35795743 0.06256172
0.11931411 0.35795743 0.06256172
0.14845976 0.35795743 0.06256187
0.17787694 0.35795743 0.06256187
0.20750926 0.35795743 0.06256172
0.23732126 0.35795743 0.06256172
0.26728832 0.35795743 0.06256187
0.29739226 0.35795743 0.06256172
0.32761904 0.35795743 0.06256172
0.35795743 0.35795743 0.06256187
0.38839828 0.35795743 0.06256172
0.41893394 0.35795743 0.06256172
0.44955789 0.35795743 0.06256172
0.48026455 0.35795743 0.06256191
0.51104906 0.35795743 0.06256172
0.54190714 0.35795743 0.06256191
0.57283500 0.35795743 0.06256172
0.60382925 0.35795743 0.06256172
0.63488685 0.35795743 0.06256172
0.66600504 0.35795743 0.06256197
0.69718133 0.35795743 0.06256172
0.72841341 0.35795743 0.06256172
0.75969920 0.35795743 0.06256204
0.79103677 0.35795743 0.06256172
0.82242432 0.35795743 0.06256208
0.85386020 0.35795743 0.06256208
0.88534287 0.35795743 0.06256172
0.91687090 0.35795743 0.06256213
0.91886608 0.35795743 0.06256172
0.91886608 0.35795743 0.06256172
0.06256188 0.38839828 0.06256172
0.06256188 0.38839828 0.06256172
0.06256188 0.38839828 0.06256172
0.09054719 0.38839828 0.06256187
0.11931411 0.38839828 0.06256172
0.14845976 0.38839828 0.06256172
0.17787694 0.38839828 0.06256187
0.20750926 0.38839828 0.06256172
0.23732126 0.38839828 0.06256172
0.26728832 0.38839828 0.06256172
0.29739226 0.38839828 0.06256187
0.32761904 0.38839828 0.06256172
0.35795743 0.38839828 0.06256172
0.38839828 0.38839828 0.06256189
0.41893394 0.38839828 0.06256172
0.44955789 0.38839828 0.06256172
0.48026455 0.38839828 0.06256172
0.51104906 0.38839828 0.06256172
0.54190714 0.38839828 0.06256194
0.57283500 0.38839828 0.06256172
0.60382925 0.38839828 0.06256172
0.63488685 0.38839828 0.06256172
0.66600504 0.38839828 0.06256172
0.69718133 0.38839828 0.06256172
0.72841341 0.38839828 0.06256172
0.75969920 0.38839828 0.06256172
0.79103677 0.38839828 0.06256172
0.82242432 0.38839828 0.06256172
0.85386020 0.38839828 0.06256208
0.88534287 0.38839828 0.06256172
0.91687090 0.38839828 0.06256172
0.91886608 0.38839828 0.06256172
0.91886608 0.38839828 0.06256172
0.06256188 0.41893394 0.06256172
0.06256188 0.41893394 0.06256172
0.06256188 0.41893394 0.06256172
0.09054719 0.41893394 0.06256172
0.11931411 0.41893394 0.06256172
0.14845976 0.41893394 0.06256172
0.17787694 0.41893394 0.06256172
0.20750926 0.41893394 0.06256172
0.23732126 0.41893394 0.06256172
0.26728832 0.41893394 0.06256172
0.29739226 0.41893394 0.06256191
0.32761904 0.41893394 0.06256189
0.35795743 0.41893394 0.06256172
0.38839828 0.41893394 0.06256189
0.41893394 0.41893394 0.06256172
0.44955789 0.41893394 0.06256172
0.48026455 0.41893394 0.06256191
0.51104906 0.41893394 0.06256194
0.54190714 0.41893394 0.06256194
0.57283500 0.41893394 0.06256172
0.60382925 0.41893394 0.06256172
0.63488685 0.41893394 0.06256172
0.66600504 0.41893394 0.06256197
0.69718133 0.41893394 0.06256172
0.72841341 0.41893394 0.06256200
0.75969920 0.41893394 0.06256172
0.79103677 0.41893394 0.06256172
0.82242432 0.41893394 0.06256172
0.85386020 0.41893394 0.06256172
0.88534287 0.41893394 0.06256172
0.91687090 0.41893394 0.06256172
0.91886608 0.41893394 0.06256172
0.91886608 0.41893394 0.06256219
0.06256193 0.44955789 0.06256172
0.06256193 0.44955789 0.06256172
0.06256193 0.44955789 0.06256172
0.09054719 0.44955789 0.06256172
0.11931411 0.44955789 0.06256172
0.14845976 0.44955789 0.06256172
0.17787694 0.44955789 0.06256172
0.20750926 0.44955789 0.06256172
0.23732126 0.44955789 0.06256172
0.26728832 0.44955789 0.06256172
0.29739226 0.44955789 0.06256172
0.32761904 0.44955789 0.06256172
0.35795743 0.44955789 0.06256172
0.38839828 0.44955789 0.06256172
0.41893394 0.44955789 0.06256172
0.44955789 0.44955789 0.06256172
0.48026455 0.44955789 0.06256172
0.51104906 0.44955789 0.06256172
0.54190714 0.44955789 0.06256172
0.57283500 0.44955789 0.06256172
0.60382925 0.44955789 0.06256172
0.63488685 0.44955789 0.06256172
0.66600504 0.44955789 0.06256197
0.69718133 0.44955789 0.06256172
0.72841341 0.44955789 0.06256172
0.75969920 0.44955789 0.06256172
0.79103677 0.44955789 0.06256172
0.82242432 0.44955789 0.06256172
0.85386020 0.44955789 0.06256172
0.88534287 0.44955789 0.06256172
0.91687090 0.44955789 0.06256172
0.91886608 0.44955789 0.06256172
0.91886608 0.44955789 0.06256219
0.06256172 0.48026455 0.06256172
0.06256172 0.48026455 0.06256172
0.06256172 0.48026455 0.06256172
0.09054719 0.48026455 0.06256172
0.11931411 0.48026455 0.06256172
0.14845976 0.48026455 0.06256172
0.17787694 0.48026455 0.06256172
0.20750926 0.48026455 0.06256172
0.23732126 0.48026455 0.06256172
0.26728832 0.48026455 0.06256172
0.29739226 0.48026455 0.06256172
0.32761904 0.48026455 0.06256172
0.35795743 0.48026455 0.06256172
0.38839828 0.48026455 0.06256172
0.41893394 0.48026455 0.06256191
0.44955789 0.48026455 0.06256191
0.48026455 0.48026455 0.06256172
0.51104906 0.48026455 0.06256172
0.54190714 0.48026455 0.06256172
0.57283500 0.48026455 0.06256172
0.60382925 0.48026455 0.06256172
0.63488685 0.48026455 0.06256172
0.66600504 0.48026455 0.06256197
0.69718133 0.48026455 0.06256172
0.72841341 0.48026455 0.06256172
0.75969920 0.48026455 0.06256172
0.79103677 0.48026455 0.06256172
0.82242432 0.48026455 0.06256172
0.85386020 0.48026455 0.06256172
0.88534287 0.48026455 0.06256172
0.91687090 0.48026455 0.06256172
0.91886608 0.48026455 0.06256172
0.91886608 0.48026455 0.06256172
0.06256195 0.51104906 0.06256172
0.06256195 0.51104906 0.06256172
0.06256195 0.51104906 0.06256172
0.09054719 0.51104906 0.06256172
0.11931411 0.51104906 0.06256172
0.14845976 0.51104906 0.06256172
0.17787694 0.51104906 0.06256172
0.20750926 0.51104906 0.06256172
0.23732126 0.51104906 0.06256191
0.26728832 0.51104906 0.06256172
0.29739226 0.51104906 0.06256191
0.32761904 0.51104906 0.06256191
0.35795743 0.51104906 0.06256172
0.38839828 0.51104906 0.06256191
0.41893394 0.51104906 0.06256172
0.44955789 0.51104906 0.06256172
0.48026455 0.51104906 0.06256194
0.51104906 0.51104906 0.06256172
0.54190714 0.51104906 0.06256172
0.57283500 0.51104906 0.06256172
0.60382925 0.51104906 0.06256172
0.63488685 0.51104906 0.06256197
0.66600504 0.51104906 0.06256172
0.69718133 0.51104906 0.06256172
0.72841341 0.51104906 0.06256172
0.75969920 0.51104906 0.06256172
0.79103677 0.51104906 0.06256172
0.82242432 0.51104906 0.06256208
0.85386020 0.51104906 0.06256208
0.88534287 0.51104906 0.06256172
0.91687090 0.51104906 0.06256172
0.91886608 0.51104906 0.06256219
0.91886608 0.51104906 0.06256219
0.06256197 0.54190714 0.06256172
0.06256197 0.54190714 0.06256172
0.06256197 0.54190714 0.06256172
0.09054719 0.54190714 0.06256172
0.11931411 0.54190714 0.06256172
0.14845976 0.54190714 0.06256172
0.17787694 0.54190714 0.06256172
0.20750926 0.54190714 0.06256172
0.23732126 0.54190714 0.06256172
0.26728832 0.54190714 0.06256172
0.29739226 0.54190714 0.06256172
0.32761904 0.54190714 0.06256194
0.35795743 0.54190714 0.06256172
0.38839828 0.54190714 0.06256172
0.41893394 0.54190714 0.06256172
0.44955789 0.54190714 0.06256172
0.48026455 0.54190714 0.06256172
0.51104906 0.54190714 0.06256172
0.54190714 0.54190714 0.06256172
0.57283500 0.54190714 0.06256172
0.60382925 0.54190714 0.06256172
0.63488685 0.54190714 0.06256172
0.66600504 0.54190714 0.06256172
0.69718133 0.54190714 0.06256172
0.72841341 0.54190714 0.06256172
0.75969920 0.54190714 0.06256172
0.79103677 0.54190714 0.06256172
0.82242432 0.54190714 0.06256208
0.85386020 0.54190714 0.06256172
0.88534287 0.54190714 0.06256172
0.91687090 0.54190714 0.06256172
0.91886608 0.54190714 0.06256172
0.91886608 0.54190714 0.06256219
0.06256197 0.57283500 0.06256172
0.06256197 0.57283500 0.06256172
0.06256197 0.57283500 0.06256172
0.09054719 0.57283500 0.06256172
0.11931411 0.57283500 0.06256172
0.14845976 0.57283500 0.06256172
0.17787694 0.57283500 0.06256172
0.20750926 0.57283500 0.06256172
0.23732126 0.57283500 0.06256172
0.26728832 0.57283500 0.06256172
0.29739226 0.57283500 0.06256172
0.32761904 0.57283500 0.06256194
0.35795743 0.57283500 0.06256172
0.38839828 0.57283500 0.06256172
0.41893394 0.57283500 0.06256172
0.44955789 0.57283500 0.06256172
0.48026455 0.57283500 0.06256172
0.51104906 0.57283500 0.06256172
0.54190714 0.57283500 0.06256197
0.57283500 0.57283500 0.06256172
0.60382925 0.57283500 0.06256172
0.63488685 0.57283500 0.06256172
0.66600504 0.57283500 0.06256172
0.69718133 0.57283500 0.06256172
0.72841341 0.57283500 0.06256172
0.75969920 0.57283500 0.06256172
0.79103677 0.57283500 0.06256204
0.82242432 0.57283500 0.06256172
0.85386020 0.57283500 0.06256213
0.88534287 0.57283500 0.06256172
0.91687090 0.57283500 0.06256172
0.91886608 0.57283500 0.06256172
0.91886608 0.57283500 0.06256227
0.06256195 0.60382925 0.06256197
0.06256195 0.60382925 0.06256197
0.06256195 0.60382925 0.06256197
0.09054719 0.60382925 0.06256172
0.11931411 0.60382925 0.06256172
0.14845976 0.60382925 0.06256172
0.17787694 0.60382925 0.06256197
0.20750926 0.60382925 0.06256172
0.23732126 0.60382925 0.06256197
0.26728832 0.60382925 0.06256172
0.29739226 0.60382925 0.06256197
0.32761904 0.60382925 0.06256197
0.35795743 0.60382925 0.06256172
0.38839828 0.60382925 0.06256197
0.41893394 0.60382925 0.06256172
0.44955789 0.60382925 0.06256172
0.48026455 0.60382925 0.06256197
0.51104906 0.60382925 0.06256172
0.54190714 0.60382925 0.06256197
0.57283500 0.60382925 0.06256172
0.60382925 0.60382925 0.06256172
0.63488685 0.60382925 0.06256172
0.66600504 0.60382925 0.06256172
0.69718133 0.60382925 0.06256172
0.72841341 0.60382925 0.06256172
0.75969920 0.60382925 0.06256172
0.79103677 0.60382925 0.06256172
0.82242432 0.60382925 0.06256208
0.85386020 0.60382925 0.06256172
0.88534287 0.60382925 0.06256172
0.91687090 0.60382925 0.06256213
0.91886608 0.60382925 0.06256219
0.91886608 0.60382925 0.06256172
0.06256191 0.63488685 0.06256172
0.06256191 0.63488685 0.06256172
0.06256191 0.63488685 0.06256172
0.09054719 0.63488685 0.06256172
0.11931411 0.63488685 0.06256197
0.14845976 0.63488685 0.06256197
0.17787694 0.63488685 0.06256172
0.20750926 0.63488685 0.06256172
0.23732126 0.63488685 0.06256197
0.26728832 0.63488685 0.06256172
0.29739226 0.63488685 0.06256197
0.32761904 0.63488685 0.06256172
0.35795743 0.63488685 0.06256172
0.38839828 0.63488685 0.06256197
0.41893394 0.63488685 0.06256197
0.44955789 0.63488685 0.06256172
0.48026455 0.63488685 0.06256172
0.51104906 0.63488685 0.06256197
0.54190714 0.63488685 0.06256172
0.57283500 0.63488685 0.06256172
0.60382925 0.63488685 0.06256172
0.63488685 0.63488685 0.06256172
0.66600504 0.63488685 0.06256172
0.69718133 0.63488685 0.06256172
0.72841341 0.63488685 0.06256204
0.75969920 0.63488685 0.06256172
0.79103677 0.63488685 0.06256172
