src/ffmpeg_scripts/luts/luminance-unclipped_4p00.cube
TITLE "luminance-unclipped_4p00"
LUT_3D_SIZE 33
# PQ (EOTF Only)/Rec2020 -> PQ (EOTF Only)/Rec2020, CineEI Shift 4.00, Black Level -7.25% IRE, Input 109% -> Output 109% - Created with LUTCalc v4.01 by Ben Turley October 2020
0.00047898 0.00047898 0.00047898
0.00047898 0.00047898 0.00047898
0.00047898 0.00047898 0.00047898
0.11505173 0.00047898 0.00047907
0.19646513 0.00047898 0.00047898
0.26632975 0.00047898 0.00047898
0.32924536 0.00047898 0.00047898
0.38728818 0.00047898 0.00047898
0.44163084 0.00047916 0.00047898
0.49302086 0.00047898 0.00047898
0.54197301 0.00047918 0.00047898
0.58886146 0.00047898 0.00047898
0.63396931 0.00047898 0.00047923
0.67751743 0.00047898 0.00047927
0.71968251 0.00047898 0.00047898
0.76060871 0.00047898 0.00047931
0.80041568 0.00047937 0.00047935
0.83920410 0.00047898 0.00047898
0.87705976 0.00047945 0.00047898
0.91405651 0.00047898 0.00047898
0.91886608 0.00047931 0.00047898
0.91886608 0.00047898 0.00047898
0.91886608 0.00047946 0.00047898
0.91886608 0.00047898 0.00047953
0.91886608 0.00047898 0.00047898
0.91886608 0.00047961 0.00047961
0.91886608 0.00047898 0.00047898
0.91886608 0.00047898 0.00047898
0.91886608 0.00047898 0.00047898
0.91886608 0.00047898 0.00047898
0.91886608 0.00047898 0.00047898
0.91886608 0.00048014 0.00047898
0.91886608 0.00048030 0.00048014
0.00047898 0.00047898 0.00047898
0.00047898 0.00047898 0.00047898
0.00047898 0.00047898 0.00047898
0.11505173 0.00047898 0.00047907
0.19646513 0.00047898 0.00047898
0.26632975 0.00047898 0.00047898
0.32924536 0.00047898 0.00047898
0.38728818 0.00047898 0.00047898
0.44163084 0.00047916 0.00047898
0.49302086 0.00047898 0.00047898
0.54197301 0.00047918 0.00047898
0.58886146 0.00047898 0.00047898
0.63396931 0.00047898 0.00047923
0.67751743 0.00047898 0.00047927
0.71968251 0.00047898 0.00047898
0.76060871 0.00047898 0.00047931
0.80041568 0.00047937 0.00047935
0.83920410 0.00047898 0.00047898
0.87705976 0.00047945 0.00047898
0.91405651 0.00047898 0.00047898
0.91886608 0.00047931 0.00047898
0.91886608 0.00047898 0.00047898
0.91886608 0.00047946 0.00047898
0.91886608 0.00047898 0.00047953
0.91886608 0.00047898 0.00047898
0.91886608 0.00047961 0.00047961
0.91886608 0.00047898 0.00047898
0.91886608 0.00047898 0.00047898
0.91886608 0.00047898 0.00047898
0.91886608 0.00047898 0.00047898
0.91886608 0.00047898 0.00047898
0.91886608 0.00048014 0.00047898
0.91886608 0.00048030 0.00048014
0.00047898 0.00047898 0.00047898
0.00047898 0.00047898 0.00047898
0.00047898 0.00047898 0.00047898
0.11505173 0.00047898 0.00047907
0.19646513 0.00047898 0.00047898
0.26632975 0.00047898 0.00047898
0.32924536 0.00047898 0.00047898
0.38728818 0.00047898 0.00047898
0.44163084 0.00047916 0.00047898
0.49302086 0.00047898 0.00047898
0.54197301 0.00047918 0.00047898
0.58886146 0.00047898 0.00047898
0.63396931 0.00047898 0.00047923
0.67751743 0.00047898 0.00047927
0.71968251 0.00047898 0.00047898
0.76060871 0.00047898 0.00047931
0.80041568 0.00047937 0.00047935
0.83920410 0.00047898 0.00047898
0.87705976 0.00047945 0.00047898
0.91405651 0.00047898 0.00047898
0.91886608 0.00047931 0.00047898
0.91886608 0.00047898 0.00047898
0.91886608 0.00047946 0.00047898
0.91886608 0.00047898 0.00047953
0.91886608 0.00047898 0.00047898
0.91886608 0.00047961 0.00047961
0.91886608 0.00047898 0.00047898
0.91886608 0.00047898 0.00047898
0.91886608 0.00047898 0.00047898
0.91886608 0.00047898 0.00047898
0.91886608 0.00047898 0.00047898
0.91886608 0.00048014 0.00047898
0.91886608 0.00048030 0.00048014
0.00047908 0.11505173 0.00047898
0.00047908 0.11505173 0.00047898
0.00047908 0.11505173 0.00047898
0.11505173 0.11505173 0.00047898
0.19646513 0.11505173 0.00047898
0.26632975 0.11505173 0.00047898
0.32924536 0.11505173 0.00047914
0.38728818 0.11505173 0.00047898
0.44163084 0.11505173 0.00047918
0.49302086 0.11505173 0.00047898
0.54197301 0.11505173 0.00047898
0.58886146 0.11505173 0.00047898
0.63396931 0.11505173 0.00047898
0.67751743 0.11505173 0.00047927
0.71968251 0.11505173 0.00047931
0.76060871 0.11505173 0.00047931
0.80041568 0.11505173 0.00047935
0.83920410 0.11505173 0.00047898
0.87705976 0.11505173 0.00047898
0.91405651 0.11505173 0.00047898
0.91886608 0.11505173 0.00047898
0.91886608 0.11505173 0.00047898
0.91886608 0.11505173 0.00047898
0.91886608 0.11505173 0.00047898
0.91886608 0.11505173 0.00047898
0.91886608 0.11505173 0.00047898
0.91886608 0.11505173 0.00047898
0.91886608 0.11505173 0.00047898
0.91886608 0.11505173 0.00047983
0.91886608 0.11505173 0.00047983
0.91886608 0.11505173 0.00047997
0.91886608 0.11505173 0.00047898
0.91886608 0.11505173 0.00047898
0.00047913 0.19646513 0.00047898
0.00047913 0.19646513 0.00047898
0.00047913 0.19646513 0.00047898
0.11505173 0.19646513 0.00047898
0.19646513 0.19646513 0.00047898
0.26632975 0.19646513 0.00047898
0.32924536 0.19646513 0.00047898
0.38728818 0.19646513 0.00047916
0.44163084 0.19646513 0.00047898
0.49302086 0.19646513 0.00047898
0.54197301 0.19646513 0.00047898
0.58886146 0.19646513 0.00047898
0.63396931 0.19646513 0.00047923
0.67751743 0.19646513 0.00047927
0.71968251 0.19646513 0.00047931
0.76060871 0.19646513 0.00047898
0.80041568 0.19646513 0.00047898
0.83920410 0.19646513 0.00047898
0.87705976 0.19646513 0.00047898
0.91405651 0.19646513 0.00047898
0.91886608 0.19646513 0.00047898
0.91886608 0.19646513 0.00047898
0.91886608 0.19646513 0.00047898
0.91886608 0.19646513 0.00047898
0.91886608 0.19646513 0.00047898
0.91886608 0.19646513 0.00047898
0.91886608 0.19646513 0.00047971
0.91886608 0.19646513 0.00047971
0.91886608 0.19646513 0.00047898
0.91886608 0.19646513 0.00047898
0.91886608 0.19646513 0.00047898
0.91886608 0.19646513 0.00047898
0.91886608 0.19646513 0.00048014
0.00047912 0.26632975 0.00047898
0.00047912 0.26632975 0.00047898
0.00047912 0.26632975 0.00047898
0.11505173 0.26632975 0.00047898
0.19646513 0.26632975 0.00047898
0.26632975 0.26632975 0.00047898
0.32924536 0.26632975 0.00047898
0.38728818 0.26632975 0.00047898
0.44163084 0.26632975 0.00047898
0.49302086 0.26632975 0.00047920
0.54197301 0.26632975 0.00047898
0.58886146 0.26632975 0.00047898
0.63396931 0.26632975 0.00047898
0.67751743 0.26632975 0.00047898
0.71968251 0.26632975 0.00047931
0.76060871 0.26632975 0.00047898
0.80041568 0.26632975 0.00047898
0.83920410 0.26632975 0.00047898
0.87705976 0.26632975 0.00047898
0.91405651 0.26632975 0.00047898
0.91886608 0.26632975 0.00047898
0.91886608 0.26632975 0.00047898
0.91886608 0.26632975 0.00047898
0.91886608 0.26632975 0.00047898
0.91886608 0.26632975 0.00047898
0.91886608 0.26632975 0.00047961
0.91886608 0.26632975 0.00047898
0.91886608 0.26632975 0.00047898
0.91886608 0.26632975 0.00047898
0.91886608 0.26632975 0.00047898
0.91886608 0.26632975 0.00047898
0.91886608 0.26632975 0.00047898
0.91886608 0.26632975 0.00048014
0.00047918 0.32924536 0.00047898
0.00047918 0.32924536 0.00047898
0.00047918 0.32924536 0.00047898
0.11505173 0.32924536 0.00047898
0.19646513 0.32924536 0.00047898
0.26632975 0.32924536 0.00047898
0.32924536 0.32924536 0.00047898
0.38728818 0.32924536 0.00047898
0.44163084 0.32924536 0.00047898
0.49302086 0.32924536 0.00047898
0.54197301 0.32924536 0.00047898
0.58886146 0.32924536 0.00047898
0.63396931 0.32924536 0.00047898
0.67751743 0.32924536 0.00047898
0.71968251 0.32924536 0.00047898
0.76060871 0.32924536 0.00047898
0.80041568 0.32924536 0.00047898
0.83920410 0.32924536 0.00047898
0.87705976 0.32924536 0.00047898
0.91405651 0.32924536 0.00047898
0.91886608 0.32924536 0.00047898
0.91886608 0.32924536 0.00047898
0.91886608 0.32924536 0.00047898
0.91886608 0.32924536 0.00047898
0.91886608 0.32924536 0.00047898
0.91886608 0.32924536 0.00047898
0.91886608 0.32924536 0.00047898
0.91886608 0.32924536 0.00047971
0.91886608 0.32924536 0.00047983
0.91886608 0.32924536 0.00047898
0.91886608 0.32924536 0.00047997
0.91886608 0.32924536 0.00047898
0.91886608 0.32924536 0.00047898
0.00047921 0.38728818 0.00047898
0.00047921 0.38728818 0.00047898
0.00047921 0.38728818 0.00047898
0.11505173 0.38728818 0.00047898
0.19646513 0.38728818 0.00047898
0.26632975 0.38728818 0.00047898
0.32924536 0.38728818 0.00047898
0.38728818 0.38728818 0.00047898
0.44163084 0.38728818 0.00047898
0.49302086 0.38728818 0.00047920
0.54197301 0.38728818 0.00047920
0.58886146 0.38728818 0.00047898
0.63396931 0.38728818 0.00047898
0.67751743 0.38728818 0.00047898
0.71968251 0.38728818 0.00047931
0.76060871 0.38728818 0.00047898
0.80041568 0.38728818 0.00047935
0.83920410 0.38728818 0.00047898
0.87705976 0.38728818 0.00047898
0.91405651 0.38728818 0.00047898
0.91886608 0.38728818 0.00047898
0.91886608 0.38728818 0.00047898
0.91886608 0.38728818 0.00047953
0.91886608 0.38728818 0.00047953
0.91886608 0.38728818 0.00047898
0.91886608 0.38728818 0.00047961
0.91886608 0.38728818 0.00047898
0.91886608 0.38728818 0.00047898
0.91886608 0.38728818 0.00047898
0.91886608 0.38728818 0.00047898
0.91886608 0.38728818 0.00047997
0.91886608 0.38728818 0.00047898
0.91886608 0.38728818 0.00048014
0.00047898 0.44163084 0.00047898
0.00047898 0.44163084 0.00047898
0.00047898 0.44163084 0.00047898
0.11505173 0.44163084 0.00047918
0.19646513 0.44163084 0.00047918
0.26632975 0.44163084 0.00047898
0.32924536 0.44163084 0.00047898
0.38728818 0.44163084 0.00047898
0.44163084 0.44163084 0.00047898
0.49302086 0.44163084 0.00047898
0.54197301 0.44163084 0.00047898
0.58886146 0.44163084 0.00047898
0.63396931 0.44163084 0.00047898
0.67751743 0.44163084 0.00047927
0.71968251 0.44163084 0.00047898
0.76060871 0.44163084 0.00047898
0.80041568 0.44163084 0.00047898
0.83920410 0.44163084 0.00047898
0.87705976 0.44163084 0.00047940
0.91405651 0.44163084 0.00047898
0.91886608 0.44163084 0.00047898
0.91886608 0.44163084 0.00047898
0.91886608 0.44163084 0.00047898
0.91886608 0.44163084 0.00047898
0.91886608 0.44163084 0.00047961
0.91886608 0.44163084 0.00047961
0.91886608 0.44163084 0.00047898
0.91886608 0.44163084 0.00047898
0.91886608 0.44163084 0.00047898
0.91886608 0.44163084 0.00047898
0.91886608 0.44163084 0.00047898
0.91886608 0.44163084 0.00047898
0.91886608 0.44163084 0.00047898
0.00047925 0.49302086 0.00047898
0.00047925 0.49302086 0.00047898
0.00047925 0.49302086 0.00047898
0.11505173 0.49302086 0.00047898
0.19646513 0.49302086 0.00047898
0.26632975 0.49302086 0.00047920
0.32924536 0.49302086 0.00047898
0.38728818 0.49302086 0.00047898
0.44163084 0.49302086 0.00047898
0.49302086 0.49302086 0.00047898
0.54197301 0.49302086 0.00047923
0.58886146 0.49302086 0.00047898
0.63396931 0.49302086 0.00047898
0.67751743 0.49302086 0.00047927
0.71968251 0.49302086 0.00047898
0.76060871 0.49302086 0.00047931
0.80041568 0.49302086 0.00047935
0.83920410 0.49302086 0.00047898
0.87705976 0.49302086 0.00047940
0.91405651 0.49302086 0.00047898
0.91886608 0.49302086 0.00047898
0.91886608 0.49302086 0.00047898
0.91886608 0.49302086 0.00047898
0.91886608 0.49302086 0.00047953
0.91886608 0.49302086 0.00047961
0.91886608 0.49302086 0.00047961
0.91886608 0.49302086 0.00047898
0.91886608 0.49302086 0.00047971
0.91886608 0.49302086 0.00047983
0.91886608 0.49302086 0.00047898
0.91886608 0.49302086 0.00047898
0.91886608 0.49302086 0.00047898
0.91886608 0.49302086 0.00047898
0.00047926 0.54197301 0.00047898
0.00047926 0.54197301 0.00047898
0.00047926 0.54197301 0.00047898
0.11505173 0.54197301 0.00047898
0.19646513 0.54197301 0.00047898
0.26632975 0.54197301 0.00047898
0.32924536 0.54197301 0.00047898
0.38728818 0.54197301 0.00047898
0.44163084 0.54197301 0.00047898
0.49302086 0.54197301 0.00047898
0.54197301 0.54197301 0.00047898
0.58886146 0.54197301 0.00047898
0.63396931 0.54197301 0.00047898
0.67751743 0.54197301 0.00047898
0.71968251 0.54197301 0.00047898
0.76060871 0.54197301 0.00047898
0.80041568 0.54197301 0.00047898
0.83920410 0.54197301 0.00047935
0.87705976 0.54197301 0.00047898
0.91405651 0.54197301 0.00047898
0.91886608 0.54197301 0.00047898
0.91886608 0.54197301 0.00047898
0.91886608 0.54197301 0.00047898
0.91886608 0.54197301 0.00047898
0.91886608 0.54197301 0.00047898
0.91886608 0.54197301 0.00047898
0.91886608 0.54197301 0.00047898
0.91886608 0.54197301 0.00047898
0.91886608 0.54197301 0.00047983
0.91886608 0.54197301 0.00047898
0.91886608 0.54197301 0.00047898
0.91886608 0.54197301 0.00047898
0.91886608 0.54197301 0.00047898
0.00047929 0.58886146 0.00047898
0.00047929 0.58886146 0.00047898
0.00047929 0.58886146 0.00047898
0.11505173 0.58886146 0.00047898
0.19646513 0.58886146 0.00047898
0.26632975 0.58886146 0.00047898
0.32924536 0.58886146 0.00047923
0.38728818 0.58886146 0.00047898
0.44163084 0.58886146 0.00047898
0.49302086 0.58886146 0.00047898
0.54197301 0.58886146 0.00047898
0.58886146 0.58886146 0.00047927
0.63396931 0.58886146 0.00047898
0.67751743 0.58886146 0.00047898
0.71968251 0.58886146 0.00047931
0.76060871 0.58886146 0.00047898
0.80041568 0.58886146 0.00047898
0.83920410 0.58886146 0.00047898
0.87705976 0.58886146 0.00047898
0.91405651 0.58886146 0.00047898
0.91886608 0.58886146 0.00047898
0.91886608 0.58886146 0.00047898
0.91886608 0.58886146 0.00047898
0.91886608 0.58886146 0.00047898
0.91886608 0.58886146 0.00047898
0.91886608 0.58886146 0.00047898
0.91886608 0.58886146 0.00047898
0.91886608 0.58886146 0.00047898
0.91886608 0.58886146 0.00047983
0.91886608 0.58886146 0.00047898
0.91886608 0.58886146 0.00047898
0.91886608 0.58886146 0.00047997
0.91886608 0.58886146 0.00047898
0.00047929 0.63396931 0.00047898
0.00047929 0.63396931 0.00047898
0.00047929 0.63396931 0.00047898
0.11505173 0.63396931 0.00047898
0.19646513 0.63396931 0.00047898
0.26632975 0.63396931 0.00047898
0.32924536 0.63396931 0.00047927
0.38728818 0.63396931 0.00047927
0.44163084 0.63396931 0.00047898
0.49302086 0.63396931 0.00047927
0.54197301 0.63396931 0.00047898
0.58886146 0.63396931 0.00047927
0.63396931 0.63396931 0.00047898
0.67751743 0.63396931 0.00047898
0.71968251 0.63396931 0.00047898
0.76060871 0.63396931 0.00047898
0.80041568 0.63396931 0.00047898
0.83920410 0.63396931 0.00047935
0.87705976 0.63396931 0.00047898
0.91405651 0.63396931 0.00047898
0.91886608 0.63396931 0.00047946
0.91886608 0.63396931 0.00047898
0.91886608 0.63396931 0.00047953
0.91886608 0.63396931 0.00047953
0.91886608 0.63396931 0.00047898
0.91886608 0.63396931 0.00047961
0.91886608 0.63396931 0.00047898
0.91886608 0.63396931 0.00047971
0.91886608 0.63396931 0.00047983
0.91886608 0.63396931 0.00047898
0.91886608 0.63396931 0.00047898
0.91886608 0.63396931 0.00047898
0.91886608 0.63396931 0.00047898
0.00047932 0.67751743 0.00047898
0.00047932 0.67751743 0.00047898
0.00047932 0.67751743 0.00047898
0.11505173 0.67751743 0.00047927
0.19646513 0.67751743 0.00047898
0.26632975 0.67751743 0.00047927
0.32924536 0.67751743 0.00047898
0.38728818 0.67751743 0.00047898
0.44163084 0.67751743 0.00047898
0.49302086 0.67751743 0.00047931
0.54197301 0.67751743 0.00047931
0.58886146 0.67751743 0.00047898
0.63396931 0.67751743 0.00047898
0.67751743 0.67751743 0.00047898
0.71968251 0.67751743 0.00047898
0.76060871 0.67751743 0.00047898
0.80041568 0.67751743 0.00047935
0.83920410 0.67751743 0.00047898
0.87705976 0.67751743 0.00047940
0.91405651 0.67751743 0.00047898
0.91886608 0.67751743 0.00047898
0.91886608 0.67751743 0.00047898
0.91886608 0.67751743 0.00047898
0.91886608 0.67751743 0.00047953
0.91886608 0.67751743 0.00047898
0.91886608 0.67751743 0.00047898
0.91886608 0.67751743 0.00047898
0.91886608 0.67751743 0.00047898
0.91886608 0.67751743 0.00047983
0.91886608 0.67751743 0.00047898
0.91886608 0.67751743 0.00047997
0.91886608 0.67751743 0.00047898
0.91886608 0.67751743 0.00048014
0.00047932 0.71968251 0.00047898
0.00047932 0.71968251 0.00047898
0.00047932 0.71968251 0.00047898
0.11505173 0.71968251 0.00047931
0.19646513 0.71968251 0.00047898
0.26632975 0.71968251 0.00047898
0.32924536 0.71968251 0.00047898
0.38728818 0.71968251 0.00047898
0.44163084 0.71968251 0.00047898
0.49302086 0.71968251 0.00047898
0.54197301 0.71968251 0.00047931
0.58886146 0.71968251 0.00047931
0.63396931 0.71968251 0.00047898
0.67751743 0.71968251 0.00047898
0.71968251 0.71968251 0.00047898
0.76060871 0.71968251 0.00047935
0.80041568 0.71968251 0.00047940
0.83920410 0.71968251 0.00047940
0.87705976 0.71968251 0.00047898
0.91405651 0.71968251 0.00047898
0.91886608 0.71968251 0.00047898
0.91886608 0.71968251 0.00047898
0.91886608 0.71968251 0.00047953
0.91886608 0.71968251 0.00047898
0.91886608 0.71968251 0.00047898
0.91886608 0.71968251 0.00047898
0.91886608 0.71968251 0.00047898
0.91886608 0.71968251 0.00047971
0.91886608 0.71968251 0.00047983
0.91886608 0.71968251 0.00047898
0.91886608 0.71968251 0.00047898
0.91886608 0.71968251 0.00047898
0.91886608 0.71968251 0.00048014
0.00047940 0.76060871 0.00047898
0.00047940 0.76060871 0.00047898
0.00047940 0.76060871 0.00047898
0.11505173 0.76060871 0.00047898
0.19646513 0.76060871 0.00047898
0.26632975 0.76060871 0.00047935
0.32924536 0.76060871 0.00047898
0.38728818 0.76060871 0.00047898
0.44163084 0.76060871 0.00047898
0.49302086 0.76060871 0.00047898
0.54197301 0.76060871 0.00047898
0.58886146 0.76060871 0.00047898
0.63396931 0.76060871 0.00047898
0.67751743 0.76060871 0.00047898
0.71968251 0.76060871 0.00047898
0.76060871 0.76060871 0.00047898
0.80041568 0.76060871 0.00047898
0.83920410 0.76060871 0.00047898
0.87705976 0.76060871 0.00047898
0.91405651 0.76060871 0.00047898
0.91886608 0.76060871 0.00047898
0.91886608 0.76060871 0.00047898
0.91886608 0.76060871 0.00047953
0.91886608 0.76060871 0.00047898
0.91886608 0.76060871 0.00047898
0.91886608 0.76060871 0.00047898
0.91886608 0.76060871 0.00047898
0.91886608 0.76060871 0.00047898
0.91886608 0.76060871 0.00047898
0.91886608 0.76060871 0.00047898
0.91886608 0.76060871 0.00047898
0.91886608 0.76060871 0.00047898
0.91886608 0.76060871 0.00047898
0.00047930 0.80041568 0.00047898
0.00047930 0.80041568 0.00047898
0.00047930 0.80041568 0.00047898
0.11505173 0.80041568 0.00047898
0.19646513 0.80041568 0.00047898
0.26632975 0.80041568 0.00047898
0.32924536 0.80041568 0.00047898
0.38728818 0.80041568 0.00047898
0.44163084 0.80041568 0.00047898
0.49302086 0.80041568 0.00047898
0.54197301 0.80041568 0.00047898
0.58886146 0.80041568 0.00047898
0.63396931 0.80041568 0.00047898
0.67751743 0.80041568 0.00047898
0.71968251 0.80041568 0.00047898
0.76060871 0.80041568 0.00047898
0.80041568 0.80041568 0.00047898
0.83920410 0.80041568 0.00047940
0.87705976 0.80041568 0.00047898
0.91405651 0.80041568 0.00047898
0.91886608 0.80041568 0.00047898
0.91886608 0.80041568 0.00047898
0.91886608 0.80041568 0.00047898
0.91886608 0.80041568 0.00047953
0.91886608 0.80041568 0.00047898
0.91886608 0.80041568 0.00047961
0.91886608 0.80041568 0.00047898
0.91886608 0.80041568 0.00047898
0.91886608 0.80041568 0.00047898
0.91886608 0.80041568 0.00047898
0.91886608 0.80041568 0.00047997
0.91886608 0.80041568 0.00047898
0.91886608 0.80041568 0.00047898
0.00047954 0.83920410 0.00047898
0.00047954 0.83920410 0.00047898
0.00047954 0.83920410 0.00047898
0.11505173 0.83920410 0.00047940
0.19646513 0.83920410 0.00047898
0.26632975 0.83920410 0.00047898
0.32924536 0.83920410 0.00047898
0.38728818 0.83920410 0.00047898
0.44163084 0.83920410 0.00047898
0.49302086 0.83920410 0.00047898
0.54197301 0.83920410 0.00047898
0.58886146 0.83920410 0.00047898
0.63396931 0.83920410 0.00047898
0.67751743 0.83920410 0.00047898
0.71968251 0.83920410 0.00047898
0.76060871 0.83920410 0.00047898
0.80041568 0.83920410 0.00047898
0.83920410 0.83920410 0.00047898
0.87705976 0.83920410 0.00047898
0.91405651 0.83920410 0.00047898
0.91886608 0.83920410 0.00047946
0.91886608 0.83920410 0.00047898
0.91886608 0.83920410 0.00047898
0.91886608 0.83920410 0.00047898
0.91886608 0.83920410 0.00047898
0.91886608 0.83920410 0.00047898
0.91886608 0.83920410 0.00047898
0.91886608 0.83920410 0.00047971
0.91886608 0.83920410 0.00047983
0.91886608 0.83920410 0.00047898
0.91886608 0.83920410 0.00047898
0.91886608 0.83920410 0.00047898
0.91886608 0.83920410 0.00048014
0.00047939 0.87705976 0.00047898
0.00047939 0.87705976 0.00047898
0.00047939 0.87705976 0.00047898
0.11505173 0.87705976 0.00047898
0.19646513 0.87705976 0.00047898
0.26632975 0.87705976 0.00047898
0.32924536 0.87705976 0.00047898
0.38728818 0.87705976 0.00047898
0.44163084 0.87705976 0.00047898
0.49302086 0.87705976 0.00047898
0.54197301 0.87705976 0.00047898
0.58886146 0.87705976 0.00047898
0.63396931 0.87705976 0.00047898
0.67751743 0.87705976 0.00047898
0.71968251 0.87705976 0.00047940
0.76060871 0.87705976 0.00047898
0.80041568 0.87705976 0.00047898
0.83920410 0.87705976 0.00047946
0.87705976 0.87705976 0.00047946
0.91405651 0.87705976 0.00047898
0.91886608 0.87705976 0.00047898
0.91886608 0.87705976 0.00047898
0.91886608 0.87705976 0.00047953
0.91886608 0.87705976 0.00047898
0.91886608 0.87705976 0.00047898
0.91886608 0.87705976 0.00047961
0.91886608 0.87705976 0.00047898
0.91886608 0.87705976 0.00047971
0.91886608 0.87705976 0.00047983
0.91886608 0.87705976 0.00047898
0.91886608 0.87705976 0.00047898
0.91886608 0.87705976 0.00047898
0.91886608 0.87705976 0.00047898
0.00047956 0.91405651 0.00047898
0.00047956 0.91405651 0.00047898
0.00047956 0.91405651 0.00047898
0.11505173 0.91405651 0.00047898
0.19646513 0.91405651 0.00047898
0.26632975 0.91405651 0.00047898
0.32924536 0.91405651 0.00047946
0.38728818 0.91405651 0.00047898
0.44163084 0.91405651 0.00047898
0.49302086 0.91405651 0.00047898
0.54197301 0.91405651 0.00047898
0.58886146 0.91405651 0.00047898
0.63396931 0.91405651 0.00047898
0.67751743 0.91405651 0.00047898
0.71968251 0.91405651 0.00047898
0.76060871 0.91405651 0.00047898
0.80041568 0.91405651 0.00047946
0.83920410 0.91405651 0.00047898
0.87705976 0.91405651 0.00047898
0.91405651 0.91405651 0.00047898
0.91886608 0.91405651 0.00047898
0.91886608 0.91405651 0.00047898
0.91886608 0.91405651 0.00047898
0.91886608 0.91405651 0.00047898
0.91886608 0.91405651 0.00047898
0.91886608 0.91405651 0.00047898
0.91886608 0.91405651 0.00047971
0.91886608 0.91405651 0.00047898
0.91886608 0.91405651 0.00047898
0.91886608 0.91405651 0.00047898
0.91886608 0.91405651 0.00047997
0.91886608 0.91405651 0.00047898
0.91886608 0.91405651 0.00047898
0.00047898 0.91886608 0.00047898
0.00047898 0.91886608 0.00047898
0.00047898 0.91886608 0.00047898
0.11505173 0.91886608 0.00047898
0.19646513 0.91886608 0.00047898
0.26632975 0.91886608 0.00047946
0.32924536 0.91886608 0.00047946
0.38728818 0.91886608 0.00047898
0.44163084 0.91886608 0.00047898
0.49302086 0.91886608 0.00047898
0.54197301 0.91886608 0.00047898
0.58886146 0.91886608 0.00047898
0.63396931 0.91886608 0.00047898
0.67751743 0.91886608 0.00047898
0.71968251 0.91886608 0.00047898
0.76060871 0.91886608 0.00047898
0.80041568 0.91886608 0.00047946
0.83920410 0.91886608 0.00047898
0.87705976 0.91886608 0.00047898
0.91405651 0.91886608 0.00047898
0.91886608 0.91886608 0.00047953
0.91886608 0.91886608 0.00047898
0.91886608 0.91886608 0.00047953
0.91886608 0.91886608 0.00047898
0.91886608 0.91886608 0.00047898
0.91886608 0.91886608 0.00047898
0.91886608 0.91886608 0.00047898
0.91886608 0.91886608 0.00047898
0.91886608 0.91886608 0.00047898
0.91886608 0.91886608 0.00047898
0.91886608 0.91886608 0.00047997
0.91886608 0.91886608 0.00047997
0.91886608 0.91886608 0.00047898
0.00047954 0.91886608 0.00047898
0.00047954 0.91886608 0.00047898
0.00047954 0.91886608 0.00047898
0.11505173 0.91886608 0.00047898
0.19646513 0.91886608 0.00047898
0.26632975 0.91886608 0.00047961
0.32924536 0.91886608 0.00047898
0.38728818 0.91886608 0.00047898
0.44163084 0.91886608 0.00047953
0.49302086 0.91886608 0.00047953
0.54197301 0.91886608 0.00047898
0.58886146 0.91886608 0.00047953
0.63396931 0.91886608 0.00047953
0.67751743 0.91886608 0.00047898
0.71968251 0.91886608 0.00047953
0.76060871 0.91886608 0.00047898
0.80041568 0.91886608 0.00047898
0.83920410 0.91886608 0.00047898
0.87705976 0.91886608 0.00047898
0.91405651 0.91886608 0.00047898
0.91886608 0.91886608 0.00047898
0.91886608 0.91886608 0.00047898
0.91886608 0.91886608 0.00047961
0.91886608 0.91886608 0.00047898
0.91886608 0.91886608 0.00047898
0.91886608 0.91886608 0.00047898
0.91886608 0.91886608 0.00047898
