src/ffmpeg_scripts/luts/luminance-unclipped_3p67.cube
TITLE "luminance-unclipped_3p67"
LUT_3D_SIZE 9
# PQ (EOTF Only)/Rec2020 -> PQ (EOTF Only)/Rec2020, CineEI Shift 3.67, Black Level -7.25% IRE, Input 109% -> Output 109% - Created with LUTCalc v4.01 by Ben Turley October 2020
0.00047898 0.00047898 0.00047898
0.18272562 0.00047898 0.00047898
0.41997449 0.00047898 0.00047898
0.60957546 0.00047898 0.00047923
0.77540073 0.00047940 0.00047931
0.91886608 0.00047935 0.00047898
0.91886608 0.00047898 0.00047898
0.91886608 0.00047975 0.00047898
0.91886608 0.00047971 0.00047898
0.00047911 0.18272562 0.00047898
0.18272562 0.18272562 0.00047898
0.41997449 0.18272562 0.00047898
0.60957546 0.18272562 0.00047898
0.77540073 0.18272562 0.00047898
0.91886608 0.18272562 0.00047898
0.91886608 0.18272562 0.00047953
0.91886608 0.18272562 0.00047971
0.91886608 0.18272562 0.00047997
0.00047918 0.41997449 0.00047898
0.18272562 0.41997449 0.00047898
0.41997449 0.41997449 0.00047898
0.60957546 0.41997449 0.00047898
0.77540073 0.41997449 0.00047931
0.91886608 0.41997449 0.00047898
0.91886608 0.41997449 0.00047898
0.91886608 0.41997449 0.00047971
0.91886608 0.41997449 0.00047898
0.00047898 0.60957546 0.00047923
0.18272562 0.60957546 0.00047923
0.41997449 0.60957546 0.00047898
0.60957546 0.60957546 0.00047927
0.77540073 0.60957546 0.00047898
0.91886608 0.60957546 0.00047898
0.91886608 0.60957546 0.00047898
0.91886608 0.60957546 0.00047983
0.91886608 0.60957546 0.00047898
0.00047898 0.77540073 0.00047898
0.18272562 0.77540073 0.00047935
0.41997449 0.77540073 0.00047898
0.60957546 0.77540073 0.00047898
0.77540073 0.77540073 0.00047898
0.91886608 0.77540073 0.00047898
0.91886608 0.77540073 0.00047898
0.91886608 0.77540073 0.00047898
0.91886608 0.77540073 0.00047898
0.00047941 0.91886608 0.00047898
0.18272562 0.91886608 0.00047898
0.41997449 0.91886608 0.00047946
0.60957546 0.91886608 0.00047898
0.77540073 0.91886608 0.00047898
0.91886608 0.91886608 0.00047898
0.91886608 0.91886608 0.00047898
0.91886608 0.91886608 0.00047898
0.91886608 0.91886608 0.00047898
0.00047975 0.91886608 0.00047898
0.18272562 0.91886608 0.00047898
0.41997449 0.91886608 0.00047961
0.60957546 0.91886608 0.00047898
0.77540073 0.91886608 0.00047898
0.91886608 0.91886608 0.00047898
0.91886608 0.91886608 0.00047961
0.91886608 0.91886608 0.00047983
0.91886608 0.91886608 0.00048014
0.00047975 0.91886608 0.00047898
0.18272562 0.91886608 0.00047983
0.41997449 0.91886608 0.00047898
0.60957546 0.91886608 0.00047898
0.77540073 0.91886608 0.00047898
0.91886608 0.91886608 0.00047898
0.91886608 0.91886608 0.00047898
0.91886608 0.91886608 0.00047898
0.91886608 0.91886608 0.00047898
0.00048015 0.91886608 0.00047898
0.18272562 0.91886608 0.00047898
0.41997449 0.91886608 0.00048014
0.60957546 0.91886608 0.00048014
0.77540073 0.91886608 0.00047898
0.91886608 0.91886608 0.00047898
0.91886608 0.91886608 0.00048014
0.91886608 0.91886608 0.00048014
0.91886608 0.91886608 0.00047898
0.00047898 0.00047912 0.18272562
0.18272562 0.00047914 0.18272562
0.41997449 0.00047898 0.18272562
0.60957546 0.00047898 0.18272562
0.77540073 0.00047937 0.18272562
0.91886608 0.00047898 0.18272562
0.91886608 0.00047898 0.18272562
0.91886608 0.00047978 0.18272562
0.91886608 0.00047971 0.18272562
0.00047898 0.18272562 0.18272562
0.18272562 0.18272562 0.18272562
0.41997449 0.18272562 0.18272562
0.60957546 0.18272562 0.18272562
0.77540073 0.18272562 0.18272562
0.91886608 0.18272562 0.18272562
0.91886608 0.18272562 0.18272562
0.91886608 0.18272562 0.18272562
0.91886608 0.18272562 0.18272562
0.00047919 0.41997449 0.18272562
0.18272562 0.41997449 0.18272562
0.41997449 0.41997449 0.18272562
0.60957546 0.41997449 0.18272562
0.77540073 0.41997449 0.18272562
0.91886608 0.41997449 0.18272562
0.91886608 0.41997449 0.18272562
0.91886608 0.41997449 0.18272562
0.91886608 0.41997449 0.18272562
0.00047922 0.60957546 0.18272562
0.18272562 0.60957546 0.18272562
0.41997449 0.60957546 0.18272562
0.60957546 0.60957546 0.18272562
0.77540073 0.60957546 0.18272562
0.91886608 0.60957546 0.18272562
0.91886608 0.60957546 0.18272562
0.91886608 0.60957546 0.18272562
0.91886608 0.60957546 0.18272562
0.00047945 0.77540073 0.18272562
0.18272562 0.77540073 0.18272562
0.41997449 0.77540073 0.18272562
0.60957546 0.77540073 0.18272562
0.77540073 0.77540073 0.18272562
0.91886608 0.77540073 0.18272562
0.91886608 0.77540073 0.18272562
0.91886608 0.77540073 0.18272562
0.91886608 0.77540073 0.18272562
0.00047898 0.91886608 0.18272562
0.18272562 0.91886608 0.18272562
0.41997449 0.91886608 0.18272562
0.60957546 0.91886608 0.18272562
0.77540073 0.91886608 0.18272562
0.91886608 0.91886608 0.18272562
0.91886608 0.91886608 0.18272562
0.91886608 0.91886608 0.18272562
0.91886608 0.91886608 0.18272562
0.00047966 0.91886608 0.18272562
0.18272562 0.91886608 0.18272562
0.41997449 0.91886608 0.18272562
0.60957546 0.91886608 0.18272562
0.77540073 0.91886608 0.18272562
0.91886608 0.91886608 0.18272562
0.91886608 0.91886608 0.18272562
0.91886608 0.91886608 0.18272562
0.91886608 0.91886608 0.18272562
0.00047979 0.91886608 0.18272562
0.18272562 0.91886608 0.18272562
0.41997449 0.91886608 0.18272562
0.60957546 0.91886608 0.18272562
0.77540073 0.91886608 0.18272562
0.91886608 0.91886608 0.18272562
0.91886608 0.91886608 0.18272562
0.91886608 0.91886608 0.18272562
0.91886608 0.91886608 0.18272562
0.00047961 0.91886608 0.18272562
0.18272562 0.91886608 0.18272562
0.41997449 0.91886608 0.18272562
0.60957546 0.91886608 0.18272562
0.77540073 0.91886608 0.18272562
0.91886608 0.91886608 0.18272562
0.91886608 0.91886608 0.18272562
0.91886608 0.91886608 0.18272562
0.91886608 0.91886608 0.18272562
0.00047918 0.00047923 0.41997449
0.18272562 0.00047898 0.41997449
0.41997449 0.00047923 0.41997449
0.60957546 0.00047898 0.41997449
0.77540073 0.00047938 0.41997449
0.91886608 0.00047898 0.41997449
0.91886608 0.00047953 0.41997449
0.91886608 0.00047980 0.41997449
0.91886608 0.00048017 0.41997449
0.00047898 0.18272562 0.41997449
0.18272562 0.18272562 0.41997449
0.41997449 0.18272562 0.41997449
0.60957546 0.18272562 0.41997449
0.77540073 0.18272562 0.41997449
0.91886608 0.18272562 0.41997449
0.91886608 0.18272562 0.41997449
0.91886608 0.18272562 0.41997449
0.91886608 0.18272562 0.41997449
0.00047920 0.41997449 0.41997449
0.18272562 0.41997449 0.41997449
0.41997449 0.41997449 0.41997449
0.60957546 0.41997449 0.41997449
0.77540073 0.41997449 0.41997449
0.91886608 0.41997449 0.41997449
0.91886608 0.41997449 0.41997449
0.91886608 0.41997449 0.41997449
0.91886608 0.41997449 0.41997449
0.00047929 0.60957546 0.41997449
0.18272562 0.60957546 0.41997449
0.41997449 0.60957546 0.41997449
0.60957546 0.60957546 0.41997449
0.77540073 0.60957546 0.41997449
0.91886608 0.60957546 0.41997449
0.91886608 0.60957546 0.41997449
0.91886608 0.60957546 0.41997449
0.91886608 0.60957546 0.41997449
0.00047940 0.77540073 0.41997449
0.18272562 0.77540073 0.41997449
0.41997449 0.77540073 0.41997449
0.60957546 0.77540073 0.41997449
0.77540073 0.77540073 0.41997449
0.91886608 0.77540073 0.41997449
0.91886608 0.77540073 0.41997449
0.91886608 0.77540073 0.41997449
0.91886608 0.77540073 0.41997449
0.00047954 0.91886608 0.41997449
0.18272562 0.91886608 0.41997449
0.41997449 0.91886608 0.41997449
0.60957546 0.91886608 0.41997449
0.77540073 0.91886608 0.41997449
0.91886608 0.91886608 0.41997449
0.91886608 0.91886608 0.41997449
0.91886608 0.91886608 0.41997449
0.91886608 0.91886608 0.41997449
0.00047898 0.91886608 0.41997449
0.18272562 0.91886608 0.41997449
0.41997449 0.91886608 0.41997449
0.60957546 0.91886608 0.41997449
0.77540073 0.91886608 0.41997449
0.91886608 0.91886608 0.41997449
0.91886608 0.91886608 0.41997449
0.91886608 0.91886608 0.41997449
0.91886608 0.91886608 0.41997449
0.00047996 0.91886608 0.41997449
0.18272562 0.91886608 0.41997449
0.41997449 0.91886608 0.41997449
0.60957546 0.91886608 0.41997449
0.77540073 0.91886608 0.41997449
0.91886608 0.91886608 0.41997449
0.91886608 0.91886608 0.41997449
0.91886608 0.91886608 0.41997449
0.91886608 0.91886608 0.41997449
0.00047898 0.91886608 0.41997449
0.18272562 0.91886608 0.41997449
0.41997449 0.91886608 0.41997449
0.60957546 0.91886608 0.41997449
0.77540073 0.91886608 0.41997449
0.91886608 0.91886608 0.41997449
0.91886608 0.91886608 0.41997449
0.91886608 0.91886608 0.41997449
0.91886608 0.91886608 0.41997449
0.00047898 0.00047898 0.60957546
0.18272562 0.00047935 0.60957546
0.41997449 0.00047935 0.60957546
0.60957546 0.00047944 0.60957546
0.77540073 0.00047940 0.60957546
0.91886608 0.00047935 0.60957546
0.91886608 0.00047898 0.60957546
0.91886608 0.00047898 0.60957546
0.91886608 0.00047898 0.60957546
0.00047898 0.18272562 0.60957546
0.18272562 0.18272562 0.60957546
0.41997449 0.18272562 0.60957546
0.60957546 0.18272562 0.60957546
0.77540073 0.18272562 0.60957546
0.91886608 0.18272562 0.60957546
0.91886608 0.18272562 0.60957546
0.91886608 0.18272562 0.60957546
0.91886608 0.18272562 0.60957546
0.00047898 0.41997449 0.60957546
0.18272562 0.41997449 0.60957546
0.41997449 0.41997449 0.60957546
0.60957546 0.41997449 0.60957546
0.77540073 0.41997449 0.60957546
0.91886608 0.41997449 0.60957546
0.91886608 0.41997449 0.60957546
0.91886608 0.41997449 0.60957546
0.91886608 0.41997449 0.60957546
0.00047931 0.60957546 0.60957546
0.18272562 0.60957546 0.60957546
0.41997449 0.60957546 0.60957546
0.60957546 0.60957546 0.60957546
0.77540073 0.60957546 0.60957546
0.91886608 0.60957546 0.60957546
0.91886608 0.60957546 0.60957546
0.91886608 0.60957546 0.60957546
0.91886608 0.60957546 0.60957546
0.00047898 0.77540073 0.60957546
0.18272562 0.77540073 0.60957546
0.41997449 0.77540073 0.60957546
0.60957546 0.77540073 0.60957546
0.77540073 0.77540073 0.60957546
0.91886608 0.77540073 0.60957546
0.91886608 0.77540073 0.60957546
0.91886608 0.77540073 0.60957546
0.91886608 0.77540073 0.60957546
0.00047957 0.91886608 0.60957546
0.18272562 0.91886608 0.60957546
0.41997449 0.91886608 0.60957546
0.60957546 0.91886608 0.60957546
0.77540073 0.91886608 0.60957546
0.91886608 0.91886608 0.60957546
0.91886608 0.91886608 0.60957546
0.91886608 0.91886608 0.60957546
0.91886608 0.91886608 0.60957546
0.00047976 0.91886608 0.60957546
0.18272562 0.91886608 0.60957546
0.41997449 0.91886608 0.60957546
0.60957546 0.91886608 0.60957546
0.77540073 0.91886608 0.60957546
0.91886608 0.91886608 0.60957546
0.91886608 0.91886608 0.60957546
0.91886608 0.91886608 0.60957546
0.91886608 0.91886608 0.60957546
0.00047898 0.91886608 0.60957546
0.18272562 0.91886608 0.60957546
0.41997449 0.91886608 0.60957546
0.60957546 0.91886608 0.60957546
0.77540073 0.91886608 0.60957546
0.91886608 0.91886608 0.60957546
0.91886608 0.91886608 0.60957546
0.91886608 0.91886608 0.60957546
0.91886608 0.91886608 0.60957546
0.00048006 0.91886608 0.60957546
0.18272562 0.91886608 0.60957546
0.41997449 0.91886608 0.60957546
0.60957546 0.91886608 0.60957546
0.77540073 0.91886608 0.60957546
0.91886608 0.91886608 0.60957546
0.91886608 0.91886608 0.60957546
0.91886608 0.91886608 0.60957546
0.91886608 0.91886608 0.60957546
0.00047935 0.00047946 0.77540073
0.18272562 0.00047953 0.77540073
0.41997449 0.00047898 0.77540073
0.60957546 0.00047898 0.77540073
0.77540073 0.00047898 0.77540073
0.91886608 0.00047898 0.77540073
0.91886608 0.00047961 0.77540073
0.91886608 0.00047978 0.77540073
0.91886608 0.00048014 0.77540073
0.00047898 0.18272562 0.77540073
0.18272562 0.18272562 0.77540073
0.41997449 0.18272562 0.77540073
0.60957546 0.18272562 0.77540073
0.77540073 0.18272562 0.77540073
0.91886608 0.18272562 0.77540073
0.91886608 0.18272562 0.77540073
0.91886608 0.18272562 0.77540073
0.91886608 0.18272562 0.77540073
0.00047898 0.41997449 0.77540073
0.18272562 0.41997449 0.77540073
0.41997449 0.41997449 0.77540073
0.60957546 0.41997449 0.77540073
0.77540073 0.41997449 0.77540073
0.91886608 0.41997449 0.77540073
0.91886608 0.41997449 0.77540073
0.91886608 0.41997449 0.77540073
0.91886608 0.41997449 0.77540073
0.00047898 0.60957546 0.77540073
0.18272562 0.60957546 0.77540073
0.41997449 0.60957546 0.77540073
0.60957546 0.60957546 0.77540073
0.77540073 0.60957546 0.77540073
0.91886608 0.60957546 0.77540073
0.91886608 0.60957546 0.77540073
0.91886608 0.60957546 0.77540073
0.91886608 0.60957546 0.77540073
0.00047898 0.77540073 0.77540073
0.18272562 0.77540073 0.77540073
0.41997449 0.77540073 0.77540073
0.60957546 0.77540073 0.77540073
0.77540073 0.77540073 0.77540073
0.91886608 0.77540073 0.77540073
0.91886608 0.77540073 0.77540073
0.91886608 0.77540073 0.77540073
0.91886608 0.77540073 0.77540073
0.00047940 0.91886608 0.77540073
0.18272562 0.91886608 0.77540073
0.41997449 0.91886608 0.77540073
0.60957546 0.91886608 0.77540073
0.77540073 0.91886608 0.77540073
0.91886608 0.91886608 0.77540073
0.91886608 0.91886608 0.77540073
0.91886608 0.91886608 0.77540073
0.91886608 0.91886608 0.77540073
0.00047963 0.91886608 0.77540073
0.18272562 0.91886608 0.77540073
0.41997449 0.91886608 0.77540073
0.60957546 0.91886608 0.77540073
0.77540073 0.91886608 0.77540073
0.91886608 0.91886608 0.77540073
0.91886608 0.91886608 0.77540073
0.91886608 0.91886608 0.77540073
0.91886608 0.91886608 0.77540073
0.00048011 0.91886608 0.77540073
0.18272562 0.91886608 0.77540073
0.41997449 0.91886608 0.77540073
0.60957546 0.91886608 0.77540073
0.77540073 0.91886608 0.77540073
0.91886608 0.91886608 0.77540073
0.91886608 0.91886608 0.77540073
0.91886608 0.91886608 0.77540073
0.91886608 0.91886608 0.77540073
0.00047898 0.91886608 0.77540073
0.18272562 0.91886608 0.77540073
0.41997449 0.91886608 0.77540073
0.60957546 0.91886608 0.77540073
0.77540073 0.91886608 0.77540073
0.91886608 0.91886608 0.77540073
0.91886608 0.91886608 0.77540073
0.91886608 0.91886608 0.77540073
0.91886608 0.91886608 0.77540073
0.00047946 0.00047971 0.91886608
0.18272562 0.00047971 0.91886608
0.41997449 0.00047971 0.91886608
0.60957546 0.00047961 0.91886608
0.77540073 0.00047978 0.91886608
0.91886608 0.00047898 0.91886608
0.91886608 0.00047898 0.91886608
0.91886608 0.00047978 0.91886608
0.91886608 0.00047898 0.91886608
0.00047898 0.18272562 0.91886608
0.18272562 0.18272562 0.91886608
0.41997449 0.18272562 0.91886608
0.60957546 0.18272562 0.91886608
0.77540073 0.18272562 0.91886608
0.91886608 0.18272562 0.91886608
0.91886608 0.18272562 0.91886608
0.91886608 0.18272562 0.91886608
0.91886608 0.18272562 0.91886608
0.00047946 0.41997449 0.91886608
0.18272562 0.41997449 0.91886608
0.41997449 0.41997449 0.91886608
0.60957546 0.41997449 0.91886608
0.77540073 0.41997449 0.91886608
0.91886608 0.41997449 0.91886608
0.91886608 0.41997449 0.91886608
0.91886608 0.41997449 0.91886608
0.91886608 0.41997449 0.91886608
0.00047898 0.60957546 0.91886608
0.18272562 0.60957546 0.91886608
0.41997449 0.60957546 0.91886608
0.60957546 0.60957546 0.91886608
0.77540073 0.60957546 0.91886608
0.91886608 0.60957546 0.91886608
0.91886608 0.60957546 0.91886608
0.91886608 0.60957546 0.91886608
0.91886608 0.60957546 0.91886608
0.00047946 0.77540073 0.91886608
0.18272562 0.77540073 0.91886608
0.41997449 0.77540073 0.91886608
0.60957546 0.77540073 0.91886608
0.77540073 0.77540073 0.91886608
0.91886608 0.77540073 0.91886608
0.91886608 0.77540073 0.91886608
0.91886608 0.77540073 0.91886608
0.91886608 0.77540073 0.91886608
0.00047898 0.91886608 0.91886608
0.18272562 0.91886608 0.91886608
0.41997449 0.91886608 0.91886608
0.60957546 0.91886608 0.91886608
0.77540073 0.91886608 0.91886608
0.91886608 0.91886608 0.91886608
0.91886608 0.91886608 0.91886608
0.91886608 0.91886608 0.91886608
0.91886608 0.91886608 0.91886608
0.00047975 0.91886608 0.91886608
0.18272562 0.91886608 0.91886608
0.41997449 0.91886608 0.91886608
0.60957546 0.91886608 0.91886608
0.77540073 0.91886608 0.91886608
0.91886608 0.91886608 0.91886608
0.91886608 0.91886608 0.91886608
0.91886608 0.91886608 0.91886608
0.91886608 0.91886608 0.91886608
0.00047978 0.91886608 0.91886608
0.18272562 0.91886608 0.91886608
0.41997449 0.91886608 0.91886608
0.60957546 0.91886608 0.91886608
0.77540073 0.91886608 0.91886608
0.91886608 0.91886608 0.91886608
0.91886608 0.91886608 0.91886608
0.91886608 0.91886608 0.91886608
0.91886608 0.91886608 0.91886608
0.00048026 0.91886608 0.91886608
0.18272562 0.91886608 0.91886608
0.41997449 0.91886608 0.91886608
0.60957546 0.91886608 0.91886608
0.77540073 0.91886608 0.91886608
0.91886608 0.91886608 0.91886608
0.91886608 0.91886608 0.91886608
0.91886608 0.91886608 0.91886608
0.91886608 0.91886608 0.91886608
0.00047898 0.00047983 0.91886608
0.18272562 0.00047983 0.91886608
0.41997449 0.00047898 0.91886608
0.60957546 0.00047997 0.91886608
0.77540073 0.00047983 0.91886608
0.91886608 0.00047983 0.91886608
0.91886608 0.00047898 0.91886608
0.91886608 0.00047898 0.91886608
0.91886608 0.00047898 0.91886608
0.00047898 0.18272562 0.91886608
0.18272562 0.18272562 0.91886608
0.41997449 0.18272562 0.91886608
0.60957546 0.18272562 0.91886608
0.77540073 0.18272562 0.91886608
0.91886608 0.18272562 0.91886608
0.91886608 0.18272562 0.91886608
0.91886608 0.18272562 0.91886608
0.91886608 0.18272562 0.91886608
0.00047898 0.41997449 0.91886608
0.18272562 0.41997449 0.91886608
0.41997449 0.41997449 0.91886608
0.60957546 0.41997449 0.91886608
0.77540073 0.41997449 0.91886608
0.91886608 0.41997449 0.91886608
0.91886608 0.41997449 0.91886608
0.91886608 0.41997449 0.91886608
0.91886608 0.41997449 0.91886608
0.00047898 0.60957546 0.91886608
0.18272562 0.60957546 0.91886608
0.41997449 0.60957546 0.91886608
0.60957546 0.60957546 0.91886608
0.77540073 0.60957546 0.91886608
0.91886608 0.60957546 0.91886608
0.91886608 0.60957546 0.91886608
0.91886608 0.60957546 0.91886608
0.91886608 0.60957546 0.91886608
0.00047898 0.77540073 0.91886608
0.18272562 0.77540073 0.91886608
0.41997449 0.77540073 0.91886608
0.60957546 0.77540073 0.91886608
0.77540073 0.77540073 0.91886608
0.91886608 0.77540073 0.91886608
0.91886608 0.77540073 0.91886608
0.91886608 0.77540073 0.91886608
0.91886608 0.77540073 0.91886608
0.00047898 0.91886608 0.91886608
0.18272562 0.91886608 0.91886608
0.41997449 0.91886608 0.91886608
0.60957546 0.91886608 0.91886608
0.77540073 0.91886608 0.91886608
0.91886608 0.91886608 0.91886608
0.91886608 0.91886608 0.91886608
0.91886608 0.91886608 0.91886608
0.91886608 0.91886608 0.91886608
0.00047898 0.91886608 0.91886608
0.18272562 0.91886608 0.91886608
0.41997449 0.91886608 0.91886608
0.60957546 0.91886608 0.91886608
0.77540073 0.91886608 0.91886608
0.91886608 0.91886608 0.91886608
0.91886608 0.91886608 0.91886608
0.91886608 0.91886608 0.91886608
0.91886608 0.91886608 0.91886608
0.00047971 0.91886608 0.91886608
0.18272562 0.91886608 0.91886608
0.41997449 0.91886608 0.91886608
0.60957546 0.91886608 0.91886608
0.77540073 0.91886608 0.91886608
0.91886608 0.91886608 0.91886608
0.91886608 0.91886608 0.91886608
0.91886608 0.91886608 0.91886608
0.91886608 0.91886608 0.91886608
0.00048014 0.91886608 0.91886608
0.18272562 0.91886608 0.91886608
0.41997449 0.91886608 0.91886608
0.60957546 0.91886608 0.91886608
0.77540073 0.91886608 0.91886608
0.91886608 0.91886608 0.91886608
0.91886608 0.91886608 0.91886608
0.91886608 0.91886608 0.91886608
0.91886608 0.91886608 0.91886608
0.00047898 0.00048034 0.91886608
0.18272562 0.00048014 0.91886608
0.41997449 0.00048014 0.91886608
0.60957546 0.00048014 0.91886608
0.77540073 0.00047898 0.91886608
0.91886608 0.00048014 0.91886608
0.91886608 0.00047898 0.91886608
0.91886608 0.00048014 0.91886608
0.91886608 0.00048059 0.91886608
0.00047898 0.18272562 0.91886608
0.18272562 0.18272562 0.91886608
0.41997449 0.18272562 0.91886608
0.60957546 0.18272562 0.91886608
0.77540073 0.18272562 0.91886608
0.91886608 0.18272562 0.91886608
0.91886608 0.18272562 0.91886608
0.91886608 0.18272562 0.91886608
0.91886608 0.18272562 0.91886608
0.00047898 0.41997449 0.91886608
0.18272562 0.41997449 0.91886608
0.41997449 0.41997449 0.91886608
0.60957546 0.41997449 0.91886608
0.77540073 0.41997449 0.91886608
0.91886608 0.41997449 0.91886608
0.91886608 0.41997449 0.91886608
0.91886608 0.41997449 0.91886608
0.91886608 0.41997449 0.91886608
0.00047898 0.60957546 0.91886608
0.18272562 0.60957546 0.91886608
0.41997449 0.60957546 0.91886608
0.60957546 0.60957546 0.91886608
0.77540073 0.60957546 0.91886608
0.91886608 0.60957546 0.91886608
0.91886608 0.60957546 0.91886608
0.91886608 0.60957546 0.91886608
0.91886608 0.60957546 0.91886608
0.00047898 0.77540073 0.91886608
0.18272562 0.77540073 0.91886608
0.41997449 0.77540073 0.91886608
0.60957546 0.77540073 0.91886608
0.77540073 0.77540073 0.91886608
0.91886608 0.77540073 0.91886608
0.91886608 0.77540073 0.91886608
0.91886608 0.77540073 0.91886608
0.91886608 0.77540073 0.91886608
0.00047898 0.91886608 0.91886608
0.18272562 0.91886608 0.91886608
0.41997449 0.91886608 0.91886608
0.60957546 0.91886608 0.91886608
0.77540073 0.91886608 0.91886608
0.91886608 0.91886608 0.91886608
0.91886608 0.91886608 0.91886608
0.91886608 0.91886608 0.91886608
0.91886608 0.91886608 0.91886608
0.00047898 0.91886608 0.91886608
0.18272562 0.91886608 0.91886608
0.41997449 0.91886608 0.91886608
0.60957546 0.91886608 0.91886608
0.77540073 0.91886608 0.91886608
0.91886608 0.91886608 0.91886608
0.91886608 0.91886608 0.91886608
0.91886608 0.91886608 0.91886608
0.91886608 0.91886608 0.91886608
0.00047983 0.91886608 0.91886608
0.18272562 0.91886608 0.91886608
0.41997449 0.91886608 0.91886608
0.60957546 0.91886608 0.91886608
0.77540073 0.91886608 0.91886608
0.91886608 0.91886608 0.91886608
0.91886608 0.91886608 0.91886608
0.91886608 0.91886608 0.91886608
0.91886608 0.91886608 0.91886608
0.00048034 0.91886608 0.91886608
0.18272562 0.91886608 0.91886608
0.41997449 0.91886608 0.91886608
0.60957546 0.91886608 0.91886608
0.77540073 0.91886608 0.91886608
0.91886608 0.91886608 0.91886608
0.91886608 0.91886608 0.91886608
0.91886608 0.91886608 0.91886608
0.91886608 0.91886608 0.91886608
0.00047898 0.00048090 0.91886608
0.18272562 0.00047898 0.91886608
0.41997449 0.00048090 0.91886608
0.60957546 0.00048059 0.91886608
0.77540073 0.00048059 0.91886608
0.91886608 0.00048059 0.91886608
0.91886608 0.00048059 0.91886608
0.91886608 0.00047898 0.91886608
0.91886608 0.00048059 0.91886608
0.00048014 0.18272562 0.91886608
0.18272562 0.18272562 0.91886608
0.41997449 0.18272562 0.91886608
0.60957546 0.18272562 0.91886608
0.77540073 0.18272562 0.91886608
0.91886608 0.18272562 0.91886608
0.91886608 0.18272562 0.91886608
0.91886608 0.18272562 0.91886608
0.91886608 0.18272562 0.91886608
0.00047898 0.41997449 0.91886608
0.18272562 0.41997449 0.91886608
0.41997449 0.41997449 0.91886608
0.60957546 0.41997449 0.91886608
0.77540073 0.41997449 0.91886608
0.91886608 0.41997449 0.91886608
0.91886608 0.41997449 0.91886608
0.91886608 0.41997449 0.91886608
0.91886608 0.41997449 0.91886608
0.00047898 0.60957546 0.91886608
0.18272562 0.60957546 0.91886608
0.41997449 0.60957546 0.91886608
0.60957546 0.60957546 0.91886608
0.77540073 0.60957546 0.91886608
0.91886608 0.60957546 0.91886608
0.91886608 0.60957546 0.91886608
0.91886608 0.60957546 0.91886608
0.91886608 0.60957546 0.91886608
0.00047898 0.77540073 0.91886608
0.18272562 0.77540073 0.91886608
0.41997449 0.77540073 0.91886608
0.60957546 0.77540073 0.91886608
0.77540073 0.77540073 0.91886608
0.91886608 0.77540073 0.91886608
0.91886608 0.77540073 0.91886608
0.91886608 0.77540073 0.91886608
0.91886608 0.77540073 0.91886608
0.00047898 0.91886608 0.91886608
0.18272562 0.91886608 0.91886608
0.41997449 0.91886608 0.91886608
0.60957546 0.91886608 0.91886608
0.77540073 0.91886608 0.91886608
0.91886608 0.91886608 0.91886608
0.91886608 0.91886608 0.91886608
0.91886608 0.91886608 0.91886608
0.91886608 0.91886608 0.91886608
0.00047898 0.91886608 0.91886608
0.18272562 0.91886608 0.91886608
0.41997449 0.91886608 0.91886608
0.60957546 0.91886608 0.91886608
0.77540073 0.91886608 0.91886608
0.91886608 0.91886608 0.91886608
0.91886608 0.91886608 0.91886608
0.91886608 0.91886608 0.91886608
0.91886608 0.91886608 0.91886608
0.00047898 0.91886608 0.91886608
0.18272562 0.91886608 0.91886608
0.41997449 0.91886608 0.91886608
0.60957546 0.91886608 0.91886608
0.77540073 0.91886608 0.91886608
0.91886608 0.91886608 0.91886608
0.91886608 0.91886608 0.91886608
0.91886608 0.91886608 0.91886608
0.91886608 0.91886608 0.91886608
0.00048034 0.91886608 0.91886608
0.18272562 0.91886608 0.91886608
0.41997449 0.91886608 0.91886608
0.60957546 0.91886608 0.91886608
0.77540073 0.91886608 0.91886608
0.91886608 0.91886608 0.91886608
0.91886608 0.91886608 0.91886608
0.91886608 0.91886608 0.91886608
0.91886608 0.91886608 0.91886608
