src/ffmpeg_scripts/luts/luminance-unclipped_1p33.cube
TITLE "luminance-unclipped_1p33"
LUT_3D_SIZE 9
# PQ (EOTF Only)/Rec2020 -> PQ (EOTF Only)/Rec2020, CineEI Shift 1.33, Black Level -7.25% IRE, Input 109% -> Output 109% - Created with LUTCalc v4.01 by Ben Turley October 2020
0.00047898 0.00047898 0.00047898
0.10446851 0.00047898 0.00047898
0.28291169 0.00047898 0.00047898
0.44670991 0.00047898 0.00047898
0.60214173 0.00047920 0.00047898
0.75168696 0.00047898 0.00047898
0.89669567 0.00047931 0.00047898
0.91886608 0.00047898 0.00047898
0.91886608 0.00047975 0.00047983
0.00047908 0.10446851 0.00047898
0.10446851 0.10446851 0.00047898
0.28291169 0.10446851 0.00047898
0.44670991 0.10446851 0.00047918
0.60214173 0.10446851 0.00047898
0.75168696 0.10446851 0.00047898
0.89669567 0.10446851 0.00047940
0.91886608 0.10446851 0.00047961
0.91886608 0.10446851 0.00047971
0.00047914 0.28291169 0.00047898
0.10446851 0.28291169 0.00047898
0.28291169 0.28291169 0.00047898
0.44670991 0.28291169 0.00047898
0.60214173 0.28291169 0.00047923
0.75168696 0.28291169 0.00047898
0.89669567 0.28291169 0.00047940
0.91886608 0.28291169 0.00047898
0.91886608 0.28291169 0.00047898
0.00047922 0.44670991 0.00047918
0.10446851 0.44670991 0.00047898
0.28291169 0.44670991 0.00047898
0.44670991 0.44670991 0.00047920
0.60214173 0.44670991 0.00047923
0.75168696 0.44670991 0.00047931
0.89669567 0.44670991 0.00047898
0.91886608 0.44670991 0.00047898
0.91886608 0.44670991 0.00047971
0.00047923 0.60214173 0.00047898
0.10446851 0.60214173 0.00047923
0.28291169 0.60214173 0.00047898
0.44670991 0.60214173 0.00047898
0.60214173 0.60214173 0.00047898
0.75168696 0.60214173 0.00047898
0.89669567 0.60214173 0.00047898
0.91886608 0.60214173 0.00047898
0.91886608 0.60214173 0.00047898
0.00047932 0.75168696 0.00047931
0.10446851 0.75168696 0.00047898
0.28291169 0.75168696 0.00047931
0.44670991 0.75168696 0.00047898
0.60214173 0.75168696 0.00047935
0.75168696 0.75168696 0.00047935
0.89669567 0.75168696 0.00047898
0.91886608 0.75168696 0.00047898
0.91886608 0.75168696 0.00047898
0.00047927 0.89669567 0.00047898
0.10446851 0.89669567 0.00047898
0.28291169 0.89669567 0.00047898
0.44670991 0.89669567 0.00047898
0.60214173 0.89669567 0.00047940
0.75168696 0.89669567 0.00047898
0.89669567 0.89669567 0.00047946
0.91886608 0.89669567 0.00047898
0.91886608 0.89669567 0.00047971
0.00047959 0.91886608 0.00047898
0.10446851 0.91886608 0.00047898
0.28291169 0.91886608 0.00047898
0.44670991 0.91886608 0.00047898
0.60214173 0.91886608 0.00047898
0.75168696 0.91886608 0.00047898
0.89669567 0.91886608 0.00047898
0.91886608 0.91886608 0.00047898
0.91886608 0.91886608 0.00047898
0.00047980 0.91886608 0.00047898
0.10446851 0.91886608 0.00047983
0.28291169 0.91886608 0.00047971
0.44670991 0.91886608 0.00047898
0.60214173 0.91886608 0.00047898
0.75168696 0.91886608 0.00047898
0.89669567 0.91886608 0.00047971
0.91886608 0.91886608 0.00047898
0.91886608 0.91886608 0.00047898
0.00047898 0.00047909 0.10446851
0.10446851 0.00047910 0.10446851
0.28291169 0.00047898 0.10446851
0.44670991 0.00047918 0.10446851
0.60214173 0.00047928 0.10446851
0.75168696 0.00047898 0.10446851
0.89669567 0.00047938 0.10446851
0.91886608 0.00047952 0.10446851
0.91886608 0.00047898 0.10446851
0.00047908 0.10446851 0.10446851
0.10446851 0.10446851 0.10446851
0.28291169 0.10446851 0.10446851
0.44670991 0.10446851 0.10446851
0.60214173 0.10446851 0.10446851
0.75168696 0.10446851 0.10446851
0.89669567 0.10446851 0.10446851
0.91886608 0.10446851 0.10446851
0.91886608 0.10446851 0.10446851
0.00047911 0.28291169 0.10446851
0.10446851 0.28291169 0.10446851
0.28291169 0.28291169 0.10446851
0.44670991 0.28291169 0.10446851
0.60214173 0.28291169 0.10446851
0.75168696 0.28291169 0.10446851
0.89669567 0.28291169 0.10446851
0.91886608 0.28291169 0.10446851
0.91886608 0.28291169 0.10446851
0.00047921 0.44670991 0.10446851
0.10446851 0.44670991 0.10446851
0.28291169 0.44670991 0.10446851
0.44670991 0.44670991 0.10446851
0.60214173 0.44670991 0.10446851
0.75168696 0.44670991 0.10446851
0.89669567 0.44670991 0.10446851
0.91886608 0.44670991 0.10446851
0.91886608 0.44670991 0.10446851
0.00047919 0.60214173 0.10446851
0.10446851 0.60214173 0.10446851
0.28291169 0.60214173 0.10446851
0.44670991 0.60214173 0.10446851
0.60214173 0.60214173 0.10446851
0.75168696 0.60214173 0.10446851
0.89669567 0.60214173 0.10446851
0.91886608 0.60214173 0.10446851
0.91886608 0.60214173 0.10446851
0.00047939 0.75168696 0.10446851
0.10446851 0.75168696 0.10446851
0.28291169 0.75168696 0.10446851
0.44670991 0.75168696 0.10446851
0.60214173 0.75168696 0.10446851
0.75168696 0.75168696 0.10446851
0.89669567 0.75168696 0.10446851
0.91886608 0.75168696 0.10446851
0.91886608 0.75168696 0.10446851
0.00047950 0.89669567 0.10446851
0.10446851 0.89669567 0.10446851
0.28291169 0.89669567 0.10446851
0.44670991 0.89669567 0.10446851
0.60214173 0.89669567 0.10446851
0.75168696 0.89669567 0.10446851
0.89669567 0.89669567 0.10446851
0.91886608 0.89669567 0.10446851
0.91886608 0.89669567 0.10446851
0.00047898 0.91886608 0.10446851
0.10446851 0.91886608 0.10446851
0.28291169 0.91886608 0.10446851
0.44670991 0.91886608 0.10446851
0.60214173 0.91886608 0.10446851
0.75168696 0.91886608 0.10446851
0.89669567 0.91886608 0.10446851
0.91886608 0.91886608 0.10446851
0.91886608 0.91886608 0.10446851
0.00047992 0.91886608 0.10446851
0.10446851 0.91886608 0.10446851
0.28291169 0.91886608 0.10446851
0.44670991 0.91886608 0.10446851
0.60214173 0.91886608 0.10446851
0.75168696 0.91886608 0.10446851
0.89669567 0.91886608 0.10446851
0.91886608 0.91886608 0.10446851
0.91886608 0.91886608 0.10446851
0.00047898 0.00047920 0.28291169
0.10446851 0.00047898 0.28291169
0.28291169 0.00047918 0.28291169
0.44670991 0.00047898 0.28291169
0.60214173 0.00047923 0.28291169
0.75168696 0.00047898 0.28291169
0.89669567 0.00047940 0.28291169
0.91886608 0.00047898 0.28291169
0.91886608 0.00047967 0.28291169
0.00047898 0.10446851 0.28291169
0.10446851 0.10446851 0.28291169
0.28291169 0.10446851 0.28291169
0.44670991 0.10446851 0.28291169
0.60214173 0.10446851 0.28291169
0.75168696 0.10446851 0.28291169
0.89669567 0.10446851 0.28291169
0.91886608 0.10446851 0.28291169
0.91886608 0.10446851 0.28291169
0.00047914 0.28291169 0.28291169
0.10446851 0.28291169 0.28291169
0.28291169 0.28291169 0.28291169
0.44670991 0.28291169 0.28291169
0.60214173 0.28291169 0.28291169
0.75168696 0.28291169 0.28291169
0.89669567 0.28291169 0.28291169
0.91886608 0.28291169 0.28291169
0.91886608 0.28291169 0.28291169
0.00047921 0.44670991 0.28291169
0.10446851 0.44670991 0.28291169
0.28291169 0.44670991 0.28291169
0.44670991 0.44670991 0.28291169
0.60214173 0.44670991 0.28291169
0.75168696 0.44670991 0.28291169
0.89669567 0.44670991 0.28291169
0.91886608 0.44670991 0.28291169
0.91886608 0.44670991 0.28291169
0.00047930 0.60214173 0.28291169
0.10446851 0.60214173 0.28291169
0.28291169 0.60214173 0.28291169
0.44670991 0.60214173 0.28291169
0.60214173 0.60214173 0.28291169
0.75168696 0.60214173 0.28291169
0.89669567 0.60214173 0.28291169
0.91886608 0.60214173 0.28291169
0.91886608 0.60214173 0.28291169
0.00047935 0.75168696 0.28291169
0.10446851 0.75168696 0.28291169
0.28291169 0.75168696 0.28291169
0.44670991 0.75168696 0.28291169
0.60214173 0.75168696 0.28291169
0.75168696 0.75168696 0.28291169
0.89669567 0.75168696 0.28291169
0.91886608 0.75168696 0.28291169
0.91886608 0.75168696 0.28291169
0.00047931 0.89669567 0.28291169
0.10446851 0.89669567 0.28291169
0.28291169 0.89669567 0.28291169
0.44670991 0.89669567 0.28291169
0.60214173 0.89669567 0.28291169
0.75168696 0.89669567 0.28291169
0.89669567 0.89669567 0.28291169
0.91886608 0.89669567 0.28291169
0.91886608 0.89669567 0.28291169
0.00047963 0.91886608 0.28291169
0.10446851 0.91886608 0.28291169
0.28291169 0.91886608 0.28291169
0.44670991 0.91886608 0.28291169
0.60214173 0.91886608 0.28291169
0.75168696 0.91886608 0.28291169
0.89669567 0.91886608 0.28291169
0.91886608 0.91886608 0.28291169
0.91886608 0.91886608 0.28291169
0.00047978 0.91886608 0.28291169
0.10446851 0.91886608 0.28291169
0.28291169 0.91886608 0.28291169
0.44670991 0.91886608 0.28291169
0.60214173 0.91886608 0.28291169
0.75168696 0.91886608 0.28291169
0.89669567 0.91886608 0.28291169
0.91886608 0.91886608 0.28291169
0.91886608 0.91886608 0.28291169
0.00047898 0.00047923 0.44670991
0.10446851 0.00047923 0.44670991
0.28291169 0.00047923 0.44670991
0.44670991 0.00047929 0.44670991
0.60214173 0.00047927 0.44670991
0.75168696 0.00047931 0.44670991
0.89669567 0.00047931 0.44670991
0.91886608 0.00047953 0.44670991
0.91886608 0.00047975 0.44670991
0.00047898 0.10446851 0.44670991
0.10446851 0.10446851 0.44670991
0.28291169 0.10446851 0.44670991
0.44670991 0.10446851 0.44670991
0.60214173 0.10446851 0.44670991
0.75168696 0.10446851 0.44670991
0.89669567 0.10446851 0.44670991
0.91886608 0.10446851 0.44670991
0.91886608 0.10446851 0.44670991
0.00047898 0.28291169 0.44670991
0.10446851 0.28291169 0.44670991
0.28291169 0.28291169 0.44670991
0.44670991 0.28291169 0.44670991
0.60214173 0.28291169 0.44670991
0.75168696 0.28291169 0.44670991
0.89669567 0.28291169 0.44670991
0.91886608 0.28291169 0.44670991
0.91886608 0.28291169 0.44670991
0.00047920 0.44670991 0.44670991
0.10446851 0.44670991 0.44670991
0.28291169 0.44670991 0.44670991
0.44670991 0.44670991 0.44670991
0.60214173 0.44670991 0.44670991
0.75168696 0.44670991 0.44670991
0.89669567 0.44670991 0.44670991
0.91886608 0.44670991 0.44670991
0.91886608 0.44670991 0.44670991
0.00047920 0.60214173 0.44670991
0.10446851 0.60214173 0.44670991
0.28291169 0.60214173 0.44670991
0.44670991 0.60214173 0.44670991
0.60214173 0.60214173 0.44670991
0.75168696 0.60214173 0.44670991
0.89669567 0.60214173 0.44670991
0.91886608 0.60214173 0.44670991
0.91886608 0.60214173 0.44670991
0.00047932 0.75168696 0.44670991
0.10446851 0.75168696 0.44670991
0.28291169 0.75168696 0.44670991
0.44670991 0.75168696 0.44670991
0.60214173 0.75168696 0.44670991
0.75168696 0.75168696 0.44670991
0.89669567 0.75168696 0.44670991
0.91886608 0.75168696 0.44670991
0.91886608 0.75168696 0.44670991
0.00047949 0.89669567 0.44670991
0.10446851 0.89669567 0.44670991
0.28291169 0.89669567 0.44670991
0.44670991 0.89669567 0.44670991
0.60214173 0.89669567 0.44670991
0.75168696 0.89669567 0.44670991
0.89669567 0.89669567 0.44670991
0.91886608 0.89669567 0.44670991
0.91886608 0.89669567 0.44670991
0.00047957 0.91886608 0.44670991
0.10446851 0.91886608 0.44670991
0.28291169 0.91886608 0.44670991
0.44670991 0.91886608 0.44670991
0.60214173 0.91886608 0.44670991
0.75168696 0.91886608 0.44670991
0.89669567 0.91886608 0.44670991
0.91886608 0.91886608 0.44670991
0.91886608 0.91886608 0.44670991
0.00047979 0.91886608 0.44670991
0.10446851 0.91886608 0.44670991
0.28291169 0.91886608 0.44670991
0.44670991 0.91886608 0.44670991
0.60214173 0.91886608 0.44670991
0.75168696 0.91886608 0.44670991
0.89669567 0.91886608 0.44670991
0.91886608 0.91886608 0.44670991
0.91886608 0.91886608 0.44670991
0.00047927 0.00047935 0.60214173
0.10446851 0.00047940 0.60214173
0.28291169 0.00047898 0.60214173
0.44670991 0.00047898 0.60214173
0.60214173 0.00047898 0.60214173
0.75168696 0.00047898 0.60214173
0.89669567 0.00047946 0.60214173
0.91886608 0.00047958 0.60214173
0.91886608 0.00047989 0.60214173
0.00047898 0.10446851 0.60214173
0.10446851 0.10446851 0.60214173
0.28291169 0.10446851 0.60214173
0.44670991 0.10446851 0.60214173
0.60214173 0.10446851 0.60214173
0.75168696 0.10446851 0.60214173
0.89669567 0.10446851 0.60214173
0.91886608 0.10446851 0.60214173
0.91886608 0.10446851 0.60214173
0.00047898 0.28291169 0.60214173
0.10446851 0.28291169 0.60214173
0.28291169 0.28291169 0.60214173
0.44670991 0.28291169 0.60214173
0.60214173 0.28291169 0.60214173
0.75168696 0.28291169 0.60214173
0.89669567 0.28291169 0.60214173
0.91886608 0.28291169 0.60214173
0.91886608 0.28291169 0.60214173
0.00047898 0.44670991 0.60214173
0.10446851 0.44670991 0.60214173
0.28291169 0.44670991 0.60214173
0.44670991 0.44670991 0.60214173
0.60214173 0.44670991 0.60214173
0.75168696 0.44670991 0.60214173
0.89669567 0.44670991 0.60214173
0.91886608 0.44670991 0.60214173
0.91886608 0.44670991 0.60214173
0.00047898 0.60214173 0.60214173
0.10446851 0.60214173 0.60214173
0.28291169 0.60214173 0.60214173
0.44670991 0.60214173 0.60214173
0.60214173 0.60214173 0.60214173
0.75168696 0.60214173 0.60214173
0.89669567 0.60214173 0.60214173
0.91886608 0.60214173 0.60214173
0.91886608 0.60214173 0.60214173
0.00047935 0.75168696 0.60214173
0.10446851 0.75168696 0.60214173
0.28291169 0.75168696 0.60214173
0.44670991 0.75168696 0.60214173
0.60214173 0.75168696 0.60214173
0.75168696 0.75168696 0.60214173
0.89669567 0.75168696 0.60214173
0.91886608 0.75168696 0.60214173
0.91886608 0.75168696 0.60214173
0.00047956 0.89669567 0.60214173
0.10446851 0.89669567 0.60214173
0.28291169 0.89669567 0.60214173
0.44670991 0.89669567 0.60214173
0.60214173 0.89669567 0.60214173
0.75168696 0.89669567 0.60214173
0.89669567 0.89669567 0.60214173
0.91886608 0.89669567 0.60214173
0.91886608 0.89669567 0.60214173
0.00047964 0.91886608 0.60214173
0.10446851 0.91886608 0.60214173
0.28291169 0.91886608 0.60214173
0.44670991 0.91886608 0.60214173
0.60214173 0.91886608 0.60214173
0.75168696 0.91886608 0.60214173
0.89669567 0.91886608 0.60214173
0.91886608 0.91886608 0.60214173
0.91886608 0.91886608 0.60214173
0.00047898 0.91886608 0.60214173
0.10446851 0.91886608 0.60214173
0.28291169 0.91886608 0.60214173
0.44670991 0.91886608 0.60214173
0.60214173 0.91886608 0.60214173
0.75168696 0.91886608 0.60214173
0.89669567 0.91886608 0.60214173
0.91886608 0.91886608 0.60214173
0.91886608 0.91886608 0.60214173
0.00047898 0.00047946 0.75168696
0.10446851 0.00047946 0.75168696
0.28291169 0.00047946 0.75168696
0.44670991 0.00047953 0.75168696
0.60214173 0.00047953 0.75168696
0.75168696 0.00047946 0.75168696
0.89669567 0.00047898 0.75168696
0.91886608 0.00047953 0.75168696
0.91886608 0.00047898 0.75168696
0.00047898 0.10446851 0.75168696
0.10446851 0.10446851 0.75168696
0.28291169 0.10446851 0.75168696
0.44670991 0.10446851 0.75168696
0.60214173 0.10446851 0.75168696
0.75168696 0.10446851 0.75168696
0.89669567 0.10446851 0.75168696
0.91886608 0.10446851 0.75168696
0.91886608 0.10446851 0.75168696
0.00047898 0.28291169 0.75168696
0.10446851 0.28291169 0.75168696
0.28291169 0.28291169 0.75168696
0.44670991 0.28291169 0.75168696
0.60214173 0.28291169 0.75168696
0.75168696 0.28291169 0.75168696
0.89669567 0.28291169 0.75168696
0.91886608 0.28291169 0.75168696
0.91886608 0.28291169 0.75168696
0.00047940 0.44670991 0.75168696
0.10446851 0.44670991 0.75168696
0.28291169 0.44670991 0.75168696
0.44670991 0.44670991 0.75168696
0.60214173 0.44670991 0.75168696
0.75168696 0.44670991 0.75168696
0.89669567 0.44670991 0.75168696
0.91886608 0.44670991 0.75168696
0.91886608 0.44670991 0.75168696
0.00047898 0.60214173 0.75168696
0.10446851 0.60214173 0.75168696
0.28291169 0.60214173 0.75168696
0.44670991 0.60214173 0.75168696
0.60214173 0.60214173 0.75168696
0.75168696 0.60214173 0.75168696
0.89669567 0.60214173 0.75168696
0.91886608 0.60214173 0.75168696
0.91886608 0.60214173 0.75168696
0.00047935 0.75168696 0.75168696
0.10446851 0.75168696 0.75168696
0.28291169 0.75168696 0.75168696
0.44670991 0.75168696 0.75168696
0.60214173 0.75168696 0.75168696
0.75168696 0.75168696 0.75168696
0.89669567 0.75168696 0.75168696
0.91886608 0.75168696 0.75168696
0.91886608 0.75168696 0.75168696
0.00047948 0.89669567 0.75168696
0.10446851 0.89669567 0.75168696
0.28291169 0.89669567 0.75168696
0.44670991 0.89669567 0.75168696
0.60214173 0.89669567 0.75168696
0.75168696 0.89669567 0.75168696
0.89669567 0.89669567 0.75168696
0.91886608 0.89669567 0.75168696
0.91886608 0.89669567 0.75168696
0.00047950 0.91886608 0.75168696
0.10446851 0.91886608 0.75168696
0.28291169 0.91886608 0.75168696
0.44670991 0.91886608 0.75168696
0.60214173 0.91886608 0.75168696
0.75168696 0.91886608 0.75168696
0.89669567 0.91886608 0.75168696
0.91886608 0.91886608 0.75168696
0.91886608 0.91886608 0.75168696
0.00047992 0.91886608 0.75168696
0.10446851 0.91886608 0.75168696
0.28291169 0.91886608 0.75168696
0.44670991 0.91886608 0.75168696
0.60214173 0.91886608 0.75168696
0.75168696 0.91886608 0.75168696
0.89669567 0.91886608 0.75168696
0.91886608 0.91886608 0.75168696
0.91886608 0.91886608 0.75168696
0.00047898 0.00047967 0.89669567
0.10446851 0.00047898 0.89669567
0.28291169 0.00047898 0.89669567
0.44670991 0.00047961 0.89669567
0.60214173 0.00047898 0.89669567
0.75168696 0.00047953 0.89669567
0.89669567 0.00047898 0.89669567
0.91886608 0.00047898 0.89669567
0.91886608 0.00047971 0.89669567
0.00047898 0.10446851 0.89669567
0.10446851 0.10446851 0.89669567
0.28291169 0.10446851 0.89669567
0.44670991 0.10446851 0.89669567
0.60214173 0.10446851 0.89669567
0.75168696 0.10446851 0.89669567
0.89669567 0.10446851 0.89669567
0.91886608 0.10446851 0.89669567
0.91886608 0.10446851 0.89669567
0.00047898 0.28291169 0.89669567
0.10446851 0.28291169 0.89669567
0.28291169 0.28291169 0.89669567
0.44670991 0.28291169 0.89669567
0.60214173 0.28291169 0.89669567
0.75168696 0.28291169 0.89669567
0.89669567 0.28291169 0.89669567
0.91886608 0.28291169 0.89669567
0.91886608 0.28291169 0.89669567
0.00047898 0.44670991 0.89669567
0.10446851 0.44670991 0.89669567
0.28291169 0.44670991 0.89669567
0.44670991 0.44670991 0.89669567
0.60214173 0.44670991 0.89669567
0.75168696 0.44670991 0.89669567
0.89669567 0.44670991 0.89669567
0.91886608 0.44670991 0.89669567
0.91886608 0.44670991 0.89669567
0.00047898 0.60214173 0.89669567
0.10446851 0.60214173 0.89669567
0.28291169 0.60214173 0.89669567
0.44670991 0.60214173 0.89669567
0.60214173 0.60214173 0.89669567
0.75168696 0.60214173 0.89669567
0.89669567 0.60214173 0.89669567
0.91886608 0.60214173 0.89669567
0.91886608 0.60214173 0.89669567
0.00047898 0.75168696 0.89669567
0.10446851 0.75168696 0.89669567
0.28291169 0.75168696 0.89669567
0.44670991 0.75168696 0.89669567
0.60214173 0.75168696 0.89669567
0.75168696 0.75168696 0.89669567
0.89669567 0.75168696 0.89669567
0.91886608 0.75168696 0.89669567
0.91886608 0.75168696 0.89669567
0.00047898 0.89669567 0.89669567
0.10446851 0.89669567 0.89669567
0.28291169 0.89669567 0.89669567
0.44670991 0.89669567 0.89669567
0.60214173 0.89669567 0.89669567
0.75168696 0.89669567 0.89669567
0.89669567 0.89669567 0.89669567
0.91886608 0.89669567 0.89669567
0.91886608 0.89669567 0.89669567
0.00047946 0.91886608 0.89669567
0.10446851 0.91886608 0.89669567
0.28291169 0.91886608 0.89669567
0.44670991 0.91886608 0.89669567
0.60214173 0.91886608 0.89669567
0.75168696 0.91886608 0.89669567
0.89669567 0.91886608 0.89669567
0.91886608 0.91886608 0.89669567
0.91886608 0.91886608 0.89669567
0.00047983 0.91886608 0.89669567
0.10446851 0.91886608 0.89669567
0.28291169 0.91886608 0.89669567
0.44670991 0.91886608 0.89669567
0.60214173 0.91886608 0.89669567
0.75168696 0.91886608 0.89669567
0.89669567 0.91886608 0.89669567
0.91886608 0.91886608 0.89669567
0.91886608 0.91886608 0.89669567
0.00047898 0.00047971 0.91886608
0.10446851 0.00047983 0.91886608
0.28291169 0.00047983 0.91886608
0.44670991 0.00047983 0.91886608
0.60214173 0.00047898 0.91886608
0.75168696 0.00047898 0.91886608
0.89669567 0.00047983 0.91886608
0.91886608 0.00047971 0.91886608
0.91886608 0.00048006 0.91886608
0.00047898 0.10446851 0.91886608
0.10446851 0.10446851 0.91886608
0.28291169 0.10446851 0.91886608
0.44670991 0.10446851 0.91886608
0.60214173 0.10446851 0.91886608
0.75168696 0.10446851 0.91886608
0.89669567 0.10446851 0.91886608
0.91886608 0.10446851 0.91886608
0.91886608 0.10446851 0.91886608
0.00047898 0.28291169 0.91886608
0.10446851 0.28291169 0.91886608
0.28291169 0.28291169 0.91886608
0.44670991 0.28291169 0.91886608
0.60214173 0.28291169 0.91886608
0.75168696 0.28291169 0.91886608
0.89669567 0.28291169 0.91886608
0.91886608 0.28291169 0.91886608
0.91886608 0.28291169 0.91886608
0.00047898 0.44670991 0.91886608
0.10446851 0.44670991 0.91886608
0.28291169 0.44670991 0.91886608
0.44670991 0.44670991 0.91886608
0.60214173 0.44670991 0.91886608
0.75168696 0.44670991 0.91886608
0.89669567 0.44670991 0.91886608
0.91886608 0.44670991 0.91886608
0.91886608 0.44670991 0.91886608
0.00047898 0.60214173 0.91886608
0.10446851 0.60214173 0.91886608
0.28291169 0.60214173 0.91886608
0.44670991 0.60214173 0.91886608
0.60214173 0.60214173 0.91886608
0.75168696 0.60214173 0.91886608
0.89669567 0.60214173 0.91886608
0.91886608 0.60214173 0.91886608
0.91886608 0.60214173 0.91886608
0.00047961 0.75168696 0.91886608
0.10446851 0.75168696 0.91886608
0.28291169 0.75168696 0.91886608
0.44670991 0.75168696 0.91886608
0.60214173 0.75168696 0.91886608
0.75168696 0.75168696 0.91886608
0.89669567 0.75168696 0.91886608
0.91886608 0.75168696 0.91886608
0.91886608 0.75168696 0.91886608
0.00047898 0.89669567 0.91886608
0.10446851 0.89669567 0.91886608
0.28291169 0.89669567 0.91886608
0.44670991 0.89669567 0.91886608
0.60214173 0.89669567 0.91886608
0.75168696 0.89669567 0.91886608
0.89669567 0.89669567 0.91886608
0.91886608 0.89669567 0.91886608
0.91886608 0.89669567 0.91886608
0.00047898 0.91886608 0.91886608
0.10446851 0.91886608 0.91886608
0.28291169 0.91886608 0.91886608
0.44670991 0.91886608 0.91886608
0.60214173 0.91886608 0.91886608
0.75168696 0.91886608 0.91886608
0.89669567 0.91886608 0.91886608
0.91886608 0.91886608 0.91886608
0.91886608 0.91886608 0.91886608
0.00047987 0.91886608 0.91886608
0.10446851 0.91886608 0.91886608
0.28291169 0.91886608 0.91886608
0.44670991 0.91886608 0.91886608
0.60214173 0.91886608 0.91886608
0.75168696 0.91886608 0.91886608
0.89669567 0.91886608 0.91886608
0.91886608 0.91886608 0.91886608
0.91886608 0.91886608 0.91886608
0.00047898 0.00048014 0.91886608
0.10446851 0.00047898 0.91886608
0.28291169 0.00048025 0.91886608
0.44670991 0.00048014 0.91886608
0.60214173 0.00048025 0.91886608
0.75168696 0.00047997 0.91886608
0.89669567 0.00048014 0.91886608
0.91886608 0.00048014 0.91886608
0.91886608 0.00048014 0.91886608
0.00047983 0.10446851 0.91886608
0.10446851 0.10446851 0.91886608
0.28291169 0.10446851 0.91886608
0.44670991 0.10446851 0.91886608
0.60214173 0.10446851 0.91886608
0.75168696 0.10446851 0.91886608
0.89669567 0.10446851 0.91886608
0.91886608 0.10446851 0.91886608
0.91886608 0.10446851 0.91886608
0.00047983 0.28291169 0.91886608
0.10446851 0.28291169 0.91886608
0.28291169 0.28291169 0.91886608
0.44670991 0.28291169 0.91886608
0.60214173 0.28291169 0.91886608
0.75168696 0.28291169 0.91886608
0.89669567 0.28291169 0.91886608
0.91886608 0.28291169 0.91886608
0.91886608 0.28291169 0.91886608
0.00047997 0.44670991 0.91886608
0.10446851 0.44670991 0.91886608
0.28291169 0.44670991 0.91886608
0.44670991 0.44670991 0.91886608
0.60214173 0.44670991 0.91886608
0.75168696 0.44670991 0.91886608
0.89669567 0.44670991 0.91886608
0.91886608 0.44670991 0.91886608
0.91886608 0.44670991 0.91886608
0.00047898 0.60214173 0.91886608
0.10446851 0.60214173 0.91886608
0.28291169 0.60214173 0.91886608
0.44670991 0.60214173 0.91886608
0.60214173 0.60214173 0.91886608
0.75168696 0.60214173 0.91886608
0.89669567 0.60214173 0.91886608
0.91886608 0.60214173 0.91886608
0.91886608 0.60214173 0.91886608
0.00047898 0.75168696 0.91886608
0.10446851 0.75168696 0.91886608
0.28291169 0.75168696 0.91886608
0.44670991 0.75168696 0.91886608
0.60214173 0.75168696 0.91886608
0.75168696 0.75168696 0.91886608
0.89669567 0.75168696 0.91886608
0.91886608 0.75168696 0.91886608
0.91886608 0.75168696 0.91886608
0.00047898 0.89669567 0.91886608
0.10446851 0.89669567 0.91886608
0.28291169 0.89669567 0.91886608
0.44670991 0.89669567 0.91886608
0.60214173 0.89669567 0.91886608
0.75168696 0.89669567 0.91886608
0.89669567 0.89669567 0.91886608
0.91886608 0.89669567 0.91886608
0.91886608 0.89669567 0.91886608
0.00047898 0.91886608 0.91886608
0.10446851 0.91886608 0.91886608
0.28291169 0.91886608 0.91886608
0.44670991 0.91886608 0.91886608
0.60214173 0.91886608 0.91886608
0.75168696 0.91886608 0.91886608
0.89669567 0.91886608 0.91886608
0.91886608 0.91886608 0.91886608
0.91886608 0.91886608 0.91886608
0.00047898 0.91886608 0.91886608
0.10446851 0.91886608 0.91886608
0.28291169 0.91886608 0.91886608
0.44670991 0.91886608 0.91886608
0.60214173 0.91886608 0.91886608
0.75168696 0.91886608 0.91886608
0.89669567 0.91886608 0.91886608
0.91886608 0.91886608 0.91886608
0.91886608 0.91886608 0.91886608
