src/ffmpeg_scripts/luts/luminance_3p33.cube
TITLE "luminance_3p33"
LUT_3D_SIZE 5
# PQ (EOTF Only)/Rec2020 -> PQ (EOTF Only)/Rec2020, CineEI Shift 3.33, Black Level 0.00% IRE, Input 109% -> Output 109% - Created with LUTCalc v4.01 by Ben Turley October 2020
0.06256172 0.06256172 0.06256172
0.40626550 0.06256184 0.06256172
0.70966321 0.06256172 0.06256172
0.91886608 0.06256172 0.06256172
0.91886608 0.06256252 0.06256257
0.06256189 0.40626550 0.06256172
0.40626550 0.40626550 0.06256172
0.70966321 0.40626550 0.06256200
0.91886608 0.40626550 0.06256219
0.91886608 0.40626550 0.06256172
0.06256172 0.70966321 0.06256172
0.40626550 0.70966321 0.06256172
0.70966321 0.70966321 0.06256172
0.91886608 0.70966321 0.06256172
0.91886608 0.70966321 0.06256172
0.06256226 0.91886608 0.06256172
0.40626550 0.91886608 0.06256172
0.70966321 0.91886608 0.06256172
0.91886608 0.91886608 0.06256172
0.91886608 0.91886608 0.06256272
0.06256267 0.91886608 0.06256172
0.40626550 0.91886608 0.06256257
0.70966321 0.91886608 0.06256172
0.91886608 0.91886608 0.06256257
0.91886608 0.91886608 0.06256172
0.06256172 0.06256194 0.40626550
0.40626550 0.06256172 0.40626550
0.70966321 0.06256197 0.40626550
0.91886608 0.06256172 0.40626550
0.91886608 0.06256235 0.40626550
0.06256172 0.40626550 0.40626550
0.40626550 0.40626550 0.40626550
0.70966321 0.40626550 0.40626550
0.91886608 0.40626550 0.40626550
0.91886608 0.40626550 0.40626550
0.06256200 0.70966321 0.40626550
0.40626550 0.70966321 0.40626550
0.70966321 0.70966321 0.40626550
0.91886608 0.70966321 0.40626550
0.91886608 0.70966321 0.40626550
0.06256172 0.91886608 0.40626550
0.40626550 0.91886608 0.40626550
0.70966321 0.91886608 0.40626550
0.91886608 0.91886608 0.40626550
0.91886608 0.91886608 0.40626550
0.06256261 0.91886608 0.40626550
0.40626550 0.91886608 0.40626550
0.70966321 0.91886608 0.40626550
0.91886608 0.91886608 0.40626550
0.91886608 0.91886608 0.40626550
0.06256172 0.06256213 0.70966321
0.40626550 0.06256172 0.70966321
0.70966321 0.06256213 0.70966321
0.91886608 0.06256172 0.70966321
0.91886608 0.06256245 0.70966321
0.06256172 0.40626550 0.70966321
0.40626550 0.40626550 0.70966321
0.70966321 0.40626550 0.70966321
0.91886608 0.40626550 0.70966321
0.91886608 0.40626550 0.70966321
0.06256172 0.70966321 0.70966321
0.40626550 0.70966321 0.70966321
0.70966321 0.70966321 0.70966321
0.91886608 0.70966321 0.70966321
0.91886608 0.70966321 0.70966321
0.06256229 0.91886608 0.70966321
0.40626550 0.91886608 0.70966321
0.70966321 0.91886608 0.70966321
0.91886608 0.91886608 0.70966321
0.91886608 0.91886608 0.70966321
0.06256172 0.91886608 0.70966321
0.40626550 0.91886608 0.70966321
0.70966321 0.91886608 0.70966321
0.91886608 0.91886608 0.70966321
0.91886608 0.91886608 0.70966321
0.06256172 0.06256235 0.91886608
0.40626550 0.06256172 0.91886608
0.70966321 0.06256235 0.91886608
0.91886608 0.06256245 0.91886608
0.91886608 0.06256172 0.91886608
0.06256172 0.40626550 0.91886608
0.40626550 0.40626550 0.91886608
0.70966321 0.40626550 0.91886608
0.91886608 0.40626550 0.91886608
0.91886608 0.40626550 0.91886608
0.06256172 0.70966321 0.91886608
0.40626550 0.70966321 0.91886608
0.70966321 0.70966321 0.91886608
0.91886608 0.70966321 0.91886608
0.91886608 0.70966321 0.91886608
0.06256172 0.91886608 0.91886608
0.40626550 0.91886608 0.91886608
0.70966321 0.91886608 0.91886608
0.91886608 0.91886608 0.91886608
0.91886608 0.91886608 0.91886608
0.06256265 0.91886608 0.91886608
0.40626550 0.91886608 0.91886608
0.70966321 0.91886608 0.91886608
0.91886608 0.91886608 0.91886608
0.91886608 0.91886608 0.91886608
0.06256272 0.06256311 0.91886608
0.40626550 0.06256311 0.91886608
0.70966321 0.06256326 0.91886608
0.91886608 0.06256289 0.91886608
0.91886608 0.06256311 0.91886608
0.06256172 0.40626550 0.91886608
0.40626550 0.40626550 0.91886608
0.70966321 0.40626550 0.91886608
0.91886608 0.40626550 0.91886608
0.91886608 0.40626550 0.91886608
0.06256172 0.70966321 0.91886608
0.40626550 0.70966321 0.91886608
0.70966321 0.70966321 0.91886608
0.91886608 0.70966321 0.91886608
0.91886608 0.70966321 0.91886608
0.06256172 0.91886608 0.91886608
0.40626550 0.91886608 0.91886608
0.70966321 0.91886608 0.91886608
0.91886608 0.91886608 0.91886608
0.91886608 0.91886608 0.91886608
0.06256272 0.91886608 0.91886608
0.40626550 0.91886608 0.91886608
0.70966321 0.91886608 0.91886608
0.91886608 0.91886608 0.91886608
0.91886608 0.91886608 0.91886608
