src/ffmpeg_scripts/luts/luminance_3p33.cube
TITLE "luminance_3p33"
LUT_3D_SIZE 9
# PQ (EOTF Only)/Rec2020 -> PQ (EOTF Only)/Rec2020, CineEI Shift 3.33, Black Level 0.00% IRE, Input 109% -> Output 109% - Created with LUTCalc v4.01 by Ben Turley October 2020
0.06256172 0.06256172 0.06256172
0.20853033 0.06256181 0.06256172
0.40626550 0.06256184 0.06256172
0.56729187 0.06256172 0.06256172
0.70966321 0.06256172 0.06256172
0.83981183 0.06256200 0.06256172
0.91886608 0.06256172 0.06256172
0.91886608 0.06256233 0.06256235
0.91886608 0.06256252 0.06256257
0.06256183 0.20853033 0.06256172
0.20853033 0.20853033 0.06256172
0.40626550 0.20853033 0.06256172
0.56729187 0.20853033 0.06256194
0.70966321 0.20853033 0.06256172
0.83981183 0.20853033 0.06256172
0.91886608 0.20853033 0.06256172
0.91886608 0.20853033 0.06256235
0.91886608 0.20853033 0.06256257
0.06256189 0.40626550 0.06256172
0.20853033 0.40626550 0.06256172
0.40626550 0.40626550 0.06256172
0.56729187 0.40626550 0.06256172
0.70966321 0.40626550 0.06256200
0.83981183 0.40626550 0.06256172
0.91886608 0.40626550 0.06256219
0.91886608 0.40626550 0.06256172
0.91886608 0.40626550 0.06256172
0.06256198 0.56729187 0.06256194
0.20853033 0.56729187 0.06256194
0.40626550 0.56729187 0.06256172
0.56729187 0.56729187 0.06256197
0.70966321 0.56729187 0.06256200
0.83981183 0.56729187 0.06256172
0.91886608 0.56729187 0.06256172
0.91886608 0.56729187 0.06256172
0.91886608 0.56729187 0.06256257
0.06256172 0.70966321 0.06256172
0.20853033 0.70966321 0.06256200
0.40626550 0.70966321 0.06256172
0.56729187 0.70966321 0.06256172
0.70966321 0.70966321 0.06256172
0.83981183 0.70966321 0.06256172
0.91886608 0.70966321 0.06256172
0.91886608 0.70966321 0.06256172
0.91886608 0.70966321 0.06256172
0.06256217 0.83981183 0.06256172
0.20853033 0.83981183 0.06256172
0.40626550 0.83981183 0.06256208
0.56729187 0.83981183 0.06256172
0.70966321 0.83981183 0.06256172
0.83981183 0.83981183 0.06256172
0.91886608 0.83981183 0.06256172
0.91886608 0.83981183 0.06256172
0.91886608 0.83981183 0.06256172
0.06256226 0.91886608 0.06256172
0.20853033 0.91886608 0.06256172
0.40626550 0.91886608 0.06256172
0.56729187 0.91886608 0.06256172
0.70966321 0.91886608 0.06256172
0.83981183 0.91886608 0.06256227
0.91886608 0.91886608 0.06256172
0.91886608 0.91886608 0.06256172
0.91886608 0.91886608 0.06256272
0.06256241 0.91886608 0.06256172
0.20853033 0.91886608 0.06256172
0.40626550 0.91886608 0.06256172
0.56729187 0.91886608 0.06256172
0.70966321 0.91886608 0.06256172
0.83981183 0.91886608 0.06256172
0.91886608 0.91886608 0.06256172
0.91886608 0.91886608 0.06256245
0.91886608 0.91886608 0.06256172
0.06256267 0.91886608 0.06256172
0.20853033 0.91886608 0.06256281
0.40626550 0.91886608 0.06256257
0.56729187 0.91886608 0.06256172
0.70966321 0.91886608 0.06256172
0.83981183 0.91886608 0.06256172
0.91886608 0.91886608 0.06256257
0.91886608 0.91886608 0.06256172
0.91886608 0.91886608 0.06256172
0.06256172 0.06256185 0.20853033
0.20853033 0.06256185 0.20853033
0.40626550 0.06256172 0.20853033
0.56729187 0.06256172 0.20853033
0.70966321 0.06256194 0.20853033
0.83981183 0.06256172 0.20853033
0.91886608 0.06256172 0.20853033
0.91886608 0.06256249 0.20853033
0.91886608 0.06256172 0.20853033
0.06256172 0.20853033 0.20853033
0.20853033 0.20853033 0.20853033
0.40626550 0.20853033 0.20853033
0.56729187 0.20853033 0.20853033
0.70966321 0.20853033 0.20853033
0.83981183 0.20853033 0.20853033
0.91886608 0.20853033 0.20853033
0.91886608 0.20853033 0.20853033
0.91886608 0.20853033 0.20853033
0.06256172 0.40626550 0.20853033
0.20853033 0.40626550 0.20853033
0.40626550 0.40626550 0.20853033
0.56729187 0.40626550 0.20853033
0.70966321 0.40626550 0.20853033
0.83981183 0.40626550 0.20853033
0.91886608 0.40626550 0.20853033
0.91886608 0.40626550 0.20853033
0.91886608 0.40626550 0.20853033
0.06256197 0.56729187 0.20853033
0.20853033 0.56729187 0.20853033
0.40626550 0.56729187 0.20853033
0.56729187 0.56729187 0.20853033
0.70966321 0.56729187 0.20853033
0.83981183 0.56729187 0.20853033
0.91886608 0.56729187 0.20853033
0.91886608 0.56729187 0.20853033
0.91886608 0.56729187 0.20853033
0.06256204 0.70966321 0.20853033
0.20853033 0.70966321 0.20853033
0.40626550 0.70966321 0.20853033
0.56729187 0.70966321 0.20853033
0.70966321 0.70966321 0.20853033
0.83981183 0.70966321 0.20853033
0.91886608 0.70966321 0.20853033
0.91886608 0.70966321 0.20853033
0.91886608 0.70966321 0.20853033
0.06256209 0.83981183 0.20853033
0.20853033 0.83981183 0.20853033
0.40626550 0.83981183 0.20853033
0.56729187 0.83981183 0.20853033
0.70966321 0.83981183 0.20853033
0.83981183 0.83981183 0.20853033
0.91886608 0.83981183 0.20853033
0.91886608 0.83981183 0.20853033
0.91886608 0.83981183 0.20853033
0.06256231 0.91886608 0.20853033
0.20853033 0.91886608 0.20853033
0.40626550 0.91886608 0.20853033
0.56729187 0.91886608 0.20853033
0.70966321 0.91886608 0.20853033
0.83981183 0.91886608 0.20853033
0.91886608 0.91886608 0.20853033
0.91886608 0.91886608 0.20853033
0.91886608 0.91886608 0.20853033
0.06256238 0.91886608 0.20853033
0.20853033 0.91886608 0.20853033
0.40626550 0.91886608 0.20853033
0.56729187 0.91886608 0.20853033
0.70966321 0.91886608 0.20853033
0.83981183 0.91886608 0.20853033
0.91886608 0.91886608 0.20853033
0.91886608 0.91886608 0.20853033
0.91886608 0.91886608 0.20853033
0.06256281 0.91886608 0.20853033
0.20853033 0.91886608 0.20853033
0.40626550 0.91886608 0.20853033
0.56729187 0.91886608 0.20853033
0.70966321 0.91886608 0.20853033
0.83981183 0.91886608 0.20853033
0.91886608 0.91886608 0.20853033
0.91886608 0.91886608 0.20853033
0.91886608 0.91886608 0.20853033
0.06256172 0.06256194 0.40626550
0.20853033 0.06256172 0.40626550
0.40626550 0.06256172 0.40626550
0.56729187 0.06256172 0.40626550
0.70966321 0.06256197 0.40626550
0.83981183 0.06256172 0.40626550
0.91886608 0.06256172 0.40626550
0.91886608 0.06256231 0.40626550
0.91886608 0.06256235 0.40626550
0.06256189 0.20853033 0.40626550
0.20853033 0.20853033 0.40626550
0.40626550 0.20853033 0.40626550
0.56729187 0.20853033 0.40626550
0.70966321 0.20853033 0.40626550
0.83981183 0.20853033 0.40626550
0.91886608 0.20853033 0.40626550
0.91886608 0.20853033 0.40626550
0.91886608 0.20853033 0.40626550
0.06256172 0.40626550 0.40626550
0.20853033 0.40626550 0.40626550
0.40626550 0.40626550 0.40626550
0.56729187 0.40626550 0.40626550
0.70966321 0.40626550 0.40626550
0.83981183 0.40626550 0.40626550
0.91886608 0.40626550 0.40626550
0.91886608 0.40626550 0.40626550
0.91886608 0.40626550 0.40626550
0.06256172 0.56729187 0.40626550
0.20853033 0.56729187 0.40626550
0.40626550 0.56729187 0.40626550
0.56729187 0.56729187 0.40626550
0.70966321 0.56729187 0.40626550
0.83981183 0.56729187 0.40626550
0.91886608 0.56729187 0.40626550
0.91886608 0.56729187 0.40626550
0.91886608 0.56729187 0.40626550
0.06256200 0.70966321 0.40626550
0.20853033 0.70966321 0.40626550
0.40626550 0.70966321 0.40626550
0.56729187 0.70966321 0.40626550
0.70966321 0.70966321 0.40626550
0.83981183 0.70966321 0.40626550
0.91886608 0.70966321 0.40626550
0.91886608 0.70966321 0.40626550
0.91886608 0.70966321 0.40626550
0.06256219 0.83981183 0.40626550
0.20853033 0.83981183 0.40626550
0.40626550 0.83981183 0.40626550
0.56729187 0.83981183 0.40626550
0.70966321 0.83981183 0.40626550
0.83981183 0.83981183 0.40626550
0.91886608 0.83981183 0.40626550
0.91886608 0.83981183 0.40626550
0.91886608 0.83981183 0.40626550
0.06256172 0.91886608 0.40626550
0.20853033 0.91886608 0.40626550
0.40626550 0.91886608 0.40626550
0.56729187 0.91886608 0.40626550
0.70966321 0.91886608 0.40626550
0.83981183 0.91886608 0.40626550
0.91886608 0.91886608 0.40626550
0.91886608 0.91886608 0.40626550
0.91886608 0.91886608 0.40626550
0.06256245 0.91886608 0.40626550
0.20853033 0.91886608 0.40626550
0.40626550 0.91886608 0.40626550
0.56729187 0.91886608 0.40626550
0.70966321 0.91886608 0.40626550
0.83981183 0.91886608 0.40626550
0.91886608 0.91886608 0.40626550
0.91886608 0.91886608 0.40626550
0.91886608 0.91886608 0.40626550
0.06256261 0.91886608 0.40626550
0.20853033 0.91886608 0.40626550
0.40626550 0.91886608 0.40626550
0.56729187 0.91886608 0.40626550
0.70966321 0.91886608 0.40626550
0.83981183 0.91886608 0.40626550
0.91886608 0.91886608 0.40626550
0.91886608 0.91886608 0.40626550
0.91886608 0.91886608 0.40626550
0.06256172 0.06256204 0.56729187
0.20853033 0.06256172 0.56729187
0.40626550 0.06256200 0.56729187
0.56729187 0.06256200 0.56729187
0.70966321 0.06256204 0.56729187
0.83981183 0.06256215 0.56729187
0.91886608 0.06256172 0.56729187
0.91886608 0.06256219 0.56729187
0.91886608 0.06256252 0.56729187
0.06256172 0.20853033 0.56729187
0.20853033 0.20853033 0.56729187
0.40626550 0.20853033 0.56729187
0.56729187 0.20853033 0.56729187
0.70966321 0.20853033 0.56729187
0.83981183 0.20853033 0.56729187
0.91886608 0.20853033 0.56729187
0.91886608 0.20853033 0.56729187
0.91886608 0.20853033 0.56729187
0.06256172 0.40626550 0.56729187
0.20853033 0.40626550 0.56729187
0.40626550 0.40626550 0.56729187
0.56729187 0.40626550 0.56729187
0.70966321 0.40626550 0.56729187
0.83981183 0.40626550 0.56729187
0.91886608 0.40626550 0.56729187
0.91886608 0.40626550 0.56729187
0.91886608 0.40626550 0.56729187
0.06256172 0.56729187 0.56729187
0.20853033 0.56729187 0.56729187
0.40626550 0.56729187 0.56729187
0.56729187 0.56729187 0.56729187
0.70966321 0.56729187 0.56729187
0.83981183 0.56729187 0.56729187
0.91886608 0.56729187 0.56729187
0.91886608 0.56729187 0.56729187
0.91886608 0.56729187 0.56729187
0.06256202 0.70966321 0.56729187
0.20853033 0.70966321 0.56729187
0.40626550 0.70966321 0.56729187
0.56729187 0.70966321 0.56729187
0.70966321 0.70966321 0.56729187
0.83981183 0.70966321 0.56729187
0.91886608 0.70966321 0.56729187
0.91886608 0.70966321 0.56729187
0.91886608 0.70966321 0.56729187
0.06256172 0.83981183 0.56729187
0.20853033 0.83981183 0.56729187
0.40626550 0.83981183 0.56729187
0.56729187 0.83981183 0.56729187
0.70966321 0.83981183 0.56729187
0.83981183 0.83981183 0.56729187
0.91886608 0.83981183 0.56729187
0.91886608 0.83981183 0.56729187
0.91886608 0.83981183 0.56729187
0.06256236 0.91886608 0.56729187
0.20853033 0.91886608 0.56729187
0.40626550 0.91886608 0.56729187
0.56729187 0.91886608 0.56729187
0.70966321 0.91886608 0.56729187
0.83981183 0.91886608 0.56729187
0.91886608 0.91886608 0.56729187
0.91886608 0.91886608 0.56729187
0.91886608 0.91886608 0.56729187
0.06256237 0.91886608 0.56729187
0.20853033 0.91886608 0.56729187
0.40626550 0.91886608 0.56729187
0.56729187 0.91886608 0.56729187
0.70966321 0.91886608 0.56729187
0.83981183 0.91886608 0.56729187
0.91886608 0.91886608 0.56729187
0.91886608 0.91886608 0.56729187
0.91886608 0.91886608 0.56729187
0.06256263 0.91886608 0.56729187
0.20853033 0.91886608 0.56729187
0.40626550 0.91886608 0.56729187
0.56729187 0.91886608 0.56729187
0.70966321 0.91886608 0.56729187
0.83981183 0.91886608 0.56729187
0.91886608 0.91886608 0.56729187
0.91886608 0.91886608 0.56729187
0.91886608 0.91886608 0.56729187
0.06256172 0.06256213 0.70966321
0.20853033 0.06256213 0.70966321
0.40626550 0.06256172 0.70966321
0.56729187 0.06256213 0.70966321
0.70966321 0.06256213 0.70966321
0.83981183 0.06256172 0.70966321
0.91886608 0.06256172 0.70966321
0.91886608 0.06256235 0.70966321
0.91886608 0.06256245 0.70966321
0.06256172 0.20853033 0.70966321
0.20853033 0.20853033 0.70966321
0.40626550 0.20853033 0.70966321
0.56729187 0.20853033 0.70966321
0.70966321 0.20853033 0.70966321
0.83981183 0.20853033 0.70966321
0.91886608 0.20853033 0.70966321
0.91886608 0.20853033 0.70966321
0.91886608 0.20853033 0.70966321
0.06256172 0.40626550 0.70966321
0.20853033 0.40626550 0.70966321
0.40626550 0.40626550 0.70966321
0.56729187 0.40626550 0.70966321
0.70966321 0.40626550 0.70966321
0.83981183 0.40626550 0.70966321
0.91886608 0.40626550 0.70966321
0.91886608 0.40626550 0.70966321
0.91886608 0.40626550 0.70966321
0.06256172 0.56729187 0.70966321
0.20853033 0.56729187 0.70966321
0.40626550 0.56729187 0.70966321
0.56729187 0.56729187 0.70966321
0.70966321 0.56729187 0.70966321
0.83981183 0.56729187 0.70966321
0.91886608 0.56729187 0.70966321
0.91886608 0.56729187 0.70966321
0.91886608 0.56729187 0.70966321
0.06256172 0.70966321 0.70966321
0.20853033 0.70966321 0.70966321
0.40626550 0.70966321 0.70966321
0.56729187 0.70966321 0.70966321
0.70966321 0.70966321 0.70966321
0.83981183 0.70966321 0.70966321
0.91886608 0.70966321 0.70966321
0.91886608 0.70966321 0.70966321
0.91886608 0.70966321 0.70966321
0.06256221 0.83981183 0.70966321
0.20853033 0.83981183 0.70966321
0.40626550 0.83981183 0.70966321
0.56729187 0.83981183 0.70966321
0.70966321 0.83981183 0.70966321
0.83981183 0.83981183 0.70966321
0.91886608 0.83981183 0.70966321
0.91886608 0.83981183 0.70966321
0.91886608 0.83981183 0.70966321
0.06256229 0.91886608 0.70966321
0.20853033 0.91886608 0.70966321
0.40626550 0.91886608 0.70966321
0.56729187 0.91886608 0.70966321
0.70966321 0.91886608 0.70966321
0.83981183 0.91886608 0.70966321
0.91886608 0.91886608 0.70966321
0.91886608 0.91886608 0.70966321
0.91886608 0.91886608 0.70966321
0.06256246 0.91886608 0.70966321
0.20853033 0.91886608 0.70966321
0.40626550 0.91886608 0.70966321
0.56729187 0.91886608 0.70966321
0.70966321 0.91886608 0.70966321
0.83981183 0.91886608 0.70966321
0.91886608 0.91886608 0.70966321
0.91886608 0.91886608 0.70966321
0.91886608 0.91886608 0.70966321
0.06256172 0.91886608 0.70966321
0.20853033 0.91886608 0.70966321
0.40626550 0.91886608 0.70966321
0.56729187 0.91886608 0.70966321
0.70966321 0.91886608 0.70966321
0.83981183 0.91886608 0.70966321
0.91886608 0.91886608 0.70966321
0.91886608 0.91886608 0.70966321
0.91886608 0.91886608 0.70966321
0.06256213 0.06256235 0.83981183
0.20853033 0.06256227 0.83981183
0.40626550 0.06256235 0.83981183
0.56729187 0.06256227 0.83981183
0.70966321 0.06256235 0.83981183
0.83981183 0.06256227 0.83981183
0.91886608 0.06256227 0.83981183
0.91886608 0.06256241 0.83981183
0.91886608 0.06256172 0.83981183
0.06256172 0.20853033 0.83981183
0.20853033 0.20853033 0.83981183
0.40626550 0.20853033 0.83981183
0.56729187 0.20853033 0.83981183
0.70966321 0.20853033 0.83981183
0.83981183 0.20853033 0.83981183
0.91886608 0.20853033 0.83981183
0.91886608 0.20853033 0.83981183
0.91886608 0.20853033 0.83981183
0.06256213 0.40626550 0.83981183
0.20853033 0.40626550 0.83981183
0.40626550 0.40626550 0.83981183
0.56729187 0.40626550 0.83981183
0.70966321 0.40626550 0.83981183
0.83981183 0.40626550 0.83981183
0.91886608 0.40626550 0.83981183
0.91886608 0.40626550 0.83981183
0.91886608 0.40626550 0.83981183
0.06256172 0.56729187 0.83981183
0.20853033 0.56729187 0.83981183
0.40626550 0.56729187 0.83981183
0.56729187 0.56729187 0.83981183
0.70966321 0.56729187 0.83981183
0.83981183 0.56729187 0.83981183
0.91886608 0.56729187 0.83981183
0.91886608 0.56729187 0.83981183
0.91886608 0.56729187 0.83981183
0.06256172 0.70966321 0.83981183
0.20853033 0.70966321 0.83981183
0.40626550 0.70966321 0.83981183
0.56729187 0.70966321 0.83981183
0.70966321 0.70966321 0.83981183
0.83981183 0.70966321 0.83981183
0.91886608 0.70966321 0.83981183
0.91886608 0.70966321 0.83981183
0.91886608 0.70966321 0.83981183
0.06256219 0.83981183 0.83981183
0.20853033 0.83981183 0.83981183
0.40626550 0.83981183 0.83981183
0.56729187 0.83981183 0.83981183
0.70966321 0.83981183 0.83981183
0.83981183 0.83981183 0.83981183
0.91886608 0.83981183 0.83981183
0.91886608 0.83981183 0.83981183
0.91886608 0.83981183 0.83981183
0.06256239 0.91886608 0.83981183
0.20853033 0.91886608 0.83981183
0.40626550 0.91886608 0.83981183
0.56729187 0.91886608 0.83981183
0.70966321 0.91886608 0.83981183
0.83981183 0.91886608 0.83981183
0.91886608 0.91886608 0.83981183
0.91886608 0.91886608 0.83981183
0.91886608 0.91886608 0.83981183
0.06256219 0.91886608 0.83981183
0.20853033 0.91886608 0.83981183
0.40626550 0.91886608 0.83981183
0.56729187 0.91886608 0.83981183
0.70966321 0.91886608 0.83981183
0.83981183 0.91886608 0.83981183
0.91886608 0.91886608 0.83981183
0.91886608 0.91886608 0.83981183
0.91886608 0.91886608 0.83981183
0.06256279 0.91886608 0.83981183
0.20853033 0.91886608 0.83981183
0.40626550 0.91886608 0.83981183
0.56729187 0.91886608 0.83981183
0.70966321 0.91886608 0.83981183
0.83981183 0.91886608 0.83981183
0.91886608 0.91886608 0.83981183
0.91886608 0.91886608 0.83981183
0.91886608 0.91886608 0.83981183
0.06256172 0.06256235 0.91886608
0.20853033 0.06256235 0.91886608
0.40626550 0.06256172 0.91886608
0.56729187 0.06256235 0.91886608
0.70966321 0.06256235 0.91886608
0.83981183 0.06256172 0.91886608
0.91886608 0.06256245 0.91886608
0.91886608 0.06256172 0.91886608
0.91886608 0.06256172 0.91886608
0.06256172 0.20853033 0.91886608
0.20853033 0.20853033 0.91886608
0.40626550 0.20853033 0.91886608
0.56729187 0.20853033 0.91886608
0.70966321 0.20853033 0.91886608
0.83981183 0.20853033 0.91886608
0.91886608 0.20853033 0.91886608
0.91886608 0.20853033 0.91886608
0.91886608 0.20853033 0.91886608
0.06256172 0.40626550 0.91886608
0.20853033 0.40626550 0.91886608
0.40626550 0.40626550 0.91886608
0.56729187 0.40626550 0.91886608
0.70966321 0.40626550 0.91886608
0.83981183 0.40626550 0.91886608
0.91886608 0.40626550 0.91886608
0.91886608 0.40626550 0.91886608
0.91886608 0.40626550 0.91886608
0.06256172 0.56729187 0.91886608
0.20853033 0.56729187 0.91886608
0.40626550 0.56729187 0.91886608
0.56729187 0.56729187 0.91886608
0.70966321 0.56729187 0.91886608
0.83981183 0.56729187 0.91886608
0.91886608 0.56729187 0.91886608
0.91886608 0.56729187 0.91886608
0.91886608 0.56729187 0.91886608
0.06256172 0.70966321 0.91886608
0.20853033 0.70966321 0.91886608
0.40626550 0.70966321 0.91886608
0.56729187 0.70966321 0.91886608
0.70966321 0.70966321 0.91886608
0.83981183 0.70966321 0.91886608
0.91886608 0.70966321 0.91886608
0.91886608 0.70966321 0.91886608
0.91886608 0.70966321 0.91886608
0.06256172 0.83981183 0.91886608
0.20853033 0.83981183 0.91886608
0.40626550 0.83981183 0.91886608
0.56729187 0.83981183 0.91886608
0.70966321 0.83981183 0.91886608
0.83981183 0.83981183 0.91886608
0.91886608 0.83981183 0.91886608
0.91886608 0.83981183 0.91886608
0.91886608 0.83981183 0.91886608
0.06256172 0.91886608 0.91886608
0.20853033 0.91886608 0.91886608
0.40626550 0.91886608 0.91886608
0.56729187 0.91886608 0.91886608
0.70966321 0.91886608 0.91886608
0.83981183 0.91886608 0.91886608
0.91886608 0.91886608 0.91886608
0.91886608 0.91886608 0.91886608
0.91886608 0.91886608 0.91886608
0.06256235 0.91886608 0.91886608
0.20853033 0.91886608 0.91886608
0.40626550 0.91886608 0.91886608
0.56729187 0.91886608 0.91886608
0.70966321 0.91886608 0.91886608
0.83981183 0.91886608 0.91886608
0.91886608 0.91886608 0.91886608
0.91886608 0.91886608 0.91886608
0.91886608 0.91886608 0.91886608
0.06256265 0.91886608 0.91886608
0.20853033 0.91886608 0.91886608
0.40626550 0.91886608 0.91886608
0.56729187 0.91886608 0.91886608
0.70966321 0.91886608 0.91886608
0.83981183 0.91886608 0.91886608
0.91886608 0.91886608 0.91886608
0.91886608 0.91886608 0.91886608
0.91886608 0.91886608 0.91886608
0.06256172 0.06256281 0.91886608
0.20853033 0.06256272 0.91886608
0.40626550 0.06256272 0.91886608
0.56729187 0.06256272 0.91886608
0.70966321 0.06256172 0.91886608
0.83981183 0.06256257 0.91886608
0.91886608 0.06256272 0.91886608
0.91886608 0.06256281 0.91886608
0.91886608 0.06256301 0.91886608
0.06256245 0.20853033 0.91886608
0.20853033 0.20853033 0.91886608
0.40626550 0.20853033 0.91886608
0.56729187 0.20853033 0.91886608
0.70966321 0.20853033 0.91886608
0.83981183 0.20853033 0.91886608
0.91886608 0.20853033 0.91886608
0.91886608 0.20853033 0.91886608
0.91886608 0.20853033 0.91886608
0.06256172 0.40626550 0.91886608
0.20853033 0.40626550 0.91886608
0.40626550 0.40626550 0.91886608
0.56729187 0.40626550 0.91886608
0.70966321 0.40626550 0.91886608
0.83981183 0.40626550 0.91886608
0.91886608 0.40626550 0.91886608
0.91886608 0.40626550 0.91886608
0.91886608 0.40626550 0.91886608
0.06256172 0.56729187 0.91886608
0.20853033 0.56729187 0.91886608
0.40626550 0.56729187 0.91886608
0.56729187 0.56729187 0.91886608
0.70966321 0.56729187 0.91886608
0.83981183 0.56729187 0.91886608
0.91886608 0.56729187 0.91886608
0.91886608 0.56729187 0.91886608
0.91886608 0.56729187 0.91886608
0.06256172 0.70966321 0.91886608
0.20853033 0.70966321 0.91886608
0.40626550 0.70966321 0.91886608
0.56729187 0.70966321 0.91886608
0.70966321 0.70966321 0.91886608
0.83981183 0.70966321 0.91886608
0.91886608 0.70966321 0.91886608
0.91886608 0.70966321 0.91886608
0.91886608 0.70966321 0.91886608
0.06256172 0.83981183 0.91886608
0.20853033 0.83981183 0.91886608
0.40626550 0.83981183 0.91886608
0.56729187 0.83981183 0.91886608
0.70966321 0.83981183 0.91886608
0.83981183 0.83981183 0.91886608
0.91886608 0.83981183 0.91886608
0.91886608 0.83981183 0.91886608
0.91886608 0.83981183 0.91886608
0.06256172 0.91886608 0.91886608
0.20853033 0.91886608 0.91886608
0.40626550 0.91886608 0.91886608
0.56729187 0.91886608 0.91886608
0.70966321 0.91886608 0.91886608
0.83981183 0.91886608 0.91886608
0.91886608 0.91886608 0.91886608
0.91886608 0.91886608 0.91886608
0.91886608 0.91886608 0.91886608
0.06256172 0.91886608 0.91886608
0.20853033 0.91886608 0.91886608
0.40626550 0.91886608 0.91886608
0.56729187 0.91886608 0.91886608
0.70966321 0.91886608 0.91886608
0.83981183 0.91886608 0.91886608
0.91886608 0.91886608 0.91886608
0.91886608 0.91886608 0.91886608
0.91886608 0.91886608 0.91886608
0.06256281 0.91886608 0.91886608
0.20853033 0.91886608 0.91886608
0.40626550 0.91886608 0.91886608
0.56729187 0.91886608 0.91886608
0.70966321 0.91886608 0.91886608
0.83981183 0.91886608 0.91886608
0.91886608 0.91886608 0.91886608
0.91886608 0.91886608 0.91886608
0.91886608 0.91886608 0.91886608
0.06256272 0.06256311 0.91886608
0.20853033 0.06256289 0.91886608
0.40626550 0.06256311 0.91886608
0.56729187 0.06256289 0.91886608
0.70966321 0.06256326 0.91886608
0.83981183 0.06256289 0.91886608
0.91886608 0.06256289 0.91886608
0.91886608 0.06256289 0.91886608
0.91886608 0.06256311 0.91886608
0.06256172 0.20853033 0.91886608
0.20853033 0.20853033 0.91886608
0.40626550 0.20853033 0.91886608
0.56729187 0.20853033 0.91886608
0.70966321 0.20853033 0.91886608
0.83981183 0.20853033 0.91886608
0.91886608 0.20853033 0.91886608
0.91886608 0.20853033 0.91886608
0.91886608 0.20853033 0.91886608
0.06256172 0.40626550 0.91886608
0.20853033 0.40626550 0.91886608
0.40626550 0.40626550 0.91886608
0.56729187 0.40626550 0.91886608
0.70966321 0.40626550 0.91886608
0.83981183 0.40626550 0.91886608
0.91886608 0.40626550 0.91886608
0.91886608 0.40626550 0.91886608
0.91886608 0.40626550 0.91886608
0.06256172 0.56729187 0.91886608
0.20853033 0.56729187 0.91886608
0.40626550 0.56729187 0.91886608
0.56729187 0.56729187 0.91886608
0.70966321 0.56729187 0.91886608
0.83981183 0.56729187 0.91886608
0.91886608 0.56729187 0.91886608
0.91886608 0.56729187 0.91886608
0.91886608 0.56729187 0.91886608
0.06256172 0.70966321 0.91886608
0.20853033 0.70966321 0.91886608
0.40626550 0.70966321 0.91886608
0.56729187 0.70966321 0.91886608
0.70966321 0.70966321 0.91886608
0.83981183 0.70966321 0.91886608
0.91886608 0.70966321 0.91886608
0.91886608 0.70966321 0.91886608
0.91886608 0.70966321 0.91886608
0.06256172 0.83981183 0.91886608
0.20853033 0.83981183 0.91886608
0.40626550 0.83981183 0.91886608
0.56729187 0.83981183 0.91886608
0.70966321 0.83981183 0.91886608
0.83981183 0.83981183 0.91886608
0.91886608 0.83981183 0.91886608
0.91886608 0.83981183 0.91886608
0.91886608 0.83981183 0.91886608
0.06256172 0.91886608 0.91886608
0.20853033 0.91886608 0.91886608
0.40626550 0.91886608 0.91886608
0.56729187 0.91886608 0.91886608
0.70966321 0.91886608 0.91886608
0.83981183 0.91886608 0.91886608
0.91886608 0.91886608 0.91886608
0.91886608 0.91886608 0.91886608
0.91886608 0.91886608 0.91886608
0.06256272 0.91886608 0.91886608
0.20853033 0.91886608 0.91886608
0.40626550 0.91886608 0.91886608
0.56729187 0.91886608 0.91886608
0.70966321 0.91886608 0.91886608
0.83981183 0.91886608 0.91886608
0.91886608 0.91886608 0.91886608
0.91886608 0.91886608 0.91886608
0.91886608 0.91886608 0.91886608
0.06256272 0.91886608 0.91886608
0.20853033 0.91886608 0.91886608
0.40626550 0.91886608 0.91886608
0.56729187 0.91886608 0.91886608
0.70966321 0.91886608 0.91886608
0.83981183 0.91886608 0.91886608
0.91886608 0.91886608 0.91886608
0.91886608 0.91886608 0.91886608
0.91886608 0.91886608 0.91886608
