src/ffmpeg_scripts/luts/luminance-unclipped_3p33.cube
TITLE "luminance-unclipped_3p33"
LUT_3D_SIZE 9
# PQ (EOTF Only)/Rec2020 -> PQ (EOTF Only)/Rec2020, CineEI Shift 3.33, Black Level -7.25% IRE, Input 109% -> Output 109% - Created with LUTCalc v4.01 by Ben Turley October 2020
0.00047898 0.00047898 0.00047898
0.16963850 0.00047909 0.00047898
0.39878905 0.00047912 0.00047898
0.58539866 0.00047898 0.00047898
0.75038939 0.00047898 0.00047898
0.90121551 0.00047931 0.00047898
0.91886608 0.00047898 0.00047898
0.91886608 0.00047969 0.00047971
0.91886608 0.00047991 0.00047997
0.00047911 0.16963850 0.00047898
0.16963850 0.16963850 0.00047898
0.39878905 0.16963850 0.00047898
0.58539866 0.16963850 0.00047923
0.75038939 0.16963850 0.00047898
0.90121551 0.16963850 0.00047898
0.91886608 0.16963850 0.00047898
0.91886608 0.16963850 0.00047971
0.91886608 0.16963850 0.00047997
0.00047917 0.39878905 0.00047898
0.16963850 0.39878905 0.00047898
0.39878905 0.39878905 0.00047898
0.58539866 0.39878905 0.00047898
0.75038939 0.39878905 0.00047931
0.90121551 0.39878905 0.00047898
0.91886608 0.39878905 0.00047953
0.91886608 0.39878905 0.00047898
0.91886608 0.39878905 0.00047898
0.00047928 0.58539866 0.00047923
0.16963850 0.58539866 0.00047923
0.39878905 0.58539866 0.00047898
0.58539866 0.58539866 0.00047927
0.75038939 0.58539866 0.00047931
0.90121551 0.58539866 0.00047898
0.91886608 0.58539866 0.00047898
0.91886608 0.58539866 0.00047898
0.91886608 0.58539866 0.00047997
0.00047898 0.75038939 0.00047898
0.16963850 0.75038939 0.00047931
0.39878905 0.75038939 0.00047898
0.58539866 0.75038939 0.00047898
0.75038939 0.75038939 0.00047898
0.90121551 0.75038939 0.00047898
0.91886608 0.75038939 0.00047898
0.91886608 0.75038939 0.00047898
0.91886608 0.75038939 0.00047898
0.00047951 0.90121551 0.00047898
0.16963850 0.90121551 0.00047898
0.39878905 0.90121551 0.00047940
0.58539866 0.90121551 0.00047898
0.75038939 0.90121551 0.00047898
0.90121551 0.90121551 0.00047898
0.91886608 0.90121551 0.00047898
0.91886608 0.90121551 0.00047898
0.91886608 0.90121551 0.00047898
0.00047961 0.91886608 0.00047898
0.16963850 0.91886608 0.00047898
0.39878905 0.91886608 0.00047898
0.58539866 0.91886608 0.00047898
0.75038939 0.91886608 0.00047898
0.90121551 0.91886608 0.00047961
0.91886608 0.91886608 0.00047898
0.91886608 0.91886608 0.00047898
0.91886608 0.91886608 0.00048014
0.00047978 0.91886608 0.00047898
0.16963850 0.91886608 0.00047898
0.39878905 0.91886608 0.00047898
0.58539866 0.91886608 0.00047898
0.75038939 0.91886608 0.00047898
0.90121551 0.91886608 0.00047898
0.91886608 0.91886608 0.00047898
0.91886608 0.91886608 0.00047983
0.91886608 0.91886608 0.00047898
0.00048008 0.91886608 0.00047898
0.16963850 0.91886608 0.00048025
0.39878905 0.91886608 0.00047997
0.58539866 0.91886608 0.00047898
0.75038939 0.91886608 0.00047898
0.90121551 0.91886608 0.00047898
0.91886608 0.91886608 0.00047997
0.91886608 0.91886608 0.00047898
0.91886608 0.91886608 0.00047898
0.00047898 0.00047914 0.16963850
0.16963850 0.00047914 0.16963850
0.39878905 0.00047898 0.16963850
0.58539866 0.00047898 0.16963850
0.75038939 0.00047923 0.16963850
0.90121551 0.00047898 0.16963850
0.91886608 0.00047898 0.16963850
0.91886608 0.00047988 0.16963850
0.91886608 0.00047898 0.16963850
0.00047898 0.16963850 0.16963850
0.16963850 0.16963850 0.16963850
0.39878905 0.16963850 0.16963850
0.58539866 0.16963850 0.16963850
0.75038939 0.16963850 0.16963850
0.90121551 0.16963850 0.16963850
0.91886608 0.16963850 0.16963850
0.91886608 0.16963850 0.16963850
0.91886608 0.16963850 0.16963850
0.00047898 0.39878905 0.16963850
0.16963850 0.39878905 0.16963850
0.39878905 0.39878905 0.16963850
0.58539866 0.39878905 0.16963850
0.75038939 0.39878905 0.16963850
0.90121551 0.39878905 0.16963850
0.91886608 0.39878905 0.16963850
0.91886608 0.39878905 0.16963850
0.91886608 0.39878905 0.16963850
0.00047927 0.58539866 0.16963850
0.16963850 0.58539866 0.16963850
0.39878905 0.58539866 0.16963850
0.58539866 0.58539866 0.16963850
0.75038939 0.58539866 0.16963850
0.90121551 0.58539866 0.16963850
0.91886608 0.58539866 0.16963850
0.91886608 0.58539866 0.16963850
0.91886608 0.58539866 0.16963850
0.00047935 0.75038939 0.16963850
0.16963850 0.75038939 0.16963850
0.39878905 0.75038939 0.16963850
0.58539866 0.75038939 0.16963850
0.75038939 0.75038939 0.16963850
0.90121551 0.75038939 0.16963850
0.91886608 0.75038939 0.16963850
0.91886608 0.75038939 0.16963850
0.91886608 0.75038939 0.16963850
0.00047941 0.90121551 0.16963850
0.16963850 0.90121551 0.16963850
0.39878905 0.90121551 0.16963850
0.58539866 0.90121551 0.16963850
0.75038939 0.90121551 0.16963850
0.90121551 0.90121551 0.16963850
0.91886608 0.90121551 0.16963850
0.91886608 0.90121551 0.16963850
0.91886608 0.90121551 0.16963850
0.00047966 0.91886608 0.16963850
0.16963850 0.91886608 0.16963850
0.39878905 0.91886608 0.16963850
0.58539866 0.91886608 0.16963850
0.75038939 0.91886608 0.16963850
0.90121551 0.91886608 0.16963850
0.91886608 0.91886608 0.16963850
0.91886608 0.91886608 0.16963850
0.91886608 0.91886608 0.16963850
0.00047975 0.91886608 0.16963850
0.16963850 0.91886608 0.16963850
0.39878905 0.91886608 0.16963850
0.58539866 0.91886608 0.16963850
0.75038939 0.91886608 0.16963850
0.90121551 0.91886608 0.16963850
0.91886608 0.91886608 0.16963850
0.91886608 0.91886608 0.16963850
0.91886608 0.91886608 0.16963850
0.00048025 0.91886608 0.16963850
0.16963850 0.91886608 0.16963850
0.39878905 0.91886608 0.16963850
0.58539866 0.91886608 0.16963850
0.75038939 0.91886608 0.16963850
0.90121551 0.91886608 0.16963850
0.91886608 0.91886608 0.16963850
0.91886608 0.91886608 0.16963850
0.91886608 0.91886608 0.16963850
0.00047898 0.00047923 0.39878905
0.16963850 0.00047898 0.39878905
0.39878905 0.00047898 0.39878905
0.58539866 0.00047898 0.39878905
0.75038939 0.00047927 0.39878905
0.90121551 0.00047898 0.39878905
0.91886608 0.00047898 0.39878905
0.91886608 0.00047967 0.39878905
0.91886608 0.00047971 0.39878905
0.00047918 0.16963850 0.39878905
0.16963850 0.16963850 0.39878905
0.39878905 0.16963850 0.39878905
0.58539866 0.16963850 0.39878905
0.75038939 0.16963850 0.39878905
0.90121551 0.16963850 0.39878905
0.91886608 0.16963850 0.39878905
0.91886608 0.16963850 0.39878905
0.91886608 0.16963850 0.39878905
0.00047898 0.39878905 0.39878905
0.16963850 0.39878905 0.39878905
0.39878905 0.39878905 0.39878905
0.58539866 0.39878905 0.39878905
0.75038939 0.39878905 0.39878905
0.90121551 0.39878905 0.39878905
0.91886608 0.39878905 0.39878905
0.91886608 0.39878905 0.39878905
0.91886608 0.39878905 0.39878905
0.00047898 0.58539866 0.39878905
0.16963850 0.58539866 0.39878905
0.39878905 0.58539866 0.39878905
0.58539866 0.58539866 0.39878905
0.75038939 0.58539866 0.39878905
0.90121551 0.58539866 0.39878905
0.91886608 0.58539866 0.39878905
0.91886608 0.58539866 0.39878905
0.91886608 0.58539866 0.39878905
0.00047931 0.75038939 0.39878905
0.16963850 0.75038939 0.39878905
0.39878905 0.75038939 0.39878905
0.58539866 0.75038939 0.39878905
0.75038939 0.75038939 0.39878905
0.90121551 0.75038939 0.39878905
0.91886608 0.75038939 0.39878905
0.91886608 0.75038939 0.39878905
0.91886608 0.75038939 0.39878905
0.00047952 0.90121551 0.39878905
0.16963850 0.90121551 0.39878905
0.39878905 0.90121551 0.39878905
0.58539866 0.90121551 0.39878905
0.75038939 0.90121551 0.39878905
0.90121551 0.90121551 0.39878905
0.91886608 0.90121551 0.39878905
0.91886608 0.90121551 0.39878905
0.91886608 0.90121551 0.39878905
0.00047898 0.91886608 0.39878905
0.16963850 0.91886608 0.39878905
0.39878905 0.91886608 0.39878905
0.58539866 0.91886608 0.39878905
0.75038939 0.91886608 0.39878905
0.90121551 0.91886608 0.39878905
0.91886608 0.91886608 0.39878905
0.91886608 0.91886608 0.39878905
0.91886608 0.91886608 0.39878905
0.00047983 0.91886608 0.39878905
0.16963850 0.91886608 0.39878905
0.39878905 0.91886608 0.39878905
0.58539866 0.91886608 0.39878905
0.75038939 0.91886608 0.39878905
0.90121551 0.91886608 0.39878905
0.91886608 0.91886608 0.39878905
0.91886608 0.91886608 0.39878905
0.91886608 0.91886608 0.39878905
0.00048002 0.91886608 0.39878905
0.16963850 0.91886608 0.39878905
0.39878905 0.91886608 0.39878905
0.58539866 0.91886608 0.39878905
0.75038939 0.91886608 0.39878905
0.90121551 0.91886608 0.39878905
0.91886608 0.91886608 0.39878905
0.91886608 0.91886608 0.39878905
0.91886608 0.91886608 0.39878905
0.00047898 0.00047935 0.58539866
0.16963850 0.00047898 0.58539866
0.39878905 0.00047931 0.58539866
0.58539866 0.00047931 0.58539866
0.75038939 0.00047935 0.58539866
0.90121551 0.00047948 0.58539866
0.91886608 0.00047898 0.58539866
0.91886608 0.00047953 0.58539866
0.91886608 0.00047991 0.58539866
0.00047898 0.16963850 0.58539866
0.16963850 0.16963850 0.58539866
0.39878905 0.16963850 0.58539866
0.58539866 0.16963850 0.58539866
0.75038939 0.16963850 0.58539866
0.90121551 0.16963850 0.58539866
0.91886608 0.16963850 0.58539866
0.91886608 0.16963850 0.58539866
0.91886608 0.16963850 0.58539866
0.00047898 0.39878905 0.58539866
0.16963850 0.39878905 0.58539866
0.39878905 0.39878905 0.58539866
0.58539866 0.39878905 0.58539866
0.75038939 0.39878905 0.58539866
0.90121551 0.39878905 0.58539866
0.91886608 0.39878905 0.58539866
0.91886608 0.39878905 0.58539866
0.91886608 0.39878905 0.58539866
0.00047898 0.58539866 0.58539866
0.16963850 0.58539866 0.58539866
0.39878905 0.58539866 0.58539866
0.58539866 0.58539866 0.58539866
0.75038939 0.58539866 0.58539866
0.90121551 0.58539866 0.58539866
0.91886608 0.58539866 0.58539866
0.91886608 0.58539866 0.58539866
0.91886608 0.58539866 0.58539866
0.00047933 0.75038939 0.58539866
0.16963850 0.75038939 0.58539866
0.39878905 0.75038939 0.58539866
0.58539866 0.75038939 0.58539866
0.75038939 0.75038939 0.58539866
0.90121551 0.75038939 0.58539866
0.91886608 0.75038939 0.58539866
0.91886608 0.75038939 0.58539866
0.91886608 0.75038939 0.58539866
0.00047898 0.90121551 0.58539866
0.16963850 0.90121551 0.58539866
0.39878905 0.90121551 0.58539866
0.58539866 0.90121551 0.58539866
0.75038939 0.90121551 0.58539866
0.90121551 0.90121551 0.58539866
0.91886608 0.90121551 0.58539866
0.91886608 0.90121551 0.58539866
0.91886608 0.90121551 0.58539866
0.00047972 0.91886608 0.58539866
0.16963850 0.91886608 0.58539866
0.39878905 0.91886608 0.58539866
0.58539866 0.91886608 0.58539866
0.75038939 0.91886608 0.58539866
0.90121551 0.91886608 0.58539866
0.91886608 0.91886608 0.58539866
0.91886608 0.91886608 0.58539866
0.91886608 0.91886608 0.58539866
0.00047973 0.91886608 0.58539866
0.16963850 0.91886608 0.58539866
0.39878905 0.91886608 0.58539866
0.58539866 0.91886608 0.58539866
0.75038939 0.91886608 0.58539866
0.90121551 0.91886608 0.58539866
0.91886608 0.91886608 0.58539866
0.91886608 0.91886608 0.58539866
0.91886608 0.91886608 0.58539866
0.00048004 0.91886608 0.58539866
0.16963850 0.91886608 0.58539866
0.39878905 0.91886608 0.58539866
0.58539866 0.91886608 0.58539866
0.75038939 0.91886608 0.58539866
0.90121551 0.91886608 0.58539866
0.91886608 0.91886608 0.58539866
0.91886608 0.91886608 0.58539866
0.91886608 0.91886608 0.58539866
0.00047898 0.00047946 0.75038939
0.16963850 0.00047946 0.75038939
0.39878905 0.00047898 0.75038939
0.58539866 0.00047946 0.75038939
0.75038939 0.00047946 0.75038939
0.90121551 0.00047898 0.75038939
0.91886608 0.00047898 0.75038939
0.91886608 0.00047971 0.75038939
0.91886608 0.00047983 0.75038939
0.00047898 0.16963850 0.75038939
0.16963850 0.16963850 0.75038939
0.39878905 0.16963850 0.75038939
0.58539866 0.16963850 0.75038939
0.75038939 0.16963850 0.75038939
0.90121551 0.16963850 0.75038939
0.91886608 0.16963850 0.75038939
0.91886608 0.16963850 0.75038939
0.91886608 0.16963850 0.75038939
0.00047898 0.39878905 0.75038939
0.16963850 0.39878905 0.75038939
0.39878905 0.39878905 0.75038939
0.58539866 0.39878905 0.75038939
0.75038939 0.39878905 0.75038939
0.90121551 0.39878905 0.75038939
0.91886608 0.39878905 0.75038939
0.91886608 0.39878905 0.75038939
0.91886608 0.39878905 0.75038939
0.00047898 0.58539866 0.75038939
0.16963850 0.58539866 0.75038939
0.39878905 0.58539866 0.75038939
0.58539866 0.58539866 0.75038939
0.75038939 0.58539866 0.75038939
0.90121551 0.58539866 0.75038939
0.91886608 0.58539866 0.75038939
0.91886608 0.58539866 0.75038939
0.91886608 0.58539866 0.75038939
0.00047898 0.75038939 0.75038939
0.16963850 0.75038939 0.75038939
0.39878905 0.75038939 0.75038939
0.58539866 0.75038939 0.75038939
0.75038939 0.75038939 0.75038939
0.90121551 0.75038939 0.75038939
0.91886608 0.75038939 0.75038939
0.91886608 0.75038939 0.75038939
0.91886608 0.75038939 0.75038939
0.00047954 0.90121551 0.75038939
0.16963850 0.90121551 0.75038939
0.39878905 0.90121551 0.75038939
0.58539866 0.90121551 0.75038939
0.75038939 0.90121551 0.75038939
0.90121551 0.90121551 0.75038939
0.91886608 0.90121551 0.75038939
0.91886608 0.90121551 0.75038939
0.91886608 0.90121551 0.75038939
0.00047964 0.91886608 0.75038939
0.16963850 0.91886608 0.75038939
0.39878905 0.91886608 0.75038939
0.58539866 0.91886608 0.75038939
0.75038939 0.91886608 0.75038939
0.90121551 0.91886608 0.75038939
0.91886608 0.91886608 0.75038939
0.91886608 0.91886608 0.75038939
0.91886608 0.91886608 0.75038939
0.00047984 0.91886608 0.75038939
0.16963850 0.91886608 0.75038939
0.39878905 0.91886608 0.75038939
0.58539866 0.91886608 0.75038939
0.75038939 0.91886608 0.75038939
0.90121551 0.91886608 0.75038939
0.91886608 0.91886608 0.75038939
0.91886608 0.91886608 0.75038939
0.91886608 0.91886608 0.75038939
0.00047898 0.91886608 0.75038939
0.16963850 0.91886608 0.75038939
0.39878905 0.91886608 0.75038939
0.58539866 0.91886608 0.75038939
0.75038939 0.91886608 0.75038939
0.90121551 0.91886608 0.75038939
0.91886608 0.91886608 0.75038939
0.91886608 0.91886608 0.75038939
0.91886608 0.91886608 0.75038939
0.00047946 0.00047971 0.90121551
0.16963850 0.00047961 0.90121551
0.39878905 0.00047971 0.90121551
0.58539866 0.00047961 0.90121551
0.75038939 0.00047971 0.90121551
0.90121551 0.00047961 0.90121551
0.91886608 0.00047961 0.90121551
0.91886608 0.00047978 0.90121551
0.91886608 0.00047898 0.90121551
0.00047898 0.16963850 0.90121551
0.16963850 0.16963850 0.90121551
0.39878905 0.16963850 0.90121551
0.58539866 0.16963850 0.90121551
0.75038939 0.16963850 0.90121551
0.90121551 0.16963850 0.90121551
0.91886608 0.16963850 0.90121551
0.91886608 0.16963850 0.90121551
0.91886608 0.16963850 0.90121551
0.00047946 0.39878905 0.90121551
0.16963850 0.39878905 0.90121551
0.39878905 0.39878905 0.90121551
0.58539866 0.39878905 0.90121551
0.75038939 0.39878905 0.90121551
0.90121551 0.39878905 0.90121551
0.91886608 0.39878905 0.90121551
0.91886608 0.39878905 0.90121551
0.91886608 0.39878905 0.90121551
0.00047898 0.58539866 0.90121551
0.16963850 0.58539866 0.90121551
0.39878905 0.58539866 0.90121551
0.58539866 0.58539866 0.90121551
0.75038939 0.58539866 0.90121551
0.90121551 0.58539866 0.90121551
0.91886608 0.58539866 0.90121551
0.91886608 0.58539866 0.90121551
0.91886608 0.58539866 0.90121551
0.00047898 0.75038939 0.90121551
0.16963850 0.75038939 0.90121551
0.39878905 0.75038939 0.90121551
0.58539866 0.75038939 0.90121551
0.75038939 0.75038939 0.90121551
0.90121551 0.75038939 0.90121551
0.91886608 0.75038939 0.90121551
0.91886608 0.75038939 0.90121551
0.91886608 0.75038939 0.90121551
0.00047953 0.90121551 0.90121551
0.16963850 0.90121551 0.90121551
0.39878905 0.90121551 0.90121551
0.58539866 0.90121551 0.90121551
0.75038939 0.90121551 0.90121551
0.90121551 0.90121551 0.90121551
0.91886608 0.90121551 0.90121551
0.91886608 0.90121551 0.90121551
0.91886608 0.90121551 0.90121551
0.00047976 0.91886608 0.90121551
0.16963850 0.91886608 0.90121551
0.39878905 0.91886608 0.90121551
0.58539866 0.91886608 0.90121551
0.75038939 0.91886608 0.90121551
0.90121551 0.91886608 0.90121551
0.91886608 0.91886608 0.90121551
0.91886608 0.91886608 0.90121551
0.91886608 0.91886608 0.90121551
0.00047953 0.91886608 0.90121551
0.16963850 0.91886608 0.90121551
0.39878905 0.91886608 0.90121551
0.58539866 0.91886608 0.90121551
0.75038939 0.91886608 0.90121551
0.90121551 0.91886608 0.90121551
0.91886608 0.91886608 0.90121551
0.91886608 0.91886608 0.90121551
0.91886608 0.91886608 0.90121551
0.00048022 0.91886608 0.90121551
0.16963850 0.91886608 0.90121551
0.39878905 0.91886608 0.90121551
0.58539866 0.91886608 0.90121551
0.75038939 0.91886608 0.90121551
0.90121551 0.91886608 0.90121551
0.91886608 0.91886608 0.90121551
0.91886608 0.91886608 0.90121551
0.91886608 0.91886608 0.90121551
0.00047898 0.00047971 0.91886608
0.16963850 0.00047971 0.91886608
0.39878905 0.00047898 0.91886608
0.58539866 0.00047971 0.91886608
0.75038939 0.00047971 0.91886608
0.90121551 0.00047898 0.91886608
0.91886608 0.00047983 0.91886608
0.91886608 0.00047898 0.91886608
0.91886608 0.00047898 0.91886608
0.00047898 0.16963850 0.91886608
0.16963850 0.16963850 0.91886608
0.39878905 0.16963850 0.91886608
0.58539866 0.16963850 0.91886608
0.75038939 0.16963850 0.91886608
0.90121551 0.16963850 0.91886608
0.91886608 0.16963850 0.91886608
0.91886608 0.16963850 0.91886608
0.91886608 0.16963850 0.91886608
0.00047898 0.39878905 0.91886608
0.16963850 0.39878905 0.91886608
0.39878905 0.39878905 0.91886608
0.58539866 0.39878905 0.91886608
0.75038939 0.39878905 0.91886608
0.90121551 0.39878905 0.91886608
0.91886608 0.39878905 0.91886608
0.91886608 0.39878905 0.91886608
0.91886608 0.39878905 0.91886608
0.00047898 0.58539866 0.91886608
0.16963850 0.58539866 0.91886608
0.39878905 0.58539866 0.91886608
0.58539866 0.58539866 0.91886608
0.75038939 0.58539866 0.91886608
0.90121551 0.58539866 0.91886608
0.91886608 0.58539866 0.91886608
0.91886608 0.58539866 0.91886608
0.91886608 0.58539866 0.91886608
0.00047898 0.75038939 0.91886608
0.16963850 0.75038939 0.91886608
0.39878905 0.75038939 0.91886608
0.58539866 0.75038939 0.91886608
0.75038939 0.75038939 0.91886608
0.90121551 0.75038939 0.91886608
0.91886608 0.75038939 0.91886608
0.91886608 0.75038939 0.91886608
0.91886608 0.75038939 0.91886608
0.00047898 0.90121551 0.91886608
0.16963850 0.90121551 0.91886608
0.39878905 0.90121551 0.91886608
0.58539866 0.90121551 0.91886608
0.75038939 0.90121551 0.91886608
0.90121551 0.90121551 0.91886608
0.91886608 0.90121551 0.91886608
0.91886608 0.90121551 0.91886608
0.91886608 0.90121551 0.91886608
0.00047898 0.91886608 0.91886608
0.16963850 0.91886608 0.91886608
0.39878905 0.91886608 0.91886608
0.58539866 0.91886608 0.91886608
0.75038939 0.91886608 0.91886608
0.90121551 0.91886608 0.91886608
0.91886608 0.91886608 0.91886608
0.91886608 0.91886608 0.91886608
0.91886608 0.91886608 0.91886608
0.00047971 0.91886608 0.91886608
0.16963850 0.91886608 0.91886608
0.39878905 0.91886608 0.91886608
0.58539866 0.91886608 0.91886608
0.75038939 0.91886608 0.91886608
0.90121551 0.91886608 0.91886608
0.91886608 0.91886608 0.91886608
0.91886608 0.91886608 0.91886608
0.91886608 0.91886608 0.91886608
0.00048006 0.91886608 0.91886608
0.16963850 0.91886608 0.91886608
0.39878905 0.91886608 0.91886608
0.58539866 0.91886608 0.91886608
0.75038939 0.91886608 0.91886608
0.90121551 0.91886608 0.91886608
0.91886608 0.91886608 0.91886608
0.91886608 0.91886608 0.91886608
0.91886608 0.91886608 0.91886608
0.00047898 0.00048025 0.91886608
0.16963850 0.00048014 0.91886608
0.39878905 0.00048014 0.91886608
0.58539866 0.00048014 0.91886608
0.75038939 0.00047898 0.91886608
0.90121551 0.00047997 0.91886608
0.91886608 0.00048014 0.91886608
0.91886608 0.00048025 0.91886608
0.91886608 0.00048048 0.91886608
0.00047983 0.16963850 0.91886608
0.16963850 0.16963850 0.91886608
0.39878905 0.16963850 0.91886608
0.58539866 0.16963850 0.91886608
0.75038939 0.16963850 0.91886608
0.90121551 0.16963850 0.91886608
0.91886608 0.16963850 0.91886608
0.91886608 0.16963850 0.91886608
0.91886608 0.16963850 0.91886608
0.00047898 0.39878905 0.91886608
0.16963850 0.39878905 0.91886608
0.39878905 0.39878905 0.91886608
0.58539866 0.39878905 0.91886608
0.75038939 0.39878905 0.91886608
0.90121551 0.39878905 0.91886608
0.91886608 0.39878905 0.91886608
0.91886608 0.39878905 0.91886608
0.91886608 0.39878905 0.91886608
0.00047898 0.58539866 0.91886608
0.16963850 0.58539866 0.91886608
0.39878905 0.58539866 0.91886608
0.58539866 0.58539866 0.91886608
0.75038939 0.58539866 0.91886608
0.90121551 0.58539866 0.91886608
0.91886608 0.58539866 0.91886608
0.91886608 0.58539866 0.91886608
0.91886608 0.58539866 0.91886608
0.00047898 0.75038939 0.91886608
0.16963850 0.75038939 0.91886608
0.39878905 0.75038939 0.91886608
0.58539866 0.75038939 0.91886608
0.75038939 0.75038939 0.91886608
0.90121551 0.75038939 0.91886608
0.91886608 0.75038939 0.91886608
0.91886608 0.75038939 0.91886608
0.91886608 0.75038939 0.91886608
0.00047898 0.90121551 0.91886608
0.16963850 0.90121551 0.91886608
0.39878905 0.90121551 0.91886608
0.58539866 0.90121551 0.91886608
0.75038939 0.90121551 0.91886608
0.90121551 0.90121551 0.91886608
0.91886608 0.90121551 0.91886608
0.91886608 0.90121551 0.91886608
0.91886608 0.90121551 0.91886608
0.00047898 0.91886608 0.91886608
0.16963850 0.91886608 0.91886608
0.39878905 0.91886608 0.91886608
0.58539866 0.91886608 0.91886608
0.75038939 0.91886608 0.91886608
0.90121551 0.91886608 0.91886608
0.91886608 0.91886608 0.91886608
0.91886608 0.91886608 0.91886608
0.91886608 0.91886608 0.91886608
0.00047898 0.91886608 0.91886608
0.16963850 0.91886608 0.91886608
0.39878905 0.91886608 0.91886608
0.58539866 0.91886608 0.91886608
0.75038939 0.91886608 0.91886608
0.90121551 0.91886608 0.91886608
0.91886608 0.91886608 0.91886608
0.91886608 0.91886608 0.91886608
0.91886608 0.91886608 0.91886608
0.00048025 0.91886608 0.91886608
0.16963850 0.91886608 0.91886608
0.39878905 0.91886608 0.91886608
0.58539866 0.91886608 0.91886608
0.75038939 0.91886608 0.91886608
0.90121551 0.91886608 0.91886608
0.91886608 0.91886608 0.91886608
0.91886608 0.91886608 0.91886608
0.91886608 0.91886608 0.91886608
0.00048014 0.00048059 0.91886608
0.16963850 0.00048034 0.91886608
0.39878905 0.00048059 0.91886608
0.58539866 0.00048034 0.91886608
0.75038939 0.00048076 0.91886608
0.90121551 0.00048034 0.91886608
0.91886608 0.00048034 0.91886608
0.91886608 0.00048034 0.91886608
0.91886608 0.00048059 0.91886608
0.00047898 0.16963850 0.91886608
0.16963850 0.16963850 0.91886608
0.39878905 0.16963850 0.91886608
0.58539866 0.16963850 0.91886608
0.75038939 0.16963850 0.91886608
0.90121551 0.16963850 0.91886608
0.91886608 0.16963850 0.91886608
0.91886608 0.16963850 0.91886608
0.91886608 0.16963850 0.91886608
0.00047898 0.39878905 0.91886608
0.16963850 0.39878905 0.91886608
0.39878905 0.39878905 0.91886608
0.58539866 0.39878905 0.91886608
0.75038939 0.39878905 0.91886608
0.90121551 0.39878905 0.91886608
0.91886608 0.39878905 0.91886608
0.91886608 0.39878905 0.91886608
0.91886608 0.39878905 0.91886608
0.00047898 0.58539866 0.91886608
0.16963850 0.58539866 0.91886608
0.39878905 0.58539866 0.91886608
0.58539866 0.58539866 0.91886608
0.75038939 0.58539866 0.91886608
0.90121551 0.58539866 0.91886608
0.91886608 0.58539866 0.91886608
0.91886608 0.58539866 0.91886608
0.91886608 0.58539866 0.91886608
0.00047898 0.75038939 0.91886608
0.16963850 0.75038939 0.91886608
0.39878905 0.75038939 0.91886608
0.58539866 0.75038939 0.91886608
0.75038939 0.75038939 0.91886608
0.90121551 0.75038939 0.91886608
0.91886608 0.75038939 0.91886608
0.91886608 0.75038939 0.91886608
0.91886608 0.75038939 0.91886608
0.00047898 0.90121551 0.91886608
0.16963850 0.90121551 0.91886608
0.39878905 0.90121551 0.91886608
0.58539866 0.90121551 0.91886608
0.75038939 0.90121551 0.91886608
0.90121551 0.90121551 0.91886608
0.91886608 0.90121551 0.91886608
0.91886608 0.90121551 0.91886608
0.91886608 0.90121551 0.91886608
0.00047898 0.91886608 0.91886608
0.16963850 0.91886608 0.91886608
0.39878905 0.91886608 0.91886608
0.58539866 0.91886608 0.91886608
0.75038939 0.91886608 0.91886608
0.90121551 0.91886608 0.91886608
0.91886608 0.91886608 0.91886608
0.91886608 0.91886608 0.91886608
0.91886608 0.91886608 0.91886608
0.00048014 0.91886608 0.91886608
0.16963850 0.91886608 0.91886608
0.39878905 0.91886608 0.91886608
0.58539866 0.91886608 0.91886608
0.75038939 0.91886608 0.91886608
0.90121551 0.91886608 0.91886608
0.91886608 0.91886608 0.91886608
0.91886608 0.91886608 0.91886608
0.91886608 0.91886608 0.91886608
0.00048014 0.91886608 0.91886608
0.16963850 0.91886608 0.91886608
0.39878905 0.91886608 0.91886608
0.58539866 0.91886608 0.91886608
0.75038939 0.91886608 0.91886608
0.90121551 0.91886608 0.91886608
0.91886608 0.91886608 0.91886608
0.91886608 0.91886608 0.91886608
0.91886608 0.91886608 0.91886608
