src/ffmpeg_scripts/luts/luminance-unclipped_2p67.cube
TITLE "luminance-unclipped_2p67"
LUT_3D_SIZE 9
# PQ (EOTF Only)/Rec2020 -> PQ (EOTF Only)/Rec2020, CineEI Shift 2.67, Black Level -7.25% IRE, Input 109% -> Output 109% - Created with LUTCalc v4.01 by Ben Turley October 2020
0.00047898 0.00047898 0.00047898
0.14540550 0.00047908 0.00047898
0.35793399 0.00047898 0.00047898
0.53782719 0.00047898 0.00047920
0.70049974 0.00047923 0.00047931
0.85163127 0.00047898 0.00047898
0.91886608 0.00047898 0.00047898
0.91886608 0.00047969 0.00047898
0.91886608 0.00047971 0.00047983
0.00047910 0.14540550 0.00047898
0.14540550 0.14540550 0.00047898
0.35793399 0.14540550 0.00047898
0.53782719 0.14540550 0.00047898
0.70049974 0.14540550 0.00047898
0.85163127 0.14540550 0.00047898
0.91886608 0.14540550 0.00047898
0.91886608 0.14540550 0.00047961
0.91886608 0.14540550 0.00047898
0.00047916 0.35793399 0.00047898
0.14540550 0.35793399 0.00047898
0.35793399 0.35793399 0.00047898
0.53782719 0.35793399 0.00047898
0.70049974 0.35793399 0.00047927
0.85163127 0.35793399 0.00047898
0.91886608 0.35793399 0.00047898
0.91886608 0.35793399 0.00047898
0.91886608 0.35793399 0.00047898
0.00047925 0.53782719 0.00047920
0.14540550 0.53782719 0.00047898
0.35793399 0.53782719 0.00047898
0.53782719 0.53782719 0.00047923
0.70049974 0.53782719 0.00047931
0.85163127 0.53782719 0.00047898
0.91886608 0.53782719 0.00047898
0.91886608 0.53782719 0.00047961
0.91886608 0.53782719 0.00047898
0.00047898 0.70049974 0.00047898
0.14540550 0.70049974 0.00047898
0.35793399 0.70049974 0.00047898
0.53782719 0.70049974 0.00047898
0.70049974 0.70049974 0.00047898
0.85163127 0.70049974 0.00047898
0.91886608 0.70049974 0.00047898
0.91886608 0.70049974 0.00047898
0.91886608 0.70049974 0.00047898
0.00047937 0.85163127 0.00047940
0.14540550 0.85163127 0.00047898
0.35793399 0.85163127 0.00047940
0.53782719 0.85163127 0.00047898
0.70049974 0.85163127 0.00047940
0.85163127 0.85163127 0.00047898
0.91886608 0.85163127 0.00047898
0.91886608 0.85163127 0.00047898
0.91886608 0.85163127 0.00047898
0.00047898 0.91886608 0.00047898
0.14540550 0.91886608 0.00047898
0.35793399 0.91886608 0.00047898
0.53782719 0.91886608 0.00047953
0.70049974 0.91886608 0.00047898
0.85163127 0.91886608 0.00047953
0.91886608 0.91886608 0.00047898
0.91886608 0.91886608 0.00047898
0.91886608 0.91886608 0.00047983
0.00047966 0.91886608 0.00047898
0.14540550 0.91886608 0.00047898
0.35793399 0.91886608 0.00047898
0.53782719 0.91886608 0.00047898
0.70049974 0.91886608 0.00047898
0.85163127 0.91886608 0.00047898
0.91886608 0.91886608 0.00047898
0.91886608 0.91886608 0.00047898
0.91886608 0.91886608 0.00047898
0.00047999 0.91886608 0.00047997
0.14540550 0.91886608 0.00047997
0.35793399 0.91886608 0.00047898
0.53782719 0.91886608 0.00047898
0.70049974 0.91886608 0.00047898
0.85163127 0.91886608 0.00047898
0.91886608 0.91886608 0.00047898
0.91886608 0.91886608 0.00047997
0.91886608 0.91886608 0.00047898
0.00047898 0.00047912 0.14540550
0.14540550 0.00047910 0.14540550
0.35793399 0.00047898 0.14540550
0.53782719 0.00047898 0.14540550
0.70049974 0.00047928 0.14540550
0.85163127 0.00047898 0.14540550
0.91886608 0.00047898 0.14540550
0.91886608 0.00047969 0.14540550
0.91886608 0.00047978 0.14540550
0.00047910 0.14540550 0.14540550
0.14540550 0.14540550 0.14540550
0.35793399 0.14540550 0.14540550
0.53782719 0.14540550 0.14540550
0.70049974 0.14540550 0.14540550
0.85163127 0.14540550 0.14540550
0.91886608 0.14540550 0.14540550
0.91886608 0.14540550 0.14540550
0.91886608 0.14540550 0.14540550
0.00047917 0.35793399 0.14540550
0.14540550 0.35793399 0.14540550
0.35793399 0.35793399 0.14540550
0.53782719 0.35793399 0.14540550
0.70049974 0.35793399 0.14540550
0.85163127 0.35793399 0.14540550
0.91886608 0.35793399 0.14540550
0.91886608 0.35793399 0.14540550
0.91886608 0.35793399 0.14540550
0.00047920 0.53782719 0.14540550
0.14540550 0.53782719 0.14540550
0.35793399 0.53782719 0.14540550
0.53782719 0.53782719 0.14540550
0.70049974 0.53782719 0.14540550
0.85163127 0.53782719 0.14540550
0.91886608 0.53782719 0.14540550
0.91886608 0.53782719 0.14540550
0.91886608 0.53782719 0.14540550
0.00047898 0.70049974 0.14540550
0.14540550 0.70049974 0.14540550
0.35793399 0.70049974 0.14540550
0.53782719 0.70049974 0.14540550
0.70049974 0.70049974 0.14540550
0.85163127 0.70049974 0.14540550
0.91886608 0.70049974 0.14540550
0.91886608 0.70049974 0.14540550
0.91886608 0.70049974 0.14540550
0.00047947 0.85163127 0.14540550
0.14540550 0.85163127 0.14540550
0.35793399 0.85163127 0.14540550
0.53782719 0.85163127 0.14540550
0.70049974 0.85163127 0.14540550
0.85163127 0.85163127 0.14540550
0.91886608 0.85163127 0.14540550
0.91886608 0.85163127 0.14540550
0.91886608 0.85163127 0.14540550
0.00047898 0.91886608 0.14540550
0.14540550 0.91886608 0.14540550
0.35793399 0.91886608 0.14540550
0.53782719 0.91886608 0.14540550
0.70049974 0.91886608 0.14540550
0.85163127 0.91886608 0.14540550
0.91886608 0.91886608 0.14540550
0.91886608 0.91886608 0.14540550
0.91886608 0.91886608 0.14540550
0.00047970 0.91886608 0.14540550
0.14540550 0.91886608 0.14540550
0.35793399 0.91886608 0.14540550
0.53782719 0.91886608 0.14540550
0.70049974 0.91886608 0.14540550
0.85163127 0.91886608 0.14540550
0.91886608 0.91886608 0.14540550
0.91886608 0.91886608 0.14540550
0.91886608 0.91886608 0.14540550
0.00047967 0.91886608 0.14540550
0.14540550 0.91886608 0.14540550
0.35793399 0.91886608 0.14540550
0.53782719 0.91886608 0.14540550
0.70049974 0.91886608 0.14540550
0.85163127 0.91886608 0.14540550
0.91886608 0.91886608 0.14540550
0.91886608 0.91886608 0.14540550
0.91886608 0.91886608 0.14540550
0.00047898 0.00047920 0.35793399
0.14540550 0.00047920 0.35793399
0.35793399 0.00047920 0.35793399
0.53782719 0.00047898 0.35793399
0.70049974 0.00047931 0.35793399
0.85163127 0.00047942 0.35793399
0.91886608 0.00047898 0.35793399
0.91886608 0.00047973 0.35793399
0.91886608 0.00047978 0.35793399
0.00047898 0.14540550 0.35793399
0.14540550 0.14540550 0.35793399
0.35793399 0.14540550 0.35793399
0.53782719 0.14540550 0.35793399
0.70049974 0.14540550 0.35793399
0.85163127 0.14540550 0.35793399
0.91886608 0.14540550 0.35793399
0.91886608 0.14540550 0.35793399
0.91886608 0.14540550 0.35793399
0.00047898 0.35793399 0.35793399
0.14540550 0.35793399 0.35793399
0.35793399 0.35793399 0.35793399
0.53782719 0.35793399 0.35793399
0.70049974 0.35793399 0.35793399
0.85163127 0.35793399 0.35793399
0.91886608 0.35793399 0.35793399
0.91886608 0.35793399 0.35793399
0.91886608 0.35793399 0.35793399
0.00047898 0.53782719 0.35793399
0.14540550 0.53782719 0.35793399
0.35793399 0.53782719 0.35793399
0.53782719 0.53782719 0.35793399
0.70049974 0.53782719 0.35793399
0.85163127 0.53782719 0.35793399
0.91886608 0.53782719 0.35793399
0.91886608 0.53782719 0.35793399
0.91886608 0.53782719 0.35793399
0.00047935 0.70049974 0.35793399
0.14540550 0.70049974 0.35793399
0.35793399 0.70049974 0.35793399
0.53782719 0.70049974 0.35793399
0.70049974 0.70049974 0.35793399
0.85163127 0.70049974 0.35793399
0.91886608 0.70049974 0.35793399
0.91886608 0.70049974 0.35793399
0.91886608 0.70049974 0.35793399
0.00047947 0.85163127 0.35793399
0.14540550 0.85163127 0.35793399
0.35793399 0.85163127 0.35793399
0.53782719 0.85163127 0.35793399
0.70049974 0.85163127 0.35793399
0.85163127 0.85163127 0.35793399
0.91886608 0.85163127 0.35793399
0.91886608 0.85163127 0.35793399
0.91886608 0.85163127 0.35793399
0.00047971 0.91886608 0.35793399
0.14540550 0.91886608 0.35793399
0.35793399 0.91886608 0.35793399
0.53782719 0.91886608 0.35793399
0.70049974 0.91886608 0.35793399
0.85163127 0.91886608 0.35793399
0.91886608 0.91886608 0.35793399
0.91886608 0.91886608 0.35793399
0.91886608 0.91886608 0.35793399
0.00047940 0.91886608 0.35793399
0.14540550 0.91886608 0.35793399
0.35793399 0.91886608 0.35793399
0.53782719 0.91886608 0.35793399
0.70049974 0.91886608 0.35793399
0.85163127 0.91886608 0.35793399
0.91886608 0.91886608 0.35793399
0.91886608 0.91886608 0.35793399
0.91886608 0.91886608 0.35793399
0.00047898 0.91886608 0.35793399
0.14540550 0.91886608 0.35793399
0.35793399 0.91886608 0.35793399
0.53782719 0.91886608 0.35793399
0.70049974 0.91886608 0.35793399
0.85163127 0.91886608 0.35793399
0.91886608 0.91886608 0.35793399
0.91886608 0.91886608 0.35793399
0.91886608 0.91886608 0.35793399
0.00047898 0.00047931 0.53782719
0.14540550 0.00047931 0.53782719
0.35793399 0.00047931 0.53782719
0.53782719 0.00047898 0.53782719
0.70049974 0.00047898 0.53782719
0.85163127 0.00047940 0.53782719
0.91886608 0.00047898 0.53782719
0.91886608 0.00047898 0.53782719
0.91886608 0.00047961 0.53782719
0.00047898 0.14540550 0.53782719
0.14540550 0.14540550 0.53782719
0.35793399 0.14540550 0.53782719
0.53782719 0.14540550 0.53782719
0.70049974 0.14540550 0.53782719
0.85163127 0.14540550 0.53782719
0.91886608 0.14540550 0.53782719
0.91886608 0.14540550 0.53782719
0.91886608 0.14540550 0.53782719
0.00047898 0.35793399 0.53782719
0.14540550 0.35793399 0.53782719
0.35793399 0.35793399 0.53782719
0.53782719 0.35793399 0.53782719
0.70049974 0.35793399 0.53782719
0.85163127 0.35793399 0.53782719
0.91886608 0.35793399 0.53782719
0.91886608 0.35793399 0.53782719
0.91886608 0.35793399 0.53782719
0.00047923 0.53782719 0.53782719
0.14540550 0.53782719 0.53782719
0.35793399 0.53782719 0.53782719
0.53782719 0.53782719 0.53782719
0.70049974 0.53782719 0.53782719
0.85163127 0.53782719 0.53782719
0.91886608 0.53782719 0.53782719
0.91886608 0.53782719 0.53782719
0.91886608 0.53782719 0.53782719
0.00047898 0.70049974 0.53782719
0.14540550 0.70049974 0.53782719
0.35793399 0.70049974 0.53782719
0.53782719 0.70049974 0.53782719
0.70049974 0.70049974 0.53782719
0.85163127 0.70049974 0.53782719
0.91886608 0.70049974 0.53782719
0.91886608 0.70049974 0.53782719
0.91886608 0.70049974 0.53782719
0.00047940 0.85163127 0.53782719
0.14540550 0.85163127 0.53782719
0.35793399 0.85163127 0.53782719
0.53782719 0.85163127 0.53782719
0.70049974 0.85163127 0.53782719
0.85163127 0.85163127 0.53782719
0.91886608 0.85163127 0.53782719
0.91886608 0.85163127 0.53782719
0.91886608 0.85163127 0.53782719
0.00047965 0.91886608 0.53782719
0.14540550 0.91886608 0.53782719
0.35793399 0.91886608 0.53782719
0.53782719 0.91886608 0.53782719
0.70049974 0.91886608 0.53782719
0.85163127 0.91886608 0.53782719
0.91886608 0.91886608 0.53782719
0.91886608 0.91886608 0.53782719
0.91886608 0.91886608 0.53782719
0.00047898 0.91886608 0.53782719
0.14540550 0.91886608 0.53782719
0.35793399 0.91886608 0.53782719
0.53782719 0.91886608 0.53782719
0.70049974 0.91886608 0.53782719
0.85163127 0.91886608 0.53782719
0.91886608 0.91886608 0.53782719
0.91886608 0.91886608 0.53782719
0.91886608 0.91886608 0.53782719
0.00047994 0.91886608 0.53782719
0.14540550 0.91886608 0.53782719
0.35793399 0.91886608 0.53782719
0.53782719 0.91886608 0.53782719
0.70049974 0.91886608 0.53782719
0.85163127 0.91886608 0.53782719
0.91886608 0.91886608 0.53782719
0.91886608 0.91886608 0.53782719
0.91886608 0.91886608 0.53782719
0.00047898 0.00047946 0.70049974
0.14540550 0.00047898 0.70049974
0.35793399 0.00047898 0.70049974
0.53782719 0.00047940 0.70049974
0.70049974 0.00047940 0.70049974
0.85163127 0.00047898 0.70049974
0.91886608 0.00047940 0.70049974
0.91886608 0.00047946 0.70049974
0.91886608 0.00047999 0.70049974
0.00047931 0.14540550 0.70049974
0.14540550 0.14540550 0.70049974
0.35793399 0.14540550 0.70049974
0.53782719 0.14540550 0.70049974
0.70049974 0.14540550 0.70049974
0.85163127 0.14540550 0.70049974
0.91886608 0.14540550 0.70049974
0.91886608 0.14540550 0.70049974
0.91886608 0.14540550 0.70049974
0.00047898 0.35793399 0.70049974
0.14540550 0.35793399 0.70049974
0.35793399 0.35793399 0.70049974
0.53782719 0.35793399 0.70049974
0.70049974 0.35793399 0.70049974
0.85163127 0.35793399 0.70049974
0.91886608 0.35793399 0.70049974
0.91886608 0.35793399 0.70049974
0.91886608 0.35793399 0.70049974
0.00047898 0.53782719 0.70049974
0.14540550 0.53782719 0.70049974
0.35793399 0.53782719 0.70049974
0.53782719 0.53782719 0.70049974
0.70049974 0.53782719 0.70049974
0.85163127 0.53782719 0.70049974
0.91886608 0.53782719 0.70049974
0.91886608 0.53782719 0.70049974
0.91886608 0.53782719 0.70049974
0.00047898 0.70049974 0.70049974
0.14540550 0.70049974 0.70049974
0.35793399 0.70049974 0.70049974
0.53782719 0.70049974 0.70049974
0.70049974 0.70049974 0.70049974
0.85163127 0.70049974 0.70049974
0.91886608 0.70049974 0.70049974
0.91886608 0.70049974 0.70049974
0.91886608 0.70049974 0.70049974
0.00047898 0.85163127 0.70049974
0.14540550 0.85163127 0.70049974
0.35793399 0.85163127 0.70049974
0.53782719 0.85163127 0.70049974
0.70049974 0.85163127 0.70049974
0.85163127 0.85163127 0.70049974
0.91886608 0.85163127 0.70049974
0.91886608 0.85163127 0.70049974
0.91886608 0.85163127 0.70049974
0.00047898 0.91886608 0.70049974
0.14540550 0.91886608 0.70049974
0.35793399 0.91886608 0.70049974
0.53782719 0.91886608 0.70049974
0.70049974 0.91886608 0.70049974
0.85163127 0.91886608 0.70049974
0.91886608 0.91886608 0.70049974
0.91886608 0.91886608 0.70049974
0.91886608 0.91886608 0.70049974
0.00047982 0.91886608 0.70049974
0.14540550 0.91886608 0.70049974
0.35793399 0.91886608 0.70049974
0.53782719 0.91886608 0.70049974
0.70049974 0.91886608 0.70049974
0.85163127 0.91886608 0.70049974
0.91886608 0.91886608 0.70049974
0.91886608 0.91886608 0.70049974
0.91886608 0.91886608 0.70049974
0.00047898 0.91886608 0.70049974
0.14540550 0.91886608 0.70049974
0.35793399 0.91886608 0.70049974
0.53782719 0.91886608 0.70049974
0.70049974 0.91886608 0.70049974
0.85163127 0.91886608 0.70049974
0.91886608 0.91886608 0.70049974
0.91886608 0.91886608 0.70049974
0.91886608 0.91886608 0.70049974
0.00047940 0.00047953 0.85163127
0.14540550 0.00047961 0.85163127
0.35793399 0.00047953 0.85163127
0.53782719 0.00047961 0.85163127
0.70049974 0.00047961 0.85163127
0.85163127 0.00047953 0.85163127
0.91886608 0.00047961 0.85163127
0.91886608 0.00047953 0.85163127
0.91886608 0.00047898 0.85163127
0.00047898 0.14540550 0.85163127
0.14540550 0.14540550 0.85163127
0.35793399 0.14540550 0.85163127
0.53782719 0.14540550 0.85163127
0.70049974 0.14540550 0.85163127
0.85163127 0.14540550 0.85163127
0.91886608 0.14540550 0.85163127
0.91886608 0.14540550 0.85163127
0.91886608 0.14540550 0.85163127
0.00047940 0.35793399 0.85163127
0.14540550 0.35793399 0.85163127
0.35793399 0.35793399 0.85163127
0.53782719 0.35793399 0.85163127
0.70049974 0.35793399 0.85163127
0.85163127 0.35793399 0.85163127
0.91886608 0.35793399 0.85163127
0.91886608 0.35793399 0.85163127
0.91886608 0.35793399 0.85163127
0.00047898 0.53782719 0.85163127
0.14540550 0.53782719 0.85163127
0.35793399 0.53782719 0.85163127
0.53782719 0.53782719 0.85163127
0.70049974 0.53782719 0.85163127
0.85163127 0.53782719 0.85163127
0.91886608 0.53782719 0.85163127
0.91886608 0.53782719 0.85163127
0.91886608 0.53782719 0.85163127
0.00047898 0.70049974 0.85163127
0.14540550 0.70049974 0.85163127
0.35793399 0.70049974 0.85163127
0.53782719 0.70049974 0.85163127
0.70049974 0.70049974 0.85163127
0.85163127 0.70049974 0.85163127
0.91886608 0.70049974 0.85163127
0.91886608 0.70049974 0.85163127
0.91886608 0.70049974 0.85163127
0.00047898 0.85163127 0.85163127
0.14540550 0.85163127 0.85163127
0.35793399 0.85163127 0.85163127
0.53782719 0.85163127 0.85163127
0.70049974 0.85163127 0.85163127
0.85163127 0.85163127 0.85163127
0.91886608 0.85163127 0.85163127
0.91886608 0.85163127 0.85163127
0.91886608 0.85163127 0.85163127
0.00047953 0.91886608 0.85163127
0.14540550 0.91886608 0.85163127
0.35793399 0.91886608 0.85163127
0.53782719 0.91886608 0.85163127
0.70049974 0.91886608 0.85163127
0.85163127 0.91886608 0.85163127
0.91886608 0.91886608 0.85163127
0.91886608 0.91886608 0.85163127
0.91886608 0.91886608 0.85163127
0.00047898 0.91886608 0.85163127
0.14540550 0.91886608 0.85163127
0.35793399 0.91886608 0.85163127
0.53782719 0.91886608 0.85163127
0.70049974 0.91886608 0.85163127
0.85163127 0.91886608 0.85163127
0.91886608 0.91886608 0.85163127
0.91886608 0.91886608 0.85163127
0.91886608 0.91886608 0.85163127
0.00048009 0.91886608 0.85163127
0.14540550 0.91886608 0.85163127
0.35793399 0.91886608 0.85163127
0.53782719 0.91886608 0.85163127
0.70049974 0.91886608 0.85163127
0.85163127 0.91886608 0.85163127
0.91886608 0.91886608 0.85163127
0.91886608 0.91886608 0.85163127
0.91886608 0.91886608 0.85163127
0.00047898 0.00047971 0.91886608
0.14540550 0.00047971 0.91886608
0.35793399 0.00047898 0.91886608
0.53782719 0.00047971 0.91886608
0.70049974 0.00047971 0.91886608
0.85163127 0.00047971 0.91886608
0.91886608 0.00047971 0.91886608
0.91886608 0.00047898 0.91886608
0.91886608 0.00047898 0.91886608
0.00047898 0.14540550 0.91886608
0.14540550 0.14540550 0.91886608
0.35793399 0.14540550 0.91886608
0.53782719 0.14540550 0.91886608
0.70049974 0.14540550 0.91886608
0.85163127 0.14540550 0.91886608
0.91886608 0.14540550 0.91886608
0.91886608 0.14540550 0.91886608
0.91886608 0.14540550 0.91886608
0.00047898 0.35793399 0.91886608
0.14540550 0.35793399 0.91886608
0.35793399 0.35793399 0.91886608
0.53782719 0.35793399 0.91886608
0.70049974 0.35793399 0.91886608
0.85163127 0.35793399 0.91886608
0.91886608 0.35793399 0.91886608
0.91886608 0.35793399 0.91886608
0.91886608 0.35793399 0.91886608
0.00047898 0.53782719 0.91886608
0.14540550 0.53782719 0.91886608
0.35793399 0.53782719 0.91886608
0.53782719 0.53782719 0.91886608
0.70049974 0.53782719 0.91886608
0.85163127 0.53782719 0.91886608
0.91886608 0.53782719 0.91886608
0.91886608 0.53782719 0.91886608
0.91886608 0.53782719 0.91886608
0.00047898 0.70049974 0.91886608
0.14540550 0.70049974 0.91886608
0.35793399 0.70049974 0.91886608
0.53782719 0.70049974 0.91886608
0.70049974 0.70049974 0.91886608
0.85163127 0.70049974 0.91886608
0.91886608 0.70049974 0.91886608
0.91886608 0.70049974 0.91886608
0.91886608 0.70049974 0.91886608
0.00047898 0.85163127 0.91886608
0.14540550 0.85163127 0.91886608
0.35793399 0.85163127 0.91886608
0.53782719 0.85163127 0.91886608
0.70049974 0.85163127 0.91886608
0.85163127 0.85163127 0.91886608
0.91886608 0.85163127 0.91886608
0.91886608 0.85163127 0.91886608
0.91886608 0.85163127 0.91886608
0.00047898 0.91886608 0.91886608
0.14540550 0.91886608 0.91886608
0.35793399 0.91886608 0.91886608
0.53782719 0.91886608 0.91886608
0.70049974 0.91886608 0.91886608
0.85163127 0.91886608 0.91886608
0.91886608 0.91886608 0.91886608
0.91886608 0.91886608 0.91886608
0.91886608 0.91886608 0.91886608
0.00047898 0.91886608 0.91886608
0.14540550 0.91886608 0.91886608
0.35793399 0.91886608 0.91886608
0.53782719 0.91886608 0.91886608
0.70049974 0.91886608 0.91886608
0.85163127 0.91886608 0.91886608
0.91886608 0.91886608 0.91886608
0.91886608 0.91886608 0.91886608
0.91886608 0.91886608 0.91886608
0.00047999 0.91886608 0.91886608
0.14540550 0.91886608 0.91886608
0.35793399 0.91886608 0.91886608
0.53782719 0.91886608 0.91886608
0.70049974 0.91886608 0.91886608
0.85163127 0.91886608 0.91886608
0.91886608 0.91886608 0.91886608
0.91886608 0.91886608 0.91886608
0.91886608 0.91886608 0.91886608
0.00047898 0.00048014 0.91886608
0.14540550 0.00048014 0.91886608
0.35793399 0.00047898 0.91886608
0.53782719 0.00048014 0.91886608
0.70049974 0.00047898 0.91886608
0.85163127 0.00047997 0.91886608
0.91886608 0.00047997 0.91886608
0.91886608 0.00048014 0.91886608
0.91886608 0.00047997 0.91886608
0.00047898 0.14540550 0.91886608
0.14540550 0.14540550 0.91886608
0.35793399 0.14540550 0.91886608
0.53782719 0.14540550 0.91886608
0.70049974 0.14540550 0.91886608
0.85163127 0.14540550 0.91886608
0.91886608 0.14540550 0.91886608
0.91886608 0.14540550 0.91886608
0.91886608 0.14540550 0.91886608
0.00047898 0.35793399 0.91886608
0.14540550 0.35793399 0.91886608
0.35793399 0.35793399 0.91886608
0.53782719 0.35793399 0.91886608
0.70049974 0.35793399 0.91886608
0.85163127 0.35793399 0.91886608
0.91886608 0.35793399 0.91886608
0.91886608 0.35793399 0.91886608
0.91886608 0.35793399 0.91886608
0.00047898 0.53782719 0.91886608
0.14540550 0.53782719 0.91886608
0.35793399 0.53782719 0.91886608
0.53782719 0.53782719 0.91886608
0.70049974 0.53782719 0.91886608
0.85163127 0.53782719 0.91886608
0.91886608 0.53782719 0.91886608
0.91886608 0.53782719 0.91886608
0.91886608 0.53782719 0.91886608
0.00047898 0.70049974 0.91886608
0.14540550 0.70049974 0.91886608
0.35793399 0.70049974 0.91886608
0.53782719 0.70049974 0.91886608
0.70049974 0.70049974 0.91886608
0.85163127 0.70049974 0.91886608
0.91886608 0.70049974 0.91886608
0.91886608 0.70049974 0.91886608
0.91886608 0.70049974 0.91886608
0.00047971 0.85163127 0.91886608
0.14540550 0.85163127 0.91886608
0.35793399 0.85163127 0.91886608
0.53782719 0.85163127 0.91886608
0.70049974 0.85163127 0.91886608
0.85163127 0.85163127 0.91886608
0.91886608 0.85163127 0.91886608
0.91886608 0.85163127 0.91886608
0.91886608 0.85163127 0.91886608
0.00047898 0.91886608 0.91886608
0.14540550 0.91886608 0.91886608
0.35793399 0.91886608 0.91886608
0.53782719 0.91886608 0.91886608
0.70049974 0.91886608 0.91886608
0.85163127 0.91886608 0.91886608
0.91886608 0.91886608 0.91886608
0.91886608 0.91886608 0.91886608
0.91886608 0.91886608 0.91886608
0.00047898 0.91886608 0.91886608
0.14540550 0.91886608 0.91886608
0.35793399 0.91886608 0.91886608
0.53782719 0.91886608 0.91886608
0.70049974 0.91886608 0.91886608
0.85163127 0.91886608 0.91886608
0.91886608 0.91886608 0.91886608
0.91886608 0.91886608 0.91886608
0.91886608 0.91886608 0.91886608
0.00048020 0.91886608 0.91886608
0.14540550 0.91886608 0.91886608
0.35793399 0.91886608 0.91886608
0.53782719 0.91886608 0.91886608
0.70049974 0.91886608 0.91886608
0.85163127 0.91886608 0.91886608
0.91886608 0.91886608 0.91886608
0.91886608 0.91886608 0.91886608
0.91886608 0.91886608 0.91886608
0.00047898 0.00048034 0.91886608
0.14540550 0.00047898 0.91886608
0.35793399 0.00048034 0.91886608
0.53782719 0.00048034 0.91886608
0.70049974 0.00048059 0.91886608
0.85163127 0.00048034 0.91886608
0.91886608 0.00048034 0.91886608
0.91886608 0.00048034 0.91886608
0.91886608 0.00048034 0.91886608
0.00047997 0.14540550 0.91886608
0.14540550 0.14540550 0.91886608
0.35793399 0.14540550 0.91886608
0.53782719 0.14540550 0.91886608
0.70049974 0.14540550 0.91886608
0.85163127 0.14540550 0.91886608
0.91886608 0.14540550 0.91886608
0.91886608 0.14540550 0.91886608
0.91886608 0.14540550 0.91886608
0.00047997 0.35793399 0.91886608
0.14540550 0.35793399 0.91886608
0.35793399 0.35793399 0.91886608
0.53782719 0.35793399 0.91886608
0.70049974 0.35793399 0.91886608
0.85163127 0.35793399 0.91886608
0.91886608 0.35793399 0.91886608
0.91886608 0.35793399 0.91886608
0.91886608 0.35793399 0.91886608
0.00047997 0.53782719 0.91886608
0.14540550 0.53782719 0.91886608
0.35793399 0.53782719 0.91886608
0.53782719 0.53782719 0.91886608
0.70049974 0.53782719 0.91886608
0.85163127 0.53782719 0.91886608
0.91886608 0.53782719 0.91886608
0.91886608 0.53782719 0.91886608
0.91886608 0.53782719 0.91886608
0.00047898 0.70049974 0.91886608
0.14540550 0.70049974 0.91886608
0.35793399 0.70049974 0.91886608
0.53782719 0.70049974 0.91886608
0.70049974 0.70049974 0.91886608
0.85163127 0.70049974 0.91886608
0.91886608 0.70049974 0.91886608
0.91886608 0.70049974 0.91886608
0.91886608 0.70049974 0.91886608
0.00047898 0.85163127 0.91886608
0.14540550 0.85163127 0.91886608
0.35793399 0.85163127 0.91886608
0.53782719 0.85163127 0.91886608
0.70049974 0.85163127 0.91886608
0.85163127 0.85163127 0.91886608
0.91886608 0.85163127 0.91886608
0.91886608 0.85163127 0.91886608
0.91886608 0.85163127 0.91886608
0.00047997 0.91886608 0.91886608
0.14540550 0.91886608 0.91886608
0.35793399 0.91886608 0.91886608
0.53782719 0.91886608 0.91886608
0.70049974 0.91886608 0.91886608
0.85163127 0.91886608 0.91886608
0.91886608 0.91886608 0.91886608
0.91886608 0.91886608 0.91886608
0.91886608 0.91886608 0.91886608
0.00047997 0.91886608 0.91886608
0.14540550 0.91886608 0.91886608
0.35793399 0.91886608 0.91886608
0.53782719 0.91886608 0.91886608
0.70049974 0.91886608 0.91886608
0.85163127 0.91886608 0.91886608
0.91886608 0.91886608 0.91886608
0.91886608 0.91886608 0.91886608
0.91886608 0.91886608 0.91886608
0.00047997 0.91886608 0.91886608
0.14540550 0.91886608 0.91886608
0.35793399 0.91886608 0.91886608
0.53782719 0.91886608 0.91886608
0.70049974 0.91886608 0.91886608
0.85163127 0.91886608 0.91886608
0.91886608 0.91886608 0.91886608
0.91886608 0.91886608 0.91886608
0.91886608 0.91886608 0.91886608
