src/ffmpeg_scripts/luts/luminance_2p67.cube
TITLE "luminance_2p67"
LUT_3D_SIZE 5
# PQ (EOTF Only)/Rec2020 -> PQ (EOTF Only)/Rec2020, CineEI Shift 2.67, Black Level 0.00% IRE, Input 109% -> Output 109% - Created with LUTCalc v4.01 by Ben Turley October 2020
0.06256172 0.06256172 0.06256172
0.37101146 0.06256172 0.06256172
0.66661318 0.06256194 0.06256200
0.91886608 0.06256172 0.06256172
0.91886608 0.06256235 0.06256245
0.06256187 0.37101146 0.06256172
0.37101146 0.37101146 0.06256172
0.66661318 0.37101146 0.06256197
0.91886608 0.37101146 0.06256172
0.91886608 0.37101146 0.06256172
0.06256172 0.66661318 0.06256172
0.37101146 0.66661318 0.06256172
0.66661318 0.66661318 0.06256172
0.91886608 0.66661318 0.06256172
0.91886608 0.66661318 0.06256172
0.06256172 0.91886608 0.06256172
0.37101146 0.91886608 0.06256172
0.66661318 0.91886608 0.06256172
0.91886608 0.91886608 0.06256172
0.91886608 0.91886608 0.06256245
0.06256259 0.91886608 0.06256257
0.37101146 0.91886608 0.06256172
0.66661318 0.91886608 0.06256172
0.91886608 0.91886608 0.06256172
0.91886608 0.91886608 0.06256172
0.06256172 0.06256191 0.37101146
0.37101146 0.06256191 0.37101146
0.66661318 0.06256200 0.37101146
0.91886608 0.06256172 0.37101146
0.91886608 0.06256241 0.37101146
0.06256172 0.37101146 0.37101146
0.37101146 0.37101146 0.37101146
0.66661318 0.37101146 0.37101146
0.91886608 0.37101146 0.37101146
0.91886608 0.37101146 0.37101146
0.06256204 0.66661318 0.37101146
0.37101146 0.66661318 0.37101146
0.66661318 0.66661318 0.37101146
0.91886608 0.66661318 0.37101146
0.91886608 0.66661318 0.37101146
0.06256235 0.91886608 0.37101146
0.37101146 0.91886608 0.37101146
0.66661318 0.91886608 0.37101146
0.91886608 0.91886608 0.37101146
0.91886608 0.91886608 0.37101146
0.06256172 0.91886608 0.37101146
0.37101146 0.91886608 0.37101146
0.66661318 0.91886608 0.37101146
0.91886608 0.91886608 0.37101146
0.91886608 0.91886608 0.37101146
0.06256172 0.06256213 0.66661318
0.37101146 0.06256172 0.66661318
0.66661318 0.06256208 0.66661318
0.91886608 0.06256208 0.66661318
0.91886608 0.06256259 0.66661318
0.06256172 0.37101146 0.66661318
0.37101146 0.37101146 0.66661318
0.66661318 0.37101146 0.66661318
0.91886608 0.37101146 0.66661318
0.91886608 0.37101146 0.66661318
0.06256172 0.66661318 0.66661318
0.37101146 0.66661318 0.66661318
0.66661318 0.66661318 0.66661318
0.91886608 0.66661318 0.66661318
0.91886608 0.66661318 0.66661318
0.06256172 0.91886608 0.66661318
0.37101146 0.91886608 0.66661318
0.66661318 0.91886608 0.66661318
0.91886608 0.91886608 0.66661318
0.91886608 0.91886608 0.66661318
0.06256172 0.91886608 0.66661318
0.37101146 0.91886608 0.66661318
0.66661318 0.91886608 0.66661318
0.91886608 0.91886608 0.66661318
0.91886608 0.91886608 0.66661318
0.06256172 0.06256235 0.91886608
0.37101146 0.06256172 0.91886608
0.66661318 0.06256235 0.91886608
0.91886608 0.06256235 0.91886608
0.91886608 0.06256172 0.91886608
0.06256172 0.37101146 0.91886608
0.37101146 0.37101146 0.91886608
0.66661318 0.37101146 0.91886608
0.91886608 0.37101146 0.91886608
0.91886608 0.37101146 0.91886608
0.06256172 0.66661318 0.91886608
0.37101146 0.66661318 0.91886608
0.66661318 0.66661318 0.91886608
0.91886608 0.66661318 0.91886608
0.91886608 0.66661318 0.91886608
0.06256172 0.91886608 0.91886608
0.37101146 0.91886608 0.91886608
0.66661318 0.91886608 0.91886608
0.91886608 0.91886608 0.91886608
0.91886608 0.91886608 0.91886608
0.06256259 0.91886608 0.91886608
0.37101146 0.91886608 0.91886608
0.66661318 0.91886608 0.91886608
0.91886608 0.91886608 0.91886608
0.91886608 0.91886608 0.91886608
0.06256172 0.06256289 0.91886608
0.37101146 0.06256289 0.91886608
0.66661318 0.06256311 0.91886608
0.91886608 0.06256289 0.91886608
0.91886608 0.06256289 0.91886608
0.06256257 0.37101146 0.91886608
0.37101146 0.37101146 0.91886608
0.66661318 0.37101146 0.91886608
0.91886608 0.37101146 0.91886608
0.91886608 0.37101146 0.91886608
0.06256172 0.66661318 0.91886608
0.37101146 0.66661318 0.91886608
0.66661318 0.66661318 0.91886608
0.91886608 0.66661318 0.91886608
0.91886608 0.66661318 0.91886608
0.06256257 0.91886608 0.91886608
0.37101146 0.91886608 0.91886608
0.66661318 0.91886608 0.91886608
0.91886608 0.91886608 0.91886608
0.91886608 0.91886608 0.91886608
0.06256257 0.91886608 0.91886608
0.37101146 0.91886608 0.91886608
0.66661318 0.91886608 0.91886608
0.91886608 0.91886608 0.91886608
0.91886608 0.91886608 0.91886608
