src/ffmpeg_scripts/luts/luminance_-2p67.cube
TITLE "luminance_-2p67"
LUT_3D_SIZE 9
# PQ (EOTF Only)/Rec2020 -> PQ (EOTF Only)/Rec2020, CineEI Shift -2.67, Black Level 0.00% IRE, Input 109% -> Output 109% - Created with LUTCalc v4.01 by Ben Turley October 2020
0.06256172 0.06256172 0.06256172
0.09015032 0.06256176 0.06256172
0.16421120 0.06256178 0.06256172
0.25301609 0.06256172 0.06256172
0.35283068 0.06256172 0.06256172
0.46186125 0.06256185 0.06256172
0.57899905 0.06256172 0.06256172
0.70347300 0.06256199 0.06256200
0.83470774 0.06256206 0.06256208
0.06256177 0.09015032 0.06256172
0.09015032 0.09015032 0.06256172
0.16421120 0.09015032 0.06256172
0.25301609 0.09015032 0.06256182
0.35283068 0.09015032 0.06256172
0.46186125 0.09015032 0.06256172
0.57899905 0.09015032 0.06256172
0.70347300 0.09015032 0.06256200
0.83470774 0.09015032 0.06256208
0.06256180 0.16421120 0.06256172
0.09015032 0.16421120 0.06256172
0.16421120 0.16421120 0.06256172
0.25301609 0.16421120 0.06256172
0.35283068 0.16421120 0.06256185
0.46186125 0.16421120 0.06256172
0.57899905 0.16421120 0.06256194
0.70347300 0.16421120 0.06256172
0.83470774 0.16421120 0.06256172
0.06256184 0.25301609 0.06256182
0.09015032 0.25301609 0.06256182
0.16421120 0.25301609 0.06256172
0.25301609 0.25301609 0.06256184
0.35283068 0.25301609 0.06256185
0.46186125 0.25301609 0.06256172
0.57899905 0.25301609 0.06256172
0.70347300 0.25301609 0.06256172
0.83470774 0.25301609 0.06256208
0.06256172 0.35283068 0.06256172
0.09015032 0.35283068 0.06256185
0.16421120 0.35283068 0.06256172
0.25301609 0.35283068 0.06256172
0.35283068 0.35283068 0.06256172
0.46186125 0.35283068 0.06256172
0.57899905 0.35283068 0.06256172
0.70347300 0.35283068 0.06256172
0.83470774 0.35283068 0.06256172
0.06256193 0.46186125 0.06256172
0.09015032 0.46186125 0.06256172
0.16421120 0.46186125 0.06256189
0.25301609 0.46186125 0.06256172
0.35283068 0.46186125 0.06256172
0.46186125 0.46186125 0.06256172
0.57899905 0.46186125 0.06256172
0.70347300 0.46186125 0.06256172
0.83470774 0.46186125 0.06256172
0.06256196 0.57899905 0.06256172
0.09015032 0.57899905 0.06256172
0.16421120 0.57899905 0.06256172
0.25301609 0.57899905 0.06256172
0.35283068 0.57899905 0.06256172
0.46186125 0.57899905 0.06256197
0.57899905 0.57899905 0.06256172
0.70347300 0.57899905 0.06256172
0.83470774 0.57899905 0.06256213
0.06256202 0.70347300 0.06256172
0.09015032 0.70347300 0.06256172
0.16421120 0.70347300 0.06256172
0.25301609 0.70347300 0.06256172
0.35283068 0.70347300 0.06256172
0.46186125 0.70347300 0.06256172
0.57899905 0.70347300 0.06256172
0.70347300 0.70347300 0.06256204
0.83470774 0.70347300 0.06256172
0.06256212 0.83470774 0.06256172
0.09015032 0.83470774 0.06256217
0.16421120 0.83470774 0.06256208
0.25301609 0.83470774 0.06256172
0.35283068 0.83470774 0.06256172
0.46186125 0.83470774 0.06256172
0.57899905 0.83470774 0.06256208
0.70347300 0.83470774 0.06256172
0.83470774 0.83470774 0.06256172
0.06256172 0.06256179 0.09015032
0.09015032 0.06256179 0.09015032
0.16421120 0.06256172 0.09015032
0.25301609 0.06256172 0.09015032
0.35283068 0.06256182 0.09015032
0.46186125 0.06256172 0.09015032
0.57899905 0.06256172 0.09015032
0.70347300 0.06256205 0.09015032
0.83470774 0.06256172 0.09015032
0.06256172 0.09015032 0.09015032
0.09015032 0.09015032 0.09015032
0.16421120 0.09015032 0.09015032
0.25301609 0.09015032 0.09015032
0.35283068 0.09015032 0.09015032
0.46186125 0.09015032 0.09015032
0.57899905 0.09015032 0.09015032
0.70347300 0.09015032 0.09015032
0.83470774 0.09015032 0.09015032
0.06256172 0.16421120 0.09015032
0.09015032 0.16421120 0.09015032
0.16421120 0.16421120 0.09015032
0.25301609 0.16421120 0.09015032
0.35283068 0.16421120 0.09015032
0.46186125 0.16421120 0.09015032
0.57899905 0.16421120 0.09015032
0.70347300 0.16421120 0.09015032
0.83470774 0.16421120 0.09015032
0.06256184 0.25301609 0.09015032
0.09015032 0.25301609 0.09015032
0.16421120 0.25301609 0.09015032
0.25301609 0.25301609 0.09015032
0.35283068 0.25301609 0.09015032
0.46186125 0.25301609 0.09015032
0.57899905 0.25301609 0.09015032
0.70347300 0.25301609 0.09015032
0.83470774 0.25301609 0.09015032
0.06256187 0.35283068 0.09015032
0.09015032 0.35283068 0.09015032
0.16421120 0.35283068 0.09015032
0.25301609 0.35283068 0.09015032
0.35283068 0.35283068 0.09015032
0.46186125 0.35283068 0.09015032
0.57899905 0.35283068 0.09015032
0.70347300 0.35283068 0.09015032
0.83470774 0.35283068 0.09015032
0.06256189 0.46186125 0.09015032
0.09015032 0.46186125 0.09015032
0.16421120 0.46186125 0.09015032
0.25301609 0.46186125 0.09015032
0.35283068 0.46186125 0.09015032
0.46186125 0.46186125 0.09015032
0.57899905 0.46186125 0.09015032
0.70347300 0.46186125 0.09015032
0.83470774 0.46186125 0.09015032
0.06256198 0.57899905 0.09015032
0.09015032 0.57899905 0.09015032
0.16421120 0.57899905 0.09015032
0.25301609 0.57899905 0.09015032
0.35283068 0.57899905 0.09015032
0.46186125 0.57899905 0.09015032
0.57899905 0.57899905 0.09015032
0.70347300 0.57899905 0.09015032
0.83470774 0.57899905 0.09015032
0.06256201 0.70347300 0.09015032
0.09015032 0.70347300 0.09015032
0.16421120 0.70347300 0.09015032
0.25301609 0.70347300 0.09015032
0.35283068 0.70347300 0.09015032
0.46186125 0.70347300 0.09015032
0.57899905 0.70347300 0.09015032
0.70347300 0.70347300 0.09015032
0.83470774 0.70347300 0.09015032
0.06256217 0.83470774 0.09015032
0.09015032 0.83470774 0.09015032
0.16421120 0.83470774 0.09015032
0.25301609 0.83470774 0.09015032
0.35283068 0.83470774 0.09015032
0.46186125 0.83470774 0.09015032
0.57899905 0.83470774 0.09015032
0.70347300 0.83470774 0.09015032
0.83470774 0.83470774 0.09015032
0.06256172 0.06256182 0.16421120
0.09015032 0.06256172 0.16421120
0.16421120 0.06256172 0.16421120
0.25301609 0.06256172 0.16421120
0.35283068 0.06256184 0.16421120
0.46186125 0.06256172 0.16421120
0.57899905 0.06256172 0.16421120
0.70347300 0.06256198 0.16421120
0.83470774 0.06256200 0.16421120
0.06256180 0.09015032 0.16421120
0.09015032 0.09015032 0.16421120
0.16421120 0.09015032 0.16421120
0.25301609 0.09015032 0.16421120
0.35283068 0.09015032 0.16421120
0.46186125 0.09015032 0.16421120
0.57899905 0.09015032 0.16421120
0.70347300 0.09015032 0.16421120
0.83470774 0.09015032 0.16421120
0.06256172 0.16421120 0.16421120
0.09015032 0.16421120 0.16421120
0.16421120 0.16421120 0.16421120
0.25301609 0.16421120 0.16421120
0.35283068 0.16421120 0.16421120
0.46186125 0.16421120 0.16421120
0.57899905 0.16421120 0.16421120
0.70347300 0.16421120 0.16421120
0.83470774 0.16421120 0.16421120
0.06256172 0.25301609 0.16421120
0.09015032 0.25301609 0.16421120
0.16421120 0.25301609 0.16421120
0.25301609 0.25301609 0.16421120
0.35283068 0.25301609 0.16421120
0.46186125 0.25301609 0.16421120
0.57899905 0.25301609 0.16421120
0.70347300 0.25301609 0.16421120
0.83470774 0.25301609 0.16421120
0.06256186 0.35283068 0.16421120
0.09015032 0.35283068 0.16421120
0.16421120 0.35283068 0.16421120
0.25301609 0.35283068 0.16421120
0.35283068 0.35283068 0.16421120
0.46186125 0.35283068 0.16421120
0.57899905 0.35283068 0.16421120
0.70347300 0.35283068 0.16421120
0.83470774 0.35283068 0.16421120
0.06256193 0.46186125 0.16421120
0.09015032 0.46186125 0.16421120
0.16421120 0.46186125 0.16421120
0.25301609 0.46186125 0.16421120
0.35283068 0.46186125 0.16421120
0.46186125 0.46186125 0.16421120
0.57899905 0.46186125 0.16421120
0.70347300 0.46186125 0.16421120
0.83470774 0.46186125 0.16421120
0.06256172 0.57899905 0.16421120
0.09015032 0.57899905 0.16421120
0.16421120 0.57899905 0.16421120
0.25301609 0.57899905 0.16421120
0.35283068 0.57899905 0.16421120
0.46186125 0.57899905 0.16421120
0.57899905 0.57899905 0.16421120
0.70347300 0.57899905 0.16421120
0.83470774 0.57899905 0.16421120
0.06256204 0.70347300 0.16421120
0.09015032 0.70347300 0.16421120
0.16421120 0.70347300 0.16421120
0.25301609 0.70347300 0.16421120
0.35283068 0.70347300 0.16421120
0.46186125 0.70347300 0.16421120
0.57899905 0.70347300 0.16421120
0.70347300 0.70347300 0.16421120
0.83470774 0.70347300 0.16421120
0.06256210 0.83470774 0.16421120
0.09015032 0.83470774 0.16421120
0.16421120 0.83470774 0.16421120
0.25301609 0.83470774 0.16421120
0.35283068 0.83470774 0.16421120
0.46186125 0.83470774 0.16421120
0.57899905 0.83470774 0.16421120
0.70347300 0.83470774 0.16421120
0.83470774 0.83470774 0.16421120
0.06256172 0.06256187 0.25301609
0.09015032 0.06256172 0.25301609
0.16421120 0.06256185 0.25301609
0.25301609 0.06256185 0.25301609
0.35283068 0.06256187 0.25301609
0.46186125 0.06256192 0.25301609
0.57899905 0.06256172 0.25301609
0.70347300 0.06256194 0.25301609
0.83470774 0.06256206 0.25301609
0.06256172 0.09015032 0.25301609
0.09015032 0.09015032 0.25301609
0.16421120 0.09015032 0.25301609
0.25301609 0.09015032 0.25301609
0.35283068 0.09015032 0.25301609
0.46186125 0.09015032 0.25301609
0.57899905 0.09015032 0.25301609
0.70347300 0.09015032 0.25301609
0.83470774 0.09015032 0.25301609
0.06256172 0.16421120 0.25301609
0.09015032 0.16421120 0.25301609
0.16421120 0.16421120 0.25301609
0.25301609 0.16421120 0.25301609
0.35283068 0.16421120 0.25301609
0.46186125 0.16421120 0.25301609
0.57899905 0.16421120 0.25301609
0.70347300 0.16421120 0.25301609
0.83470774 0.16421120 0.25301609
0.06256172 0.25301609 0.25301609
0.09015032 0.25301609 0.25301609
0.16421120 0.25301609 0.25301609
0.25301609 0.25301609 0.25301609
0.35283068 0.25301609 0.25301609
0.46186125 0.25301609 0.25301609
0.57899905 0.25301609 0.25301609
0.70347300 0.25301609 0.25301609
0.83470774 0.25301609 0.25301609
0.06256186 0.35283068 0.25301609
0.09015032 0.35283068 0.25301609
0.16421120 0.35283068 0.25301609
0.25301609 0.35283068 0.25301609
0.35283068 0.35283068 0.25301609
0.46186125 0.35283068 0.25301609
0.57899905 0.35283068 0.25301609
0.70347300 0.35283068 0.25301609
0.83470774 0.35283068 0.25301609
0.06256172 0.46186125 0.25301609
0.09015032 0.46186125 0.25301609
0.16421120 0.46186125 0.25301609
0.25301609 0.46186125 0.25301609
0.35283068 0.46186125 0.25301609
0.46186125 0.46186125 0.25301609
0.57899905 0.46186125 0.25301609
0.70347300 0.46186125 0.25301609
0.83470774 0.46186125 0.25301609
0.06256200 0.57899905 0.25301609
0.09015032 0.57899905 0.25301609
0.16421120 0.57899905 0.25301609
0.25301609 0.57899905 0.25301609
0.35283068 0.57899905 0.25301609
0.46186125 0.57899905 0.25301609
0.57899905 0.57899905 0.25301609
0.70347300 0.57899905 0.25301609
0.83470774 0.57899905 0.25301609
0.06256200 0.70347300 0.25301609
0.09015032 0.70347300 0.25301609
0.16421120 0.70347300 0.25301609
0.25301609 0.70347300 0.25301609
0.35283068 0.70347300 0.25301609
0.46186125 0.70347300 0.25301609
0.57899905 0.70347300 0.25301609
0.70347300 0.70347300 0.25301609
0.83470774 0.70347300 0.25301609
0.06256210 0.83470774 0.25301609
0.09015032 0.83470774 0.25301609
0.16421120 0.83470774 0.25301609
0.25301609 0.83470774 0.25301609
0.35283068 0.83470774 0.25301609
0.46186125 0.83470774 0.25301609
0.57899905 0.83470774 0.25301609
0.70347300 0.83470774 0.25301609
0.83470774 0.83470774 0.25301609
0.06256172 0.06256191 0.35283068
0.09015032 0.06256191 0.35283068
0.16421120 0.06256172 0.35283068
0.25301609 0.06256191 0.35283068
0.35283068 0.06256191 0.35283068
0.46186125 0.06256172 0.35283068
0.57899905 0.06256172 0.35283068
0.70347300 0.06256200 0.35283068
0.83470774 0.06256204 0.35283068
0.06256172 0.09015032 0.35283068
0.09015032 0.09015032 0.35283068
0.16421120 0.09015032 0.35283068
0.25301609 0.09015032 0.35283068
0.35283068 0.09015032 0.35283068
0.46186125 0.09015032 0.35283068
0.57899905 0.09015032 0.35283068
0.70347300 0.09015032 0.35283068
0.83470774 0.09015032 0.35283068
0.06256172 0.16421120 0.35283068
0.09015032 0.16421120 0.35283068
0.16421120 0.16421120 0.35283068
0.25301609 0.16421120 0.35283068
0.35283068 0.16421120 0.35283068
0.46186125 0.16421120 0.35283068
0.57899905 0.16421120 0.35283068
0.70347300 0.16421120 0.35283068
0.83470774 0.16421120 0.35283068
0.06256172 0.25301609 0.35283068
0.09015032 0.25301609 0.35283068
0.16421120 0.25301609 0.35283068
0.25301609 0.25301609 0.35283068
0.35283068 0.25301609 0.35283068
0.46186125 0.25301609 0.35283068
0.57899905 0.25301609 0.35283068
0.70347300 0.25301609 0.35283068
0.83470774 0.25301609 0.35283068
0.06256172 0.35283068 0.35283068
0.09015032 0.35283068 0.35283068
0.16421120 0.35283068 0.35283068
0.25301609 0.35283068 0.35283068
0.35283068 0.35283068 0.35283068
0.46186125 0.35283068 0.35283068
0.57899905 0.35283068 0.35283068
0.70347300 0.35283068 0.35283068
0.83470774 0.35283068 0.35283068
0.06256194 0.46186125 0.35283068
0.09015032 0.46186125 0.35283068
0.16421120 0.46186125 0.35283068
0.25301609 0.46186125 0.35283068
0.35283068 0.46186125 0.35283068
0.46186125 0.46186125 0.35283068
0.57899905 0.46186125 0.35283068
0.70347300 0.46186125 0.35283068
0.83470774 0.46186125 0.35283068
0.06256198 0.57899905 0.35283068
0.09015032 0.57899905 0.35283068
0.16421120 0.57899905 0.35283068
0.25301609 0.57899905 0.35283068
0.35283068 0.57899905 0.35283068
0.46186125 0.57899905 0.35283068
0.57899905 0.57899905 0.35283068
0.70347300 0.57899905 0.35283068
0.83470774 0.57899905 0.35283068
0.06256204 0.70347300 0.35283068
0.09015032 0.70347300 0.35283068
0.16421120 0.70347300 0.35283068
0.25301609 0.70347300 0.35283068
0.35283068 0.70347300 0.35283068
0.46186125 0.70347300 0.35283068
0.57899905 0.70347300 0.35283068
0.70347300 0.70347300 0.35283068
0.83470774 0.70347300 0.35283068
0.06256172 0.83470774 0.35283068
0.09015032 0.83470774 0.35283068
0.16421120 0.83470774 0.35283068
0.25301609 0.83470774 0.35283068
0.35283068 0.83470774 0.35283068
0.46186125 0.83470774 0.35283068
0.57899905 0.83470774 0.35283068
0.70347300 0.83470774 0.35283068
0.83470774 0.83470774 0.35283068
0.06256191 0.06256200 0.46186125
0.09015032 0.06256197 0.46186125
0.16421120 0.06256200 0.46186125
0.25301609 0.06256197 0.46186125
0.35283068 0.06256200 0.46186125
0.46186125 0.06256197 0.46186125
0.57899905 0.06256197 0.46186125
0.70347300 0.06256202 0.46186125
0.83470774 0.06256172 0.46186125
0.06256172 0.09015032 0.46186125
0.09015032 0.09015032 0.46186125
0.16421120 0.09015032 0.46186125
0.25301609 0.09015032 0.46186125
0.35283068 0.09015032 0.46186125
0.46186125 0.09015032 0.46186125
0.57899905 0.09015032 0.46186125
0.70347300 0.09015032 0.46186125
0.83470774 0.09015032 0.46186125
0.06256191 0.16421120 0.46186125
0.09015032 0.16421120 0.46186125
0.16421120 0.16421120 0.46186125
0.25301609 0.16421120 0.46186125
0.35283068 0.16421120 0.46186125
0.46186125 0.16421120 0.46186125
0.57899905 0.16421120 0.46186125
0.70347300 0.16421120 0.46186125
0.83470774 0.16421120 0.46186125
0.06256172 0.25301609 0.46186125
0.09015032 0.25301609 0.46186125
0.16421120 0.25301609 0.46186125
0.25301609 0.25301609 0.46186125
0.35283068 0.25301609 0.46186125
0.46186125 0.25301609 0.46186125
0.57899905 0.25301609 0.46186125
0.70347300 0.25301609 0.46186125
0.83470774 0.25301609 0.46186125
0.06256172 0.35283068 0.46186125
0.09015032 0.35283068 0.46186125
0.16421120 0.35283068 0.46186125
0.25301609 0.35283068 0.46186125
0.35283068 0.35283068 0.46186125
0.46186125 0.35283068 0.46186125
0.57899905 0.35283068 0.46186125
0.70347300 0.35283068 0.46186125
0.83470774 0.35283068 0.46186125
0.06256194 0.46186125 0.46186125
0.09015032 0.46186125 0.46186125
0.16421120 0.46186125 0.46186125
0.25301609 0.46186125 0.46186125
0.35283068 0.46186125 0.46186125
0.46186125 0.46186125 0.46186125
0.57899905 0.46186125 0.46186125
0.70347300 0.46186125 0.46186125
0.83470774 0.46186125 0.46186125
0.06256202 0.57899905 0.46186125
0.09015032 0.57899905 0.46186125
0.16421120 0.57899905 0.46186125
0.25301609 0.57899905 0.46186125
0.35283068 0.57899905 0.46186125
0.46186125 0.57899905 0.46186125
0.57899905 0.57899905 0.46186125
0.70347300 0.57899905 0.46186125
0.83470774 0.57899905 0.46186125
0.06256194 0.70347300 0.46186125
0.09015032 0.70347300 0.46186125
0.16421120 0.70347300 0.46186125
0.25301609 0.70347300 0.46186125
0.35283068 0.70347300 0.46186125
0.46186125 0.70347300 0.46186125
0.57899905 0.70347300 0.46186125
0.70347300 0.70347300 0.46186125
0.83470774 0.70347300 0.46186125
0.06256216 0.83470774 0.46186125
0.09015032 0.83470774 0.46186125
0.16421120 0.83470774 0.46186125
0.25301609 0.83470774 0.46186125
0.35283068 0.83470774 0.46186125
0.46186125 0.83470774 0.46186125
0.57899905 0.83470774 0.46186125
0.70347300 0.83470774 0.46186125
0.83470774 0.83470774 0.46186125
0.06256172 0.06256200 0.57899905
0.09015032 0.06256200 0.57899905
0.16421120 0.06256172 0.57899905
0.25301609 0.06256200 0.57899905
0.35283068 0.06256200 0.57899905
0.46186125 0.06256172 0.57899905
0.57899905 0.06256204 0.57899905
0.70347300 0.06256172 0.57899905
0.83470774 0.06256172 0.57899905
0.06256172 0.09015032 0.57899905
0.09015032 0.09015032 0.57899905
0.16421120 0.09015032 0.57899905
0.25301609 0.09015032 0.57899905
0.35283068 0.09015032 0.57899905
0.46186125 0.09015032 0.57899905
0.57899905 0.09015032 0.57899905
0.70347300 0.09015032 0.57899905
0.83470774 0.09015032 0.57899905
0.06256172 0.16421120 0.57899905
0.09015032 0.16421120 0.57899905
0.16421120 0.16421120 0.57899905
0.25301609 0.16421120 0.57899905
0.35283068 0.16421120 0.57899905
0.46186125 0.16421120 0.57899905
0.57899905 0.16421120 0.57899905
0.70347300 0.16421120 0.57899905
0.83470774 0.16421120 0.57899905
0.06256172 0.25301609 0.57899905
0.09015032 0.25301609 0.57899905
0.16421120 0.25301609 0.57899905
0.25301609 0.25301609 0.57899905
0.35283068 0.25301609 0.57899905
0.46186125 0.25301609 0.57899905
0.57899905 0.25301609 0.57899905
0.70347300 0.25301609 0.57899905
0.83470774 0.25301609 0.57899905
0.06256172 0.35283068 0.57899905
0.09015032 0.35283068 0.57899905
0.16421120 0.35283068 0.57899905
0.25301609 0.35283068 0.57899905
0.35283068 0.35283068 0.57899905
0.46186125 0.35283068 0.57899905
0.57899905 0.35283068 0.57899905
0.70347300 0.35283068 0.57899905
0.83470774 0.35283068 0.57899905
0.06256172 0.46186125 0.57899905
0.09015032 0.46186125 0.57899905
0.16421120 0.46186125 0.57899905
0.25301609 0.46186125 0.57899905
0.35283068 0.46186125 0.57899905
0.46186125 0.46186125 0.57899905
0.57899905 0.46186125 0.57899905
0.70347300 0.46186125 0.57899905
0.83470774 0.46186125 0.57899905
0.06256172 0.57899905 0.57899905
0.09015032 0.57899905 0.57899905
0.16421120 0.57899905 0.57899905
0.25301609 0.57899905 0.57899905
0.35283068 0.57899905 0.57899905
0.46186125 0.57899905 0.57899905
0.57899905 0.57899905 0.57899905
0.70347300 0.57899905 0.57899905
0.83470774 0.57899905 0.57899905
0.06256200 0.70347300 0.57899905
0.09015032 0.70347300 0.57899905
0.16421120 0.70347300 0.57899905
0.25301609 0.70347300 0.57899905
0.35283068 0.70347300 0.57899905
0.46186125 0.70347300 0.57899905
0.57899905 0.70347300 0.57899905
0.70347300 0.70347300 0.57899905
0.83470774 0.70347300 0.57899905
0.06256211 0.83470774 0.57899905
0.09015032 0.83470774 0.57899905
0.16421120 0.83470774 0.57899905
0.25301609 0.83470774 0.57899905
0.35283068 0.83470774 0.57899905
0.46186125 0.83470774 0.57899905
0.57899905 0.83470774 0.57899905
0.70347300 0.83470774 0.57899905
0.83470774 0.83470774 0.57899905
0.06256172 0.06256217 0.70347300
0.09015032 0.06256213 0.70347300
0.16421120 0.06256213 0.70347300
0.25301609 0.06256213 0.70347300
0.35283068 0.06256172 0.70347300
0.46186125 0.06256208 0.70347300
0.57899905 0.06256213 0.70347300
0.70347300 0.06256217 0.70347300
0.83470774 0.06256223 0.70347300
0.06256204 0.09015032 0.70347300
0.09015032 0.09015032 0.70347300
0.16421120 0.09015032 0.70347300
0.25301609 0.09015032 0.70347300
0.35283068 0.09015032 0.70347300
0.46186125 0.09015032 0.70347300
0.57899905 0.09015032 0.70347300
0.70347300 0.09015032 0.70347300
0.83470774 0.09015032 0.70347300
0.06256172 0.16421120 0.70347300
0.09015032 0.16421120 0.70347300
0.16421120 0.16421120 0.70347300
0.25301609 0.16421120 0.70347300
0.35283068 0.16421120 0.70347300
0.46186125 0.16421120 0.70347300
0.57899905 0.16421120 0.70347300
0.70347300 0.16421120 0.70347300
0.83470774 0.16421120 0.70347300
0.06256172 0.25301609 0.70347300
0.09015032 0.25301609 0.70347300
0.16421120 0.25301609 0.70347300
0.25301609 0.25301609 0.70347300
0.35283068 0.25301609 0.70347300
0.46186125 0.25301609 0.70347300
0.57899905 0.25301609 0.70347300
0.70347300 0.25301609 0.70347300
0.83470774 0.25301609 0.70347300
0.06256172 0.35283068 0.70347300
0.09015032 0.35283068 0.70347300
0.16421120 0.35283068 0.70347300
0.25301609 0.35283068 0.70347300
0.35283068 0.35283068 0.70347300
0.46186125 0.35283068 0.70347300
0.57899905 0.35283068 0.70347300
0.70347300 0.35283068 0.70347300
0.83470774 0.35283068 0.70347300
0.06256172 0.46186125 0.70347300
0.09015032 0.46186125 0.70347300
0.16421120 0.46186125 0.70347300
0.25301609 0.46186125 0.70347300
0.35283068 0.46186125 0.70347300
0.46186125 0.46186125 0.70347300
0.57899905 0.46186125 0.70347300
0.70347300 0.46186125 0.70347300
0.83470774 0.46186125 0.70347300
0.06256172 0.57899905 0.70347300
0.09015032 0.57899905 0.70347300
0.16421120 0.57899905 0.70347300
0.25301609 0.57899905 0.70347300
0.35283068 0.57899905 0.70347300
0.46186125 0.57899905 0.70347300
0.57899905 0.57899905 0.70347300
0.70347300 0.57899905 0.70347300
0.83470774 0.57899905 0.70347300
0.06256172 0.70347300 0.70347300
0.09015032 0.70347300 0.70347300
0.16421120 0.70347300 0.70347300
0.25301609 0.70347300 0.70347300
0.35283068 0.70347300 0.70347300
0.46186125 0.70347300 0.70347300
0.57899905 0.70347300 0.70347300
0.70347300 0.70347300 0.70347300
0.83470774 0.70347300 0.70347300
0.06256217 0.83470774 0.70347300
0.09015032 0.83470774 0.70347300
0.16421120 0.83470774 0.70347300
0.25301609 0.83470774 0.70347300
0.35283068 0.83470774 0.70347300
0.46186125 0.83470774 0.70347300
0.57899905 0.83470774 0.70347300
0.70347300 0.83470774 0.70347300
0.83470774 0.83470774 0.70347300
0.06256213 0.06256227 0.83470774
0.09015032 0.06256219 0.83470774
0.16421120 0.06256227 0.83470774
0.25301609 0.06256219 0.83470774
0.35283068 0.06256231 0.83470774
0.46186125 0.06256219 0.83470774
0.57899905 0.06256219 0.83470774
0.70347300 0.06256219 0.83470774
0.83470774 0.06256227 0.83470774
0.06256172 0.09015032 0.83470774
0.09015032 0.09015032 0.83470774
0.16421120 0.09015032 0.83470774
0.25301609 0.09015032 0.83470774
0.35283068 0.09015032 0.83470774
0.46186125 0.09015032 0.83470774
0.57899905 0.09015032 0.83470774
0.70347300 0.09015032 0.83470774
0.83470774 0.09015032 0.83470774
0.06256172 0.16421120 0.83470774
0.09015032 0.16421120 0.83470774
0.16421120 0.16421120 0.83470774
0.25301609 0.16421120 0.83470774
0.35283068 0.16421120 0.83470774
0.46186125 0.16421120 0.83470774
0.57899905 0.16421120 0.83470774
0.70347300 0.16421120 0.83470774
0.83470774 0.16421120 0.83470774
0.06256172 0.25301609 0.83470774
0.09015032 0.25301609 0.83470774
0.16421120 0.25301609 0.83470774
0.25301609 0.25301609 0.83470774
0.35283068 0.25301609 0.83470774
0.46186125 0.25301609 0.83470774
0.57899905 0.25301609 0.83470774
0.70347300 0.25301609 0.83470774
0.83470774 0.25301609 0.83470774
0.06256172 0.35283068 0.83470774
0.09015032 0.35283068 0.83470774
0.16421120 0.35283068 0.83470774
0.25301609 0.35283068 0.83470774
0.35283068 0.35283068 0.83470774
0.46186125 0.35283068 0.83470774
0.57899905 0.35283068 0.83470774
0.70347300 0.35283068 0.83470774
0.83470774 0.35283068 0.83470774
0.06256172 0.46186125 0.83470774
0.09015032 0.46186125 0.83470774
0.16421120 0.46186125 0.83470774
0.25301609 0.46186125 0.83470774
0.35283068 0.46186125 0.83470774
0.46186125 0.46186125 0.83470774
0.57899905 0.46186125 0.83470774
0.70347300 0.46186125 0.83470774
0.83470774 0.46186125 0.83470774
0.06256172 0.57899905 0.83470774
0.09015032 0.57899905 0.83470774
0.16421120 0.57899905 0.83470774
0.25301609 0.57899905 0.83470774
0.35283068 0.57899905 0.83470774
0.46186125 0.57899905 0.83470774
0.57899905 0.57899905 0.83470774
0.70347300 0.57899905 0.83470774
0.83470774 0.57899905 0.83470774
0.06256213 0.70347300 0.83470774
0.09015032 0.70347300 0.83470774
0.16421120 0.70347300 0.83470774
0.25301609 0.70347300 0.83470774
0.35283068 0.70347300 0.83470774
0.46186125 0.70347300 0.83470774
0.57899905 0.70347300 0.83470774
0.70347300 0.70347300 0.83470774
0.83470774 0.70347300 0.83470774
0.06256213 0.83470774 0.83470774
0.09015032 0.83470774 0.83470774
0.16421120 0.83470774 0.83470774
0.25301609 0.83470774 0.83470774
0.35283068 0.83470774 0.83470774
0.46186125 0.83470774 0.83470774
0.57899905 0.83470774 0.83470774
0.70347300 0.83470774 0.83470774
0.83470774 0.83470774 0.83470774
