src/ffmpeg_scripts/luts/luminance_0p33.cube
TITLE "luminance_0p33"
LUT_3D_SIZE 5
# PQ (EOTF Only)/Rec2020 -> PQ (EOTF Only)/Rec2020, CineEI Shift 0.33, Black Level 0.00% IRE, Input 109% -> Output 109% - Created with LUTCalc v4.01 by Ben Turley October 2020
0.06256172 0.06256172 0.06256172
0.26324006 0.06256181 0.06256172
0.52004267 0.06256187 0.06256191
0.77156751 0.06256172 0.06256172
0.91886608 0.06256227 0.06256227
0.06256172 0.26324006 0.06256172
0.26324006 0.26324006 0.06256172
0.52004267 0.26324006 0.06256191
0.77156751 0.26324006 0.06256172
0.91886608 0.26324006 0.06256172
0.06256172 0.52004267 0.06256191
0.26324006 0.52004267 0.06256172
0.52004267 0.52004267 0.06256172
0.77156751 0.52004267 0.06256172
0.91886608 0.52004267 0.06256172
0.06256208 0.77156751 0.06256172
0.26324006 0.77156751 0.06256172
0.52004267 0.77156751 0.06256172
0.77156751 0.77156751 0.06256208
0.91886608 0.77156751 0.06256235
0.06256233 0.91886608 0.06256172
0.26324006 0.91886608 0.06256172
0.52004267 0.91886608 0.06256172
0.77156751 0.91886608 0.06256172
0.91886608 0.91886608 0.06256172
0.06256172 0.06256187 0.26324006
0.26324006 0.06256187 0.26324006
0.52004267 0.06256172 0.26324006
0.77156751 0.06256204 0.26324006
0.91886608 0.06256219 0.26324006
0.06256172 0.26324006 0.26324006
0.26324006 0.26324006 0.26324006
0.52004267 0.26324006 0.26324006
0.77156751 0.26324006 0.26324006
0.91886608 0.26324006 0.26324006
0.06256192 0.52004267 0.26324006
0.26324006 0.52004267 0.26324006
0.52004267 0.52004267 0.26324006
0.77156751 0.52004267 0.26324006
0.91886608 0.52004267 0.26324006
0.06256194 0.77156751 0.26324006
0.26324006 0.77156751 0.26324006
0.52004267 0.77156751 0.26324006
0.77156751 0.77156751 0.26324006
0.91886608 0.77156751 0.26324006
0.06256242 0.91886608 0.26324006
0.26324006 0.91886608 0.26324006
0.52004267 0.91886608 0.26324006
0.77156751 0.91886608 0.26324006
0.91886608 0.91886608 0.26324006
0.06256172 0.06256172 0.52004267
0.26324006 0.06256172 0.52004267
0.52004267 0.06256172 0.52004267
0.77156751 0.06256172 0.52004267
0.91886608 0.06256223 0.52004267
0.06256172 0.26324006 0.52004267
0.26324006 0.26324006 0.52004267
0.52004267 0.26324006 0.52004267
0.77156751 0.26324006 0.52004267
0.91886608 0.26324006 0.52004267
0.06256172 0.52004267 0.52004267
0.26324006 0.52004267 0.52004267
0.52004267 0.52004267 0.52004267
0.77156751 0.52004267 0.52004267
0.91886608 0.52004267 0.52004267
0.06256211 0.77156751 0.52004267
0.26324006 0.77156751 0.52004267
0.52004267 0.77156751 0.52004267
0.77156751 0.77156751 0.52004267
0.91886608 0.77156751 0.52004267
0.06256172 0.91886608 0.52004267
0.26324006 0.91886608 0.52004267
0.52004267 0.91886608 0.52004267
0.77156751 0.91886608 0.52004267
0.91886608 0.91886608 0.52004267
0.06256172 0.06256213 0.77156751
0.26324006 0.06256172 0.77156751
0.52004267 0.06256223 0.77156751
0.77156751 0.06256227 0.77156751
0.91886608 0.06256172 0.77156751
0.06256172 0.26324006 0.77156751
0.26324006 0.26324006 0.77156751
0.52004267 0.26324006 0.77156751
0.77156751 0.26324006 0.77156751
0.91886608 0.26324006 0.77156751
0.06256172 0.52004267 0.77156751
0.26324006 0.52004267 0.77156751
0.52004267 0.52004267 0.77156751
0.77156751 0.52004267 0.77156751
0.91886608 0.52004267 0.77156751
0.06256172 0.77156751 0.77156751
0.26324006 0.77156751 0.77156751
0.52004267 0.77156751 0.77156751
0.77156751 0.77156751 0.77156751
0.91886608 0.77156751 0.77156751
0.06256233 0.91886608 0.77156751
0.26324006 0.91886608 0.77156751
0.52004267 0.91886608 0.77156751
0.77156751 0.91886608 0.77156751
0.91886608 0.91886608 0.77156751
0.06256235 0.06256265 0.91886608
0.26324006 0.06256257 0.91886608
0.52004267 0.06256257 0.91886608
0.77156751 0.06256245 0.91886608
0.91886608 0.06256172 0.91886608
0.06256235 0.26324006 0.91886608
0.26324006 0.26324006 0.91886608
0.52004267 0.26324006 0.91886608
0.77156751 0.26324006 0.91886608
0.91886608 0.26324006 0.91886608
0.06256172 0.52004267 0.91886608
0.26324006 0.52004267 0.91886608
0.52004267 0.52004267 0.91886608
0.77156751 0.52004267 0.91886608
0.91886608 0.52004267 0.91886608
0.06256172 0.77156751 0.91886608
0.26324006 0.77156751 0.91886608
0.52004267 0.77156751 0.91886608
0.77156751 0.77156751 0.91886608
0.91886608 0.77156751 0.91886608
0.06256235 0.91886608 0.91886608
0.26324006 0.91886608 0.91886608
0.52004267 0.91886608 0.91886608
0.77156751 0.91886608 0.91886608
0.91886608 0.91886608 0.91886608
