src/ffmpeg_scripts/luts/luminance-unclipped_0-Native.cube
TITLE "luminance-unclipped_0-Native"
LUT_3D_SIZE 33
# PQ (EOTF Only)/Rec2020 -> PQ (EOTF Only)/Rec2020, CineEI Shift 0.00, Black Level -7.25% IRE, Input 109% -> Output 109% - Created with LUTCalc v4.01 by Ben Turley October 2020
0.00047898 0.00047898 0.00047898
0.00047898 0.00047898 0.00047898
0.00047898 0.00047898 0.00047898
0.03662233 0.00047903 0.00047898
0.07283721 0.00047904 0.00047898
0.10905208 0.00047898 0.00047898
0.14526696 0.00047909 0.00047908
0.18148184 0.00047907 0.00047898
0.21769671 0.00047898 0.00047898
0.25391159 0.00047898 0.00047910
0.29012647 0.00047898 0.00047898
0.32634134 0.00047915 0.00047898
0.36255622 0.00047898 0.00047898
0.39877109 0.00047915 0.00047916
0.43498597 0.00047898 0.00047898
0.47120085 0.00047898 0.00047898
0.50741572 0.00047923 0.00047898
0.54363060 0.00047898 0.00047898
0.57984547 0.00047924 0.00047898
0.61606035 0.00047898 0.00047898
0.65227523 0.00047924 0.00047898
0.68849010 0.00047923 0.00047898
0.72470498 0.00047935 0.00047931
0.76091985 0.00047898 0.00047898
0.79713473 0.00047932 0.00047898
0.83334961 0.00047898 0.00047898
0.86956448 0.00047898 0.00047898
0.90577936 0.00047935 0.00047898
0.91886608 0.00047898 0.00047898
0.91886608 0.00047948 0.00047898
0.91886608 0.00047898 0.00047898
0.91886608 0.00047950 0.00047898
0.91886608 0.00047963 0.00047961
0.00047898 0.00047898 0.00047898
0.00047898 0.00047898 0.00047898
0.00047898 0.00047898 0.00047898
0.03662233 0.00047903 0.00047898
0.07283721 0.00047904 0.00047898
0.10905208 0.00047898 0.00047898
0.14526696 0.00047909 0.00047908
0.18148184 0.00047907 0.00047898
0.21769671 0.00047898 0.00047898
0.25391159 0.00047898 0.00047910
0.29012647 0.00047898 0.00047898
0.32634134 0.00047915 0.00047898
0.36255622 0.00047898 0.00047898
0.39877109 0.00047915 0.00047916
0.43498597 0.00047898 0.00047898
0.47120085 0.00047898 0.00047898
0.50741572 0.00047923 0.00047898
0.54363060 0.00047898 0.00047898
0.57984547 0.00047924 0.00047898
0.61606035 0.00047898 0.00047898
0.65227523 0.00047924 0.00047898
0.68849010 0.00047923 0.00047898
0.72470498 0.00047935 0.00047931
0.76091985 0.00047898 0.00047898
0.79713473 0.00047932 0.00047898
0.83334961 0.00047898 0.00047898
0.86956448 0.00047898 0.00047898
0.90577936 0.00047935 0.00047898
0.91886608 0.00047898 0.00047898
0.91886608 0.00047948 0.00047898
0.91886608 0.00047898 0.00047898
0.91886608 0.00047950 0.00047898
0.91886608 0.00047963 0.00047961
0.00047898 0.00047898 0.00047898
0.00047898 0.00047898 0.00047898
0.00047898 0.00047898 0.00047898
0.03662233 0.00047903 0.00047898
0.07283721 0.00047904 0.00047898
0.10905208 0.00047898 0.00047898
0.14526696 0.00047909 0.00047908
0.18148184 0.00047907 0.00047898
0.21769671 0.00047898 0.00047898
0.25391159 0.00047898 0.00047910
0.29012647 0.00047898 0.00047898
0.32634134 0.00047915 0.00047898
0.36255622 0.00047898 0.00047898
0.39877109 0.00047915 0.00047916
0.43498597 0.00047898 0.00047898
0.47120085 0.00047898 0.00047898
0.50741572 0.00047923 0.00047898
0.54363060 0.00047898 0.00047898
0.57984547 0.00047924 0.00047898
0.61606035 0.00047898 0.00047898
0.65227523 0.00047924 0.00047898
0.68849010 0.00047923 0.00047898
0.72470498 0.00047935 0.00047931
0.76091985 0.00047898 0.00047898
0.79713473 0.00047932 0.00047898
0.83334961 0.00047898 0.00047898
0.86956448 0.00047898 0.00047898
0.90577936 0.00047935 0.00047898
0.91886608 0.00047898 0.00047898
0.91886608 0.00047948 0.00047898
0.91886608 0.00047898 0.00047898
0.91886608 0.00047950 0.00047898
0.91886608 0.00047963 0.00047961
0.00047904 0.03662233 0.00047898
0.00047904 0.03662233 0.00047898
0.00047904 0.03662233 0.00047898
0.03662233 0.03662233 0.00047898
0.07283721 0.03662233 0.00047898
0.10905208 0.03662233 0.00047898
0.14526696 0.03662233 0.00047898
0.18148184 0.03662233 0.00047898
0.21769671 0.03662233 0.00047898
0.25391159 0.03662233 0.00047898
0.29012647 0.03662233 0.00047898
0.32634134 0.03662233 0.00047898
0.36255622 0.03662233 0.00047898
0.39877109 0.03662233 0.00047898
0.43498597 0.03662233 0.00047898
0.47120085 0.03662233 0.00047898
0.50741572 0.03662233 0.00047920
0.54363060 0.03662233 0.00047898
0.57984547 0.03662233 0.00047898
0.61606035 0.03662233 0.00047898
0.65227523 0.03662233 0.00047898
0.68849010 0.03662233 0.00047898
0.72470498 0.03662233 0.00047898
0.76091985 0.03662233 0.00047931
0.79713473 0.03662233 0.00047898
0.83334961 0.03662233 0.00047898
0.86956448 0.03662233 0.00047898
0.90577936 0.03662233 0.00047898
0.91886608 0.03662233 0.00047946
0.91886608 0.03662233 0.00047898
0.91886608 0.03662233 0.00047953
0.91886608 0.03662233 0.00047953
0.91886608 0.03662233 0.00047898
0.00047907 0.07283721 0.00047898
0.00047907 0.07283721 0.00047898
0.00047907 0.07283721 0.00047898
0.03662233 0.07283721 0.00047898
0.07283721 0.07283721 0.00047898
0.10905208 0.07283721 0.00047898
0.14526696 0.07283721 0.00047908
0.18148184 0.07283721 0.00047909
0.21769671 0.07283721 0.00047898
0.25391159 0.07283721 0.00047898
0.29012647 0.07283721 0.00047898
0.32634134 0.07283721 0.00047914
0.36255622 0.07283721 0.00047898
0.39877109 0.07283721 0.00047898
0.43498597 0.07283721 0.00047898
0.47120085 0.07283721 0.00047898
0.50741572 0.07283721 0.00047898
0.54363060 0.07283721 0.00047898
0.57984547 0.07283721 0.00047898
0.61606035 0.07283721 0.00047898
0.65227523 0.07283721 0.00047898
0.68849010 0.07283721 0.00047898
0.72470498 0.07283721 0.00047898
0.76091985 0.07283721 0.00047931
0.79713473 0.07283721 0.00047898
0.83334961 0.07283721 0.00047898
0.86956448 0.07283721 0.00047940
0.90577936 0.07283721 0.00047898
0.91886608 0.07283721 0.00047946
0.91886608 0.07283721 0.00047898
0.91886608 0.07283721 0.00047898
0.91886608 0.07283721 0.00047898
0.91886608 0.07283721 0.00047898
0.00047907 0.10905208 0.00047898
0.00047907 0.10905208 0.00047898
0.00047907 0.10905208 0.00047898
0.03662233 0.10905208 0.00047898
0.07283721 0.10905208 0.00047898
0.10905208 0.10905208 0.00047898
0.14526696 0.10905208 0.00047908
0.18148184 0.10905208 0.00047898
0.21769671 0.10905208 0.00047898
0.25391159 0.10905208 0.00047898
0.29012647 0.10905208 0.00047898
0.32634134 0.10905208 0.00047898
0.36255622 0.10905208 0.00047898
0.39877109 0.10905208 0.00047898
0.43498597 0.10905208 0.00047898
0.47120085 0.10905208 0.00047898
0.50741572 0.10905208 0.00047898
0.54363060 0.10905208 0.00047898
0.57984547 0.10905208 0.00047898
0.61606035 0.10905208 0.00047898
0.65227523 0.10905208 0.00047898
0.68849010 0.10905208 0.00047898
0.72470498 0.10905208 0.00047898
0.76091985 0.10905208 0.00047898
0.79713473 0.10905208 0.00047898
0.83334961 0.10905208 0.00047898
0.86956448 0.10905208 0.00047898
0.90577936 0.10905208 0.00047898
0.91886608 0.10905208 0.00047898
0.91886608 0.10905208 0.00047898
0.91886608 0.10905208 0.00047898
0.91886608 0.10905208 0.00047898
0.91886608 0.10905208 0.00047898
0.00047908 0.14526696 0.00047898
0.00047908 0.14526696 0.00047898
0.00047908 0.14526696 0.00047898
0.03662233 0.14526696 0.00047898
0.07283721 0.14526696 0.00047898
0.10905208 0.14526696 0.00047898
0.14526696 0.14526696 0.00047898
0.18148184 0.14526696 0.00047898
0.21769671 0.14526696 0.00047898
0.25391159 0.14526696 0.00047898
0.29012647 0.14526696 0.00047912
0.32634134 0.14526696 0.00047898
0.36255622 0.14526696 0.00047898
0.39877109 0.14526696 0.00047916
0.43498597 0.14526696 0.00047898
0.47120085 0.14526696 0.00047898
0.50741572 0.14526696 0.00047898
0.54363060 0.14526696 0.00047898
0.57984547 0.14526696 0.00047898
0.61606035 0.14526696 0.00047898
0.65227523 0.14526696 0.00047898
0.68849010 0.14526696 0.00047898
0.72470498 0.14526696 0.00047931
0.76091985 0.14526696 0.00047898
0.79713473 0.14526696 0.00047898
0.83334961 0.14526696 0.00047898
0.86956448 0.14526696 0.00047898
0.90577936 0.14526696 0.00047940
0.91886608 0.14526696 0.00047946
0.91886608 0.14526696 0.00047898
0.91886608 0.14526696 0.00047898
0.91886608 0.14526696 0.00047898
0.91886608 0.14526696 0.00047898
0.00047911 0.18148184 0.00047909
0.00047911 0.18148184 0.00047909
0.00047911 0.18148184 0.00047909
0.03662233 0.18148184 0.00047898
0.07283721 0.18148184 0.00047898
0.10905208 0.18148184 0.00047909
0.14526696 0.18148184 0.00047898
0.18148184 0.18148184 0.00047898
0.21769671 0.18148184 0.00047898
0.25391159 0.18148184 0.00047898
0.29012647 0.18148184 0.00047914
0.32634134 0.18148184 0.00047898
0.36255622 0.18148184 0.00047898
0.39877109 0.18148184 0.00047898
0.43498597 0.18148184 0.00047918
0.47120085 0.18148184 0.00047898
0.50741572 0.18148184 0.00047920
0.54363060 0.18148184 0.00047898
0.57984547 0.18148184 0.00047898
0.61606035 0.18148184 0.00047898
0.65227523 0.18148184 0.00047898
0.68849010 0.18148184 0.00047898
0.72470498 0.18148184 0.00047931
0.76091985 0.18148184 0.00047931
0.79713473 0.18148184 0.00047898
0.83334961 0.18148184 0.00047898
0.86956448 0.18148184 0.00047898
0.90577936 0.18148184 0.00047898
0.91886608 0.18148184 0.00047898
0.91886608 0.18148184 0.00047898
0.91886608 0.18148184 0.00047898
0.91886608 0.18148184 0.00047898
0.91886608 0.18148184 0.00047961
0.00047898 0.21769671 0.00047898
0.00047898 0.21769671 0.00047898
0.00047898 0.21769671 0.00047898
0.03662233 0.21769671 0.00047898
0.07283721 0.21769671 0.00047898
0.10905208 0.21769671 0.00047898
0.14526696 0.21769671 0.00047898
0.18148184 0.21769671 0.00047898
0.21769671 0.21769671 0.00047898
0.25391159 0.21769671 0.00047898
0.29012647 0.21769671 0.00047898
0.32634134 0.21769671 0.00047898
0.36255622 0.21769671 0.00047898
0.39877109 0.21769671 0.00047916
0.43498597 0.21769671 0.00047898
0.47120085 0.21769671 0.00047898
0.50741572 0.21769671 0.00047898
0.54363060 0.21769671 0.00047898
0.57984547 0.21769671 0.00047898
0.61606035 0.21769671 0.00047898
0.65227523 0.21769671 0.00047898
0.68849010 0.21769671 0.00047898
0.72470498 0.21769671 0.00047898
0.76091985 0.21769671 0.00047898
0.79713473 0.21769671 0.00047898
0.83334961 0.21769671 0.00047898
0.86956448 0.21769671 0.00047940
0.90577936 0.21769671 0.00047898
0.91886608 0.21769671 0.00047898
0.91886608 0.21769671 0.00047898
0.91886608 0.21769671 0.00047898
0.91886608 0.21769671 0.00047898
0.91886608 0.21769671 0.00047898
0.00047915 0.25391159 0.00047898
0.00047915 0.25391159 0.00047898
0.00047915 0.25391159 0.00047898
0.03662233 0.25391159 0.00047898
0.07283721 0.25391159 0.00047898
0.10905208 0.25391159 0.00047912
0.14526696 0.25391159 0.00047898
0.18148184 0.25391159 0.00047898
0.21769671 0.25391159 0.00047912
0.25391159 0.25391159 0.00047914
0.29012647 0.25391159 0.00047898
0.32634134 0.25391159 0.00047914
0.36255622 0.25391159 0.00047898
0.39877109 0.25391159 0.00047918
0.43498597 0.25391159 0.00047898
0.47120085 0.25391159 0.00047898
0.50741572 0.25391159 0.00047920
0.54363060 0.25391159 0.00047898
0.57984547 0.25391159 0.00047923
0.61606035 0.25391159 0.00047898
0.65227523 0.25391159 0.00047898
0.68849010 0.25391159 0.00047898
0.72470498 0.25391159 0.00047898
0.76091985 0.25391159 0.00047898
0.79713473 0.25391159 0.00047935
0.83334961 0.25391159 0.00047898
0.86956448 0.25391159 0.00047898
0.90577936 0.25391159 0.00047898
0.91886608 0.25391159 0.00047898
0.91886608 0.25391159 0.00047898
0.91886608 0.25391159 0.00047953
0.91886608 0.25391159 0.00047898
0.91886608 0.25391159 0.00047898
0.00047918 0.29012647 0.00047898
0.00047918 0.29012647 0.00047898
0.00047918 0.29012647 0.00047898
0.03662233 0.29012647 0.00047898
0.07283721 0.29012647 0.00047898
0.10905208 0.29012647 0.00047898
0.14526696 0.29012647 0.00047898
0.18148184 0.29012647 0.00047898
0.21769671 0.29012647 0.00047898
0.25391159 0.29012647 0.00047898
0.29012647 0.29012647 0.00047898
0.32634134 0.29012647 0.00047898
0.36255622 0.29012647 0.00047898
0.39877109 0.29012647 0.00047898
0.43498597 0.29012647 0.00047898
0.47120085 0.29012647 0.00047918
0.50741572 0.29012647 0.00047920
0.54363060 0.29012647 0.00047920
0.57984547 0.29012647 0.00047898
0.61606035 0.29012647 0.00047898
0.65227523 0.29012647 0.00047898
0.68849010 0.29012647 0.00047898
0.72470498 0.29012647 0.00047898
0.76091985 0.29012647 0.00047931
0.79713473 0.29012647 0.00047898
0.83334961 0.29012647 0.00047898
0.86956448 0.29012647 0.00047898
0.90577936 0.29012647 0.00047898
0.91886608 0.29012647 0.00047946
0.91886608 0.29012647 0.00047898
0.91886608 0.29012647 0.00047953
0.91886608 0.29012647 0.00047898
0.91886608 0.29012647 0.00047898
0.00047914 0.32634134 0.00047898
0.00047914 0.32634134 0.00047898
0.00047914 0.32634134 0.00047898
0.03662233 0.32634134 0.00047898
0.07283721 0.32634134 0.00047898
0.10905208 0.32634134 0.00047898
0.14526696 0.32634134 0.00047914
0.18148184 0.32634134 0.00047898
0.21769671 0.32634134 0.00047914
0.25391159 0.32634134 0.00047898
0.29012647 0.32634134 0.00047898
0.32634134 0.32634134 0.00047898
0.36255622 0.32634134 0.00047898
0.39877109 0.32634134 0.00047898
0.43498597 0.32634134 0.00047898
0.47120085 0.32634134 0.00047920
0.50741572 0.32634134 0.00047898
0.54363060 0.32634134 0.00047898
0.57984547 0.32634134 0.00047898
0.61606035 0.32634134 0.00047898
0.65227523 0.32634134 0.00047898
0.68849010 0.32634134 0.00047898
0.72470498 0.32634134 0.00047931
0.76091985 0.32634134 0.00047931
0.79713473 0.32634134 0.00047898
0.83334961 0.32634134 0.00047935
0.86956448 0.32634134 0.00047898
0.90577936 0.32634134 0.00047898
0.91886608 0.32634134 0.00047946
0.91886608 0.32634134 0.00047898
0.91886608 0.32634134 0.00047898
0.91886608 0.32634134 0.00047898
0.91886608 0.32634134 0.00047898
0.00047917 0.36255622 0.00047916
0.00047917 0.36255622 0.00047916
0.00047917 0.36255622 0.00047916
0.03662233 0.36255622 0.00047916
0.07283721 0.36255622 0.00047898
0.10905208 0.36255622 0.00047916
0.14526696 0.36255622 0.00047916
0.18148184 0.36255622 0.00047916
0.21769671 0.36255622 0.00047898
0.25391159 0.36255622 0.00047916
0.29012647 0.36255622 0.00047898
0.32634134 0.36255622 0.00047898
0.36255622 0.36255622 0.00047918
0.39877109 0.36255622 0.00047898
0.43498597 0.36255622 0.00047898
0.47120085 0.36255622 0.00047898
0.50741572 0.36255622 0.00047898
0.54363060 0.36255622 0.00047898
0.57984547 0.36255622 0.00047898
0.61606035 0.36255622 0.00047898
0.65227523 0.36255622 0.00047898
0.68849010 0.36255622 0.00047898
0.72470498 0.36255622 0.00047898
0.76091985 0.36255622 0.00047898
0.79713473 0.36255622 0.00047898
0.83334961 0.36255622 0.00047898
0.86956448 0.36255622 0.00047940
0.90577936 0.36255622 0.00047940
0.91886608 0.36255622 0.00047946
0.91886608 0.36255622 0.00047898
0.91886608 0.36255622 0.00047898
0.91886608 0.36255622 0.00047898
0.91886608 0.36255622 0.00047898
0.00047919 0.39877109 0.00047898
0.00047919 0.39877109 0.00047898
0.00047919 0.39877109 0.00047898
0.03662233 0.39877109 0.00047916
0.07283721 0.39877109 0.00047898
0.10905208 0.39877109 0.00047898
0.14526696 0.39877109 0.00047916
0.18148184 0.39877109 0.00047898
0.21769671 0.39877109 0.00047898
0.25391159 0.39877109 0.00047918
0.29012647 0.39877109 0.00047898
0.32634134 0.39877109 0.00047918
0.36255622 0.39877109 0.00047898
0.39877109 0.39877109 0.00047918
0.43498597 0.39877109 0.00047898
0.47120085 0.39877109 0.00047898
0.50741572 0.39877109 0.00047898
0.54363060 0.39877109 0.00047898
0.57984547 0.39877109 0.00047898
0.61606035 0.39877109 0.00047923
0.65227523 0.39877109 0.00047898
0.68849010 0.39877109 0.00047898
0.72470498 0.39877109 0.00047898
0.76091985 0.39877109 0.00047931
0.79713473 0.39877109 0.00047898
0.83334961 0.39877109 0.00047935
0.86956448 0.39877109 0.00047898
0.90577936 0.39877109 0.00047898
0.91886608 0.39877109 0.00047898
0.91886608 0.39877109 0.00047898
0.91886608 0.39877109 0.00047953
0.91886608 0.39877109 0.00047898
0.91886608 0.39877109 0.00047961
0.00047919 0.43498597 0.00047898
0.00047919 0.43498597 0.00047898
0.00047919 0.43498597 0.00047898
0.03662233 0.43498597 0.00047898
0.07283721 0.43498597 0.00047898
0.10905208 0.43498597 0.00047898
0.14526696 0.43498597 0.00047898
0.18148184 0.43498597 0.00047898
0.21769671 0.43498597 0.00047898
0.25391159 0.43498597 0.00047898
0.29012647 0.43498597 0.00047898
0.32634134 0.43498597 0.00047898
0.36255622 0.43498597 0.00047898
0.39877109 0.43498597 0.00047898
0.43498597 0.43498597 0.00047898
0.47120085 0.43498597 0.00047898
0.50741572 0.43498597 0.00047898
0.54363060 0.43498597 0.00047923
0.57984547 0.43498597 0.00047898
0.61606035 0.43498597 0.00047898
0.65227523 0.43498597 0.00047898
0.68849010 0.43498597 0.00047898
0.72470498 0.43498597 0.00047898
0.76091985 0.43498597 0.00047898
0.79713473 0.43498597 0.00047898
0.83334961 0.43498597 0.00047898
0.86956448 0.43498597 0.00047898
0.90577936 0.43498597 0.00047898
0.91886608 0.43498597 0.00047898
0.91886608 0.43498597 0.00047898
0.91886608 0.43498597 0.00047898
0.91886608 0.43498597 0.00047898
0.91886608 0.43498597 0.00047961
0.00047924 0.47120085 0.00047898
0.00047924 0.47120085 0.00047898
0.00047924 0.47120085 0.00047898
0.03662233 0.47120085 0.00047898
0.07283721 0.47120085 0.00047898
0.10905208 0.47120085 0.00047898
0.14526696 0.47120085 0.00047898
0.18148184 0.47120085 0.00047898
0.21769671 0.47120085 0.00047898
0.25391159 0.47120085 0.00047898
0.29012647 0.47120085 0.00047898
0.32634134 0.47120085 0.00047898
0.36255622 0.47120085 0.00047898
0.39877109 0.47120085 0.00047898
0.43498597 0.47120085 0.00047898
0.47120085 0.47120085 0.00047920
0.50741572 0.47120085 0.00047898
0.54363060 0.47120085 0.00047898
0.57984547 0.47120085 0.00047898
0.61606035 0.47120085 0.00047898
0.65227523 0.47120085 0.00047898
0.68849010 0.47120085 0.00047898
0.72470498 0.47120085 0.00047898
0.76091985 0.47120085 0.00047898
0.79713473 0.47120085 0.00047898
0.83334961 0.47120085 0.00047898
0.86956448 0.47120085 0.00047898
0.90577936 0.47120085 0.00047898
0.91886608 0.47120085 0.00047898
0.91886608 0.47120085 0.00047898
0.91886608 0.47120085 0.00047898
0.91886608 0.47120085 0.00047898
0.91886608 0.47120085 0.00047898
0.00047898 0.50741572 0.00047898
0.00047898 0.50741572 0.00047898
0.00047898 0.50741572 0.00047898
0.03662233 0.50741572 0.00047898
0.07283721 0.50741572 0.00047898
0.10905208 0.50741572 0.00047898
0.14526696 0.50741572 0.00047898
0.18148184 0.50741572 0.00047898
0.21769671 0.50741572 0.00047898
0.25391159 0.50741572 0.00047898
0.29012647 0.50741572 0.00047898
0.32634134 0.50741572 0.00047898
0.36255622 0.50741572 0.00047898
0.39877109 0.50741572 0.00047898
0.43498597 0.50741572 0.00047898
0.47120085 0.50741572 0.00047898
0.50741572 0.50741572 0.00047898
0.54363060 0.50741572 0.00047923
0.57984547 0.50741572 0.00047898
0.61606035 0.50741572 0.00047898
0.65227523 0.50741572 0.00047898
0.68849010 0.50741572 0.00047898
0.72470498 0.50741572 0.00047931
0.76091985 0.50741572 0.00047931
0.79713473 0.50741572 0.00047898
0.83334961 0.50741572 0.00047935
0.86956448 0.50741572 0.00047898
0.90577936 0.50741572 0.00047898
0.91886608 0.50741572 0.00047898
0.91886608 0.50741572 0.00047898
0.91886608 0.50741572 0.00047953
0.91886608 0.50741572 0.00047898
0.91886608 0.50741572 0.00047898
0.00047927 0.54363060 0.00047923
0.00047927 0.54363060 0.00047923
0.00047927 0.54363060 0.00047923
0.03662233 0.54363060 0.00047923
0.07283721 0.54363060 0.00047923
0.10905208 0.54363060 0.00047898
0.14526696 0.54363060 0.00047898
0.18148184 0.54363060 0.00047898
0.21769671 0.54363060 0.00047898
0.25391159 0.54363060 0.00047898
0.29012647 0.54363060 0.00047898
0.32634134 0.54363060 0.00047923
0.36255622 0.54363060 0.00047898
0.39877109 0.54363060 0.00047923
0.43498597 0.54363060 0.00047898
0.47120085 0.54363060 0.00047898
0.50741572 0.54363060 0.00047898
0.54363060 0.54363060 0.00047923
0.57984547 0.54363060 0.00047927
0.61606035 0.54363060 0.00047898
0.65227523 0.54363060 0.00047898
0.68849010 0.54363060 0.00047898
0.72470498 0.54363060 0.00047898
0.76091985 0.54363060 0.00047931
0.79713473 0.54363060 0.00047898
0.83334961 0.54363060 0.00047898
0.86956448 0.54363060 0.00047898
0.90577936 0.54363060 0.00047898
0.91886608 0.54363060 0.00047946
0.91886608 0.54363060 0.00047898
0.91886608 0.54363060 0.00047898
0.91886608 0.54363060 0.00047898
0.91886608 0.54363060 0.00047961
0.00047929 0.57984547 0.00047898
0.00047929 0.57984547 0.00047898
0.00047929 0.57984547 0.00047898
0.03662233 0.57984547 0.00047898
0.07283721 0.57984547 0.00047898
0.10905208 0.57984547 0.00047898
0.14526696 0.57984547 0.00047898
0.18148184 0.57984547 0.00047898
0.21769671 0.57984547 0.00047898
0.25391159 0.57984547 0.00047898
0.29012647 0.57984547 0.00047898
0.32634134 0.57984547 0.00047898
0.36255622 0.57984547 0.00047898
0.39877109 0.57984547 0.00047898
0.43498597 0.57984547 0.00047923
0.47120085 0.57984547 0.00047898
0.50741572 0.57984547 0.00047898
0.54363060 0.57984547 0.00047898
0.57984547 0.57984547 0.00047898
0.61606035 0.57984547 0.00047898
0.65227523 0.57984547 0.00047898
0.68849010 0.57984547 0.00047898
0.72470498 0.57984547 0.00047898
0.76091985 0.57984547 0.00047898
0.79713473 0.57984547 0.00047898
0.83334961 0.57984547 0.00047940
0.86956448 0.57984547 0.00047898
0.90577936 0.57984547 0.00047898
0.91886608 0.57984547 0.00047946
0.91886608 0.57984547 0.00047898
0.91886608 0.57984547 0.00047898
0.91886608 0.57984547 0.00047898
0.91886608 0.57984547 0.00047898
0.00047925 0.61606035 0.00047898
0.00047925 0.61606035 0.00047898
0.00047925 0.61606035 0.00047898
0.03662233 0.61606035 0.00047898
0.07283721 0.61606035 0.00047898
0.10905208 0.61606035 0.00047898
0.14526696 0.61606035 0.00047898
0.18148184 0.61606035 0.00047898
0.21769671 0.61606035 0.00047898
0.25391159 0.61606035 0.00047898
0.29012647 0.61606035 0.00047898
0.32634134 0.61606035 0.00047898
0.36255622 0.61606035 0.00047898
0.39877109 0.61606035 0.00047898
0.43498597 0.61606035 0.00047898
0.47120085 0.61606035 0.00047898
0.50741572 0.61606035 0.00047898
0.54363060 0.61606035 0.00047898
0.57984547 0.61606035 0.00047898
0.61606035 0.61606035 0.00047898
0.65227523 0.61606035 0.00047898
0.68849010 0.61606035 0.00047898
0.72470498 0.61606035 0.00047898
0.76091985 0.61606035 0.00047898
0.79713473 0.61606035 0.00047898
0.83334961 0.61606035 0.00047898
0.86956448 0.61606035 0.00047940
0.90577936 0.61606035 0.00047940
0.91886608 0.61606035 0.00047946
0.91886608 0.61606035 0.00047898
0.91886608 0.61606035 0.00047898
0.91886608 0.61606035 0.00047898
0.91886608 0.61606035 0.00047961
0.00047918 0.65227523 0.00047898
0.00047918 0.65227523 0.00047898
0.00047918 0.65227523 0.00047898
0.03662233 0.65227523 0.00047898
0.07283721 0.65227523 0.00047898
0.10905208 0.65227523 0.00047898
0.14526696 0.65227523 0.00047898
0.18148184 0.65227523 0.00047898
0.21769671 0.65227523 0.00047898
0.25391159 0.65227523 0.00047898
0.29012647 0.65227523 0.00047898
0.32634134 0.65227523 0.00047898
0.36255622 0.65227523 0.00047898
0.39877109 0.65227523 0.00047898
0.43498597 0.65227523 0.00047898
0.47120085 0.65227523 0.00047898
0.50741572 0.65227523 0.00047927
0.54363060 0.65227523 0.00047898
0.57984547 0.65227523 0.00047898
0.61606035 0.65227523 0.00047898
0.65227523 0.65227523 0.00047898
0.68849010 0.65227523 0.00047898
0.72470498 0.65227523 0.00047898
0.76091985 0.65227523 0.00047935
0.79713473 0.65227523 0.00047898
0.83334961 0.65227523 0.00047898
0.86956448 0.65227523 0.00047898
0.90577936 0.65227523 0.00047898
0.91886608 0.65227523 0.00047898
0.91886608 0.65227523 0.00047898
0.91886608 0.65227523 0.00047898
0.91886608 0.65227523 0.00047953
0.91886608 0.65227523 0.00047898
0.00047932 0.68849010 0.00047898
0.00047932 0.68849010 0.00047898
0.00047932 0.68849010 0.00047898
0.03662233 0.68849010 0.00047898
0.07283721 0.68849010 0.00047898
0.10905208 0.68849010 0.00047931
0.14526696 0.68849010 0.00047898
0.18148184 0.68849010 0.00047898
0.21769671 0.68849010 0.00047898
0.25391159 0.68849010 0.00047931
0.29012647 0.68849010 0.00047898
0.32634134 0.68849010 0.00047898
0.36255622 0.68849010 0.00047898
0.39877109 0.68849010 0.00047898
0.43498597 0.68849010 0.00047931
0.47120085 0.68849010 0.00047898
0.50741572 0.68849010 0.00047898
0.54363060 0.68849010 0.00047898
0.57984547 0.68849010 0.00047898
0.61606035 0.68849010 0.00047898
0.65227523 0.68849010 0.00047898
0.68849010 0.68849010 0.00047898
0.72470498 0.68849010 0.00047898
0.76091985 0.68849010 0.00047898
0.79713473 0.68849010 0.00047898
0.83334961 0.68849010 0.00047935
0.86956448 0.68849010 0.00047898
