src/ffmpeg_scripts/luts/luminance-unclipped_-4p00.cube
TITLE "luminance-unclipped_-4p00"
LUT_3D_SIZE 9
# PQ (EOTF Only)/Rec2020 -> PQ (EOTF Only)/Rec2020, CineEI Shift -4.00, Black Level -7.25% IRE, Input 109% -> Output 109% - Created with LUTCalc v4.01 by Ben Turley October 2020
0.00047898 0.00047898 0.00047898
0.02082689 0.00047902 0.00047898
0.08337344 0.00047898 0.00047898
0.16573215 0.00047898 0.00047898
0.26438931 0.00047912 0.00047912
0.37763108 0.00047898 0.00047898
0.50439424 0.00047898 0.00047898
0.64394062 0.00047920 0.00047898
0.79572210 0.00047929 0.00047898
0.00047904 0.02082689 0.00047898
0.02082689 0.02082689 0.00047898
0.08337344 0.02082689 0.00047898
0.16573215 0.02082689 0.00047898
0.26438931 0.02082689 0.00047898
0.37763108 0.02082689 0.00047898
0.50439424 0.02082689 0.00047898
0.64394062 0.02082689 0.00047927
0.79572210 0.02082689 0.00047898
0.00047898 0.08337344 0.00047898
0.02082689 0.08337344 0.00047898
0.08337344 0.08337344 0.00047898
0.16573215 0.08337344 0.00047898
0.26438931 0.08337344 0.00047898
0.37763108 0.08337344 0.00047898
0.50439424 0.08337344 0.00047898
0.64394062 0.08337344 0.00047898
0.79572210 0.08337344 0.00047898
0.00047910 0.16573215 0.00047909
0.02082689 0.16573215 0.00047898
0.08337344 0.16573215 0.00047898
0.16573215 0.16573215 0.00047910
0.26438931 0.16573215 0.00047898
0.37763108 0.16573215 0.00047898
0.50439424 0.16573215 0.00047898
0.64394062 0.16573215 0.00047898
0.79572210 0.16573215 0.00047898
0.00047911 0.26438931 0.00047898
0.02082689 0.26438931 0.00047898
0.08337344 0.26438931 0.00047898
0.16573215 0.26438931 0.00047898
0.26438931 0.26438931 0.00047898
0.37763108 0.26438931 0.00047898
0.50439424 0.26438931 0.00047898
0.64394062 0.26438931 0.00047898
0.79572210 0.26438931 0.00047898
0.00047918 0.37763108 0.00047898
0.02082689 0.37763108 0.00047898
0.08337344 0.37763108 0.00047898
0.16573215 0.37763108 0.00047898
0.26438931 0.37763108 0.00047898
0.37763108 0.37763108 0.00047898
0.50439424 0.37763108 0.00047898
0.64394062 0.37763108 0.00047898
0.79572210 0.37763108 0.00047898
0.00047922 0.50439424 0.00047898
0.02082689 0.50439424 0.00047898
0.08337344 0.50439424 0.00047898
0.16573215 0.50439424 0.00047898
0.26438931 0.50439424 0.00047898
0.37763108 0.50439424 0.00047920
0.50439424 0.50439424 0.00047898
0.64394062 0.50439424 0.00047898
0.79572210 0.50439424 0.00047935
0.00047931 0.64394062 0.00047898
0.02082689 0.64394062 0.00047898
0.08337344 0.64394062 0.00047898
0.16573215 0.64394062 0.00047898
0.26438931 0.64394062 0.00047898
0.37763108 0.64394062 0.00047898
0.50439424 0.64394062 0.00047898
0.64394062 0.64394062 0.00047898
0.79572210 0.64394062 0.00047898
0.00047940 0.79572210 0.00047898
0.02082689 0.79572210 0.00047935
0.08337344 0.79572210 0.00047935
0.16573215 0.79572210 0.00047898
0.26438931 0.79572210 0.00047898
0.37763108 0.79572210 0.00047898
0.50439424 0.79572210 0.00047898
0.64394062 0.79572210 0.00047935
0.79572210 0.79572210 0.00047898
0.00047898 0.00047904 0.02082689
0.02082689 0.00047904 0.02082689
0.08337344 0.00047898 0.02082689
0.16573215 0.00047898 0.02082689
0.26438931 0.00047898 0.02082689
0.37763108 0.00047898 0.02082689
0.50439424 0.00047918 0.02082689
0.64394062 0.00047924 0.02082689
0.79572210 0.00047898 0.02082689
0.00047904 0.02082689 0.02082689
0.02082689 0.02082689 0.02082689
0.08337344 0.02082689 0.02082689
0.16573215 0.02082689 0.02082689
0.26438931 0.02082689 0.02082689
0.37763108 0.02082689 0.02082689
0.50439424 0.02082689 0.02082689
0.64394062 0.02082689 0.02082689
0.79572210 0.02082689 0.02082689
0.00047906 0.08337344 0.02082689
0.02082689 0.08337344 0.02082689
0.08337344 0.08337344 0.02082689
0.16573215 0.08337344 0.02082689
0.26438931 0.08337344 0.02082689
0.37763108 0.08337344 0.02082689
0.50439424 0.08337344 0.02082689
0.64394062 0.08337344 0.02082689
0.79572210 0.08337344 0.02082689
0.00047910 0.16573215 0.02082689
0.02082689 0.16573215 0.02082689
0.08337344 0.16573215 0.02082689
0.16573215 0.16573215 0.02082689
0.26438931 0.16573215 0.02082689
0.37763108 0.16573215 0.02082689
0.50439424 0.16573215 0.02082689
0.64394062 0.16573215 0.02082689
0.79572210 0.16573215 0.02082689
0.00047909 0.26438931 0.02082689
0.02082689 0.26438931 0.02082689
0.08337344 0.26438931 0.02082689
0.16573215 0.26438931 0.02082689
0.26438931 0.26438931 0.02082689
0.37763108 0.26438931 0.02082689
0.50439424 0.26438931 0.02082689
0.64394062 0.26438931 0.02082689
0.79572210 0.26438931 0.02082689
0.00047917 0.37763108 0.02082689
0.02082689 0.37763108 0.02082689
0.08337344 0.37763108 0.02082689
0.16573215 0.37763108 0.02082689
0.26438931 0.37763108 0.02082689
0.37763108 0.37763108 0.02082689
0.50439424 0.37763108 0.02082689
0.64394062 0.37763108 0.02082689
0.79572210 0.37763108 0.02082689
0.00047923 0.50439424 0.02082689
0.02082689 0.50439424 0.02082689
0.08337344 0.50439424 0.02082689
0.16573215 0.50439424 0.02082689
0.26438931 0.50439424 0.02082689
0.37763108 0.50439424 0.02082689
0.50439424 0.50439424 0.02082689
0.64394062 0.50439424 0.02082689
0.79572210 0.50439424 0.02082689
0.00047924 0.64394062 0.02082689
0.02082689 0.64394062 0.02082689
0.08337344 0.64394062 0.02082689
0.16573215 0.64394062 0.02082689
0.26438931 0.64394062 0.02082689
0.37763108 0.64394062 0.02082689
0.50439424 0.64394062 0.02082689
0.64394062 0.64394062 0.02082689
0.79572210 0.64394062 0.02082689
0.00047939 0.79572210 0.02082689
0.02082689 0.79572210 0.02082689
0.08337344 0.79572210 0.02082689
0.16573215 0.79572210 0.02082689
0.26438931 0.79572210 0.02082689
0.37763108 0.79572210 0.02082689
0.50439424 0.79572210 0.02082689
0.64394062 0.79572210 0.02082689
0.79572210 0.79572210 0.02082689
0.00047898 0.00047908 0.08337344
0.02082689 0.00047908 0.08337344
0.08337344 0.00047908 0.08337344
0.16573215 0.00047898 0.08337344
0.26438931 0.00047910 0.08337344
0.37763108 0.00047916 0.08337344
0.50439424 0.00047918 0.08337344
0.64394062 0.00047926 0.08337344
0.79572210 0.00047927 0.08337344
0.00047898 0.02082689 0.08337344
0.02082689 0.02082689 0.08337344
0.08337344 0.02082689 0.08337344
0.16573215 0.02082689 0.08337344
0.26438931 0.02082689 0.08337344
0.37763108 0.02082689 0.08337344
0.50439424 0.02082689 0.08337344
0.64394062 0.02082689 0.08337344
0.79572210 0.02082689 0.08337344
0.00047898 0.08337344 0.08337344
0.02082689 0.08337344 0.08337344
0.08337344 0.08337344 0.08337344
0.16573215 0.08337344 0.08337344
0.26438931 0.08337344 0.08337344
0.37763108 0.08337344 0.08337344
0.50439424 0.08337344 0.08337344
0.64394062 0.08337344 0.08337344
0.79572210 0.08337344 0.08337344
0.00047910 0.16573215 0.08337344
0.02082689 0.16573215 0.08337344
0.08337344 0.16573215 0.08337344
0.16573215 0.16573215 0.08337344
0.26438931 0.16573215 0.08337344
0.37763108 0.16573215 0.08337344
0.50439424 0.16573215 0.08337344
0.64394062 0.16573215 0.08337344
0.79572210 0.16573215 0.08337344
0.00047913 0.26438931 0.08337344
0.02082689 0.26438931 0.08337344
0.08337344 0.26438931 0.08337344
0.16573215 0.26438931 0.08337344
0.26438931 0.26438931 0.08337344
0.37763108 0.26438931 0.08337344
0.50439424 0.26438931 0.08337344
0.64394062 0.26438931 0.08337344
0.79572210 0.26438931 0.08337344
0.00047919 0.37763108 0.08337344
0.02082689 0.37763108 0.08337344
0.08337344 0.37763108 0.08337344
0.16573215 0.37763108 0.08337344
0.26438931 0.37763108 0.08337344
0.37763108 0.37763108 0.08337344
0.50439424 0.37763108 0.08337344
0.64394062 0.37763108 0.08337344
0.79572210 0.37763108 0.08337344
0.00047922 0.50439424 0.08337344
0.02082689 0.50439424 0.08337344
0.08337344 0.50439424 0.08337344
0.16573215 0.50439424 0.08337344
0.26438931 0.50439424 0.08337344
0.37763108 0.50439424 0.08337344
0.50439424 0.50439424 0.08337344
0.64394062 0.50439424 0.08337344
0.79572210 0.50439424 0.08337344
0.00047932 0.64394062 0.08337344
0.02082689 0.64394062 0.08337344
0.08337344 0.64394062 0.08337344
0.16573215 0.64394062 0.08337344
0.26438931 0.64394062 0.08337344
0.37763108 0.64394062 0.08337344
0.50439424 0.64394062 0.08337344
0.64394062 0.64394062 0.08337344
0.79572210 0.64394062 0.08337344
0.00047939 0.79572210 0.08337344
0.02082689 0.79572210 0.08337344
0.08337344 0.79572210 0.08337344
0.16573215 0.79572210 0.08337344
0.26438931 0.79572210 0.08337344
0.37763108 0.79572210 0.08337344
0.50439424 0.79572210 0.08337344
0.64394062 0.79572210 0.08337344
0.79572210 0.79572210 0.08337344
0.00047898 0.00047912 0.16573215
0.02082689 0.00047912 0.16573215
0.08337344 0.00047898 0.16573215
0.16573215 0.00047914 0.16573215
0.26438931 0.00047912 0.16573215
0.37763108 0.00047916 0.16573215
0.50439424 0.00047918 0.16573215
0.64394062 0.00047898 0.16573215
0.79572210 0.00047936 0.16573215
0.00047898 0.02082689 0.16573215
0.02082689 0.02082689 0.16573215
0.08337344 0.02082689 0.16573215
0.16573215 0.02082689 0.16573215
0.26438931 0.02082689 0.16573215
0.37763108 0.02082689 0.16573215
0.50439424 0.02082689 0.16573215
0.64394062 0.02082689 0.16573215
0.79572210 0.02082689 0.16573215
0.00047898 0.08337344 0.16573215
0.02082689 0.08337344 0.16573215
0.08337344 0.08337344 0.16573215
0.16573215 0.08337344 0.16573215
0.26438931 0.08337344 0.16573215
0.37763108 0.08337344 0.16573215
0.50439424 0.08337344 0.16573215
0.64394062 0.08337344 0.16573215
0.79572210 0.08337344 0.16573215
0.00047898 0.16573215 0.16573215
0.02082689 0.16573215 0.16573215
0.08337344 0.16573215 0.16573215
0.16573215 0.16573215 0.16573215
0.26438931 0.16573215 0.16573215
0.37763108 0.16573215 0.16573215
0.50439424 0.16573215 0.16573215
0.64394062 0.16573215 0.16573215
0.79572210 0.16573215 0.16573215
0.00047898 0.26438931 0.16573215
0.02082689 0.26438931 0.16573215
0.08337344 0.26438931 0.16573215
0.16573215 0.26438931 0.16573215
0.26438931 0.26438931 0.16573215
0.37763108 0.26438931 0.16573215
0.50439424 0.26438931 0.16573215
0.64394062 0.26438931 0.16573215
0.79572210 0.26438931 0.16573215
0.00047916 0.37763108 0.16573215
0.02082689 0.37763108 0.16573215
0.08337344 0.37763108 0.16573215
0.16573215 0.37763108 0.16573215
0.26438931 0.37763108 0.16573215
0.37763108 0.37763108 0.16573215
0.50439424 0.37763108 0.16573215
0.64394062 0.37763108 0.16573215
0.79572210 0.37763108 0.16573215
0.00047922 0.50439424 0.16573215
0.02082689 0.50439424 0.16573215
0.08337344 0.50439424 0.16573215
0.16573215 0.50439424 0.16573215
0.26438931 0.50439424 0.16573215
0.37763108 0.50439424 0.16573215
0.50439424 0.50439424 0.16573215
0.64394062 0.50439424 0.16573215
0.79572210 0.50439424 0.16573215
0.00047927 0.64394062 0.16573215
0.02082689 0.64394062 0.16573215
0.08337344 0.64394062 0.16573215
0.16573215 0.64394062 0.16573215
0.26438931 0.64394062 0.16573215
0.37763108 0.64394062 0.16573215
0.50439424 0.64394062 0.16573215
0.64394062 0.64394062 0.16573215
0.79572210 0.64394062 0.16573215
0.00047939 0.79572210 0.16573215
0.02082689 0.79572210 0.16573215
0.08337344 0.79572210 0.16573215
0.16573215 0.79572210 0.16573215
0.26438931 0.79572210 0.16573215
0.37763108 0.79572210 0.16573215
0.50439424 0.79572210 0.16573215
0.64394062 0.79572210 0.16573215
0.79572210 0.79572210 0.16573215
0.00047898 0.00047916 0.26438931
0.02082689 0.00047918 0.26438931
0.08337344 0.00047916 0.26438931
0.16573215 0.00047898 0.26438931
0.26438931 0.00047916 0.26438931
0.37763108 0.00047898 0.26438931
0.50439424 0.00047920 0.26438931
0.64394062 0.00047927 0.26438931
0.79572210 0.00047941 0.26438931
0.00047914 0.02082689 0.26438931
0.02082689 0.02082689 0.26438931
0.08337344 0.02082689 0.26438931
0.16573215 0.02082689 0.26438931
0.26438931 0.02082689 0.26438931
0.37763108 0.02082689 0.26438931
0.50439424 0.02082689 0.26438931
0.64394062 0.02082689 0.26438931
0.79572210 0.02082689 0.26438931
0.00047898 0.08337344 0.26438931
0.02082689 0.08337344 0.26438931
0.08337344 0.08337344 0.26438931
0.16573215 0.08337344 0.26438931
0.26438931 0.08337344 0.26438931
0.37763108 0.08337344 0.26438931
0.50439424 0.08337344 0.26438931
0.64394062 0.08337344 0.26438931
0.79572210 0.08337344 0.26438931
0.00047898 0.16573215 0.26438931
0.02082689 0.16573215 0.26438931
0.08337344 0.16573215 0.26438931
0.16573215 0.16573215 0.26438931
0.26438931 0.16573215 0.26438931
0.37763108 0.16573215 0.26438931
0.50439424 0.16573215 0.26438931
0.64394062 0.16573215 0.26438931
0.79572210 0.16573215 0.26438931
0.00047898 0.26438931 0.26438931
0.02082689 0.26438931 0.26438931
0.08337344 0.26438931 0.26438931
0.16573215 0.26438931 0.26438931
0.26438931 0.26438931 0.26438931
0.37763108 0.26438931 0.26438931
0.50439424 0.26438931 0.26438931
0.64394062 0.26438931 0.26438931
0.79572210 0.26438931 0.26438931
0.00047916 0.37763108 0.26438931
0.02082689 0.37763108 0.26438931
0.08337344 0.37763108 0.26438931
0.16573215 0.37763108 0.26438931
0.26438931 0.37763108 0.26438931
0.37763108 0.37763108 0.26438931
0.50439424 0.37763108 0.26438931
0.64394062 0.37763108 0.26438931
0.79572210 0.37763108 0.26438931
0.00047926 0.50439424 0.26438931
0.02082689 0.50439424 0.26438931
0.08337344 0.50439424 0.26438931
0.16573215 0.50439424 0.26438931
0.26438931 0.50439424 0.26438931
0.37763108 0.50439424 0.26438931
0.50439424 0.50439424 0.26438931
0.64394062 0.50439424 0.26438931
0.79572210 0.50439424 0.26438931
0.00047929 0.64394062 0.26438931
0.02082689 0.64394062 0.26438931
0.08337344 0.64394062 0.26438931
0.16573215 0.64394062 0.26438931
0.26438931 0.64394062 0.26438931
0.37763108 0.64394062 0.26438931
0.50439424 0.64394062 0.26438931
0.64394062 0.64394062 0.26438931
0.79572210 0.64394062 0.26438931
0.00047898 0.79572210 0.26438931
0.02082689 0.79572210 0.26438931
0.08337344 0.79572210 0.26438931
0.16573215 0.79572210 0.26438931
0.26438931 0.79572210 0.26438931
0.37763108 0.79572210 0.26438931
0.50439424 0.79572210 0.26438931
0.64394062 0.79572210 0.26438931
0.79572210 0.79572210 0.26438931
0.00047898 0.00047923 0.37763108
0.02082689 0.00047923 0.37763108
0.08337344 0.00047923 0.37763108
0.16573215 0.00047920 0.37763108
0.26438931 0.00047925 0.37763108
0.37763108 0.00047920 0.37763108
0.50439424 0.00047920 0.37763108
0.64394062 0.00047927 0.37763108
0.79572210 0.00047898 0.37763108
0.00047898 0.02082689 0.37763108
0.02082689 0.02082689 0.37763108
0.08337344 0.02082689 0.37763108
0.16573215 0.02082689 0.37763108
0.26438931 0.02082689 0.37763108
0.37763108 0.02082689 0.37763108
0.50439424 0.02082689 0.37763108
0.64394062 0.02082689 0.37763108
0.79572210 0.02082689 0.37763108
0.00047918 0.08337344 0.37763108
0.02082689 0.08337344 0.37763108
0.08337344 0.08337344 0.37763108
0.16573215 0.08337344 0.37763108
0.26438931 0.08337344 0.37763108
0.37763108 0.08337344 0.37763108
0.50439424 0.08337344 0.37763108
0.64394062 0.08337344 0.37763108
0.79572210 0.08337344 0.37763108
0.00047898 0.16573215 0.37763108
0.02082689 0.16573215 0.37763108
0.08337344 0.16573215 0.37763108
0.16573215 0.16573215 0.37763108
0.26438931 0.16573215 0.37763108
0.37763108 0.16573215 0.37763108
0.50439424 0.16573215 0.37763108
0.64394062 0.16573215 0.37763108
0.79572210 0.16573215 0.37763108
0.00047898 0.26438931 0.37763108
0.02082689 0.26438931 0.37763108
0.08337344 0.26438931 0.37763108
0.16573215 0.26438931 0.37763108
0.26438931 0.26438931 0.37763108
0.37763108 0.26438931 0.37763108
0.50439424 0.26438931 0.37763108
0.64394062 0.26438931 0.37763108
0.79572210 0.26438931 0.37763108
0.00047918 0.37763108 0.37763108
0.02082689 0.37763108 0.37763108
0.08337344 0.37763108 0.37763108
0.16573215 0.37763108 0.37763108
0.26438931 0.37763108 0.37763108
0.37763108 0.37763108 0.37763108
0.50439424 0.37763108 0.37763108
0.64394062 0.37763108 0.37763108
0.79572210 0.37763108 0.37763108
0.00047922 0.50439424 0.37763108
0.02082689 0.50439424 0.37763108
0.08337344 0.50439424 0.37763108
0.16573215 0.50439424 0.37763108
0.26438931 0.50439424 0.37763108
0.37763108 0.50439424 0.37763108
0.50439424 0.50439424 0.37763108
0.64394062 0.50439424 0.37763108
0.79572210 0.50439424 0.37763108
0.00047927 0.64394062 0.37763108
0.02082689 0.64394062 0.37763108
0.08337344 0.64394062 0.37763108
0.16573215 0.64394062 0.37763108
0.26438931 0.64394062 0.37763108
0.37763108 0.64394062 0.37763108
0.50439424 0.64394062 0.37763108
0.64394062 0.64394062 0.37763108
0.79572210 0.64394062 0.37763108
0.00047942 0.79572210 0.37763108
0.02082689 0.79572210 0.37763108
0.08337344 0.79572210 0.37763108
0.16573215 0.79572210 0.37763108
0.26438931 0.79572210 0.37763108
0.37763108 0.79572210 0.37763108
0.50439424 0.79572210 0.37763108
0.64394062 0.79572210 0.37763108
0.79572210 0.79572210 0.37763108
0.00047898 0.00047927 0.50439424
0.02082689 0.00047927 0.50439424
0.08337344 0.00047927 0.50439424
0.16573215 0.00047927 0.50439424
0.26438931 0.00047927 0.50439424
0.37763108 0.00047927 0.50439424
0.50439424 0.00047927 0.50439424
0.64394062 0.00047898 0.50439424
0.79572210 0.00047898 0.50439424
0.00047898 0.02082689 0.50439424
0.02082689 0.02082689 0.50439424
0.08337344 0.02082689 0.50439424
0.16573215 0.02082689 0.50439424
0.26438931 0.02082689 0.50439424
0.37763108 0.02082689 0.50439424
0.50439424 0.02082689 0.50439424
0.64394062 0.02082689 0.50439424
0.79572210 0.02082689 0.50439424
0.00047898 0.08337344 0.50439424
0.02082689 0.08337344 0.50439424
0.08337344 0.08337344 0.50439424
0.16573215 0.08337344 0.50439424
0.26438931 0.08337344 0.50439424
0.37763108 0.08337344 0.50439424
0.50439424 0.08337344 0.50439424
0.64394062 0.08337344 0.50439424
0.79572210 0.08337344 0.50439424
0.00047898 0.16573215 0.50439424
0.02082689 0.16573215 0.50439424
0.08337344 0.16573215 0.50439424
0.16573215 0.16573215 0.50439424
0.26438931 0.16573215 0.50439424
0.37763108 0.16573215 0.50439424
0.50439424 0.16573215 0.50439424
0.64394062 0.16573215 0.50439424
0.79572210 0.16573215 0.50439424
0.00047898 0.26438931 0.50439424
0.02082689 0.26438931 0.50439424
0.08337344 0.26438931 0.50439424
0.16573215 0.26438931 0.50439424
0.26438931 0.26438931 0.50439424
0.37763108 0.26438931 0.50439424
0.50439424 0.26438931 0.50439424
0.64394062 0.26438931 0.50439424
0.79572210 0.26438931 0.50439424
0.00047898 0.37763108 0.50439424
0.02082689 0.37763108 0.50439424
0.08337344 0.37763108 0.50439424
0.16573215 0.37763108 0.50439424
0.26438931 0.37763108 0.50439424
0.37763108 0.37763108 0.50439424
0.50439424 0.37763108 0.50439424
0.64394062 0.37763108 0.50439424
0.79572210 0.37763108 0.50439424
0.00047898 0.50439424 0.50439424
0.02082689 0.50439424 0.50439424
0.08337344 0.50439424 0.50439424
0.16573215 0.50439424 0.50439424
0.26438931 0.50439424 0.50439424
0.37763108 0.50439424 0.50439424
0.50439424 0.50439424 0.50439424
0.64394062 0.50439424 0.50439424
0.79572210 0.50439424 0.50439424
0.00047923 0.64394062 0.50439424
0.02082689 0.64394062 0.50439424
0.08337344 0.64394062 0.50439424
0.16573215 0.64394062 0.50439424
0.26438931 0.64394062 0.50439424
0.37763108 0.64394062 0.50439424
0.50439424 0.64394062 0.50439424
0.64394062 0.64394062 0.50439424
0.79572210 0.64394062 0.50439424
0.00047932 0.79572210 0.50439424
0.02082689 0.79572210 0.50439424
0.08337344 0.79572210 0.50439424
0.16573215 0.79572210 0.50439424
0.26438931 0.79572210 0.50439424
0.37763108 0.79572210 0.50439424
0.50439424 0.79572210 0.50439424
0.64394062 0.79572210 0.50439424
0.79572210 0.79572210 0.50439424
0.00047898 0.00047940 0.64394062
0.02082689 0.00047935 0.64394062
0.08337344 0.00047940 0.64394062
0.16573215 0.00047935 0.64394062
0.26438931 0.00047935 0.64394062
0.37763108 0.00047935 0.64394062
0.50439424 0.00047935 0.64394062
0.64394062 0.00047944 0.64394062
0.79572210 0.00047946 0.64394062
0.00047898 0.02082689 0.64394062
0.02082689 0.02082689 0.64394062
0.08337344 0.02082689 0.64394062
0.16573215 0.02082689 0.64394062
0.26438931 0.02082689 0.64394062
0.37763108 0.02082689 0.64394062
0.50439424 0.02082689 0.64394062
0.64394062 0.02082689 0.64394062
0.79572210 0.02082689 0.64394062
0.00047898 0.08337344 0.64394062
0.02082689 0.08337344 0.64394062
0.08337344 0.08337344 0.64394062
0.16573215 0.08337344 0.64394062
0.26438931 0.08337344 0.64394062
0.37763108 0.08337344 0.64394062
0.50439424 0.08337344 0.64394062
0.64394062 0.08337344 0.64394062
0.79572210 0.08337344 0.64394062
0.00047898 0.16573215 0.64394062
0.02082689 0.16573215 0.64394062
0.08337344 0.16573215 0.64394062
0.16573215 0.16573215 0.64394062
0.26438931 0.16573215 0.64394062
0.37763108 0.16573215 0.64394062
0.50439424 0.16573215 0.64394062
0.64394062 0.16573215 0.64394062
0.79572210 0.16573215 0.64394062
0.00047898 0.26438931 0.64394062
0.02082689 0.26438931 0.64394062
0.08337344 0.26438931 0.64394062
0.16573215 0.26438931 0.64394062
0.26438931 0.26438931 0.64394062
0.37763108 0.26438931 0.64394062
0.50439424 0.26438931 0.64394062
0.64394062 0.26438931 0.64394062
0.79572210 0.26438931 0.64394062
0.00047898 0.37763108 0.64394062
0.02082689 0.37763108 0.64394062
0.08337344 0.37763108 0.64394062
0.16573215 0.37763108 0.64394062
0.26438931 0.37763108 0.64394062
0.37763108 0.37763108 0.64394062
0.50439424 0.37763108 0.64394062
0.64394062 0.37763108 0.64394062
0.79572210 0.37763108 0.64394062
0.00047898 0.50439424 0.64394062
0.02082689 0.50439424 0.64394062
0.08337344 0.50439424 0.64394062
0.16573215 0.50439424 0.64394062
0.26438931 0.50439424 0.64394062
0.37763108 0.50439424 0.64394062
0.50439424 0.50439424 0.64394062
0.64394062 0.50439424 0.64394062
0.79572210 0.50439424 0.64394062
0.00047898 0.64394062 0.64394062
0.02082689 0.64394062 0.64394062
0.08337344 0.64394062 0.64394062
0.16573215 0.64394062 0.64394062
0.26438931 0.64394062 0.64394062
0.37763108 0.64394062 0.64394062
0.50439424 0.64394062 0.64394062
0.64394062 0.64394062 0.64394062
0.79572210 0.64394062 0.64394062
0.00047944 0.79572210 0.64394062
0.02082689 0.79572210 0.64394062
0.08337344 0.79572210 0.64394062
0.16573215 0.79572210 0.64394062
0.26438931 0.79572210 0.64394062
0.37763108 0.79572210 0.64394062
0.50439424 0.79572210 0.64394062
0.64394062 0.79572210 0.64394062
0.79572210 0.79572210 0.64394062
0.00047898 0.00047946 0.79572210
0.02082689 0.00047898 0.79572210
0.08337344 0.00047946 0.79572210
0.16573215 0.00047946 0.79572210
0.26438931 0.00047953 0.79572210
0.37763108 0.00047946 0.79572210
0.50439424 0.00047953 0.79572210
0.64394062 0.00047953 0.79572210
0.79572210 0.00047898 0.79572210
0.00047898 0.02082689 0.79572210
0.02082689 0.02082689 0.79572210
0.08337344 0.02082689 0.79572210
0.16573215 0.02082689 0.79572210
0.26438931 0.02082689 0.79572210
0.37763108 0.02082689 0.79572210
0.50439424 0.02082689 0.79572210
0.64394062 0.02082689 0.79572210
0.79572210 0.02082689 0.79572210
0.00047898 0.08337344 0.79572210
0.02082689 0.08337344 0.79572210
0.08337344 0.08337344 0.79572210
0.16573215 0.08337344 0.79572210
0.26438931 0.08337344 0.79572210
0.37763108 0.08337344 0.79572210
0.50439424 0.08337344 0.79572210
0.64394062 0.08337344 0.79572210
0.79572210 0.08337344 0.79572210
0.00047898 0.16573215 0.79572210
0.02082689 0.16573215 0.79572210
0.08337344 0.16573215 0.79572210
0.16573215 0.16573215 0.79572210
0.26438931 0.16573215 0.79572210
0.37763108 0.16573215 0.79572210
0.50439424 0.16573215 0.79572210
0.64394062 0.16573215 0.79572210
0.79572210 0.16573215 0.79572210
0.00047898 0.26438931 0.79572210
0.02082689 0.26438931 0.79572210
0.08337344 0.26438931 0.79572210
0.16573215 0.26438931 0.79572210
0.26438931 0.26438931 0.79572210
0.37763108 0.26438931 0.79572210
0.50439424 0.26438931 0.79572210
0.64394062 0.26438931 0.79572210
0.79572210 0.26438931 0.79572210
0.00047898 0.37763108 0.79572210
0.02082689 0.37763108 0.79572210
0.08337344 0.37763108 0.79572210
0.16573215 0.37763108 0.79572210
0.26438931 0.37763108 0.79572210
0.37763108 0.37763108 0.79572210
0.50439424 0.37763108 0.79572210
0.64394062 0.37763108 0.79572210
0.79572210 0.37763108 0.79572210
0.00047940 0.50439424 0.79572210
0.02082689 0.50439424 0.79572210
0.08337344 0.50439424 0.79572210
0.16573215 0.50439424 0.79572210
0.26438931 0.50439424 0.79572210
0.37763108 0.50439424 0.79572210
0.50439424 0.50439424 0.79572210
0.64394062 0.50439424 0.79572210
0.79572210 0.50439424 0.79572210
0.00047898 0.64394062 0.79572210
0.02082689 0.64394062 0.79572210
0.08337344 0.64394062 0.79572210
0.16573215 0.64394062 0.79572210
0.26438931 0.64394062 0.79572210
0.37763108 0.64394062 0.79572210
0.50439424 0.64394062 0.79572210
0.64394062 0.64394062 0.79572210
0.79572210 0.64394062 0.79572210
0.00047940 0.79572210 0.79572210
0.02082689 0.79572210 0.79572210
0.08337344 0.79572210 0.79572210
0.16573215 0.79572210 0.79572210
0.26438931 0.79572210 0.79572210
0.37763108 0.79572210 0.79572210
0.50439424 0.79572210 0.79572210
0.64394062 0.79572210 0.79572210
0.79572210 0.79572210 0.79572210
