src/ffmpeg_scripts/luts/luminance-unclipped_1p00.cube
TITLE "luminance-unclipped_1p00"
LUT_3D_SIZE 5
# PQ (EOTF Only)/Rec2020 -> PQ (EOTF Only)/Rec2020, CineEI Shift 1.00, Black Level -7.25% IRE, Input 109% -> Output 109% - Created with LUTCalc v4.01 by Ben Turley October 2020
0.00047898 0.00047898 0.00047898
0.26565647 0.00047898 0.00047898
0.57803801 0.00047926 0.00047898
0.87193653 0.00047937 0.00047898
0.91886608 0.00047973 0.00047971
0.00047898 0.26565647 0.00047898
0.26565647 0.26565647 0.00047898
0.57803801 0.26565647 0.00047898
0.87193653 0.26565647 0.00047898
0.91886608 0.26565647 0.00047898
0.00047898 0.57803801 0.00047898
0.26565647 0.57803801 0.00047898
0.57803801 0.57803801 0.00047898
0.87193653 0.57803801 0.00047898
0.91886608 0.57803801 0.00047898
0.00047942 0.87193653 0.00047898
0.26565647 0.87193653 0.00047898
0.57803801 0.87193653 0.00047898
0.87193653 0.87193653 0.00047898
0.91886608 0.87193653 0.00047971
0.00047983 0.91886608 0.00047898
0.26565647 0.91886608 0.00047898
0.57803801 0.91886608 0.00047898
0.87193653 0.91886608 0.00047898
0.91886608 0.91886608 0.00047898
0.00047898 0.00047898 0.26565647
0.26565647 0.00047916 0.26565647
0.57803801 0.00047923 0.26565647
0.87193653 0.00047931 0.26565647
0.91886608 0.00047973 0.26565647
0.00047898 0.26565647 0.26565647
0.26565647 0.26565647 0.26565647
0.57803801 0.26565647 0.26565647
0.87193653 0.26565647 0.26565647
0.91886608 0.26565647 0.26565647
0.00047924 0.57803801 0.26565647
0.26565647 0.57803801 0.26565647
0.57803801 0.57803801 0.26565647
0.87193653 0.57803801 0.26565647
0.91886608 0.57803801 0.26565647
0.00047944 0.87193653 0.26565647
0.26565647 0.87193653 0.26565647
0.57803801 0.87193653 0.26565647
0.87193653 0.87193653 0.26565647
0.91886608 0.87193653 0.26565647
0.00047979 0.91886608 0.26565647
0.26565647 0.91886608 0.26565647
0.57803801 0.91886608 0.26565647
0.87193653 0.91886608 0.26565647
0.91886608 0.91886608 0.26565647
0.00047898 0.00047898 0.57803801
0.26565647 0.00047931 0.57803801
0.57803801 0.00047935 0.57803801
0.87193653 0.00047940 0.57803801
0.91886608 0.00047982 0.57803801
0.00047898 0.26565647 0.57803801
0.26565647 0.26565647 0.57803801
0.57803801 0.26565647 0.57803801
0.87193653 0.26565647 0.57803801
0.91886608 0.26565647 0.57803801
0.00047898 0.57803801 0.57803801
0.26565647 0.57803801 0.57803801
0.57803801 0.57803801 0.57803801
0.87193653 0.57803801 0.57803801
0.91886608 0.57803801 0.57803801
0.00047955 0.87193653 0.57803801
0.26565647 0.87193653 0.57803801
0.57803801 0.87193653 0.57803801
0.87193653 0.87193653 0.57803801
0.91886608 0.87193653 0.57803801
0.00047982 0.91886608 0.57803801
0.26565647 0.91886608 0.57803801
0.57803801 0.91886608 0.57803801
0.87193653 0.91886608 0.57803801
0.91886608 0.91886608 0.57803801
0.00047898 0.00047898 0.87193653
0.26565647 0.00047898 0.87193653
0.57803801 0.00047898 0.87193653
0.87193653 0.00047898 0.87193653
0.91886608 0.00047898 0.87193653
0.00047898 0.26565647 0.87193653
0.26565647 0.26565647 0.87193653
0.57803801 0.26565647 0.87193653
0.87193653 0.26565647 0.87193653
0.91886608 0.26565647 0.87193653
0.00047898 0.57803801 0.87193653
0.26565647 0.57803801 0.87193653
0.57803801 0.57803801 0.87193653
0.87193653 0.57803801 0.87193653
0.91886608 0.57803801 0.87193653
0.00047898 0.87193653 0.87193653
0.26565647 0.87193653 0.87193653
0.57803801 0.87193653 0.87193653
0.87193653 0.87193653 0.87193653
0.91886608 0.87193653 0.87193653
0.00047986 0.91886608 0.87193653
0.26565647 0.91886608 0.87193653
0.57803801 0.91886608 0.87193653
0.87193653 0.91886608 0.87193653
0.91886608 0.91886608 0.87193653
0.00047898 0.00047898 0.91886608
0.26565647 0.00048014 0.91886608
0.57803801 0.00047997 0.91886608
0.87193653 0.00047997 0.91886608
0.91886608 0.00047997 0.91886608
0.00047898 0.26565647 0.91886608
0.26565647 0.26565647 0.91886608
0.57803801 0.26565647 0.91886608
0.87193653 0.26565647 0.91886608
0.91886608 0.26565647 0.91886608
0.00047898 0.57803801 0.91886608
0.26565647 0.57803801 0.91886608
0.57803801 0.57803801 0.91886608
0.87193653 0.57803801 0.91886608
0.91886608 0.57803801 0.91886608
0.00047898 0.87193653 0.91886608
0.26565647 0.87193653 0.91886608
0.57803801 0.87193653 0.91886608
0.87193653 0.87193653 0.91886608
0.91886608 0.87193653 0.91886608
0.00047983 0.91886608 0.91886608
0.26565647 0.91886608 0.91886608
0.57803801 0.91886608 0.91886608
0.87193653 0.91886608 0.91886608
0.91886608 0.91886608 0.91886608
