src/ffmpeg_scripts/luts/luminance_-3p33.cube
TITLE "luminance_-3p33"
LUT_3D_SIZE 9
# PQ (EOTF Only)/Rec2020 -> PQ (EOTF Only)/Rec2020, CineEI Shift -3.33, Black Level 0.00% IRE, Input 109% -> Output 109% - Created with LUTCalc v4.01 by Ben Turley October 2020
0.06256172 0.06256172 0.06256172
0.08464669 0.06256176 0.06256172
0.14816077 0.06256172 0.06256172
0.22796130 0.06256172 0.06256181
0.32052228 0.06256182 0.06256185
0.42412156 0.06256172 0.06256172
0.53768417 0.06256172 0.06256172
0.66045746 0.06256199 0.06256172
0.79187703 0.06256200 0.06256204
0.06256177 0.08464669 0.06256172
0.08464669 0.08464669 0.06256172
0.14816077 0.08464669 0.06256172
0.22796130 0.08464669 0.06256172
0.32052228 0.08464669 0.06256172
0.42412156 0.08464669 0.06256172
0.53768417 0.08464669 0.06256172
0.66045746 0.08464669 0.06256197
0.79187703 0.08464669 0.06256172
0.06256179 0.14816077 0.06256172
0.08464669 0.14816077 0.06256172
0.14816077 0.14816077 0.06256172
0.22796130 0.14816077 0.06256172
0.32052228 0.14816077 0.06256184
0.42412156 0.14816077 0.06256172
0.53768417 0.14816077 0.06256172
0.66045746 0.14816077 0.06256172
0.79187703 0.14816077 0.06256172
0.06256183 0.22796130 0.06256181
0.08464669 0.22796130 0.06256172
0.14816077 0.22796130 0.06256172
0.22796130 0.22796130 0.06256182
0.32052228 0.22796130 0.06256185
0.42412156 0.22796130 0.06256172
0.53768417 0.22796130 0.06256172
0.66045746 0.22796130 0.06256197
0.79187703 0.22796130 0.06256172
0.06256172 0.32052228 0.06256172
0.08464669 0.32052228 0.06256172
0.14816077 0.32052228 0.06256172
0.22796130 0.32052228 0.06256172
0.32052228 0.32052228 0.06256172
0.42412156 0.32052228 0.06256172
0.53768417 0.32052228 0.06256172
0.66045746 0.32052228 0.06256172
0.79187703 0.32052228 0.06256172
0.06256188 0.42412156 0.06256189
0.08464669 0.42412156 0.06256172
0.14816077 0.42412156 0.06256189
0.22796130 0.42412156 0.06256172
0.32052228 0.42412156 0.06256189
0.42412156 0.42412156 0.06256172
0.53768417 0.42412156 0.06256172
0.66045746 0.42412156 0.06256172
0.79187703 0.42412156 0.06256172
0.06256172 0.53768417 0.06256172
0.08464669 0.53768417 0.06256172
0.14816077 0.53768417 0.06256172
0.22796130 0.53768417 0.06256194
0.32052228 0.53768417 0.06256172
0.42412156 0.53768417 0.06256194
0.53768417 0.53768417 0.06256172
0.66045746 0.53768417 0.06256172
0.79187703 0.53768417 0.06256204
0.06256198 0.66045746 0.06256172
0.08464669 0.66045746 0.06256172
0.14816077 0.66045746 0.06256172
0.22796130 0.66045746 0.06256172
0.32052228 0.66045746 0.06256172
0.42412156 0.66045746 0.06256172
0.53768417 0.66045746 0.06256172
0.66045746 0.66045746 0.06256172
0.79187703 0.66045746 0.06256172
0.06256209 0.79187703 0.06256208
0.08464669 0.79187703 0.06256208
0.14816077 0.79187703 0.06256172
0.22796130 0.79187703 0.06256172
0.32052228 0.79187703 0.06256172
0.42412156 0.79187703 0.06256172
0.53768417 0.79187703 0.06256172
0.66045746 0.79187703 0.06256208
0.79187703 0.79187703 0.06256172
0.06256172 0.06256178 0.08464669
0.08464669 0.06256177 0.08464669
0.14816077 0.06256172 0.08464669
0.22796130 0.06256172 0.08464669
0.32052228 0.06256184 0.08464669
0.42412156 0.06256172 0.08464669
0.53768417 0.06256172 0.08464669
0.66045746 0.06256199 0.08464669
0.79187703 0.06256202 0.08464669
0.06256177 0.08464669 0.08464669
0.08464669 0.08464669 0.08464669
0.14816077 0.08464669 0.08464669
0.22796130 0.08464669 0.08464669
0.32052228 0.08464669 0.08464669
0.42412156 0.08464669 0.08464669
0.53768417 0.08464669 0.08464669
0.66045746 0.08464669 0.08464669
0.79187703 0.08464669 0.08464669
0.06256180 0.14816077 0.08464669
0.08464669 0.14816077 0.08464669
0.14816077 0.14816077 0.08464669
0.22796130 0.14816077 0.08464669
0.32052228 0.14816077 0.08464669
0.42412156 0.14816077 0.08464669
0.53768417 0.14816077 0.08464669
0.66045746 0.14816077 0.08464669
0.79187703 0.14816077 0.08464669
0.06256181 0.22796130 0.08464669
0.08464669 0.22796130 0.08464669
0.14816077 0.22796130 0.08464669
0.22796130 0.22796130 0.08464669
0.32052228 0.22796130 0.08464669
0.42412156 0.22796130 0.08464669
0.53768417 0.22796130 0.08464669
0.66045746 0.22796130 0.08464669
0.79187703 0.22796130 0.08464669
0.06256172 0.32052228 0.08464669
0.08464669 0.32052228 0.08464669
0.14816077 0.32052228 0.08464669
0.22796130 0.32052228 0.08464669
0.32052228 0.32052228 0.08464669
0.42412156 0.32052228 0.08464669
0.53768417 0.32052228 0.08464669
0.66045746 0.32052228 0.08464669
0.79187703 0.32052228 0.08464669
0.06256191 0.42412156 0.08464669
0.08464669 0.42412156 0.08464669
0.14816077 0.42412156 0.08464669
0.22796130 0.42412156 0.08464669
0.32052228 0.42412156 0.08464669
0.42412156 0.42412156 0.08464669
0.53768417 0.42412156 0.08464669
0.66045746 0.42412156 0.08464669
0.79187703 0.42412156 0.08464669
0.06256172 0.53768417 0.08464669
0.08464669 0.53768417 0.08464669
0.14816077 0.53768417 0.08464669
0.22796130 0.53768417 0.08464669
0.32052228 0.53768417 0.08464669
0.42412156 0.53768417 0.08464669
0.53768417 0.53768417 0.08464669
0.66045746 0.53768417 0.08464669
0.79187703 0.53768417 0.08464669
0.06256200 0.66045746 0.08464669
0.08464669 0.66045746 0.08464669
0.14816077 0.66045746 0.08464669
0.22796130 0.66045746 0.08464669
0.32052228 0.66045746 0.08464669
0.42412156 0.66045746 0.08464669
0.53768417 0.66045746 0.08464669
0.66045746 0.66045746 0.08464669
0.79187703 0.66045746 0.08464669
0.06256198 0.79187703 0.08464669
0.08464669 0.79187703 0.08464669
0.14816077 0.79187703 0.08464669
0.22796130 0.79187703 0.08464669
0.32052228 0.79187703 0.08464669
0.42412156 0.79187703 0.08464669
0.53768417 0.79187703 0.08464669
0.66045746 0.79187703 0.08464669
0.79187703 0.79187703 0.08464669
0.06256172 0.06256181 0.14816077
0.08464669 0.06256181 0.14816077
0.14816077 0.06256181 0.14816077
0.22796130 0.06256172 0.14816077
0.32052228 0.06256185 0.14816077
0.42412156 0.06256190 0.14816077
0.53768417 0.06256172 0.14816077
0.66045746 0.06256200 0.14816077
0.79187703 0.06256202 0.14816077
0.06256172 0.08464669 0.14816077
0.08464669 0.08464669 0.14816077
0.14816077 0.08464669 0.14816077
0.22796130 0.08464669 0.14816077
0.32052228 0.08464669 0.14816077
0.42412156 0.08464669 0.14816077
0.53768417 0.08464669 0.14816077
0.66045746 0.08464669 0.14816077
0.79187703 0.08464669 0.14816077
0.06256172 0.14816077 0.14816077
0.08464669 0.14816077 0.14816077
0.14816077 0.14816077 0.14816077
0.22796130 0.14816077 0.14816077
0.32052228 0.14816077 0.14816077
0.42412156 0.14816077 0.14816077
0.53768417 0.14816077 0.14816077
0.66045746 0.14816077 0.14816077
0.79187703 0.14816077 0.14816077
0.06256172 0.22796130 0.14816077
0.08464669 0.22796130 0.14816077
0.14816077 0.22796130 0.14816077
0.22796130 0.22796130 0.14816077
0.32052228 0.22796130 0.14816077
0.42412156 0.22796130 0.14816077
0.53768417 0.22796130 0.14816077
0.66045746 0.22796130 0.14816077
0.79187703 0.22796130 0.14816077
0.06256187 0.32052228 0.14816077
0.08464669 0.32052228 0.14816077
0.14816077 0.32052228 0.14816077
0.22796130 0.32052228 0.14816077
0.32052228 0.32052228 0.14816077
0.42412156 0.32052228 0.14816077
0.53768417 0.32052228 0.14816077
0.66045746 0.32052228 0.14816077
0.79187703 0.32052228 0.14816077
0.06256191 0.42412156 0.14816077
0.08464669 0.42412156 0.14816077
0.14816077 0.42412156 0.14816077
0.22796130 0.42412156 0.14816077
0.32052228 0.42412156 0.14816077
0.42412156 0.42412156 0.14816077
0.53768417 0.42412156 0.14816077
0.66045746 0.42412156 0.14816077
0.79187703 0.42412156 0.14816077
0.06256200 0.53768417 0.14816077
0.08464669 0.53768417 0.14816077
0.14816077 0.53768417 0.14816077
0.22796130 0.53768417 0.14816077
0.32052228 0.53768417 0.14816077
0.42412156 0.53768417 0.14816077
0.53768417 0.53768417 0.14816077
0.66045746 0.53768417 0.14816077
0.79187703 0.53768417 0.14816077
0.06256189 0.66045746 0.14816077
0.08464669 0.66045746 0.14816077
0.14816077 0.66045746 0.14816077
0.22796130 0.66045746 0.14816077
0.32052228 0.66045746 0.14816077
0.42412156 0.66045746 0.14816077
0.53768417 0.66045746 0.14816077
0.66045746 0.66045746 0.14816077
0.79187703 0.66045746 0.14816077
0.06256172 0.79187703 0.14816077
0.08464669 0.79187703 0.14816077
0.14816077 0.79187703 0.14816077
0.22796130 0.79187703 0.14816077
0.32052228 0.79187703 0.14816077
0.42412156 0.79187703 0.14816077
0.53768417 0.79187703 0.14816077
0.66045746 0.79187703 0.14816077
0.79187703 0.79187703 0.14816077
0.06256172 0.06256185 0.22796130
0.08464669 0.06256185 0.22796130
0.14816077 0.06256185 0.22796130
0.22796130 0.06256172 0.22796130
0.32052228 0.06256172 0.22796130
0.42412156 0.06256189 0.22796130
0.53768417 0.06256172 0.22796130
0.66045746 0.06256172 0.22796130
0.79187703 0.06256197 0.22796130
0.06256172 0.08464669 0.22796130
0.08464669 0.08464669 0.22796130
0.14816077 0.08464669 0.22796130
0.22796130 0.08464669 0.22796130
0.32052228 0.08464669 0.22796130
0.42412156 0.08464669 0.22796130
0.53768417 0.08464669 0.22796130
0.66045746 0.08464669 0.22796130
0.79187703 0.08464669 0.22796130
0.06256172 0.14816077 0.22796130
0.08464669 0.14816077 0.22796130
0.14816077 0.14816077 0.22796130
0.22796130 0.14816077 0.22796130
0.32052228 0.14816077 0.22796130
0.42412156 0.14816077 0.22796130
0.53768417 0.14816077 0.22796130
0.66045746 0.14816077 0.22796130
0.79187703 0.14816077 0.22796130
0.06256182 0.22796130 0.22796130
0.08464669 0.22796130 0.22796130
0.14816077 0.22796130 0.22796130
0.22796130 0.22796130 0.22796130
0.32052228 0.22796130 0.22796130
0.42412156 0.22796130 0.22796130
0.53768417 0.22796130 0.22796130
0.66045746 0.22796130 0.22796130
0.79187703 0.22796130 0.22796130
0.06256172 0.32052228 0.22796130
0.08464669 0.32052228 0.22796130
0.14816077 0.32052228 0.22796130
0.22796130 0.32052228 0.22796130
0.32052228 0.32052228 0.22796130
0.42412156 0.32052228 0.22796130
0.53768417 0.32052228 0.22796130
0.66045746 0.32052228 0.22796130
0.79187703 0.32052228 0.22796130
0.06256189 0.42412156 0.22796130
0.08464669 0.42412156 0.22796130
0.14816077 0.42412156 0.22796130
0.22796130 0.42412156 0.22796130
0.32052228 0.42412156 0.22796130
0.42412156 0.42412156 0.22796130
0.53768417 0.42412156 0.22796130
0.66045746 0.42412156 0.22796130
0.79187703 0.42412156 0.22796130
0.06256198 0.53768417 0.22796130
0.08464669 0.53768417 0.22796130
0.14816077 0.53768417 0.22796130
0.22796130 0.53768417 0.22796130
0.32052228 0.53768417 0.22796130
0.42412156 0.53768417 0.22796130
0.53768417 0.53768417 0.22796130
0.66045746 0.53768417 0.22796130
0.79187703 0.53768417 0.22796130
0.06256172 0.66045746 0.22796130
0.08464669 0.66045746 0.22796130
0.14816077 0.66045746 0.22796130
0.22796130 0.66045746 0.22796130
0.32052228 0.66045746 0.22796130
0.42412156 0.66045746 0.22796130
0.53768417 0.66045746 0.22796130
0.66045746 0.66045746 0.22796130
0.79187703 0.66045746 0.22796130
0.06256207 0.79187703 0.22796130
0.08464669 0.79187703 0.22796130
0.14816077 0.79187703 0.22796130
0.22796130 0.79187703 0.22796130
0.32052228 0.79187703 0.22796130
0.42412156 0.79187703 0.22796130
0.53768417 0.79187703 0.22796130
0.66045746 0.79187703 0.22796130
0.79187703 0.79187703 0.22796130
0.06256172 0.06256191 0.32052228
0.08464669 0.06256172 0.32052228
0.14816077 0.06256172 0.32052228
0.22796130 0.06256189 0.32052228
0.32052228 0.06256189 0.32052228
0.42412156 0.06256172 0.32052228
0.53768417 0.06256189 0.32052228
0.66045746 0.06256191 0.32052228
0.79187703 0.06256209 0.32052228
0.06256185 0.08464669 0.32052228
0.08464669 0.08464669 0.32052228
0.14816077 0.08464669 0.32052228
0.22796130 0.08464669 0.32052228
0.32052228 0.08464669 0.32052228
0.42412156 0.08464669 0.32052228
0.53768417 0.08464669 0.32052228
0.66045746 0.08464669 0.32052228
0.79187703 0.08464669 0.32052228
0.06256172 0.14816077 0.32052228
0.08464669 0.14816077 0.32052228
0.14816077 0.14816077 0.32052228
0.22796130 0.14816077 0.32052228
0.32052228 0.14816077 0.32052228
0.42412156 0.14816077 0.32052228
0.53768417 0.14816077 0.32052228
0.66045746 0.14816077 0.32052228
0.79187703 0.14816077 0.32052228
0.06256172 0.22796130 0.32052228
0.08464669 0.22796130 0.32052228
0.14816077 0.22796130 0.32052228
0.22796130 0.22796130 0.32052228
0.32052228 0.22796130 0.32052228
0.42412156 0.22796130 0.32052228
0.53768417 0.22796130 0.32052228
0.66045746 0.22796130 0.32052228
0.79187703 0.22796130 0.32052228
0.06256172 0.32052228 0.32052228
0.08464669 0.32052228 0.32052228
0.14816077 0.32052228 0.32052228
0.22796130 0.32052228 0.32052228
0.32052228 0.32052228 0.32052228
0.42412156 0.32052228 0.32052228
0.53768417 0.32052228 0.32052228
0.66045746 0.32052228 0.32052228
0.79187703 0.32052228 0.32052228
0.06256172 0.42412156 0.32052228
0.08464669 0.42412156 0.32052228
0.14816077 0.42412156 0.32052228
0.22796130 0.42412156 0.32052228
0.32052228 0.42412156 0.32052228
0.42412156 0.42412156 0.32052228
0.53768417 0.42412156 0.32052228
0.66045746 0.42412156 0.32052228
0.79187703 0.42412156 0.32052228
0.06256172 0.53768417 0.32052228
0.08464669 0.53768417 0.32052228
0.14816077 0.53768417 0.32052228
0.22796130 0.53768417 0.32052228
0.32052228 0.53768417 0.32052228
0.42412156 0.53768417 0.32052228
0.53768417 0.53768417 0.32052228
0.66045746 0.53768417 0.32052228
0.79187703 0.53768417 0.32052228
0.06256203 0.66045746 0.32052228
0.08464669 0.66045746 0.32052228
0.14816077 0.66045746 0.32052228
0.22796130 0.66045746 0.32052228
0.32052228 0.66045746 0.32052228
0.42412156 0.66045746 0.32052228
0.53768417 0.66045746 0.32052228
0.66045746 0.66045746 0.32052228
0.79187703 0.66045746 0.32052228
0.06256172 0.79187703 0.32052228
0.08464669 0.79187703 0.32052228
0.14816077 0.79187703 0.32052228
0.22796130 0.79187703 0.32052228
0.32052228 0.79187703 0.32052228
0.42412156 0.79187703 0.32052228
0.53768417 0.79187703 0.32052228
0.66045746 0.79187703 0.32052228
0.79187703 0.79187703 0.32052228
0.06256189 0.06256194 0.42412156
0.08464669 0.06256197 0.42412156
0.14816077 0.06256194 0.42412156
0.22796130 0.06256197 0.42412156
0.32052228 0.06256197 0.42412156
0.42412156 0.06256194 0.42412156
0.53768417 0.06256197 0.42412156
0.66045746 0.06256194 0.42412156
0.79187703 0.06256172 0.42412156
0.06256172 0.08464669 0.42412156
0.08464669 0.08464669 0.42412156
0.14816077 0.08464669 0.42412156
0.22796130 0.08464669 0.42412156
0.32052228 0.08464669 0.42412156
0.42412156 0.08464669 0.42412156
0.53768417 0.08464669 0.42412156
0.66045746 0.08464669 0.42412156
0.79187703 0.08464669 0.42412156
0.06256189 0.14816077 0.42412156
0.08464669 0.14816077 0.42412156
0.14816077 0.14816077 0.42412156
0.22796130 0.14816077 0.42412156
0.32052228 0.14816077 0.42412156
0.42412156 0.14816077 0.42412156
0.53768417 0.14816077 0.42412156
0.66045746 0.14816077 0.42412156
0.79187703 0.14816077 0.42412156
0.06256172 0.22796130 0.42412156
0.08464669 0.22796130 0.42412156
0.14816077 0.22796130 0.42412156
0.22796130 0.22796130 0.42412156
0.32052228 0.22796130 0.42412156
0.42412156 0.22796130 0.42412156
0.53768417 0.22796130 0.42412156
0.66045746 0.22796130 0.42412156
0.79187703 0.22796130 0.42412156
0.06256172 0.32052228 0.42412156
0.08464669 0.32052228 0.42412156
0.14816077 0.32052228 0.42412156
0.22796130 0.32052228 0.42412156
0.32052228 0.32052228 0.42412156
0.42412156 0.32052228 0.42412156
0.53768417 0.32052228 0.42412156
0.66045746 0.32052228 0.42412156
0.79187703 0.32052228 0.42412156
0.06256172 0.42412156 0.42412156
0.08464669 0.42412156 0.42412156
0.14816077 0.42412156 0.42412156
0.22796130 0.42412156 0.42412156
0.32052228 0.42412156 0.42412156
0.42412156 0.42412156 0.42412156
0.53768417 0.42412156 0.42412156
0.66045746 0.42412156 0.42412156
0.79187703 0.42412156 0.42412156
0.06256194 0.53768417 0.42412156
0.08464669 0.53768417 0.42412156
0.14816077 0.53768417 0.42412156
0.22796130 0.53768417 0.42412156
0.32052228 0.53768417 0.42412156
0.42412156 0.53768417 0.42412156
0.53768417 0.53768417 0.42412156
0.66045746 0.53768417 0.42412156
0.79187703 0.53768417 0.42412156
0.06256172 0.66045746 0.42412156
0.08464669 0.66045746 0.42412156
0.14816077 0.66045746 0.42412156
0.22796130 0.66045746 0.42412156
0.32052228 0.66045746 0.42412156
0.42412156 0.66045746 0.42412156
0.53768417 0.66045746 0.42412156
0.66045746 0.66045746 0.42412156
0.79187703 0.66045746 0.42412156
0.06256212 0.79187703 0.42412156
0.08464669 0.79187703 0.42412156
0.14816077 0.79187703 0.42412156
0.22796130 0.79187703 0.42412156
0.32052228 0.79187703 0.42412156
0.42412156 0.79187703 0.42412156
0.53768417 0.79187703 0.42412156
0.66045746 0.79187703 0.42412156
0.79187703 0.79187703 0.42412156
0.06256172 0.06256200 0.53768417
0.08464669 0.06256200 0.53768417
0.14816077 0.06256172 0.53768417
0.22796130 0.06256200 0.53768417
0.32052228 0.06256200 0.53768417
0.42412156 0.06256200 0.53768417
0.53768417 0.06256200 0.53768417
0.66045746 0.06256172 0.53768417
0.79187703 0.06256172 0.53768417
0.06256172 0.08464669 0.53768417
0.08464669 0.08464669 0.53768417
0.14816077 0.08464669 0.53768417
0.22796130 0.08464669 0.53768417
0.32052228 0.08464669 0.53768417
0.42412156 0.08464669 0.53768417
0.53768417 0.08464669 0.53768417
0.66045746 0.08464669 0.53768417
0.79187703 0.08464669 0.53768417
0.06256172 0.14816077 0.53768417
0.08464669 0.14816077 0.53768417
0.14816077 0.14816077 0.53768417
0.22796130 0.14816077 0.53768417
0.32052228 0.14816077 0.53768417
0.42412156 0.14816077 0.53768417
0.53768417 0.14816077 0.53768417
0.66045746 0.14816077 0.53768417
0.79187703 0.14816077 0.53768417
0.06256172 0.22796130 0.53768417
0.08464669 0.22796130 0.53768417
0.14816077 0.22796130 0.53768417
0.22796130 0.22796130 0.53768417
0.32052228 0.22796130 0.53768417
0.42412156 0.22796130 0.53768417
0.53768417 0.22796130 0.53768417
0.66045746 0.22796130 0.53768417
0.79187703 0.22796130 0.53768417
0.06256172 0.32052228 0.53768417
0.08464669 0.32052228 0.53768417
0.14816077 0.32052228 0.53768417
0.22796130 0.32052228 0.53768417
0.32052228 0.32052228 0.53768417
0.42412156 0.32052228 0.53768417
0.53768417 0.32052228 0.53768417
0.66045746 0.32052228 0.53768417
0.79187703 0.32052228 0.53768417
0.06256172 0.42412156 0.53768417
0.08464669 0.42412156 0.53768417
0.14816077 0.42412156 0.53768417
0.22796130 0.42412156 0.53768417
0.32052228 0.42412156 0.53768417
0.42412156 0.42412156 0.53768417
0.53768417 0.42412156 0.53768417
0.66045746 0.42412156 0.53768417
0.79187703 0.42412156 0.53768417
0.06256172 0.53768417 0.53768417
0.08464669 0.53768417 0.53768417
0.14816077 0.53768417 0.53768417
0.22796130 0.53768417 0.53768417
0.32052228 0.53768417 0.53768417
0.42412156 0.53768417 0.53768417
0.53768417 0.53768417 0.53768417
0.66045746 0.53768417 0.53768417
0.79187703 0.53768417 0.53768417
0.06256172 0.66045746 0.53768417
0.08464669 0.66045746 0.53768417
0.14816077 0.66045746 0.53768417
0.22796130 0.66045746 0.53768417
0.32052228 0.66045746 0.53768417
0.42412156 0.66045746 0.53768417
0.53768417 0.66045746 0.53768417
0.66045746 0.66045746 0.53768417
0.79187703 0.66045746 0.53768417
0.06256209 0.79187703 0.53768417
0.08464669 0.79187703 0.53768417
0.14816077 0.79187703 0.53768417
0.22796130 0.79187703 0.53768417
0.32052228 0.79187703 0.53768417
0.42412156 0.79187703 0.53768417
0.53768417 0.79187703 0.53768417
0.66045746 0.79187703 0.53768417
0.79187703 0.79187703 0.53768417
0.06256172 0.06256213 0.66045746
0.08464669 0.06256213 0.66045746
0.14816077 0.06256172 0.66045746
0.22796130 0.06256213 0.66045746
0.32052228 0.06256172 0.66045746
0.42412156 0.06256208 0.66045746
0.53768417 0.06256208 0.66045746
0.66045746 0.06256213 0.66045746
0.79187703 0.06256208 0.66045746
0.06256172 0.08464669 0.66045746
0.08464669 0.08464669 0.66045746
0.14816077 0.08464669 0.66045746
0.22796130 0.08464669 0.66045746
0.32052228 0.08464669 0.66045746
0.42412156 0.08464669 0.66045746
0.53768417 0.08464669 0.66045746
0.66045746 0.08464669 0.66045746
0.79187703 0.08464669 0.66045746
0.06256172 0.14816077 0.66045746
0.08464669 0.14816077 0.66045746
0.14816077 0.14816077 0.66045746
0.22796130 0.14816077 0.66045746
0.32052228 0.14816077 0.66045746
0.42412156 0.14816077 0.66045746
0.53768417 0.14816077 0.66045746
0.66045746 0.14816077 0.66045746
0.79187703 0.14816077 0.66045746
0.06256172 0.22796130 0.66045746
0.08464669 0.22796130 0.66045746
0.14816077 0.22796130 0.66045746
0.22796130 0.22796130 0.66045746
0.32052228 0.22796130 0.66045746
0.42412156 0.22796130 0.66045746
0.53768417 0.22796130 0.66045746
0.66045746 0.22796130 0.66045746
0.79187703 0.22796130 0.66045746
0.06256172 0.32052228 0.66045746
0.08464669 0.32052228 0.66045746
0.14816077 0.32052228 0.66045746
0.22796130 0.32052228 0.66045746
0.32052228 0.32052228 0.66045746
0.42412156 0.32052228 0.66045746
0.53768417 0.32052228 0.66045746
0.66045746 0.32052228 0.66045746
0.79187703 0.32052228 0.66045746
0.06256200 0.42412156 0.66045746
0.08464669 0.42412156 0.66045746
0.14816077 0.42412156 0.66045746
0.22796130 0.42412156 0.66045746
0.32052228 0.42412156 0.66045746
0.42412156 0.42412156 0.66045746
0.53768417 0.42412156 0.66045746
0.66045746 0.42412156 0.66045746
0.79187703 0.42412156 0.66045746
0.06256172 0.53768417 0.66045746
0.08464669 0.53768417 0.66045746
0.14816077 0.53768417 0.66045746
0.22796130 0.53768417 0.66045746
0.32052228 0.53768417 0.66045746
0.42412156 0.53768417 0.66045746
0.53768417 0.53768417 0.66045746
0.66045746 0.53768417 0.66045746
0.79187703 0.53768417 0.66045746
0.06256172 0.66045746 0.66045746
0.08464669 0.66045746 0.66045746
0.14816077 0.66045746 0.66045746
0.22796130 0.66045746 0.66045746
0.32052228 0.66045746 0.66045746
0.42412156 0.66045746 0.66045746
0.53768417 0.66045746 0.66045746
0.66045746 0.66045746 0.66045746
0.79187703 0.66045746 0.66045746
0.06256215 0.79187703 0.66045746
0.08464669 0.79187703 0.66045746
0.14816077 0.79187703 0.66045746
0.22796130 0.79187703 0.66045746
0.32052228 0.79187703 0.66045746
0.42412156 0.79187703 0.66045746
0.53768417 0.79187703 0.66045746
0.66045746 0.79187703 0.66045746
0.79187703 0.79187703 0.66045746
0.06256172 0.06256219 0.79187703
0.08464669 0.06256172 0.79187703
0.14816077 0.06256219 0.79187703
0.22796130 0.06256219 0.79187703
0.32052228 0.06256227 0.79187703
0.42412156 0.06256219 0.79187703
0.53768417 0.06256219 0.79187703
0.66045746 0.06256219 0.79187703
0.79187703 0.06256219 0.79187703
0.06256208 0.08464669 0.79187703
0.08464669 0.08464669 0.79187703
0.14816077 0.08464669 0.79187703
0.22796130 0.08464669 0.79187703
0.32052228 0.08464669 0.79187703
0.42412156 0.08464669 0.79187703
0.53768417 0.08464669 0.79187703
0.66045746 0.08464669 0.79187703
0.79187703 0.08464669 0.79187703
0.06256208 0.14816077 0.79187703
0.08464669 0.14816077 0.79187703
0.14816077 0.14816077 0.79187703
0.22796130 0.14816077 0.79187703
0.32052228 0.14816077 0.79187703
0.42412156 0.14816077 0.79187703
0.53768417 0.14816077 0.79187703
0.66045746 0.14816077 0.79187703
0.79187703 0.14816077 0.79187703
0.06256208 0.22796130 0.79187703
0.08464669 0.22796130 0.79187703
0.14816077 0.22796130 0.79187703
0.22796130 0.22796130 0.79187703
0.32052228 0.22796130 0.79187703
0.42412156 0.22796130 0.79187703
0.53768417 0.22796130 0.79187703
0.66045746 0.22796130 0.79187703
0.79187703 0.22796130 0.79187703
0.06256172 0.32052228 0.79187703
0.08464669 0.32052228 0.79187703
0.14816077 0.32052228 0.79187703
0.22796130 0.32052228 0.79187703
0.32052228 0.32052228 0.79187703
0.42412156 0.32052228 0.79187703
0.53768417 0.32052228 0.79187703
0.66045746 0.32052228 0.79187703
0.79187703 0.32052228 0.79187703
0.06256172 0.42412156 0.79187703
0.08464669 0.42412156 0.79187703
0.14816077 0.42412156 0.79187703
0.22796130 0.42412156 0.79187703
0.32052228 0.42412156 0.79187703
0.42412156 0.42412156 0.79187703
0.53768417 0.42412156 0.79187703
0.66045746 0.42412156 0.79187703
0.79187703 0.42412156 0.79187703
0.06256208 0.53768417 0.79187703
0.08464669 0.53768417 0.79187703
0.14816077 0.53768417 0.79187703
0.22796130 0.53768417 0.79187703
0.32052228 0.53768417 0.79187703
0.42412156 0.53768417 0.79187703
0.53768417 0.53768417 0.79187703
0.66045746 0.53768417 0.79187703
0.79187703 0.53768417 0.79187703
0.06256208 0.66045746 0.79187703
0.08464669 0.66045746 0.79187703
0.14816077 0.66045746 0.79187703
0.22796130 0.66045746 0.79187703
0.32052228 0.66045746 0.79187703
0.42412156 0.66045746 0.79187703
0.53768417 0.66045746 0.79187703
0.66045746 0.66045746 0.79187703
0.79187703 0.66045746 0.79187703
0.06256208 0.79187703 0.79187703
0.08464669 0.79187703 0.79187703
0.14816077 0.79187703 0.79187703
0.22796130 0.79187703 0.79187703
0.32052228 0.79187703 0.79187703
0.42412156 0.79187703 0.79187703
0.53768417 0.79187703 0.79187703
0.66045746 0.79187703 0.79187703
0.79187703 0.79187703 0.79187703
