src/ffmpeg_scripts/luts/luminance_2p00.cube
TITLE "luminance_2p00"
LUT_3D_SIZE 5
# PQ (EOTF Only)/Rec2020 -> PQ (EOTF Only)/Rec2020, CineEI Shift 2.00, Black Level 0.00% IRE, Input 109% -> Output 109% - Created with LUTCalc v4.01 by Ben Turley October 2020
0.06256172 0.06256172 0.06256172
0.33763521 0.06256172 0.06256172
0.62389756 0.06256197 0.06256197
0.87828090 0.06256172 0.06256172
0.91886608 0.06256231 0.06256172
0.06256172 0.33763521 0.06256172
0.33763521 0.33763521 0.06256172
0.62389756 0.33763521 0.06256172
0.87828090 0.33763521 0.06256172
0.91886608 0.33763521 0.06256172
0.06256195 0.62389756 0.06256172
0.33763521 0.62389756 0.06256172
0.62389756 0.62389756 0.06256172
0.87828090 0.62389756 0.06256172
0.91886608 0.62389756 0.06256172
0.06256216 0.87828090 0.06256172
0.33763521 0.87828090 0.06256172
0.62389756 0.87828090 0.06256172
0.87828090 0.87828090 0.06256172
0.91886608 0.87828090 0.06256245
0.06256258 0.91886608 0.06256172
0.33763521 0.91886608 0.06256245
0.62389756 0.91886608 0.06256172
0.87828090 0.91886608 0.06256172
0.91886608 0.91886608 0.06256172
0.06256172 0.06256189 0.33763521
0.33763521 0.06256189 0.33763521
0.62389756 0.06256194 0.33763521
0.87828090 0.06256208 0.33763521
0.91886608 0.06256227 0.33763521
0.06256172 0.33763521 0.33763521
0.33763521 0.33763521 0.33763521
0.62389756 0.33763521 0.33763521
0.87828090 0.33763521 0.33763521
0.91886608 0.33763521 0.33763521
0.06256198 0.62389756 0.33763521
0.33763521 0.62389756 0.33763521
0.62389756 0.62389756 0.33763521
0.87828090 0.62389756 0.33763521
0.91886608 0.62389756 0.33763521
0.06256217 0.87828090 0.33763521
0.33763521 0.87828090 0.33763521
0.62389756 0.87828090 0.33763521
0.87828090 0.87828090 0.33763521
0.91886608 0.87828090 0.33763521
0.06256255 0.91886608 0.33763521
0.33763521 0.91886608 0.33763521
0.62389756 0.91886608 0.33763521
0.87828090 0.91886608 0.33763521
0.91886608 0.91886608 0.33763521
0.06256172 0.06256204 0.62389756
0.33763521 0.06256204 0.62389756
0.62389756 0.06256204 0.62389756
0.87828090 0.06256213 0.62389756
0.91886608 0.06256258 0.62389756
0.06256172 0.33763521 0.62389756
0.33763521 0.33763521 0.62389756
0.62389756 0.33763521 0.62389756
0.87828090 0.33763521 0.62389756
0.91886608 0.33763521 0.62389756
0.06256172 0.62389756 0.62389756
0.33763521 0.62389756 0.62389756
0.62389756 0.62389756 0.62389756
0.87828090 0.62389756 0.62389756
0.91886608 0.62389756 0.62389756
0.06256224 0.87828090 0.62389756
0.33763521 0.87828090 0.62389756
0.62389756 0.87828090 0.62389756
0.87828090 0.87828090 0.62389756
0.91886608 0.87828090 0.62389756
0.06256172 0.91886608 0.62389756
0.33763521 0.91886608 0.62389756
0.62389756 0.91886608 0.62389756
0.87828090 0.91886608 0.62389756
0.91886608 0.91886608 0.62389756
0.06256172 0.06256227 0.87828090
0.33763521 0.06256227 0.87828090
0.62389756 0.06256227 0.87828090
0.87828090 0.06256227 0.87828090
0.91886608 0.06256172 0.87828090
0.06256172 0.33763521 0.87828090
0.33763521 0.33763521 0.87828090
0.62389756 0.33763521 0.87828090
0.87828090 0.33763521 0.87828090
0.91886608 0.33763521 0.87828090
0.06256172 0.62389756 0.87828090
0.33763521 0.62389756 0.87828090
0.62389756 0.62389756 0.87828090
0.87828090 0.62389756 0.87828090
0.91886608 0.62389756 0.87828090
0.06256172 0.87828090 0.87828090
0.33763521 0.87828090 0.87828090
0.62389756 0.87828090 0.87828090
0.87828090 0.87828090 0.87828090
0.91886608 0.87828090 0.87828090
0.06256238 0.91886608 0.87828090
0.33763521 0.91886608 0.87828090
0.62389756 0.91886608 0.87828090
0.87828090 0.91886608 0.87828090
0.91886608 0.91886608 0.87828090
0.06256172 0.06256272 0.91886608
0.33763521 0.06256272 0.91886608
0.62389756 0.06256289 0.91886608
0.87828090 0.06256289 0.91886608
0.91886608 0.06256172 0.91886608
0.06256172 0.33763521 0.91886608
0.33763521 0.33763521 0.91886608
0.62389756 0.33763521 0.91886608
0.87828090 0.33763521 0.91886608
0.91886608 0.33763521 0.91886608
0.06256172 0.62389756 0.91886608
0.33763521 0.62389756 0.91886608
0.62389756 0.62389756 0.91886608
0.87828090 0.62389756 0.91886608
0.91886608 0.62389756 0.91886608
0.06256257 0.87828090 0.91886608
0.33763521 0.87828090 0.91886608
0.62389756 0.87828090 0.91886608
0.87828090 0.87828090 0.91886608
0.91886608 0.87828090 0.91886608
0.06256257 0.91886608 0.91886608
0.33763521 0.91886608 0.91886608
0.62389756 0.91886608 0.91886608
0.87828090 0.91886608 0.91886608
0.91886608 0.91886608 0.91886608
