src/ffmpeg_scripts/luts/luminance-unclipped_-0p33.cube
TITLE "luminance-unclipped_-0p33"
LUT_3D_SIZE 5
# PQ (EOTF Only)/Rec2020 -> PQ (EOTF Only)/Rec2020, CineEI Shift -0.33, Black Level -7.25% IRE, Input 109% -> Output 109% - Created with LUTCalc v4.01 by Ben Turley October 2020
0.00047898 0.00047898 0.00047898
0.20300363 0.00047898 0.00047898
0.48454478 0.00047916 0.00047920
0.77211855 0.00047898 0.00047898
0.91886608 0.00047946 0.00047953
0.00047911 0.20300363 0.00047898
0.20300363 0.20300363 0.00047898
0.48454478 0.20300363 0.00047918
0.77211855 0.20300363 0.00047898
0.91886608 0.20300363 0.00047898
0.00047898 0.48454478 0.00047898
0.20300363 0.48454478 0.00047898
0.48454478 0.48454478 0.00047898
0.77211855 0.48454478 0.00047898
0.91886608 0.48454478 0.00047898
0.00047898 0.77211855 0.00047898
0.20300363 0.77211855 0.00047898
0.48454478 0.77211855 0.00047898
0.77211855 0.77211855 0.00047898
0.91886608 0.77211855 0.00047953
0.00047963 0.91886608 0.00047961
0.20300363 0.91886608 0.00047898
0.48454478 0.91886608 0.00047898
0.77211855 0.91886608 0.00047898
0.91886608 0.91886608 0.00047898
0.00047898 0.00047914 0.20300363
0.20300363 0.00047914 0.20300363
0.48454478 0.00047920 0.20300363
0.77211855 0.00047898 0.20300363
0.91886608 0.00047950 0.20300363
0.00047898 0.20300363 0.20300363
0.20300363 0.20300363 0.20300363
0.48454478 0.20300363 0.20300363
0.77211855 0.20300363 0.20300363
0.91886608 0.20300363 0.20300363
0.00047924 0.48454478 0.20300363
0.20300363 0.48454478 0.20300363
0.48454478 0.48454478 0.20300363
0.77211855 0.48454478 0.20300363
0.91886608 0.48454478 0.20300363
0.00047946 0.77211855 0.20300363
0.20300363 0.77211855 0.20300363
0.48454478 0.77211855 0.20300363
0.77211855 0.77211855 0.20300363
0.91886608 0.77211855 0.20300363
0.00047898 0.91886608 0.20300363
0.20300363 0.91886608 0.20300363
0.48454478 0.91886608 0.20300363
0.77211855 0.91886608 0.20300363
0.91886608 0.91886608 0.20300363
0.00047898 0.00047931 0.48454478
0.20300363 0.00047898 0.48454478
0.48454478 0.00047927 0.48454478
0.77211855 0.00047927 0.48454478
0.91886608 0.00047963 0.48454478
0.00047898 0.20300363 0.48454478
0.20300363 0.20300363 0.48454478
0.48454478 0.20300363 0.48454478
0.77211855 0.20300363 0.48454478
0.91886608 0.20300363 0.48454478
0.00047898 0.48454478 0.48454478
0.20300363 0.48454478 0.48454478
0.48454478 0.48454478 0.48454478
0.77211855 0.48454478 0.48454478
0.91886608 0.48454478 0.48454478
0.00047898 0.77211855 0.48454478
0.20300363 0.77211855 0.48454478
0.48454478 0.77211855 0.48454478
0.77211855 0.77211855 0.48454478
0.91886608 0.77211855 0.48454478
0.00047898 0.91886608 0.48454478
0.20300363 0.91886608 0.48454478
0.48454478 0.91886608 0.48454478
0.77211855 0.91886608 0.48454478
0.91886608 0.91886608 0.48454478
0.00047898 0.00047946 0.77211855
0.20300363 0.00047898 0.77211855
0.48454478 0.00047946 0.77211855
0.77211855 0.00047946 0.77211855
0.91886608 0.00047898 0.77211855
0.00047898 0.20300363 0.77211855
0.20300363 0.20300363 0.77211855
0.48454478 0.20300363 0.77211855
0.77211855 0.20300363 0.77211855
0.91886608 0.20300363 0.77211855
0.00047898 0.48454478 0.77211855
0.20300363 0.48454478 0.77211855
0.48454478 0.48454478 0.77211855
0.77211855 0.48454478 0.77211855
0.91886608 0.48454478 0.77211855
0.00047898 0.77211855 0.77211855
0.20300363 0.77211855 0.77211855
0.48454478 0.77211855 0.77211855
0.77211855 0.77211855 0.77211855
0.91886608 0.77211855 0.77211855
0.00047963 0.91886608 0.77211855
0.20300363 0.91886608 0.77211855
0.48454478 0.91886608 0.77211855
0.77211855 0.91886608 0.77211855
0.91886608 0.91886608 0.77211855
0.00047898 0.00047983 0.91886608
0.20300363 0.00047983 0.91886608
0.48454478 0.00047997 0.91886608
0.77211855 0.00047983 0.91886608
0.91886608 0.00047983 0.91886608
0.00047961 0.20300363 0.91886608
0.20300363 0.20300363 0.91886608
0.48454478 0.20300363 0.91886608
0.77211855 0.20300363 0.91886608
0.91886608 0.20300363 0.91886608
0.00047898 0.48454478 0.91886608
0.20300363 0.48454478 0.91886608
0.48454478 0.48454478 0.91886608
0.77211855 0.48454478 0.91886608
0.91886608 0.48454478 0.91886608
0.00047961 0.77211855 0.91886608
0.20300363 0.77211855 0.91886608
0.48454478 0.77211855 0.91886608
0.77211855 0.77211855 0.91886608
0.91886608 0.77211855 0.91886608
0.00047961 0.91886608 0.91886608
0.20300363 0.91886608 0.91886608
0.48454478 0.91886608 0.91886608
0.77211855 0.91886608 0.91886608
0.91886608 0.91886608 0.91886608
