src/ffmpeg_scripts/luts/luminance_3p67.cube
TITLE "luminance_3p67"
LUT_3D_SIZE 9
# PQ (EOTF Only)/Rec2020 -> PQ (EOTF Only)/Rec2020, CineEI Shift 3.67, Black Level 0.00% IRE, Input 109% -> Output 109% - Created with LUTCalc v4.01 by Ben Turley October 2020
0.06256172 0.06256172 0.06256172
0.21982327 0.06256172 0.06256172
0.42454652 0.06256172 0.06256172
0.58815416 0.06256172 0.06256194
0.73124562 0.06256208 0.06256200
0.86104053 0.06256204 0.06256172
0.91886608 0.06256172 0.06256172
0.91886608 0.06256238 0.06256172
0.91886608 0.06256235 0.06256172
0.06256183 0.21982327 0.06256172
0.21982327 0.21982327 0.06256172
0.42454652 0.21982327 0.06256172
0.58815416 0.21982327 0.06256172
0.73124562 0.21982327 0.06256172
0.86104053 0.21982327 0.06256172
0.91886608 0.21982327 0.06256219
0.91886608 0.21982327 0.06256235
0.91886608 0.21982327 0.06256257
0.06256189 0.42454652 0.06256172
0.21982327 0.42454652 0.06256172
0.42454652 0.42454652 0.06256172
0.58815416 0.42454652 0.06256172
0.73124562 0.42454652 0.06256200
0.86104053 0.42454652 0.06256172
0.91886608 0.42454652 0.06256172
0.91886608 0.42454652 0.06256235
0.91886608 0.42454652 0.06256172
0.06256172 0.58815416 0.06256194
0.21982327 0.58815416 0.06256194
0.42454652 0.58815416 0.06256172
0.58815416 0.58815416 0.06256197
0.73124562 0.58815416 0.06256172
0.86104053 0.58815416 0.06256172
0.91886608 0.58815416 0.06256172
0.91886608 0.58815416 0.06256245
0.91886608 0.58815416 0.06256172
0.06256172 0.73124562 0.06256172
0.21982327 0.73124562 0.06256204
0.42454652 0.73124562 0.06256172
0.58815416 0.73124562 0.06256172
0.73124562 0.73124562 0.06256172
0.86104053 0.73124562 0.06256172
0.91886608 0.73124562 0.06256172
0.91886608 0.73124562 0.06256172
0.91886608 0.73124562 0.06256172
0.06256209 0.86104053 0.06256172
0.21982327 0.86104053 0.06256172
0.42454652 0.86104053 0.06256213
0.58815416 0.86104053 0.06256172
0.73124562 0.86104053 0.06256172
0.86104053 0.86104053 0.06256172
0.91886608 0.86104053 0.06256172
0.91886608 0.86104053 0.06256172
0.91886608 0.86104053 0.06256172
0.06256238 0.91886608 0.06256172
0.21982327 0.91886608 0.06256172
0.42454652 0.91886608 0.06256227
0.58815416 0.91886608 0.06256172
0.73124562 0.91886608 0.06256172
0.86104053 0.91886608 0.06256172
0.91886608 0.91886608 0.06256227
0.91886608 0.91886608 0.06256245
0.91886608 0.91886608 0.06256272
0.06256238 0.91886608 0.06256172
0.21982327 0.91886608 0.06256245
0.42454652 0.91886608 0.06256172
0.58815416 0.91886608 0.06256172
0.73124562 0.91886608 0.06256172
0.86104053 0.91886608 0.06256172
0.91886608 0.91886608 0.06256172
0.91886608 0.91886608 0.06256172
0.91886608 0.91886608 0.06256172
0.06256273 0.91886608 0.06256172
0.21982327 0.91886608 0.06256172
0.42454652 0.91886608 0.06256272
0.58815416 0.91886608 0.06256272
0.73124562 0.91886608 0.06256172
0.86104053 0.91886608 0.06256172
0.91886608 0.91886608 0.06256272
0.91886608 0.91886608 0.06256272
0.91886608 0.91886608 0.06256172
0.06256172 0.06256184 0.21982327
0.21982327 0.06256185 0.21982327
0.42454652 0.06256172 0.21982327
0.58815416 0.06256172 0.21982327
0.73124562 0.06256206 0.21982327
0.86104053 0.06256172 0.21982327
0.91886608 0.06256172 0.21982327
0.91886608 0.06256241 0.21982327
0.91886608 0.06256235 0.21982327
0.06256172 0.21982327 0.21982327
0.21982327 0.21982327 0.21982327
0.42454652 0.21982327 0.21982327
0.58815416 0.21982327 0.21982327
0.73124562 0.21982327 0.21982327
0.86104053 0.21982327 0.21982327
0.91886608 0.21982327 0.21982327
0.91886608 0.21982327 0.21982327
0.91886608 0.21982327 0.21982327
0.06256190 0.42454652 0.21982327
0.21982327 0.42454652 0.21982327
0.42454652 0.42454652 0.21982327
0.58815416 0.42454652 0.21982327
0.73124562 0.42454652 0.21982327
0.86104053 0.42454652 0.21982327
0.91886608 0.42454652 0.21982327
0.91886608 0.42454652 0.21982327
0.91886608 0.42454652 0.21982327
0.06256193 0.58815416 0.21982327
0.21982327 0.58815416 0.21982327
0.42454652 0.58815416 0.21982327
0.58815416 0.58815416 0.21982327
0.73124562 0.58815416 0.21982327
0.86104053 0.58815416 0.21982327
0.91886608 0.58815416 0.21982327
0.91886608 0.58815416 0.21982327
0.91886608 0.58815416 0.21982327
0.06256213 0.73124562 0.21982327
0.21982327 0.73124562 0.21982327
0.42454652 0.73124562 0.21982327
0.58815416 0.73124562 0.21982327
0.73124562 0.73124562 0.21982327
0.86104053 0.73124562 0.21982327
0.91886608 0.73124562 0.21982327
0.91886608 0.73124562 0.21982327
0.91886608 0.73124562 0.21982327
0.06256172 0.86104053 0.21982327
0.21982327 0.86104053 0.21982327
0.42454652 0.86104053 0.21982327
0.58815416 0.86104053 0.21982327
0.73124562 0.86104053 0.21982327
0.86104053 0.86104053 0.21982327
0.91886608 0.86104053 0.21982327
0.91886608 0.86104053 0.21982327
0.91886608 0.86104053 0.21982327
0.06256230 0.91886608 0.21982327
0.21982327 0.91886608 0.21982327
0.42454652 0.91886608 0.21982327
0.58815416 0.91886608 0.21982327
0.73124562 0.91886608 0.21982327
0.86104053 0.91886608 0.21982327
0.91886608 0.91886608 0.21982327
0.91886608 0.91886608 0.21982327
0.91886608 0.91886608 0.21982327
0.06256242 0.91886608 0.21982327
0.21982327 0.91886608 0.21982327
0.42454652 0.91886608 0.21982327
0.58815416 0.91886608 0.21982327
0.73124562 0.91886608 0.21982327
0.86104053 0.91886608 0.21982327
0.91886608 0.91886608 0.21982327
0.91886608 0.91886608 0.21982327
0.91886608 0.91886608 0.21982327
0.06256227 0.91886608 0.21982327
0.21982327 0.91886608 0.21982327
0.42454652 0.91886608 0.21982327
0.58815416 0.91886608 0.21982327
0.73124562 0.91886608 0.21982327
0.86104053 0.91886608 0.21982327
0.91886608 0.91886608 0.21982327
0.91886608 0.91886608 0.21982327
0.91886608 0.91886608 0.21982327
0.06256189 0.06256194 0.42454652
0.21982327 0.06256172 0.42454652
0.42454652 0.06256194 0.42454652
0.58815416 0.06256172 0.42454652
0.73124562 0.06256206 0.42454652
0.86104053 0.06256172 0.42454652
0.91886608 0.06256219 0.42454652
0.91886608 0.06256243 0.42454652
0.91886608 0.06256274 0.42454652
0.06256172 0.21982327 0.42454652
0.21982327 0.21982327 0.42454652
0.42454652 0.21982327 0.42454652
0.58815416 0.21982327 0.42454652
0.73124562 0.21982327 0.42454652
0.86104053 0.21982327 0.42454652
0.91886608 0.21982327 0.42454652
0.91886608 0.21982327 0.42454652
0.91886608 0.21982327 0.42454652
0.06256191 0.42454652 0.42454652
0.21982327 0.42454652 0.42454652
0.42454652 0.42454652 0.42454652
0.58815416 0.42454652 0.42454652
0.73124562 0.42454652 0.42454652
0.86104053 0.42454652 0.42454652
0.91886608 0.42454652 0.42454652
0.91886608 0.42454652 0.42454652
0.91886608 0.42454652 0.42454652
0.06256198 0.58815416 0.42454652
0.21982327 0.58815416 0.42454652
0.42454652 0.58815416 0.42454652
0.58815416 0.58815416 0.42454652
0.73124562 0.58815416 0.42454652
0.86104053 0.58815416 0.42454652
0.91886608 0.58815416 0.42454652
0.91886608 0.58815416 0.42454652
0.91886608 0.58815416 0.42454652
0.06256208 0.73124562 0.42454652
0.21982327 0.73124562 0.42454652
0.42454652 0.73124562 0.42454652
0.58815416 0.73124562 0.42454652
0.73124562 0.73124562 0.42454652
0.86104053 0.73124562 0.42454652
0.91886608 0.73124562 0.42454652
0.91886608 0.73124562 0.42454652
0.91886608 0.73124562 0.42454652
0.06256220 0.86104053 0.42454652
0.21982327 0.86104053 0.42454652
0.42454652 0.86104053 0.42454652
0.58815416 0.86104053 0.42454652
0.73124562 0.86104053 0.42454652
0.86104053 0.86104053 0.42454652
0.91886608 0.86104053 0.42454652
0.91886608 0.86104053 0.42454652
0.91886608 0.86104053 0.42454652
0.06256172 0.91886608 0.42454652
0.21982327 0.91886608 0.42454652
0.42454652 0.91886608 0.42454652
0.58815416 0.91886608 0.42454652
0.73124562 0.91886608 0.42454652
0.86104053 0.91886608 0.42454652
0.91886608 0.91886608 0.42454652
0.91886608 0.91886608 0.42454652
0.91886608 0.91886608 0.42454652
0.06256256 0.91886608 0.42454652
0.21982327 0.91886608 0.42454652
0.42454652 0.91886608 0.42454652
0.58815416 0.91886608 0.42454652
0.73124562 0.91886608 0.42454652
0.86104053 0.91886608 0.42454652
0.91886608 0.91886608 0.42454652
0.91886608 0.91886608 0.42454652
0.91886608 0.91886608 0.42454652
0.06256172 0.91886608 0.42454652
0.21982327 0.91886608 0.42454652
0.42454652 0.91886608 0.42454652
0.58815416 0.91886608 0.42454652
0.73124562 0.91886608 0.42454652
0.86104053 0.91886608 0.42454652
0.91886608 0.91886608 0.42454652
0.91886608 0.91886608 0.42454652
0.91886608 0.91886608 0.42454652
0.06256172 0.06256172 0.58815416
0.21982327 0.06256204 0.58815416
0.42454652 0.06256204 0.58815416
0.58815416 0.06256211 0.58815416
0.73124562 0.06256208 0.58815416
0.86104053 0.06256204 0.58815416
0.91886608 0.06256172 0.58815416
0.91886608 0.06256172 0.58815416
0.91886608 0.06256172 0.58815416
0.06256172 0.21982327 0.58815416
0.21982327 0.21982327 0.58815416
0.42454652 0.21982327 0.58815416
0.58815416 0.21982327 0.58815416
0.73124562 0.21982327 0.58815416
0.86104053 0.21982327 0.58815416
0.91886608 0.21982327 0.58815416
0.91886608 0.21982327 0.58815416
0.91886608 0.21982327 0.58815416
0.06256172 0.42454652 0.58815416
0.21982327 0.42454652 0.58815416
0.42454652 0.42454652 0.58815416
0.58815416 0.42454652 0.58815416
0.73124562 0.42454652 0.58815416
0.86104053 0.42454652 0.58815416
0.91886608 0.42454652 0.58815416
0.91886608 0.42454652 0.58815416
0.91886608 0.42454652 0.58815416
0.06256200 0.58815416 0.58815416
0.21982327 0.58815416 0.58815416
0.42454652 0.58815416 0.58815416
0.58815416 0.58815416 0.58815416
0.73124562 0.58815416 0.58815416
0.86104053 0.58815416 0.58815416
0.91886608 0.58815416 0.58815416
0.91886608 0.58815416 0.58815416
0.91886608 0.58815416 0.58815416
0.06256172 0.73124562 0.58815416
0.21982327 0.73124562 0.58815416
0.42454652 0.73124562 0.58815416
0.58815416 0.73124562 0.58815416
0.73124562 0.73124562 0.58815416
0.86104053 0.73124562 0.58815416
0.91886608 0.73124562 0.58815416
0.91886608 0.73124562 0.58815416
0.91886608 0.73124562 0.58815416
0.06256223 0.86104053 0.58815416
0.21982327 0.86104053 0.58815416
0.42454652 0.86104053 0.58815416
0.58815416 0.86104053 0.58815416
0.73124562 0.86104053 0.58815416
0.86104053 0.86104053 0.58815416
0.91886608 0.86104053 0.58815416
0.91886608 0.86104053 0.58815416
0.91886608 0.86104053 0.58815416
0.06256239 0.91886608 0.58815416
0.21982327 0.91886608 0.58815416
0.42454652 0.91886608 0.58815416
0.58815416 0.91886608 0.58815416
0.73124562 0.91886608 0.58815416
0.86104053 0.91886608 0.58815416
0.91886608 0.91886608 0.58815416
0.91886608 0.91886608 0.58815416
0.91886608 0.91886608 0.58815416
0.06256172 0.91886608 0.58815416
0.21982327 0.91886608 0.58815416
0.42454652 0.91886608 0.58815416
0.58815416 0.91886608 0.58815416
0.73124562 0.91886608 0.58815416
0.86104053 0.91886608 0.58815416
0.91886608 0.91886608 0.58815416
0.91886608 0.91886608 0.58815416
0.91886608 0.91886608 0.58815416
0.06256265 0.91886608 0.58815416
0.21982327 0.91886608 0.58815416
0.42454652 0.91886608 0.58815416
0.58815416 0.91886608 0.58815416
0.73124562 0.91886608 0.58815416
0.86104053 0.91886608 0.58815416
0.91886608 0.91886608 0.58815416
0.91886608 0.91886608 0.58815416
0.91886608 0.91886608 0.58815416
0.06256204 0.06256213 0.73124562
0.21982327 0.06256219 0.73124562
0.42454652 0.06256172 0.73124562
0.58815416 0.06256172 0.73124562
0.73124562 0.06256172 0.73124562
0.86104053 0.06256172 0.73124562
0.91886608 0.06256227 0.73124562
0.91886608 0.06256241 0.73124562
0.91886608 0.06256272 0.73124562
0.06256172 0.21982327 0.73124562
0.21982327 0.21982327 0.73124562
0.42454652 0.21982327 0.73124562
0.58815416 0.21982327 0.73124562
0.73124562 0.21982327 0.73124562
0.86104053 0.21982327 0.73124562
0.91886608 0.21982327 0.73124562
0.91886608 0.21982327 0.73124562
0.91886608 0.21982327 0.73124562
0.06256172 0.42454652 0.73124562
0.21982327 0.42454652 0.73124562
0.42454652 0.42454652 0.73124562
0.58815416 0.42454652 0.73124562
0.73124562 0.42454652 0.73124562
0.86104053 0.42454652 0.73124562
0.91886608 0.42454652 0.73124562
0.91886608 0.42454652 0.73124562
0.91886608 0.42454652 0.73124562
0.06256172 0.58815416 0.73124562
0.21982327 0.58815416 0.73124562
0.42454652 0.58815416 0.73124562
0.58815416 0.58815416 0.73124562
0.73124562 0.58815416 0.73124562
0.86104053 0.58815416 0.73124562
0.91886608 0.58815416 0.73124562
0.91886608 0.58815416 0.73124562
0.91886608 0.58815416 0.73124562
0.06256172 0.73124562 0.73124562
0.21982327 0.73124562 0.73124562
0.42454652 0.73124562 0.73124562
0.58815416 0.73124562 0.73124562
0.73124562 0.73124562 0.73124562
0.86104053 0.73124562 0.73124562
0.91886608 0.73124562 0.73124562
0.91886608 0.73124562 0.73124562
0.91886608 0.73124562 0.73124562
0.06256208 0.86104053 0.73124562
0.21982327 0.86104053 0.73124562
0.42454652 0.86104053 0.73124562
0.58815416 0.86104053 0.73124562
0.73124562 0.86104053 0.73124562
0.86104053 0.86104053 0.73124562
0.91886608 0.86104053 0.73124562
0.91886608 0.86104053 0.73124562
0.91886608 0.86104053 0.73124562
0.06256228 0.91886608 0.73124562
0.21982327 0.91886608 0.73124562
0.42454652 0.91886608 0.73124562
0.58815416 0.91886608 0.73124562
0.73124562 0.91886608 0.73124562
0.86104053 0.91886608 0.73124562
0.91886608 0.91886608 0.73124562
0.91886608 0.91886608 0.73124562
0.91886608 0.91886608 0.73124562
0.06256270 0.91886608 0.73124562
0.21982327 0.91886608 0.73124562
0.42454652 0.91886608 0.73124562
0.58815416 0.91886608 0.73124562
0.73124562 0.91886608 0.73124562
0.86104053 0.91886608 0.73124562
0.91886608 0.91886608 0.73124562
0.91886608 0.91886608 0.73124562
0.91886608 0.91886608 0.73124562
0.06256172 0.91886608 0.73124562
0.21982327 0.91886608 0.73124562
0.42454652 0.91886608 0.73124562
0.58815416 0.91886608 0.73124562
0.73124562 0.91886608 0.73124562
0.86104053 0.91886608 0.73124562
0.91886608 0.91886608 0.73124562
0.91886608 0.91886608 0.73124562
0.91886608 0.91886608 0.73124562
0.06256213 0.06256235 0.86104053
0.21982327 0.06256235 0.86104053
0.42454652 0.06256235 0.86104053
0.58815416 0.06256227 0.86104053
0.73124562 0.06256241 0.86104053
0.86104053 0.06256172 0.86104053
0.91886608 0.06256172 0.86104053
0.91886608 0.06256241 0.86104053
0.91886608 0.06256172 0.86104053
0.06256172 0.21982327 0.86104053
0.21982327 0.21982327 0.86104053
0.42454652 0.21982327 0.86104053
0.58815416 0.21982327 0.86104053
0.73124562 0.21982327 0.86104053
0.86104053 0.21982327 0.86104053
0.91886608 0.21982327 0.86104053
0.91886608 0.21982327 0.86104053
0.91886608 0.21982327 0.86104053
0.06256213 0.42454652 0.86104053
0.21982327 0.42454652 0.86104053
0.42454652 0.42454652 0.86104053
0.58815416 0.42454652 0.86104053
0.73124562 0.42454652 0.86104053
0.86104053 0.42454652 0.86104053
0.91886608 0.42454652 0.86104053
0.91886608 0.42454652 0.86104053
0.91886608 0.42454652 0.86104053
0.06256172 0.58815416 0.86104053
0.21982327 0.58815416 0.86104053
0.42454652 0.58815416 0.86104053
0.58815416 0.58815416 0.86104053
0.73124562 0.58815416 0.86104053
0.86104053 0.58815416 0.86104053
0.91886608 0.58815416 0.86104053
0.91886608 0.58815416 0.86104053
0.91886608 0.58815416 0.86104053
0.06256213 0.73124562 0.86104053
0.21982327 0.73124562 0.86104053
0.42454652 0.73124562 0.86104053
0.58815416 0.73124562 0.86104053
0.73124562 0.73124562 0.86104053
0.86104053 0.73124562 0.86104053
0.91886608 0.73124562 0.86104053
0.91886608 0.73124562 0.86104053
0.91886608 0.73124562 0.86104053
0.06256172 0.86104053 0.86104053
0.21982327 0.86104053 0.86104053
0.42454652 0.86104053 0.86104053
0.58815416 0.86104053 0.86104053
0.73124562 0.86104053 0.86104053
0.86104053 0.86104053 0.86104053
0.91886608 0.86104053 0.86104053
0.91886608 0.86104053 0.86104053
0.91886608 0.86104053 0.86104053
0.06256238 0.91886608 0.86104053
0.21982327 0.91886608 0.86104053
0.42454652 0.91886608 0.86104053
0.58815416 0.91886608 0.86104053
0.73124562 0.91886608 0.86104053
0.86104053 0.91886608 0.86104053
0.91886608 0.91886608 0.86104053
0.91886608 0.91886608 0.86104053
0.91886608 0.91886608 0.86104053
0.06256241 0.91886608 0.86104053
0.21982327 0.91886608 0.86104053
0.42454652 0.91886608 0.86104053
0.58815416 0.91886608 0.86104053
0.73124562 0.91886608 0.86104053
0.86104053 0.91886608 0.86104053
0.91886608 0.91886608 0.86104053
0.91886608 0.91886608 0.86104053
0.91886608 0.91886608 0.86104053
0.06256282 0.91886608 0.86104053
0.21982327 0.91886608 0.86104053
0.42454652 0.91886608 0.86104053
0.58815416 0.91886608 0.86104053
0.73124562 0.91886608 0.86104053
0.86104053 0.91886608 0.86104053
0.91886608 0.91886608 0.86104053
0.91886608 0.91886608 0.86104053
0.91886608 0.91886608 0.86104053
0.06256172 0.06256245 0.91886608
0.21982327 0.06256245 0.91886608
0.42454652 0.06256172 0.91886608
0.58815416 0.06256257 0.91886608
0.73124562 0.06256245 0.91886608
0.86104053 0.06256245 0.91886608
0.91886608 0.06256172 0.91886608
0.91886608 0.06256172 0.91886608
0.91886608 0.06256172 0.91886608
0.06256172 0.21982327 0.91886608
0.21982327 0.21982327 0.91886608
0.42454652 0.21982327 0.91886608
0.58815416 0.21982327 0.91886608
0.73124562 0.21982327 0.91886608
0.86104053 0.21982327 0.91886608
0.91886608 0.21982327 0.91886608
0.91886608 0.21982327 0.91886608
0.91886608 0.21982327 0.91886608
0.06256172 0.42454652 0.91886608
0.21982327 0.42454652 0.91886608
0.42454652 0.42454652 0.91886608
0.58815416 0.42454652 0.91886608
0.73124562 0.42454652 0.91886608
0.86104053 0.42454652 0.91886608
0.91886608 0.42454652 0.91886608
0.91886608 0.42454652 0.91886608
0.91886608 0.42454652 0.91886608
0.06256172 0.58815416 0.91886608
0.21982327 0.58815416 0.91886608
0.42454652 0.58815416 0.91886608
0.58815416 0.58815416 0.91886608
0.73124562 0.58815416 0.91886608
0.86104053 0.58815416 0.91886608
0.91886608 0.58815416 0.91886608
0.91886608 0.58815416 0.91886608
0.91886608 0.58815416 0.91886608
0.06256172 0.73124562 0.91886608
0.21982327 0.73124562 0.91886608
0.42454652 0.73124562 0.91886608
0.58815416 0.73124562 0.91886608
0.73124562 0.73124562 0.91886608
0.86104053 0.73124562 0.91886608
0.91886608 0.73124562 0.91886608
0.91886608 0.73124562 0.91886608
0.91886608 0.73124562 0.91886608
0.06256172 0.86104053 0.91886608
0.21982327 0.86104053 0.91886608
0.42454652 0.86104053 0.91886608
0.58815416 0.86104053 0.91886608
0.73124562 0.86104053 0.91886608
0.86104053 0.86104053 0.91886608
0.91886608 0.86104053 0.91886608
0.91886608 0.86104053 0.91886608
0.91886608 0.86104053 0.91886608
0.06256172 0.91886608 0.91886608
0.21982327 0.91886608 0.91886608
0.42454652 0.91886608 0.91886608
0.58815416 0.91886608 0.91886608
0.73124562 0.91886608 0.91886608
0.86104053 0.91886608 0.91886608
0.91886608 0.91886608 0.91886608
0.91886608 0.91886608 0.91886608
0.91886608 0.91886608 0.91886608
0.06256235 0.91886608 0.91886608
0.21982327 0.91886608 0.91886608
0.42454652 0.91886608 0.91886608
0.58815416 0.91886608 0.91886608
0.73124562 0.91886608 0.91886608
0.86104053 0.91886608 0.91886608
0.91886608 0.91886608 0.91886608
0.91886608 0.91886608 0.91886608
0.91886608 0.91886608 0.91886608
0.06256272 0.91886608 0.91886608
0.21982327 0.91886608 0.91886608
0.42454652 0.91886608 0.91886608
0.58815416 0.91886608 0.91886608
0.73124562 0.91886608 0.91886608
0.86104053 0.91886608 0.91886608
0.91886608 0.91886608 0.91886608
0.91886608 0.91886608 0.91886608
0.91886608 0.91886608 0.91886608
0.06256172 0.06256289 0.91886608
0.21982327 0.06256272 0.91886608
0.42454652 0.06256272 0.91886608
0.58815416 0.06256272 0.91886608
0.73124562 0.06256172 0.91886608
0.86104053 0.06256272 0.91886608
0.91886608 0.06256172 0.91886608
0.91886608 0.06256272 0.91886608
0.91886608 0.06256311 0.91886608
0.06256172 0.21982327 0.91886608
0.21982327 0.21982327 0.91886608
0.42454652 0.21982327 0.91886608
0.58815416 0.21982327 0.91886608
0.73124562 0.21982327 0.91886608
0.86104053 0.21982327 0.91886608
0.91886608 0.21982327 0.91886608
0.91886608 0.21982327 0.91886608
0.91886608 0.21982327 0.91886608
0.06256172 0.42454652 0.91886608
0.21982327 0.42454652 0.91886608
0.42454652 0.42454652 0.91886608
0.58815416 0.42454652 0.91886608
0.73124562 0.42454652 0.91886608
0.86104053 0.42454652 0.91886608
0.91886608 0.42454652 0.91886608
0.91886608 0.42454652 0.91886608
0.91886608 0.42454652 0.91886608
0.06256172 0.58815416 0.91886608
0.21982327 0.58815416 0.91886608
0.42454652 0.58815416 0.91886608
0.58815416 0.58815416 0.91886608
0.73124562 0.58815416 0.91886608
0.86104053 0.58815416 0.91886608
0.91886608 0.58815416 0.91886608
0.91886608 0.58815416 0.91886608
0.91886608 0.58815416 0.91886608
0.06256172 0.73124562 0.91886608
0.21982327 0.73124562 0.91886608
0.42454652 0.73124562 0.91886608
0.58815416 0.73124562 0.91886608
0.73124562 0.73124562 0.91886608
0.86104053 0.73124562 0.91886608
0.91886608 0.73124562 0.91886608
0.91886608 0.73124562 0.91886608
0.91886608 0.73124562 0.91886608
0.06256172 0.86104053 0.91886608
0.21982327 0.86104053 0.91886608
0.42454652 0.86104053 0.91886608
0.58815416 0.86104053 0.91886608
0.73124562 0.86104053 0.91886608
0.86104053 0.86104053 0.91886608
0.91886608 0.86104053 0.91886608
0.91886608 0.86104053 0.91886608
0.91886608 0.86104053 0.91886608
0.06256172 0.91886608 0.91886608
0.21982327 0.91886608 0.91886608
0.42454652 0.91886608 0.91886608
0.58815416 0.91886608 0.91886608
0.73124562 0.91886608 0.91886608
0.86104053 0.91886608 0.91886608
0.91886608 0.91886608 0.91886608
0.91886608 0.91886608 0.91886608
0.91886608 0.91886608 0.91886608
0.06256245 0.91886608 0.91886608
0.21982327 0.91886608 0.91886608
0.42454652 0.91886608 0.91886608
0.58815416 0.91886608 0.91886608
0.73124562 0.91886608 0.91886608
0.86104053 0.91886608 0.91886608
0.91886608 0.91886608 0.91886608
0.91886608 0.91886608 0.91886608
0.91886608 0.91886608 0.91886608
0.06256289 0.91886608 0.91886608
0.21982327 0.91886608 0.91886608
0.42454652 0.91886608 0.91886608
0.58815416 0.91886608 0.91886608
0.73124562 0.91886608 0.91886608
0.86104053 0.91886608 0.91886608
0.91886608 0.91886608 0.91886608
0.91886608 0.91886608 0.91886608
0.91886608 0.91886608 0.91886608
0.06256172 0.06256337 0.91886608
0.21982327 0.06256172 0.91886608
0.42454652 0.06256337 0.91886608
0.58815416 0.06256311 0.91886608
0.73124562 0.06256311 0.91886608
0.86104053 0.06256311 0.91886608
0.91886608 0.06256311 0.91886608
0.91886608 0.06256172 0.91886608
0.91886608 0.06256311 0.91886608
0.06256272 0.21982327 0.91886608
0.21982327 0.21982327 0.91886608
0.42454652 0.21982327 0.91886608
0.58815416 0.21982327 0.91886608
0.73124562 0.21982327 0.91886608
0.86104053 0.21982327 0.91886608
0.91886608 0.21982327 0.91886608
0.91886608 0.21982327 0.91886608
0.91886608 0.21982327 0.91886608
0.06256172 0.42454652 0.91886608
0.21982327 0.42454652 0.91886608
0.42454652 0.42454652 0.91886608
0.58815416 0.42454652 0.91886608
0.73124562 0.42454652 0.91886608
0.86104053 0.42454652 0.91886608
0.91886608 0.42454652 0.91886608
0.91886608 0.42454652 0.91886608
0.91886608 0.42454652 0.91886608
0.06256172 0.58815416 0.91886608
0.21982327 0.58815416 0.91886608
0.42454652 0.58815416 0.91886608
0.58815416 0.58815416 0.91886608
0.73124562 0.58815416 0.91886608
0.86104053 0.58815416 0.91886608
0.91886608 0.58815416 0.91886608
0.91886608 0.58815416 0.91886608
0.91886608 0.58815416 0.91886608
0.06256172 0.73124562 0.91886608
0.21982327 0.73124562 0.91886608
0.42454652 0.73124562 0.91886608
0.58815416 0.73124562 0.91886608
0.73124562 0.73124562 0.91886608
0.86104053 0.73124562 0.91886608
0.91886608 0.73124562 0.91886608
0.91886608 0.73124562 0.91886608
0.91886608 0.73124562 0.91886608
0.06256172 0.86104053 0.91886608
0.21982327 0.86104053 0.91886608
0.42454652 0.86104053 0.91886608
0.58815416 0.86104053 0.91886608
0.73124562 0.86104053 0.91886608
0.86104053 0.86104053 0.91886608
0.91886608 0.86104053 0.91886608
0.91886608 0.86104053 0.91886608
0.91886608 0.86104053 0.91886608
0.06256172 0.91886608 0.91886608
0.21982327 0.91886608 0.91886608
0.42454652 0.91886608 0.91886608
0.58815416 0.91886608 0.91886608
0.73124562 0.91886608 0.91886608
0.86104053 0.91886608 0.91886608
0.91886608 0.91886608 0.91886608
0.91886608 0.91886608 0.91886608
0.91886608 0.91886608 0.91886608
0.06256172 0.91886608 0.91886608
0.21982327 0.91886608 0.91886608
0.42454652 0.91886608 0.91886608
0.58815416 0.91886608 0.91886608
0.73124562 0.91886608 0.91886608
0.86104053 0.91886608 0.91886608
0.91886608 0.91886608 0.91886608
0.91886608 0.91886608 0.91886608
0.91886608 0.91886608 0.91886608
0.06256289 0.91886608 0.91886608
0.21982327 0.91886608 0.91886608
0.42454652 0.91886608 0.91886608
0.58815416 0.91886608 0.91886608
0.73124562 0.91886608 0.91886608
0.86104053 0.91886608 0.91886608
0.91886608 0.91886608 0.91886608
0.91886608 0.91886608 0.91886608
0.91886608 0.91886608 0.91886608
