src/ffmpeg_scripts/luts/luminance-unclipped_-3p67.cube
TITLE "luminance-unclipped_-3p67"
LUT_3D_SIZE 33
# PQ (EOTF Only)/Rec2020 -> PQ (EOTF Only)/Rec2020, CineEI Shift -3.67, Black Level -7.25% IRE, Input 109% -> Output 109% - Created with LUTCalc v4.01 by Ben Turley October 2020
0.00047898 0.00047898 0.00047898
0.00047898 0.00047898 0.00047898
0.00047898 0.00047898 0.00047898
0.01048872 0.00047898 0.00047902
0.02331872 0.00047898 0.00047898
0.03807972 0.00047898 0.00047898
0.05443850 0.00047898 0.00047898
0.07220375 0.00047898 0.00047905
0.09124733 0.00047898 0.00047898
0.11147579 0.00047898 0.00047908
0.13281718 0.00047908 0.00047898
0.15521391 0.00047906 0.00047898
0.17861858 0.00047898 0.00047898
0.20299130 0.00047898 0.00047898
0.22829793 0.00047898 0.00047898
0.25450881 0.00047910 0.00047910
0.28159788 0.00047910 0.00047898
0.30954202 0.00047914 0.00047898
0.33832053 0.00047915 0.00047914
0.36791474 0.00047917 0.00047898
0.39830772 0.00047898 0.00047898
0.42948400 0.00047898 0.00047898
0.46142940 0.00047898 0.00047898
0.49413086 0.00047898 0.00047898
0.52757629 0.00047916 0.00047898
0.56175445 0.00047898 0.00047920
0.59665491 0.00047898 0.00047898
0.63226787 0.00047924 0.00047898
0.66858419 0.00047898 0.00047898
0.70559526 0.00047898 0.00047898
0.74329298 0.00047931 0.00047931
0.78166970 0.00047931 0.00047898
0.82071820 0.00047937 0.00047940
0.00047898 0.00047898 0.00047898
0.00047898 0.00047898 0.00047898
0.00047898 0.00047898 0.00047898
0.01048872 0.00047898 0.00047902
0.02331872 0.00047898 0.00047898
0.03807972 0.00047898 0.00047898
0.05443850 0.00047898 0.00047898
0.07220375 0.00047898 0.00047905
0.09124733 0.00047898 0.00047898
0.11147579 0.00047898 0.00047908
0.13281718 0.00047908 0.00047898
0.15521391 0.00047906 0.00047898
0.17861858 0.00047898 0.00047898
0.20299130 0.00047898 0.00047898
0.22829793 0.00047898 0.00047898
0.25450881 0.00047910 0.00047910
0.28159788 0.00047910 0.00047898
0.30954202 0.00047914 0.00047898
0.33832053 0.00047915 0.00047914
0.36791474 0.00047917 0.00047898
0.39830772 0.00047898 0.00047898
0.42948400 0.00047898 0.00047898
0.46142940 0.00047898 0.00047898
0.49413086 0.00047898 0.00047898
0.52757629 0.00047916 0.00047898
0.56175445 0.00047898 0.00047920
0.59665491 0.00047898 0.00047898
0.63226787 0.00047924 0.00047898
0.66858419 0.00047898 0.00047898
0.70559526 0.00047898 0.00047898
0.74329298 0.00047931 0.00047931
0.78166970 0.00047931 0.00047898
0.82071820 0.00047937 0.00047940
0.00047898 0.00047898 0.00047898
0.00047898 0.00047898 0.00047898
0.00047898 0.00047898 0.00047898
0.01048872 0.00047898 0.00047902
0.02331872 0.00047898 0.00047898
0.03807972 0.00047898 0.00047898
0.05443850 0.00047898 0.00047898
0.07220375 0.00047898 0.00047905
0.09124733 0.00047898 0.00047898
0.11147579 0.00047898 0.00047908
0.13281718 0.00047908 0.00047898
0.15521391 0.00047906 0.00047898
0.17861858 0.00047898 0.00047898
0.20299130 0.00047898 0.00047898
0.22829793 0.00047898 0.00047898
0.25450881 0.00047910 0.00047910
0.28159788 0.00047910 0.00047898
0.30954202 0.00047914 0.00047898
0.33832053 0.00047915 0.00047914
0.36791474 0.00047917 0.00047898
0.39830772 0.00047898 0.00047898
0.42948400 0.00047898 0.00047898
0.46142940 0.00047898 0.00047898
0.49413086 0.00047898 0.00047898
0.52757629 0.00047916 0.00047898
0.56175445 0.00047898 0.00047920
0.59665491 0.00047898 0.00047898
0.63226787 0.00047924 0.00047898
0.66858419 0.00047898 0.00047898
0.70559526 0.00047898 0.00047898
0.74329298 0.00047931 0.00047931
0.78166970 0.00047931 0.00047898
0.82071820 0.00047937 0.00047940
0.00047903 0.01048872 0.00047898
0.00047903 0.01048872 0.00047898
0.00047903 0.01048872 0.00047898
0.01048872 0.01048872 0.00047898
0.02331872 0.01048872 0.00047898
0.03807972 0.01048872 0.00047898
0.05443850 0.01048872 0.00047898
0.07220375 0.01048872 0.00047898
0.09124733 0.01048872 0.00047898
0.11147579 0.01048872 0.00047898
0.13281718 0.01048872 0.00047898
0.15521391 0.01048872 0.00047898
0.17861858 0.01048872 0.00047898
0.20299130 0.01048872 0.00047898
0.22829793 0.01048872 0.00047898
0.25450881 0.01048872 0.00047910
0.28159788 0.01048872 0.00047898
0.30954202 0.01048872 0.00047898
0.33832053 0.01048872 0.00047898
0.36791474 0.01048872 0.00047898
0.39830772 0.01048872 0.00047898
0.42948400 0.01048872 0.00047898
0.46142940 0.01048872 0.00047898
0.49413086 0.01048872 0.00047918
0.52757629 0.01048872 0.00047920
0.56175445 0.01048872 0.00047898
0.59665491 0.01048872 0.00047898
0.63226787 0.01048872 0.00047923
0.66858419 0.01048872 0.00047898
0.70559526 0.01048872 0.00047927
0.74329298 0.01048872 0.00047931
0.78166970 0.01048872 0.00047898
0.82071820 0.01048872 0.00047898
0.00047904 0.02331872 0.00047898
0.00047904 0.02331872 0.00047898
0.00047904 0.02331872 0.00047898
0.01048872 0.02331872 0.00047898
0.02331872 0.02331872 0.00047898
0.03807972 0.02331872 0.00047898
0.05443850 0.02331872 0.00047904
0.07220375 0.02331872 0.00047905
0.09124733 0.02331872 0.00047898
0.11147579 0.02331872 0.00047907
0.13281718 0.02331872 0.00047898
0.15521391 0.02331872 0.00047908
0.17861858 0.02331872 0.00047909
0.20299130 0.02331872 0.00047909
0.22829793 0.02331872 0.00047898
0.25450881 0.02331872 0.00047898
0.28159788 0.02331872 0.00047898
0.30954202 0.02331872 0.00047912
0.33832053 0.02331872 0.00047898
0.36791474 0.02331872 0.00047898
0.39830772 0.02331872 0.00047898
0.42948400 0.02331872 0.00047898
0.46142940 0.02331872 0.00047898
0.49413086 0.02331872 0.00047918
0.52757629 0.02331872 0.00047920
0.56175445 0.02331872 0.00047920
0.59665491 0.02331872 0.00047898
0.63226787 0.02331872 0.00047927
0.66858419 0.02331872 0.00047931
0.70559526 0.02331872 0.00047898
0.74329298 0.02331872 0.00047931
0.78166970 0.02331872 0.00047898
0.82071820 0.02331872 0.00047935
0.00047903 0.03807972 0.00047898
0.00047903 0.03807972 0.00047898
0.00047903 0.03807972 0.00047898
0.01048872 0.03807972 0.00047898
0.02331872 0.03807972 0.00047904
0.03807972 0.03807972 0.00047898
0.05443850 0.03807972 0.00047905
0.07220375 0.03807972 0.00047898
0.09124733 0.03807972 0.00047898
0.11147579 0.03807972 0.00047907
0.13281718 0.03807972 0.00047898
0.15521391 0.03807972 0.00047898
0.17861858 0.03807972 0.00047898
0.20299130 0.03807972 0.00047909
0.22829793 0.03807972 0.00047910
0.25450881 0.03807972 0.00047898
0.28159788 0.03807972 0.00047898
0.30954202 0.03807972 0.00047912
0.33832053 0.03807972 0.00047898
0.36791474 0.03807972 0.00047898
0.39830772 0.03807972 0.00047898
0.42948400 0.03807972 0.00047898
0.46142940 0.03807972 0.00047898
0.49413086 0.03807972 0.00047898
0.52757629 0.03807972 0.00047898
0.56175445 0.03807972 0.00047898
0.59665491 0.03807972 0.00047898
0.63226787 0.03807972 0.00047898
0.66858419 0.03807972 0.00047927
0.70559526 0.03807972 0.00047898
0.74329298 0.03807972 0.00047898
0.78166970 0.03807972 0.00047898
0.82071820 0.03807972 0.00047940
0.00047905 0.05443850 0.00047898
0.00047905 0.05443850 0.00047898
0.00047905 0.05443850 0.00047898
0.01048872 0.05443850 0.00047898
0.02331872 0.05443850 0.00047898
0.03807972 0.05443850 0.00047898
0.05443850 0.05443850 0.00047898
0.07220375 0.05443850 0.00047898
0.09124733 0.05443850 0.00047898
0.11147579 0.05443850 0.00047898
0.13281718 0.05443850 0.00047898
0.15521391 0.05443850 0.00047898
0.17861858 0.05443850 0.00047898
0.20299130 0.05443850 0.00047898
0.22829793 0.05443850 0.00047898
0.25450881 0.05443850 0.00047910
0.28159788 0.05443850 0.00047898
0.30954202 0.05443850 0.00047898
0.33832053 0.05443850 0.00047898
0.36791474 0.05443850 0.00047898
0.39830772 0.05443850 0.00047898
0.42948400 0.05443850 0.00047898
0.46142940 0.05443850 0.00047920
0.49413086 0.05443850 0.00047898
0.52757629 0.05443850 0.00047898
0.56175445 0.05443850 0.00047898
0.59665491 0.05443850 0.00047898
0.63226787 0.05443850 0.00047923
0.66858419 0.05443850 0.00047898
0.70559526 0.05443850 0.00047898
0.74329298 0.05443850 0.00047898
0.78166970 0.05443850 0.00047898
0.82071820 0.05443850 0.00047898
0.00047905 0.07220375 0.00047898
0.00047905 0.07220375 0.00047898
0.00047905 0.07220375 0.00047898
0.01048872 0.07220375 0.00047898
0.02331872 0.07220375 0.00047898
0.03807972 0.07220375 0.00047898
0.05443850 0.07220375 0.00047898
0.07220375 0.07220375 0.00047898
0.09124733 0.07220375 0.00047898
0.11147579 0.07220375 0.00047898
0.13281718 0.07220375 0.00047908
0.15521391 0.07220375 0.00047898
0.17861858 0.07220375 0.00047898
0.20299130 0.07220375 0.00047898
0.22829793 0.07220375 0.00047910
0.25450881 0.07220375 0.00047898
0.28159788 0.07220375 0.00047898
0.30954202 0.07220375 0.00047898
0.33832053 0.07220375 0.00047914
0.36791474 0.07220375 0.00047898
0.39830772 0.07220375 0.00047898
0.42948400 0.07220375 0.00047898
0.46142940 0.07220375 0.00047918
0.49413086 0.07220375 0.00047918
0.52757629 0.07220375 0.00047920
0.56175445 0.07220375 0.00047920
0.59665491 0.07220375 0.00047898
0.63226787 0.07220375 0.00047898
0.66858419 0.07220375 0.00047898
0.70559526 0.07220375 0.00047898
0.74329298 0.07220375 0.00047898
0.78166970 0.07220375 0.00047898
0.82071820 0.07220375 0.00047898
0.00047907 0.09124733 0.00047898
0.00047907 0.09124733 0.00047898
0.00047907 0.09124733 0.00047898
0.01048872 0.09124733 0.00047906
0.02331872 0.09124733 0.00047898
0.03807972 0.09124733 0.00047898
0.05443850 0.09124733 0.00047898
0.07220375 0.09124733 0.00047898
0.09124733 0.09124733 0.00047898
0.11147579 0.09124733 0.00047898
0.13281718 0.09124733 0.00047898
0.15521391 0.09124733 0.00047898
0.17861858 0.09124733 0.00047898
0.20299130 0.09124733 0.00047909
0.22829793 0.09124733 0.00047898
0.25450881 0.09124733 0.00047910
0.28159788 0.09124733 0.00047912
0.30954202 0.09124733 0.00047914
0.33832053 0.09124733 0.00047898
0.36791474 0.09124733 0.00047898
0.39830772 0.09124733 0.00047898
0.42948400 0.09124733 0.00047898
0.46142940 0.09124733 0.00047898
0.49413086 0.09124733 0.00047898
0.52757629 0.09124733 0.00047920
0.56175445 0.09124733 0.00047923
0.59665491 0.09124733 0.00047898
0.63226787 0.09124733 0.00047898
0.66858419 0.09124733 0.00047898
0.70559526 0.09124733 0.00047898
0.74329298 0.09124733 0.00047898
0.78166970 0.09124733 0.00047898
0.82071820 0.09124733 0.00047898
0.00047909 0.11147579 0.00047898
0.00047909 0.11147579 0.00047898
0.00047909 0.11147579 0.00047898
0.01048872 0.11147579 0.00047898
0.02331872 0.11147579 0.00047898
0.03807972 0.11147579 0.00047898
0.05443850 0.11147579 0.00047898
0.07220375 0.11147579 0.00047898
0.09124733 0.11147579 0.00047898
0.11147579 0.11147579 0.00047898
0.13281718 0.11147579 0.00047898
0.15521391 0.11147579 0.00047909
0.17861858 0.11147579 0.00047909
0.20299130 0.11147579 0.00047898
0.22829793 0.11147579 0.00047898
0.25450881 0.11147579 0.00047898
0.28159788 0.11147579 0.00047898
0.30954202 0.11147579 0.00047898
0.33832053 0.11147579 0.00047898
0.36791474 0.11147579 0.00047898
0.39830772 0.11147579 0.00047898
0.42948400 0.11147579 0.00047898
0.46142940 0.11147579 0.00047898
0.49413086 0.11147579 0.00047918
0.52757629 0.11147579 0.00047920
0.56175445 0.11147579 0.00047898
0.59665491 0.11147579 0.00047898
0.63226787 0.11147579 0.00047898
0.66858419 0.11147579 0.00047927
0.70559526 0.11147579 0.00047898
0.74329298 0.11147579 0.00047898
0.78166970 0.11147579 0.00047898
0.82071820 0.11147579 0.00047898
0.00047911 0.13281718 0.00047898
0.00047911 0.13281718 0.00047898
0.00047911 0.13281718 0.00047898
0.01048872 0.13281718 0.00047898
0.02331872 0.13281718 0.00047898
0.03807972 0.13281718 0.00047898
0.05443850 0.13281718 0.00047898
0.07220375 0.13281718 0.00047898
0.09124733 0.13281718 0.00047898
0.11147579 0.13281718 0.00047898
0.13281718 0.13281718 0.00047898
0.15521391 0.13281718 0.00047898
0.17861858 0.13281718 0.00047898
0.20299130 0.13281718 0.00047898
0.22829793 0.13281718 0.00047898
0.25450881 0.13281718 0.00047898
0.28159788 0.13281718 0.00047898
0.30954202 0.13281718 0.00047898
0.33832053 0.13281718 0.00047898
0.36791474 0.13281718 0.00047898
0.39830772 0.13281718 0.00047898
0.42948400 0.13281718 0.00047898
0.46142940 0.13281718 0.00047918
0.49413086 0.13281718 0.00047918
0.52757629 0.13281718 0.00047898
0.56175445 0.13281718 0.00047898
0.59665491 0.13281718 0.00047898
0.63226787 0.13281718 0.00047923
0.66858419 0.13281718 0.00047898
0.70559526 0.13281718 0.00047898
0.74329298 0.13281718 0.00047898
0.78166970 0.13281718 0.00047898
0.82071820 0.13281718 0.00047898
0.00047912 0.15521391 0.00047898
0.00047912 0.15521391 0.00047898
0.00047912 0.15521391 0.00047898
0.01048872 0.15521391 0.00047898
0.02331872 0.15521391 0.00047898
0.03807972 0.15521391 0.00047909
0.05443850 0.15521391 0.00047898
0.07220375 0.15521391 0.00047898
0.09124733 0.15521391 0.00047898
0.11147579 0.15521391 0.00047898
0.13281718 0.15521391 0.00047898
0.15521391 0.15521391 0.00047898
0.17861858 0.15521391 0.00047898
0.20299130 0.15521391 0.00047898
0.22829793 0.15521391 0.00047912
0.25450881 0.15521391 0.00047912
0.28159788 0.15521391 0.00047898
0.30954202 0.15521391 0.00047898
0.33832053 0.15521391 0.00047914
0.36791474 0.15521391 0.00047898
0.39830772 0.15521391 0.00047916
0.42948400 0.15521391 0.00047898
0.46142940 0.15521391 0.00047898
0.49413086 0.15521391 0.00047898
0.52757629 0.15521391 0.00047898
0.56175445 0.15521391 0.00047920
0.59665491 0.15521391 0.00047898
0.63226787 0.15521391 0.00047898
0.66858419 0.15521391 0.00047898
0.70559526 0.15521391 0.00047898
0.74329298 0.15521391 0.00047898
0.78166970 0.15521391 0.00047931
0.82071820 0.15521391 0.00047898
0.00047911 0.17861858 0.00047909
0.00047911 0.17861858 0.00047909
0.00047911 0.17861858 0.00047909
0.01048872 0.17861858 0.00047909
0.02331872 0.17861858 0.00047898
0.03807972 0.17861858 0.00047898
0.05443850 0.17861858 0.00047909
0.07220375 0.17861858 0.00047898
0.09124733 0.17861858 0.00047898
0.11147579 0.17861858 0.00047909
0.13281718 0.17861858 0.00047898
0.15521391 0.17861858 0.00047898
0.17861858 0.17861858 0.00047910
0.20299130 0.17861858 0.00047898
0.22829793 0.17861858 0.00047898
0.25450881 0.17861858 0.00047898
0.28159788 0.17861858 0.00047912
0.30954202 0.17861858 0.00047898
0.33832053 0.17861858 0.00047898
0.36791474 0.17861858 0.00047898
0.39830772 0.17861858 0.00047916
0.42948400 0.17861858 0.00047898
0.46142940 0.17861858 0.00047918
0.49413086 0.17861858 0.00047898
0.52757629 0.17861858 0.00047898
0.56175445 0.17861858 0.00047898
0.59665491 0.17861858 0.00047898
0.63226787 0.17861858 0.00047898
0.66858419 0.17861858 0.00047898
0.70559526 0.17861858 0.00047898
0.74329298 0.17861858 0.00047931
0.78166970 0.17861858 0.00047898
0.82071820 0.17861858 0.00047935
0.00047907 0.20299130 0.00047898
0.00047907 0.20299130 0.00047898
0.00047907 0.20299130 0.00047898
0.01048872 0.20299130 0.00047898
0.02331872 0.20299130 0.00047898
0.03807972 0.20299130 0.00047898
0.05443850 0.20299130 0.00047910
0.07220375 0.20299130 0.00047898
0.09124733 0.20299130 0.00047898
0.11147579 0.20299130 0.00047898
0.13281718 0.20299130 0.00047910
0.15521391 0.20299130 0.00047898
0.17861858 0.20299130 0.00047898
0.20299130 0.20299130 0.00047898
0.22829793 0.20299130 0.00047898
0.25450881 0.20299130 0.00047898
0.28159788 0.20299130 0.00047898
0.30954202 0.20299130 0.00047898
0.33832053 0.20299130 0.00047914
0.36791474 0.20299130 0.00047898
0.39830772 0.20299130 0.00047898
0.42948400 0.20299130 0.00047898
0.46142940 0.20299130 0.00047898
0.49413086 0.20299130 0.00047898
0.52757629 0.20299130 0.00047898
0.56175445 0.20299130 0.00047920
0.59665491 0.20299130 0.00047923
0.63226787 0.20299130 0.00047898
0.66858419 0.20299130 0.00047898
0.70559526 0.20299130 0.00047898
0.74329298 0.20299130 0.00047931
0.78166970 0.20299130 0.00047898
0.82071820 0.20299130 0.00047898
0.00047910 0.22829793 0.00047898
0.00047910 0.22829793 0.00047898
0.00047910 0.22829793 0.00047898
0.01048872 0.22829793 0.00047898
0.02331872 0.22829793 0.00047898
0.03807972 0.22829793 0.00047898
0.05443850 0.22829793 0.00047910
0.07220375 0.22829793 0.00047898
0.09124733 0.22829793 0.00047898
0.11147579 0.22829793 0.00047910
0.13281718 0.22829793 0.00047910
0.15521391 0.22829793 0.00047898
0.17861858 0.22829793 0.00047898
0.20299130 0.22829793 0.00047912
0.22829793 0.22829793 0.00047898
0.25450881 0.22829793 0.00047898
0.28159788 0.22829793 0.00047898
0.30954202 0.22829793 0.00047898
0.33832053 0.22829793 0.00047898
0.36791474 0.22829793 0.00047898
0.39830772 0.22829793 0.00047898
0.42948400 0.22829793 0.00047898
0.46142940 0.22829793 0.00047898
0.49413086 0.22829793 0.00047898
0.52757629 0.22829793 0.00047898
0.56175445 0.22829793 0.00047898
0.59665491 0.22829793 0.00047898
0.63226787 0.22829793 0.00047898
0.66858419 0.22829793 0.00047927
0.70559526 0.22829793 0.00047898
0.74329298 0.22829793 0.00047898
0.78166970 0.22829793 0.00047898
0.82071820 0.22829793 0.00047898
0.00047916 0.25450881 0.00047898
0.00047916 0.25450881 0.00047898
0.00047916 0.25450881 0.00047898
0.01048872 0.25450881 0.00047898
0.02331872 0.25450881 0.00047898
0.03807972 0.25450881 0.00047912
0.05443850 0.25450881 0.00047898
0.07220375 0.25450881 0.00047898
0.09124733 0.25450881 0.00047898
0.11147579 0.25450881 0.00047898
0.13281718 0.25450881 0.00047898
0.15521391 0.25450881 0.00047898
0.17861858 0.25450881 0.00047898
0.20299130 0.25450881 0.00047898
0.22829793 0.25450881 0.00047898
0.25450881 0.25450881 0.00047898
0.28159788 0.25450881 0.00047898
0.30954202 0.25450881 0.00047898
0.33832053 0.25450881 0.00047898
0.36791474 0.25450881 0.00047898
0.39830772 0.25450881 0.00047898
0.42948400 0.25450881 0.00047898
0.46142940 0.25450881 0.00047898
0.49413086 0.25450881 0.00047898
0.52757629 0.25450881 0.00047898
0.56175445 0.25450881 0.00047898
0.59665491 0.25450881 0.00047898
0.63226787 0.25450881 0.00047898
0.66858419 0.25450881 0.00047927
0.70559526 0.25450881 0.00047898
0.74329298 0.25450881 0.00047898
0.78166970 0.25450881 0.00047898
0.82071820 0.25450881 0.00047935
0.00047912 0.28159788 0.00047898
0.00047912 0.28159788 0.00047898
0.00047912 0.28159788 0.00047898
0.01048872 0.28159788 0.00047898
0.02331872 0.28159788 0.00047912
0.03807972 0.28159788 0.00047912
0.05443850 0.28159788 0.00047898
0.07220375 0.28159788 0.00047898
0.09124733 0.28159788 0.00047898
0.11147579 0.28159788 0.00047898
0.13281718 0.28159788 0.00047898
0.15521391 0.28159788 0.00047898
0.17861858 0.28159788 0.00047898
0.20299130 0.28159788 0.00047898
0.22829793 0.28159788 0.00047898
0.25450881 0.28159788 0.00047898
0.28159788 0.28159788 0.00047898
0.30954202 0.28159788 0.00047914
0.33832053 0.28159788 0.00047898
0.36791474 0.28159788 0.00047898
0.39830772 0.28159788 0.00047898
0.42948400 0.28159788 0.00047898
0.46142940 0.28159788 0.00047918
0.49413086 0.28159788 0.00047898
0.52757629 0.28159788 0.00047898
0.56175445 0.28159788 0.00047898
0.59665491 0.28159788 0.00047898
0.63226787 0.28159788 0.00047898
0.66858419 0.28159788 0.00047898
0.70559526 0.28159788 0.00047898
0.74329298 0.28159788 0.00047898
0.78166970 0.28159788 0.00047898
0.82071820 0.28159788 0.00047898
0.00047916 0.30954202 0.00047898
0.00047916 0.30954202 0.00047898
0.00047916 0.30954202 0.00047898
0.01048872 0.30954202 0.00047914
0.02331872 0.30954202 0.00047898
0.03807972 0.30954202 0.00047898
0.05443850 0.30954202 0.00047898
0.07220375 0.30954202 0.00047898
0.09124733 0.30954202 0.00047898
0.11147579 0.30954202 0.00047898
0.13281718 0.30954202 0.00047914
0.15521391 0.30954202 0.00047914
0.17861858 0.30954202 0.00047898
0.20299130 0.30954202 0.00047914
0.22829793 0.30954202 0.00047898
0.25450881 0.30954202 0.00047914
0.28159788 0.30954202 0.00047916
0.30954202 0.30954202 0.00047898
0.33832053 0.30954202 0.00047898
0.36791474 0.30954202 0.00047898
0.39830772 0.30954202 0.00047898
0.42948400 0.30954202 0.00047898
0.46142940 0.30954202 0.00047898
0.49413086 0.30954202 0.00047898
0.52757629 0.30954202 0.00047898
0.56175445 0.30954202 0.00047898
0.59665491 0.30954202 0.00047923
0.63226787 0.30954202 0.00047898
0.66858419 0.30954202 0.00047898
0.70559526 0.30954202 0.00047898
0.74329298 0.30954202 0.00047898
0.78166970 0.30954202 0.00047898
0.82071820 0.30954202 0.00047898
0.00047919 0.33832053 0.00047898
0.00047919 0.33832053 0.00047898
0.00047919 0.33832053 0.00047898
0.01048872 0.33832053 0.00047898
0.02331872 0.33832053 0.00047898
0.03807972 0.33832053 0.00047898
0.05443850 0.33832053 0.00047898
0.07220375 0.33832053 0.00047898
0.09124733 0.33832053 0.00047898
0.11147579 0.33832053 0.00047898
0.13281718 0.33832053 0.00047898
0.15521391 0.33832053 0.00047898
0.17861858 0.33832053 0.00047898
0.20299130 0.33832053 0.00047898
0.22829793 0.33832053 0.00047898
0.25450881 0.33832053 0.00047898
0.28159788 0.33832053 0.00047898
0.30954202 0.33832053 0.00047898
0.33832053 0.33832053 0.00047898
0.36791474 0.33832053 0.00047916
0.39830772 0.33832053 0.00047898
0.42948400 0.33832053 0.00047898
0.46142940 0.33832053 0.00047918
0.49413086 0.33832053 0.00047898
0.52757629 0.33832053 0.00047898
0.56175445 0.33832053 0.00047898
0.59665491 0.33832053 0.00047898
0.63226787 0.33832053 0.00047898
0.66858419 0.33832053 0.00047898
0.70559526 0.33832053 0.00047898
0.74329298 0.33832053 0.00047898
0.78166970 0.33832053 0.00047931
0.82071820 0.33832053 0.00047935
0.00047918 0.36791474 0.00047898
0.00047918 0.36791474 0.00047898
0.00047918 0.36791474 0.00047898
0.01048872 0.36791474 0.00047898
0.02331872 0.36791474 0.00047898
0.03807972 0.36791474 0.00047898
0.05443850 0.36791474 0.00047898
0.07220375 0.36791474 0.00047898
0.09124733 0.36791474 0.00047898
0.11147579 0.36791474 0.00047898
0.13281718 0.36791474 0.00047898
0.15521391 0.36791474 0.00047916
0.17861858 0.36791474 0.00047898
0.20299130 0.36791474 0.00047898
0.22829793 0.36791474 0.00047898
0.25450881 0.36791474 0.00047898
0.28159788 0.36791474 0.00047898
0.30954202 0.36791474 0.00047898
0.33832053 0.36791474 0.00047918
0.36791474 0.36791474 0.00047898
0.39830772 0.36791474 0.00047898
0.42948400 0.36791474 0.00047898
0.46142940 0.36791474 0.00047920
0.49413086 0.36791474 0.00047898
0.52757629 0.36791474 0.00047898
0.56175445 0.36791474 0.00047898
0.59665491 0.36791474 0.00047898
0.63226787 0.36791474 0.00047923
0.66858419 0.36791474 0.00047927
0.70559526 0.36791474 0.00047898
0.74329298 0.36791474 0.00047898
0.78166970 0.36791474 0.00047898
0.82071820 0.36791474 0.00047898
0.00047917 0.39830772 0.00047916
0.00047917 0.39830772 0.00047916
0.00047917 0.39830772 0.00047916
0.01048872 0.39830772 0.00047916
0.02331872 0.39830772 0.00047898
0.03807972 0.39830772 0.00047918
0.05443850 0.39830772 0.00047898
0.07220375 0.39830772 0.00047898
0.09124733 0.39830772 0.00047916
0.11147579 0.39830772 0.00047898
0.13281718 0.39830772 0.00047916
0.15521391 0.39830772 0.00047898
0.17861858 0.39830772 0.00047898
0.20299130 0.39830772 0.00047916
0.22829793 0.39830772 0.00047898
0.25450881 0.39830772 0.00047898
0.28159788 0.39830772 0.00047918
0.30954202 0.39830772 0.00047898
0.33832053 0.39830772 0.00047898
0.36791474 0.39830772 0.00047898
0.39830772 0.39830772 0.00047918
0.42948400 0.39830772 0.00047898
0.46142940 0.39830772 0.00047898
0.49413086 0.39830772 0.00047920
0.52757629 0.39830772 0.00047898
0.56175445 0.39830772 0.00047898
0.59665491 0.39830772 0.00047898
0.63226787 0.39830772 0.00047898
0.66858419 0.39830772 0.00047898
0.70559526 0.39830772 0.00047898
0.74329298 0.39830772 0.00047898
0.78166970 0.39830772 0.00047898
0.82071820 0.39830772 0.00047898
0.00047922 0.42948400 0.00047898
0.00047922 0.42948400 0.00047898
0.00047922 0.42948400 0.00047898
0.01048872 0.42948400 0.00047898
0.02331872 0.42948400 0.00047898
0.03807972 0.42948400 0.00047918
0.05443850 0.42948400 0.00047898
0.07220375 0.42948400 0.00047898
0.09124733 0.42948400 0.00047898
0.11147579 0.42948400 0.00047898
0.13281718 0.42948400 0.00047898
0.15521391 0.42948400 0.00047898
0.17861858 0.42948400 0.00047898
0.20299130 0.42948400 0.00047898
0.22829793 0.42948400 0.00047898
0.25450881 0.42948400 0.00047898
0.28159788 0.42948400 0.00047898
0.30954202 0.42948400 0.00047898
0.33832053 0.42948400 0.00047898
0.36791474 0.42948400 0.00047898
0.39830772 0.42948400 0.00047898
0.42948400 0.42948400 0.00047898
0.46142940 0.42948400 0.00047898
0.49413086 0.42948400 0.00047920
0.52757629 0.42948400 0.00047898
0.56175445 0.42948400 0.00047898
0.59665491 0.42948400 0.00047898
