src/ffmpeg_scripts/luts/luminance_0-Native.cube
TITLE "luminance_0-Native"
LUT_3D_SIZE 5
# PQ (EOTF Only)/Rec2020 -> PQ (EOTF Only)/Rec2020, CineEI Shift 0.00, Black Level 0.00% IRE, Input 109% -> Output 109% - Created with LUTCalc v4.01 by Ben Turley October 2020
0.06256172 0.06256172 0.06256172
0.25000000 0.06256172 0.06256172
0.50000000 0.06256193 0.06256172
0.75000000 0.06256201 0.06256172
0.91886608 0.06256228 0.06256227
0.06256172 0.25000000 0.06256172
0.25000000 0.25000000 0.06256172
0.50000000 0.25000000 0.06256172
0.75000000 0.25000000 0.06256172
0.91886608 0.25000000 0.06256172
0.06256172 0.50000000 0.06256172
0.25000000 0.50000000 0.06256172
0.50000000 0.50000000 0.06256172
0.75000000 0.50000000 0.06256172
0.91886608 0.50000000 0.06256172
0.06256205 0.75000000 0.06256172
0.25000000 0.75000000 0.06256172
0.50000000 0.75000000 0.06256172
0.75000000 0.75000000 0.06256172
0.91886608 0.75000000 0.06256227
0.06256235 0.91886608 0.06256172
0.25000000 0.91886608 0.06256172
0.50000000 0.91886608 0.06256172
0.75000000 0.91886608 0.06256172
0.91886608 0.91886608 0.06256172
0.06256172 0.06256172 0.25000000
0.25000000 0.06256185 0.25000000
0.50000000 0.06256191 0.25000000
0.75000000 0.06256197 0.25000000
0.91886608 0.06256228 0.25000000
0.06256172 0.25000000 0.25000000
0.25000000 0.25000000 0.25000000
0.50000000 0.25000000 0.25000000
0.75000000 0.25000000 0.25000000
0.91886608 0.25000000 0.25000000
0.06256192 0.50000000 0.25000000
0.25000000 0.50000000 0.25000000
0.50000000 0.50000000 0.25000000
0.75000000 0.50000000 0.25000000
0.91886608 0.50000000 0.25000000
0.06256206 0.75000000 0.25000000
0.25000000 0.75000000 0.25000000
0.50000000 0.75000000 0.25000000
0.75000000 0.75000000 0.25000000
0.91886608 0.75000000 0.25000000
0.06256232 0.91886608 0.25000000
0.25000000 0.91886608 0.25000000
0.50000000 0.91886608 0.25000000
0.75000000 0.91886608 0.25000000
0.91886608 0.91886608 0.25000000
0.06256172 0.06256172 0.50000000
0.25000000 0.06256197 0.50000000
0.50000000 0.06256200 0.50000000
0.75000000 0.06256204 0.50000000
0.91886608 0.06256234 0.50000000
0.06256172 0.25000000 0.50000000
0.25000000 0.25000000 0.50000000
0.50000000 0.25000000 0.50000000
0.75000000 0.25000000 0.50000000
0.91886608 0.25000000 0.50000000
0.06256172 0.50000000 0.50000000
0.25000000 0.50000000 0.50000000
0.50000000 0.50000000 0.50000000
0.75000000 0.50000000 0.50000000
0.91886608 0.50000000 0.50000000
0.06256215 0.75000000 0.50000000
0.25000000 0.75000000 0.50000000
0.50000000 0.75000000 0.50000000
0.75000000 0.75000000 0.50000000
0.91886608 0.75000000 0.50000000
0.06256234 0.91886608 0.50000000
0.25000000 0.91886608 0.50000000
0.50000000 0.91886608 0.50000000
0.75000000 0.91886608 0.50000000
0.91886608 0.91886608 0.50000000
0.06256172 0.06256172 0.75000000
0.25000000 0.06256172 0.75000000
0.50000000 0.06256172 0.75000000
0.75000000 0.06256172 0.75000000
0.91886608 0.06256172 0.75000000
0.06256172 0.25000000 0.75000000
0.25000000 0.25000000 0.75000000
0.50000000 0.25000000 0.75000000
0.75000000 0.25000000 0.75000000
0.91886608 0.25000000 0.75000000
0.06256172 0.50000000 0.75000000
0.25000000 0.50000000 0.75000000
0.50000000 0.50000000 0.75000000
0.75000000 0.50000000 0.75000000
0.91886608 0.50000000 0.75000000
0.06256172 0.75000000 0.75000000
0.25000000 0.75000000 0.75000000
0.50000000 0.75000000 0.75000000
0.75000000 0.75000000 0.75000000
0.91886608 0.75000000 0.75000000
0.06256237 0.91886608 0.75000000
0.25000000 0.91886608 0.75000000
0.50000000 0.91886608 0.75000000
0.75000000 0.91886608 0.75000000
0.91886608 0.91886608 0.75000000
0.06256172 0.06256172 0.91886608
0.25000000 0.06256257 0.91886608
0.50000000 0.06256245 0.91886608
0.75000000 0.06256245 0.91886608
0.91886608 0.06256245 0.91886608
0.06256172 0.25000000 0.91886608
0.25000000 0.25000000 0.91886608
0.50000000 0.25000000 0.91886608
0.75000000 0.25000000 0.91886608
0.91886608 0.25000000 0.91886608
0.06256172 0.50000000 0.91886608
0.25000000 0.50000000 0.91886608
0.50000000 0.50000000 0.91886608
0.75000000 0.50000000 0.91886608
0.91886608 0.50000000 0.91886608
0.06256172 0.75000000 0.91886608
0.25000000 0.75000000 0.91886608
0.50000000 0.75000000 0.91886608
0.75000000 0.75000000 0.91886608
0.91886608 0.75000000 0.91886608
0.06256235 0.91886608 0.91886608
0.25000000 0.91886608 0.91886608
0.50000000 0.91886608 0.91886608
0.75000000 0.91886608 0.91886608
0.91886608 0.91886608 0.91886608
