src/ffmpeg_scripts/luts/luminance-unclipped_-1p67.cube
TITLE "luminance-unclipped_-1p67"
LUT_3D_SIZE 33
# PQ (EOTF Only)/Rec2020 -> PQ (EOTF Only)/Rec2020, CineEI Shift -1.67, Black Level -7.25% IRE, Input 109% -> Output 109% - Created with LUTCalc v4.01 by Ben Turley October 2020
0.00047898 0.00047898 0.00047898
0.00047898 0.00047898 0.00047898
0.00047898 0.00047898 0.00047898
0.02113813 0.00047898 0.00047898
0.04452191 0.00047904 0.00047898
0.06947809 0.00047898 0.00047898
0.09562805 0.00047898 0.00047898
0.12276391 0.00047906 0.00047907
0.15075079 0.00047906 0.00047898
0.17949268 0.00047898 0.00047898
0.20891715 0.00047910 0.00047898
0.23896721 0.00047911 0.00047910
0.26959667 0.00047898 0.00047898
0.30076716 0.00047898 0.00047912
0.33244622 0.00047898 0.00047898
0.36460595 0.00047898 0.00047914
0.39722209 0.00047898 0.00047898
0.43027329 0.00047898 0.00047898
0.46374059 0.00047898 0.00047918
0.49760704 0.00047917 0.00047898
0.53185735 0.00047916 0.00047898
0.56647767 0.00047898 0.00047898
0.60145535 0.00047898 0.00047898
0.63677883 0.00047898 0.00047898
0.67243745 0.00047898 0.00047898
0.70842137 0.00047898 0.00047898
0.74472147 0.00047932 0.00047898
0.78132927 0.00047898 0.00047898
0.81823683 0.00047934 0.00047935
0.85543676 0.00047933 0.00047898
0.89292210 0.00047937 0.00047898
0.91886608 0.00047931 0.00047898
0.91886608 0.00047944 0.00047946
0.00047898 0.00047898 0.00047898
0.00047898 0.00047898 0.00047898
0.00047898 0.00047898 0.00047898
0.02113813 0.00047898 0.00047898
0.04452191 0.00047904 0.00047898
0.06947809 0.00047898 0.00047898
0.09562805 0.00047898 0.00047898
0.12276391 0.00047906 0.00047907
0.15075079 0.00047906 0.00047898
0.17949268 0.00047898 0.00047898
0.20891715 0.00047910 0.00047898
0.23896721 0.00047911 0.00047910
0.26959667 0.00047898 0.00047898
0.30076716 0.00047898 0.00047912
0.33244622 0.00047898 0.00047898
0.36460595 0.00047898 0.00047914
0.39722209 0.00047898 0.00047898
0.43027329 0.00047898 0.00047898
0.46374059 0.00047898 0.00047918
0.49760704 0.00047917 0.00047898
0.53185735 0.00047916 0.00047898
0.56647767 0.00047898 0.00047898
0.60145535 0.00047898 0.00047898
0.63677883 0.00047898 0.00047898
0.67243745 0.00047898 0.00047898
0.70842137 0.00047898 0.00047898
0.74472147 0.00047932 0.00047898
0.78132927 0.00047898 0.00047898
0.81823683 0.00047934 0.00047935
0.85543676 0.00047933 0.00047898
0.89292210 0.00047937 0.00047898
0.91886608 0.00047931 0.00047898
0.91886608 0.00047944 0.00047946
0.00047898 0.00047898 0.00047898
0.00047898 0.00047898 0.00047898
0.00047898 0.00047898 0.00047898
0.02113813 0.00047898 0.00047898
0.04452191 0.00047904 0.00047898
0.06947809 0.00047898 0.00047898
0.09562805 0.00047898 0.00047898
0.12276391 0.00047906 0.00047907
0.15075079 0.00047906 0.00047898
0.17949268 0.00047898 0.00047898
0.20891715 0.00047910 0.00047898
0.23896721 0.00047911 0.00047910
0.26959667 0.00047898 0.00047898
0.30076716 0.00047898 0.00047912
0.33244622 0.00047898 0.00047898
0.36460595 0.00047898 0.00047914
0.39722209 0.00047898 0.00047898
0.43027329 0.00047898 0.00047898
0.46374059 0.00047898 0.00047918
0.49760704 0.00047917 0.00047898
0.53185735 0.00047916 0.00047898
0.56647767 0.00047898 0.00047898
0.60145535 0.00047898 0.00047898
0.63677883 0.00047898 0.00047898
0.67243745 0.00047898 0.00047898
0.70842137 0.00047898 0.00047898
0.74472147 0.00047932 0.00047898
0.78132927 0.00047898 0.00047898
0.81823683 0.00047934 0.00047935
0.85543676 0.00047933 0.00047898
0.89292210 0.00047937 0.00047898
0.91886608 0.00047931 0.00047898
0.91886608 0.00047944 0.00047946
0.00047904 0.02113813 0.00047898
0.00047904 0.02113813 0.00047898
0.00047904 0.02113813 0.00047898
0.02113813 0.02113813 0.00047898
0.04452191 0.02113813 0.00047898
0.06947809 0.02113813 0.00047898
0.09562805 0.02113813 0.00047898
0.12276391 0.02113813 0.00047898
0.15075079 0.02113813 0.00047898
0.17949268 0.02113813 0.00047898
0.20891715 0.02113813 0.00047898
0.23896721 0.02113813 0.00047898
0.26959667 0.02113813 0.00047898
0.30076716 0.02113813 0.00047914
0.33244622 0.02113813 0.00047898
0.36460595 0.02113813 0.00047898
0.39722209 0.02113813 0.00047916
0.43027329 0.02113813 0.00047898
0.46374059 0.02113813 0.00047898
0.49760704 0.02113813 0.00047898
0.53185735 0.02113813 0.00047920
0.56647767 0.02113813 0.00047898
0.60145535 0.02113813 0.00047898
0.63677883 0.02113813 0.00047927
0.67243745 0.02113813 0.00047898
0.70842137 0.02113813 0.00047898
0.74472147 0.02113813 0.00047898
0.78132927 0.02113813 0.00047898
0.81823683 0.02113813 0.00047898
0.85543676 0.02113813 0.00047898
0.89292210 0.02113813 0.00047940
0.91886608 0.02113813 0.00047940
0.91886608 0.02113813 0.00047898
0.00047905 0.04452191 0.00047898
0.00047905 0.04452191 0.00047898
0.00047905 0.04452191 0.00047898
0.02113813 0.04452191 0.00047898
0.04452191 0.04452191 0.00047898
0.06947809 0.04452191 0.00047898
0.09562805 0.04452191 0.00047907
0.12276391 0.04452191 0.00047907
0.15075079 0.04452191 0.00047898
0.17949268 0.04452191 0.00047898
0.20891715 0.04452191 0.00047898
0.23896721 0.04452191 0.00047910
0.26959667 0.04452191 0.00047912
0.30076716 0.04452191 0.00047898
0.33244622 0.04452191 0.00047914
0.36460595 0.04452191 0.00047898
0.39722209 0.04452191 0.00047898
0.43027329 0.04452191 0.00047898
0.46374059 0.04452191 0.00047898
0.49760704 0.04452191 0.00047898
0.53185735 0.04452191 0.00047898
0.56647767 0.04452191 0.00047898
0.60145535 0.04452191 0.00047898
0.63677883 0.04452191 0.00047898
0.67243745 0.04452191 0.00047898
0.70842137 0.04452191 0.00047898
0.74472147 0.04452191 0.00047898
0.78132927 0.04452191 0.00047935
0.81823683 0.04452191 0.00047935
0.85543676 0.04452191 0.00047898
0.89292210 0.04452191 0.00047940
0.91886608 0.04452191 0.00047898
0.91886608 0.04452191 0.00047946
0.00047904 0.06947809 0.00047905
0.00047904 0.06947809 0.00047905
0.00047904 0.06947809 0.00047905
0.02113813 0.06947809 0.00047898
0.04452191 0.06947809 0.00047898
0.06947809 0.06947809 0.00047898
0.09562805 0.06947809 0.00047907
0.12276391 0.06947809 0.00047898
0.15075079 0.06947809 0.00047898
0.17949268 0.06947809 0.00047909
0.20891715 0.06947809 0.00047898
0.23896721 0.06947809 0.00047898
0.26959667 0.06947809 0.00047898
0.30076716 0.06947809 0.00047898
0.33244622 0.06947809 0.00047914
0.36460595 0.06947809 0.00047898
0.39722209 0.06947809 0.00047898
0.43027329 0.06947809 0.00047898
0.46374059 0.06947809 0.00047898
0.49760704 0.06947809 0.00047898
0.53185735 0.06947809 0.00047898
0.56647767 0.06947809 0.00047898
0.60145535 0.06947809 0.00047898
0.63677883 0.06947809 0.00047898
0.67243745 0.06947809 0.00047927
0.70842137 0.06947809 0.00047898
0.74472147 0.06947809 0.00047931
0.78132927 0.06947809 0.00047898
0.81823683 0.06947809 0.00047898
0.85543676 0.06947809 0.00047898
0.89292210 0.06947809 0.00047898
0.91886608 0.06947809 0.00047898
0.91886608 0.06947809 0.00047946
0.00047907 0.09562805 0.00047898
0.00047907 0.09562805 0.00047898
0.00047907 0.09562805 0.00047898
0.02113813 0.09562805 0.00047898
0.04452191 0.09562805 0.00047898
0.06947809 0.09562805 0.00047898
0.09562805 0.09562805 0.00047898
0.12276391 0.09562805 0.00047908
0.15075079 0.09562805 0.00047898
0.17949268 0.09562805 0.00047909
0.20891715 0.09562805 0.00047898
0.23896721 0.09562805 0.00047898
0.26959667 0.09562805 0.00047898
0.30076716 0.09562805 0.00047912
0.33244622 0.09562805 0.00047914
0.36460595 0.09562805 0.00047898
0.39722209 0.09562805 0.00047898
0.43027329 0.09562805 0.00047916
0.46374059 0.09562805 0.00047898
0.49760704 0.09562805 0.00047898
0.53185735 0.09562805 0.00047898
0.56647767 0.09562805 0.00047898
0.60145535 0.09562805 0.00047923
0.63677883 0.09562805 0.00047898
0.67243745 0.09562805 0.00047898
0.70842137 0.09562805 0.00047898
0.74472147 0.09562805 0.00047898
0.78132927 0.09562805 0.00047935
0.81823683 0.09562805 0.00047935
0.85543676 0.09562805 0.00047898
0.89292210 0.09562805 0.00047940
0.91886608 0.09562805 0.00047898
0.91886608 0.09562805 0.00047898
0.00047907 0.12276391 0.00047898
0.00047907 0.12276391 0.00047898
0.00047907 0.12276391 0.00047898
0.02113813 0.12276391 0.00047898
0.04452191 0.12276391 0.00047898
0.06947809 0.12276391 0.00047898
0.09562805 0.12276391 0.00047898
0.12276391 0.12276391 0.00047898
0.15075079 0.12276391 0.00047898
0.17949268 0.12276391 0.00047898
0.20891715 0.12276391 0.00047898
0.23896721 0.12276391 0.00047898
0.26959667 0.12276391 0.00047898
0.30076716 0.12276391 0.00047898
0.33244622 0.12276391 0.00047914
0.36460595 0.12276391 0.00047898
0.39722209 0.12276391 0.00047898
0.43027329 0.12276391 0.00047898
0.46374059 0.12276391 0.00047918
0.49760704 0.12276391 0.00047898
0.53185735 0.12276391 0.00047898
0.56647767 0.12276391 0.00047898
0.60145535 0.12276391 0.00047898
0.63677883 0.12276391 0.00047923
0.67243745 0.12276391 0.00047898
0.70842137 0.12276391 0.00047898
0.74472147 0.12276391 0.00047898
0.78132927 0.12276391 0.00047898
0.81823683 0.12276391 0.00047898
0.85543676 0.12276391 0.00047898
0.89292210 0.12276391 0.00047898
0.91886608 0.12276391 0.00047898
0.91886608 0.12276391 0.00047898
0.00047909 0.15075079 0.00047898
0.00047909 0.15075079 0.00047898
0.00047909 0.15075079 0.00047898
0.02113813 0.15075079 0.00047898
0.04452191 0.15075079 0.00047898
0.06947809 0.15075079 0.00047898
0.09562805 0.15075079 0.00047898
0.12276391 0.15075079 0.00047898
0.15075079 0.15075079 0.00047898
0.17949268 0.15075079 0.00047898
0.20891715 0.15075079 0.00047898
0.23896721 0.15075079 0.00047898
0.26959667 0.15075079 0.00047898
0.30076716 0.15075079 0.00047912
0.33244622 0.15075079 0.00047914
0.36460595 0.15075079 0.00047914
0.39722209 0.15075079 0.00047916
0.43027329 0.15075079 0.00047898
0.46374059 0.15075079 0.00047898
0.49760704 0.15075079 0.00047898
0.53185735 0.15075079 0.00047898
0.56647767 0.15075079 0.00047898
0.60145535 0.15075079 0.00047898
0.63677883 0.15075079 0.00047923
0.67243745 0.15075079 0.00047927
0.70842137 0.15075079 0.00047927
0.74472147 0.15075079 0.00047898
0.78132927 0.15075079 0.00047898
0.81823683 0.15075079 0.00047898
0.85543676 0.15075079 0.00047898
0.89292210 0.15075079 0.00047898
0.91886608 0.15075079 0.00047898
0.91886608 0.15075079 0.00047898
0.00047910 0.17949268 0.00047898
0.00047910 0.17949268 0.00047898
0.00047910 0.17949268 0.00047898
0.02113813 0.17949268 0.00047898
0.04452191 0.17949268 0.00047898
0.06947809 0.17949268 0.00047898
0.09562805 0.17949268 0.00047898
0.12276391 0.17949268 0.00047898
0.15075079 0.17949268 0.00047898
0.17949268 0.17949268 0.00047898
0.20891715 0.17949268 0.00047898
0.23896721 0.17949268 0.00047898
0.26959667 0.17949268 0.00047914
0.30076716 0.17949268 0.00047914
0.33244622 0.17949268 0.00047898
0.36460595 0.17949268 0.00047898
0.39722209 0.17949268 0.00047918
0.43027329 0.17949268 0.00047898
0.46374059 0.17949268 0.00047918
0.49760704 0.17949268 0.00047898
0.53185735 0.17949268 0.00047898
0.56647767 0.17949268 0.00047898
0.60145535 0.17949268 0.00047898
0.63677883 0.17949268 0.00047923
0.67243745 0.17949268 0.00047927
0.70842137 0.17949268 0.00047898
0.74472147 0.17949268 0.00047898
0.78132927 0.17949268 0.00047931
0.81823683 0.17949268 0.00047935
0.85543676 0.17949268 0.00047898
0.89292210 0.17949268 0.00047898
0.91886608 0.17949268 0.00047940
0.91886608 0.17949268 0.00047898
0.00047912 0.20891715 0.00047898
0.00047912 0.20891715 0.00047898
0.00047912 0.20891715 0.00047898
0.02113813 0.20891715 0.00047898
0.04452191 0.20891715 0.00047898
0.06947809 0.20891715 0.00047898
0.09562805 0.20891715 0.00047898
0.12276391 0.20891715 0.00047898
0.15075079 0.20891715 0.00047898
0.17949268 0.20891715 0.00047898
0.20891715 0.20891715 0.00047898
0.23896721 0.20891715 0.00047898
0.26959667 0.20891715 0.00047898
0.30076716 0.20891715 0.00047898
0.33244622 0.20891715 0.00047898
0.36460595 0.20891715 0.00047898
0.39722209 0.20891715 0.00047898
0.43027329 0.20891715 0.00047918
0.46374059 0.20891715 0.00047898
0.49760704 0.20891715 0.00047898
0.53185735 0.20891715 0.00047898
0.56647767 0.20891715 0.00047898
0.60145535 0.20891715 0.00047923
0.63677883 0.20891715 0.00047898
0.67243745 0.20891715 0.00047898
0.70842137 0.20891715 0.00047927
0.74472147 0.20891715 0.00047898
0.78132927 0.20891715 0.00047898
0.81823683 0.20891715 0.00047898
0.85543676 0.20891715 0.00047898
0.89292210 0.20891715 0.00047898
0.91886608 0.20891715 0.00047898
0.91886608 0.20891715 0.00047946
0.00047915 0.23896721 0.00047898
0.00047915 0.23896721 0.00047898
0.00047915 0.23896721 0.00047898
0.02113813 0.23896721 0.00047898
0.04452191 0.23896721 0.00047898
0.06947809 0.23896721 0.00047898
0.09562805 0.23896721 0.00047898
0.12276391 0.23896721 0.00047898
0.15075079 0.23896721 0.00047898
0.17949268 0.23896721 0.00047898
0.20891715 0.23896721 0.00047898
0.23896721 0.23896721 0.00047912
0.26959667 0.23896721 0.00047898
0.30076716 0.23896721 0.00047898
0.33244622 0.23896721 0.00047914
0.36460595 0.23896721 0.00047898
0.39722209 0.23896721 0.00047898
0.43027329 0.23896721 0.00047898
0.46374059 0.23896721 0.00047918
0.49760704 0.23896721 0.00047898
0.53185735 0.23896721 0.00047920
0.56647767 0.23896721 0.00047898
0.60145535 0.23896721 0.00047898
0.63677883 0.23896721 0.00047923
0.67243745 0.23896721 0.00047898
0.70842137 0.23896721 0.00047927
0.74472147 0.23896721 0.00047898
0.78132927 0.23896721 0.00047931
0.81823683 0.23896721 0.00047935
0.85543676 0.23896721 0.00047898
0.89292210 0.23896721 0.00047898
0.91886608 0.23896721 0.00047940
0.91886608 0.23896721 0.00047898
0.00047914 0.26959667 0.00047912
0.00047914 0.26959667 0.00047912
0.00047914 0.26959667 0.00047912
0.02113813 0.26959667 0.00047912
0.04452191 0.26959667 0.00047912
0.06947809 0.26959667 0.00047914
0.09562805 0.26959667 0.00047914
0.12276391 0.26959667 0.00047898
0.15075079 0.26959667 0.00047898
0.17949268 0.26959667 0.00047912
0.20891715 0.26959667 0.00047898
0.23896721 0.26959667 0.00047898
0.26959667 0.26959667 0.00047914
0.30076716 0.26959667 0.00047898
0.33244622 0.26959667 0.00047898
0.36460595 0.26959667 0.00047898
0.39722209 0.26959667 0.00047916
0.43027329 0.26959667 0.00047898
0.46374059 0.26959667 0.00047898
0.49760704 0.26959667 0.00047898
0.53185735 0.26959667 0.00047898
0.56647767 0.26959667 0.00047898
0.60145535 0.26959667 0.00047898
0.63677883 0.26959667 0.00047898
0.67243745 0.26959667 0.00047898
0.70842137 0.26959667 0.00047898
0.74472147 0.26959667 0.00047898
0.78132927 0.26959667 0.00047898
0.81823683 0.26959667 0.00047898
0.85543676 0.26959667 0.00047898
0.89292210 0.26959667 0.00047898
0.91886608 0.26959667 0.00047898
0.91886608 0.26959667 0.00047946
0.00047908 0.30076716 0.00047898
0.00047908 0.30076716 0.00047898
0.00047908 0.30076716 0.00047898
0.02113813 0.30076716 0.00047914
0.04452191 0.30076716 0.00047898
0.06947809 0.30076716 0.00047898
0.09562805 0.30076716 0.00047898
0.12276391 0.30076716 0.00047898
0.15075079 0.30076716 0.00047898
0.17949268 0.30076716 0.00047898
0.20891715 0.30076716 0.00047914
0.23896721 0.30076716 0.00047898
0.26959667 0.30076716 0.00047898
0.30076716 0.30076716 0.00047916
0.33244622 0.30076716 0.00047898
0.36460595 0.30076716 0.00047898
0.39722209 0.30076716 0.00047898
0.43027329 0.30076716 0.00047898
0.46374059 0.30076716 0.00047918
0.49760704 0.30076716 0.00047920
0.53185735 0.30076716 0.00047898
0.56647767 0.30076716 0.00047898
0.60145535 0.30076716 0.00047898
0.63677883 0.30076716 0.00047923
0.67243745 0.30076716 0.00047898
0.70842137 0.30076716 0.00047898
0.74472147 0.30076716 0.00047898
0.78132927 0.30076716 0.00047898
0.81823683 0.30076716 0.00047898
0.85543676 0.30076716 0.00047898
0.89292210 0.30076716 0.00047898
0.91886608 0.30076716 0.00047898
0.91886608 0.30076716 0.00047946
0.00047912 0.33244622 0.00047898
0.00047912 0.33244622 0.00047898
0.00047912 0.33244622 0.00047898
0.02113813 0.33244622 0.00047898
0.04452191 0.33244622 0.00047898
0.06947809 0.33244622 0.00047898
0.09562805 0.33244622 0.00047898
0.12276391 0.33244622 0.00047914
0.15075079 0.33244622 0.00047898
0.17949268 0.33244622 0.00047898
0.20891715 0.33244622 0.00047914
0.23896721 0.33244622 0.00047898
0.26959667 0.33244622 0.00047898
0.30076716 0.33244622 0.00047898
0.33244622 0.33244622 0.00047898
0.36460595 0.33244622 0.00047916
0.39722209 0.33244622 0.00047898
0.43027329 0.33244622 0.00047918
0.46374059 0.33244622 0.00047898
0.49760704 0.33244622 0.00047898
0.53185735 0.33244622 0.00047898
0.56647767 0.33244622 0.00047898
0.60145535 0.33244622 0.00047898
0.63677883 0.33244622 0.00047898
0.67243745 0.33244622 0.00047898
0.70842137 0.33244622 0.00047898
0.74472147 0.33244622 0.00047898
0.78132927 0.33244622 0.00047898
0.81823683 0.33244622 0.00047935
0.85543676 0.33244622 0.00047898
0.89292210 0.33244622 0.00047898
0.91886608 0.33244622 0.00047940
0.91886608 0.33244622 0.00047898
0.00047918 0.36460595 0.00047898
0.00047918 0.36460595 0.00047898
0.00047918 0.36460595 0.00047898
0.02113813 0.36460595 0.00047898
0.04452191 0.36460595 0.00047898
0.06947809 0.36460595 0.00047898
0.09562805 0.36460595 0.00047898
0.12276391 0.36460595 0.00047898
0.15075079 0.36460595 0.00047898
0.17949268 0.36460595 0.00047898
0.20891715 0.36460595 0.00047898
0.23896721 0.36460595 0.00047898
0.26959667 0.36460595 0.00047898
0.30076716 0.36460595 0.00047898
0.33244622 0.36460595 0.00047898
0.36460595 0.36460595 0.00047898
0.39722209 0.36460595 0.00047898
0.43027329 0.36460595 0.00047898
0.46374059 0.36460595 0.00047898
0.49760704 0.36460595 0.00047898
0.53185735 0.36460595 0.00047898
0.56647767 0.36460595 0.00047898
0.60145535 0.36460595 0.00047927
0.63677883 0.36460595 0.00047898
0.67243745 0.36460595 0.00047898
0.70842137 0.36460595 0.00047898
0.74472147 0.36460595 0.00047898
0.78132927 0.36460595 0.00047898
0.81823683 0.36460595 0.00047898
0.85543676 0.36460595 0.00047898
0.89292210 0.36460595 0.00047898
0.91886608 0.36460595 0.00047898
0.91886608 0.36460595 0.00047946
0.00047898 0.39722209 0.00047898
0.00047898 0.39722209 0.00047898
0.00047898 0.39722209 0.00047898
0.02113813 0.39722209 0.00047898
0.04452191 0.39722209 0.00047916
0.06947809 0.39722209 0.00047898
0.09562805 0.39722209 0.00047898
0.12276391 0.39722209 0.00047898
0.15075079 0.39722209 0.00047898
0.17949268 0.39722209 0.00047898
0.20891715 0.39722209 0.00047898
0.23896721 0.39722209 0.00047898
0.26959667 0.39722209 0.00047898
0.30076716 0.39722209 0.00047898
0.33244622 0.39722209 0.00047898
0.36460595 0.39722209 0.00047918
0.39722209 0.39722209 0.00047898
0.43027329 0.39722209 0.00047918
0.46374059 0.39722209 0.00047898
0.49760704 0.39722209 0.00047920
0.53185735 0.39722209 0.00047898
0.56647767 0.39722209 0.00047898
0.60145535 0.39722209 0.00047898
0.63677883 0.39722209 0.00047898
0.67243745 0.39722209 0.00047898
0.70842137 0.39722209 0.00047927
0.74472147 0.39722209 0.00047898
0.78132927 0.39722209 0.00047898
0.81823683 0.39722209 0.00047898
0.85543676 0.39722209 0.00047898
0.89292210 0.39722209 0.00047898
0.91886608 0.39722209 0.00047898
0.91886608 0.39722209 0.00047898
0.00047920 0.43027329 0.00047898
0.00047920 0.43027329 0.00047898
0.00047920 0.43027329 0.00047898
0.02113813 0.43027329 0.00047898
0.04452191 0.43027329 0.00047898
0.06947809 0.43027329 0.00047898
0.09562805 0.43027329 0.00047898
0.12276391 0.43027329 0.00047918
0.15075079 0.43027329 0.00047898
0.17949268 0.43027329 0.00047918
0.20891715 0.43027329 0.00047918
0.23896721 0.43027329 0.00047898
0.26959667 0.43027329 0.00047898
0.30076716 0.43027329 0.00047898
0.33244622 0.43027329 0.00047898
0.36460595 0.43027329 0.00047898
0.39722209 0.43027329 0.00047918
0.43027329 0.43027329 0.00047920
0.46374059 0.43027329 0.00047898
0.49760704 0.43027329 0.00047898
0.53185735 0.43027329 0.00047898
0.56647767 0.43027329 0.00047898
0.60145535 0.43027329 0.00047898
0.63677883 0.43027329 0.00047898
0.67243745 0.43027329 0.00047927
0.70842137 0.43027329 0.00047898
0.74472147 0.43027329 0.00047898
0.78132927 0.43027329 0.00047931
0.81823683 0.43027329 0.00047898
0.85543676 0.43027329 0.00047898
0.89292210 0.43027329 0.00047898
0.91886608 0.43027329 0.00047898
0.91886608 0.43027329 0.00047898
0.00047918 0.46374059 0.00047898
0.00047918 0.46374059 0.00047898
0.00047918 0.46374059 0.00047898
0.02113813 0.46374059 0.00047898
0.04452191 0.46374059 0.00047898
0.06947809 0.46374059 0.00047898
0.09562805 0.46374059 0.00047898
0.12276391 0.46374059 0.00047898
0.15075079 0.46374059 0.00047898
0.17949268 0.46374059 0.00047898
0.20891715 0.46374059 0.00047898
0.23896721 0.46374059 0.00047898
0.26959667 0.46374059 0.00047898
0.30076716 0.46374059 0.00047898
0.33244622 0.46374059 0.00047898
0.36460595 0.46374059 0.00047898
0.39722209 0.46374059 0.00047898
0.43027329 0.46374059 0.00047898
0.46374059 0.46374059 0.00047920
0.49760704 0.46374059 0.00047920
0.53185735 0.46374059 0.00047898
0.56647767 0.46374059 0.00047898
0.60145535 0.46374059 0.00047898
0.63677883 0.46374059 0.00047898
0.67243745 0.46374059 0.00047898
0.70842137 0.46374059 0.00047898
0.74472147 0.46374059 0.00047898
0.78132927 0.46374059 0.00047931
0.81823683 0.46374059 0.00047898
0.85543676 0.46374059 0.00047898
0.89292210 0.46374059 0.00047898
0.91886608 0.46374059 0.00047898
0.91886608 0.46374059 0.00047946
0.00047923 0.49760704 0.00047898
0.00047923 0.49760704 0.00047898
0.00047923 0.49760704 0.00047898
0.02113813 0.49760704 0.00047898
0.04452191 0.49760704 0.00047898
0.06947809 0.49760704 0.00047898
0.09562805 0.49760704 0.00047898
0.12276391 0.49760704 0.00047898
0.15075079 0.49760704 0.00047898
0.17949268 0.49760704 0.00047898
0.20891715 0.49760704 0.00047898
0.23896721 0.49760704 0.00047920
0.26959667 0.49760704 0.00047898
0.30076716 0.49760704 0.00047898
0.33244622 0.49760704 0.00047898
0.36460595 0.49760704 0.00047920
0.39722209 0.49760704 0.00047920
0.43027329 0.49760704 0.00047898
0.46374059 0.49760704 0.00047898
0.49760704 0.49760704 0.00047898
0.53185735 0.49760704 0.00047898
0.56647767 0.49760704 0.00047898
0.60145535 0.49760704 0.00047898
0.63677883 0.49760704 0.00047898
0.67243745 0.49760704 0.00047898
0.70842137 0.49760704 0.00047898
0.74472147 0.49760704 0.00047935
0.78132927 0.49760704 0.00047898
0.81823683 0.49760704 0.00047935
0.85543676 0.49760704 0.00047898
0.89292210 0.49760704 0.00047898
0.91886608 0.49760704 0.00047940
0.91886608 0.49760704 0.00047898
0.00047926 0.53185735 0.00047898
0.00047926 0.53185735 0.00047898
0.00047926 0.53185735 0.00047898
0.02113813 0.53185735 0.00047898
0.04452191 0.53185735 0.00047898
0.06947809 0.53185735 0.00047898
0.09562805 0.53185735 0.00047898
0.12276391 0.53185735 0.00047898
0.15075079 0.53185735 0.00047920
0.17949268 0.53185735 0.00047898
0.20891715 0.53185735 0.00047920
0.23896721 0.53185735 0.00047898
0.26959667 0.53185735 0.00047898
0.30076716 0.53185735 0.00047898
0.33244622 0.53185735 0.00047898
0.36460595 0.53185735 0.00047898
0.39722209 0.53185735 0.00047898
0.43027329 0.53185735 0.00047898
0.46374059 0.53185735 0.00047898
0.49760704 0.53185735 0.00047898
0.53185735 0.53185735 0.00047898
0.56647767 0.53185735 0.00047898
0.60145535 0.53185735 0.00047927
0.63677883 0.53185735 0.00047927
0.67243745 0.53185735 0.00047898
0.70842137 0.53185735 0.00047898
0.74472147 0.53185735 0.00047898
0.78132927 0.53185735 0.00047898
0.81823683 0.53185735 0.00047898
0.85543676 0.53185735 0.00047898
0.89292210 0.53185735 0.00047940
0.91886608 0.53185735 0.00047940
0.91886608 0.53185735 0.00047898
0.00047923 0.56647767 0.00047898
0.00047923 0.56647767 0.00047898
0.00047923 0.56647767 0.00047898
0.02113813 0.56647767 0.00047898
0.04452191 0.56647767 0.00047898
0.06947809 0.56647767 0.00047898
0.09562805 0.56647767 0.00047898
0.12276391 0.56647767 0.00047898
0.15075079 0.56647767 0.00047898
0.17949268 0.56647767 0.00047898
0.20891715 0.56647767 0.00047898
0.23896721 0.56647767 0.00047898
0.26959667 0.56647767 0.00047898
0.30076716 0.56647767 0.00047898
0.33244622 0.56647767 0.00047898
0.36460595 0.56647767 0.00047898
0.39722209 0.56647767 0.00047898
0.43027329 0.56647767 0.00047923
0.46374059 0.56647767 0.00047898
0.49760704 0.56647767 0.00047898
0.53185735 0.56647767 0.00047923
0.56647767 0.56647767 0.00047898
0.60145535 0.56647767 0.00047898
0.63677883 0.56647767 0.00047898
0.67243745 0.56647767 0.00047898
0.70842137 0.56647767 0.00047898
0.74472147 0.56647767 0.00047898
