src/ffmpeg_scripts/luts/luminance-unclipped_3p67.cube
TITLE "luminance-unclipped_3p67"
LUT_3D_SIZE 33
# PQ (EOTF Only)/Rec2020 -> PQ (EOTF Only)/Rec2020, CineEI Shift 3.67, Black Level -7.25% IRE, Input 109% -> Output 109% - Created with LUTCalc v4.01 by Ben Turley October 2020
0.00047898 0.00047898 0.00047898
0.00047898 0.00047898 0.00047898
0.00047898 0.00047898 0.00047898
0.10565237 0.00047907 0.00047898
0.18272562 0.00047898 0.00047898
0.24967750 0.00047898 0.00047898
0.31046225 0.00047910 0.00047898
0.36688529 0.00047898 0.00047898
0.41997449 0.00047898 0.00047898
0.47038910 0.00047916 0.00047898
0.51858542 0.00047922 0.00047898
0.56489656 0.00047918 0.00047898
0.60957546 0.00047898 0.00047923
0.65282019 0.00047898 0.00047898
0.69478962 0.00047898 0.00047898
0.73561375 0.00047898 0.00047898
0.77540073 0.00047940 0.00047931
0.81424179 0.00047898 0.00047898
0.85221484 0.00047898 0.00047898
0.88938705 0.00047940 0.00047898
0.91886608 0.00047935 0.00047898
0.91886608 0.00047898 0.00047898
0.91886608 0.00047948 0.00047898
0.91886608 0.00047898 0.00047898
0.91886608 0.00047898 0.00047898
0.91886608 0.00047898 0.00047898
0.91886608 0.00047898 0.00047898
0.91886608 0.00047898 0.00047898
0.91886608 0.00047975 0.00047898
0.91886608 0.00047898 0.00047898
0.91886608 0.00047898 0.00047898
0.91886608 0.00048008 0.00047898
0.91886608 0.00047971 0.00047898
0.00047898 0.00047898 0.00047898
0.00047898 0.00047898 0.00047898
0.00047898 0.00047898 0.00047898
0.10565237 0.00047907 0.00047898
0.18272562 0.00047898 0.00047898
0.24967750 0.00047898 0.00047898
0.31046225 0.00047910 0.00047898
0.36688529 0.00047898 0.00047898
0.41997449 0.00047898 0.00047898
0.47038910 0.00047916 0.00047898
0.51858542 0.00047922 0.00047898
0.56489656 0.00047918 0.00047898
0.60957546 0.00047898 0.00047923
0.65282019 0.00047898 0.00047898
0.69478962 0.00047898 0.00047898
0.73561375 0.00047898 0.00047898
0.77540073 0.00047940 0.00047931
0.81424179 0.00047898 0.00047898
0.85221484 0.00047898 0.00047898
0.88938705 0.00047940 0.00047898
0.91886608 0.00047935 0.00047898
0.91886608 0.00047898 0.00047898
0.91886608 0.00047948 0.00047898
0.91886608 0.00047898 0.00047898
0.91886608 0.00047898 0.00047898
0.91886608 0.00047898 0.00047898
0.91886608 0.00047898 0.00047898
0.91886608 0.00047898 0.00047898
0.91886608 0.00047975 0.00047898
0.91886608 0.00047898 0.00047898
0.91886608 0.00047898 0.00047898
0.91886608 0.00048008 0.00047898
0.91886608 0.00047971 0.00047898
0.00047898 0.00047898 0.00047898
0.00047898 0.00047898 0.00047898
0.00047898 0.00047898 0.00047898
0.10565237 0.00047907 0.00047898
0.18272562 0.00047898 0.00047898
0.24967750 0.00047898 0.00047898
0.31046225 0.00047910 0.00047898
0.36688529 0.00047898 0.00047898
0.41997449 0.00047898 0.00047898
0.47038910 0.00047916 0.00047898
0.51858542 0.00047922 0.00047898
0.56489656 0.00047918 0.00047898
0.60957546 0.00047898 0.00047923
0.65282019 0.00047898 0.00047898
0.69478962 0.00047898 0.00047898
0.73561375 0.00047898 0.00047898
0.77540073 0.00047940 0.00047931
0.81424179 0.00047898 0.00047898
0.85221484 0.00047898 0.00047898
0.88938705 0.00047940 0.00047898
0.91886608 0.00047935 0.00047898
0.91886608 0.00047898 0.00047898
0.91886608 0.00047948 0.00047898
0.91886608 0.00047898 0.00047898
0.91886608 0.00047898 0.00047898
0.91886608 0.00047898 0.00047898
0.91886608 0.00047898 0.00047898
0.91886608 0.00047898 0.00047898
0.91886608 0.00047975 0.00047898
0.91886608 0.00047898 0.00047898
0.91886608 0.00047898 0.00047898
0.91886608 0.00048008 0.00047898
0.91886608 0.00047971 0.00047898
0.00047907 0.10565237 0.00047907
0.00047907 0.10565237 0.00047907
0.00047907 0.10565237 0.00047907
0.10565237 0.10565237 0.00047898
0.18272562 0.10565237 0.00047898
0.24967750 0.10565237 0.00047898
0.31046225 0.10565237 0.00047898
0.36688529 0.10565237 0.00047914
0.41997449 0.10565237 0.00047898
0.47038910 0.10565237 0.00047898
0.51858542 0.10565237 0.00047898
0.56489656 0.10565237 0.00047920
0.60957546 0.10565237 0.00047898
0.65282019 0.10565237 0.00047927
0.69478962 0.10565237 0.00047927
0.73561375 0.10565237 0.00047898
0.77540073 0.10565237 0.00047935
0.81424179 0.10565237 0.00047898
0.85221484 0.10565237 0.00047898
0.88938705 0.10565237 0.00047898
0.91886608 0.10565237 0.00047940
0.91886608 0.10565237 0.00047898
0.91886608 0.10565237 0.00047946
0.91886608 0.10565237 0.00047898
0.91886608 0.10565237 0.00047898
0.91886608 0.10565237 0.00047898
0.91886608 0.10565237 0.00047898
0.91886608 0.10565237 0.00047898
0.91886608 0.10565237 0.00047898
0.91886608 0.10565237 0.00047898
0.91886608 0.10565237 0.00048006
0.91886608 0.10565237 0.00047997
0.91886608 0.10565237 0.00048014
0.00047911 0.18272562 0.00047898
0.00047911 0.18272562 0.00047898
0.00047911 0.18272562 0.00047898
0.10565237 0.18272562 0.00047898
0.18272562 0.18272562 0.00047898
0.24967750 0.18272562 0.00047898
0.31046225 0.18272562 0.00047914
0.36688529 0.18272562 0.00047898
0.41997449 0.18272562 0.00047898
0.47038910 0.18272562 0.00047898
0.51858542 0.18272562 0.00047920
0.56489656 0.18272562 0.00047920
0.60957546 0.18272562 0.00047898
0.65282019 0.18272562 0.00047898
0.69478962 0.18272562 0.00047898
0.73561375 0.18272562 0.00047898
0.77540073 0.18272562 0.00047898
0.81424179 0.18272562 0.00047935
0.85221484 0.18272562 0.00047898
0.88938705 0.18272562 0.00047898
0.91886608 0.18272562 0.00047898
0.91886608 0.18272562 0.00047898
0.91886608 0.18272562 0.00047898
0.91886608 0.18272562 0.00047898
0.91886608 0.18272562 0.00047953
0.91886608 0.18272562 0.00047898
0.91886608 0.18272562 0.00047961
0.91886608 0.18272562 0.00047971
0.91886608 0.18272562 0.00047971
0.91886608 0.18272562 0.00047898
0.91886608 0.18272562 0.00047898
0.91886608 0.18272562 0.00047898
0.91886608 0.18272562 0.00047997
0.00047898 0.24967750 0.00047912
0.00047898 0.24967750 0.00047912
0.00047898 0.24967750 0.00047912
0.10565237 0.24967750 0.00047898
0.18272562 0.24967750 0.00047912
0.24967750 0.24967750 0.00047898
0.31046225 0.24967750 0.00047898
0.36688529 0.24967750 0.00047898
0.41997449 0.24967750 0.00047898
0.47038910 0.24967750 0.00047918
0.51858542 0.24967750 0.00047920
0.56489656 0.24967750 0.00047898
0.60957546 0.24967750 0.00047898
0.65282019 0.24967750 0.00047898
0.69478962 0.24967750 0.00047898
0.73561375 0.24967750 0.00047898
0.77540073 0.24967750 0.00047898
0.81424179 0.24967750 0.00047898
0.85221484 0.24967750 0.00047898
0.88938705 0.24967750 0.00047898
0.91886608 0.24967750 0.00047898
0.91886608 0.24967750 0.00047898
0.91886608 0.24967750 0.00047898
0.91886608 0.24967750 0.00047898
0.91886608 0.24967750 0.00047898
0.91886608 0.24967750 0.00047898
0.91886608 0.24967750 0.00047961
0.91886608 0.24967750 0.00047898
0.91886608 0.24967750 0.00047971
0.91886608 0.24967750 0.00047898
0.91886608 0.24967750 0.00047898
0.91886608 0.24967750 0.00047898
0.91886608 0.24967750 0.00047997
0.00047898 0.31046225 0.00047898
0.00047898 0.31046225 0.00047898
0.00047898 0.31046225 0.00047898
0.10565237 0.31046225 0.00047898
0.18272562 0.31046225 0.00047898
0.24967750 0.31046225 0.00047898
0.31046225 0.31046225 0.00047898
0.36688529 0.31046225 0.00047916
0.41997449 0.31046225 0.00047898
0.47038910 0.31046225 0.00047918
0.51858542 0.31046225 0.00047898
0.56489656 0.31046225 0.00047898
0.60957546 0.31046225 0.00047923
0.65282019 0.31046225 0.00047898
0.69478962 0.31046225 0.00047898
0.73561375 0.31046225 0.00047898
0.77540073 0.31046225 0.00047898
0.81424179 0.31046225 0.00047898
0.85221484 0.31046225 0.00047898
0.88938705 0.31046225 0.00047898
0.91886608 0.31046225 0.00047940
0.91886608 0.31046225 0.00047898
0.91886608 0.31046225 0.00047946
0.91886608 0.31046225 0.00047953
0.91886608 0.31046225 0.00047898
0.91886608 0.31046225 0.00047898
0.91886608 0.31046225 0.00047898
0.91886608 0.31046225 0.00047898
0.91886608 0.31046225 0.00047971
0.91886608 0.31046225 0.00047898
0.91886608 0.31046225 0.00047983
0.91886608 0.31046225 0.00047898
0.91886608 0.31046225 0.00047898
0.00047918 0.36688529 0.00047898
0.00047918 0.36688529 0.00047898
0.00047918 0.36688529 0.00047898
0.10565237 0.36688529 0.00047898
0.18272562 0.36688529 0.00047898
0.24967750 0.36688529 0.00047898
0.31046225 0.36688529 0.00047898
0.36688529 0.36688529 0.00047898
0.41997449 0.36688529 0.00047898
0.47038910 0.36688529 0.00047898
0.51858542 0.36688529 0.00047898
0.56489656 0.36688529 0.00047898
0.60957546 0.36688529 0.00047898
0.65282019 0.36688529 0.00047898
0.69478962 0.36688529 0.00047927
0.73561375 0.36688529 0.00047898
0.77540073 0.36688529 0.00047931
0.81424179 0.36688529 0.00047935
0.85221484 0.36688529 0.00047935
0.88938705 0.36688529 0.00047898
0.91886608 0.36688529 0.00047898
0.91886608 0.36688529 0.00047898
0.91886608 0.36688529 0.00047953
0.91886608 0.36688529 0.00047898
0.91886608 0.36688529 0.00047898
0.91886608 0.36688529 0.00047961
0.91886608 0.36688529 0.00047898
0.91886608 0.36688529 0.00047898
0.91886608 0.36688529 0.00047898
0.91886608 0.36688529 0.00047898
0.91886608 0.36688529 0.00047983
0.91886608 0.36688529 0.00047898
0.91886608 0.36688529 0.00047898
0.00047918 0.41997449 0.00047898
0.00047918 0.41997449 0.00047898
0.00047918 0.41997449 0.00047898
0.10565237 0.41997449 0.00047918
0.18272562 0.41997449 0.00047898
0.24967750 0.41997449 0.00047898
0.31046225 0.41997449 0.00047918
0.36688529 0.41997449 0.00047898
0.41997449 0.41997449 0.00047898
0.47038910 0.41997449 0.00047898
0.51858542 0.41997449 0.00047920
0.56489656 0.41997449 0.00047923
0.60957546 0.41997449 0.00047898
0.65282019 0.41997449 0.00047927
0.69478962 0.41997449 0.00047898
0.73561375 0.41997449 0.00047898
0.77540073 0.41997449 0.00047931
0.81424179 0.41997449 0.00047935
0.85221484 0.41997449 0.00047898
0.88938705 0.41997449 0.00047898
0.91886608 0.41997449 0.00047898
0.91886608 0.41997449 0.00047898
0.91886608 0.41997449 0.00047946
0.91886608 0.41997449 0.00047898
0.91886608 0.41997449 0.00047898
0.91886608 0.41997449 0.00047961
0.91886608 0.41997449 0.00047898
0.91886608 0.41997449 0.00047971
0.91886608 0.41997449 0.00047971
0.91886608 0.41997449 0.00047898
0.91886608 0.41997449 0.00047898
0.91886608 0.41997449 0.00047898
0.91886608 0.41997449 0.00047898
0.00047921 0.47038910 0.00047898
0.00047921 0.47038910 0.00047898
0.00047921 0.47038910 0.00047898
0.10565237 0.47038910 0.00047898
0.18272562 0.47038910 0.00047898
0.24967750 0.47038910 0.00047898
0.31046225 0.47038910 0.00047898
0.36688529 0.47038910 0.00047898
0.41997449 0.47038910 0.00047898
0.47038910 0.47038910 0.00047898
0.51858542 0.47038910 0.00047898
0.56489656 0.47038910 0.00047923
0.60957546 0.47038910 0.00047923
0.65282019 0.47038910 0.00047898
0.69478962 0.47038910 0.00047898
0.73561375 0.47038910 0.00047898
0.77540073 0.47038910 0.00047898
0.81424179 0.47038910 0.00047898
0.85221484 0.47038910 0.00047935
0.88938705 0.47038910 0.00047898
0.91886608 0.47038910 0.00047940
0.91886608 0.47038910 0.00047898
0.91886608 0.47038910 0.00047898
0.91886608 0.47038910 0.00047898
0.91886608 0.47038910 0.00047898
0.91886608 0.47038910 0.00047961
0.91886608 0.47038910 0.00047898
0.91886608 0.47038910 0.00047898
0.91886608 0.47038910 0.00047971
0.91886608 0.47038910 0.00047898
0.91886608 0.47038910 0.00047898
0.91886608 0.47038910 0.00047898
0.91886608 0.47038910 0.00047898
0.00047927 0.51858542 0.00047898
0.00047927 0.51858542 0.00047898
0.00047927 0.51858542 0.00047898
0.10565237 0.51858542 0.00047898
0.18272562 0.51858542 0.00047898
0.24967750 0.51858542 0.00047898
0.31046225 0.51858542 0.00047898
0.36688529 0.51858542 0.00047898
0.41997449 0.51858542 0.00047898
0.47038910 0.51858542 0.00047898
0.51858542 0.51858542 0.00047898
0.56489656 0.51858542 0.00047898
0.60957546 0.51858542 0.00047898
0.65282019 0.51858542 0.00047898
0.69478962 0.51858542 0.00047898
0.73561375 0.51858542 0.00047898
0.77540073 0.51858542 0.00047898
0.81424179 0.51858542 0.00047935
0.85221484 0.51858542 0.00047898
0.88938705 0.51858542 0.00047898
0.91886608 0.51858542 0.00047898
0.91886608 0.51858542 0.00047898
0.91886608 0.51858542 0.00047898
0.91886608 0.51858542 0.00047898
0.91886608 0.51858542 0.00047898
0.91886608 0.51858542 0.00047898
0.91886608 0.51858542 0.00047898
0.91886608 0.51858542 0.00047898
0.91886608 0.51858542 0.00047898
0.91886608 0.51858542 0.00047898
0.91886608 0.51858542 0.00047898
0.91886608 0.51858542 0.00047898
0.91886608 0.51858542 0.00047997
0.00047920 0.56489656 0.00047898
0.00047920 0.56489656 0.00047898
0.00047920 0.56489656 0.00047898
0.10565237 0.56489656 0.00047898
0.18272562 0.56489656 0.00047898
0.24967750 0.56489656 0.00047898
0.31046225 0.56489656 0.00047898
0.36688529 0.56489656 0.00047898
0.41997449 0.56489656 0.00047898
0.47038910 0.56489656 0.00047898
0.51858542 0.56489656 0.00047898
0.56489656 0.56489656 0.00047898
0.60957546 0.56489656 0.00047898
0.65282019 0.56489656 0.00047898
0.69478962 0.56489656 0.00047898
0.73561375 0.56489656 0.00047898
0.77540073 0.56489656 0.00047898
0.81424179 0.56489656 0.00047898
0.85221484 0.56489656 0.00047898
0.88938705 0.56489656 0.00047898
0.91886608 0.56489656 0.00047940
0.91886608 0.56489656 0.00047898
0.91886608 0.56489656 0.00047946
0.91886608 0.56489656 0.00047898
0.91886608 0.56489656 0.00047898
0.91886608 0.56489656 0.00047898
0.91886608 0.56489656 0.00047898
0.91886608 0.56489656 0.00047898
0.91886608 0.56489656 0.00047898
0.91886608 0.56489656 0.00047898
0.91886608 0.56489656 0.00047997
0.91886608 0.56489656 0.00047997
0.91886608 0.56489656 0.00047898
0.00047898 0.60957546 0.00047923
0.00047898 0.60957546 0.00047923
0.00047898 0.60957546 0.00047923
0.10565237 0.60957546 0.00047923
0.18272562 0.60957546 0.00047923
0.24967750 0.60957546 0.00047927
0.31046225 0.60957546 0.00047898
0.36688529 0.60957546 0.00047927
0.41997449 0.60957546 0.00047898
0.47038910 0.60957546 0.00047898
0.51858542 0.60957546 0.00047898
0.56489656 0.60957546 0.00047898
0.60957546 0.60957546 0.00047927
0.65282019 0.60957546 0.00047898
0.69478962 0.60957546 0.00047931
0.73561375 0.60957546 0.00047898
0.77540073 0.60957546 0.00047898
0.81424179 0.60957546 0.00047935
0.85221484 0.60957546 0.00047898
0.88938705 0.60957546 0.00047898
0.91886608 0.60957546 0.00047898
0.91886608 0.60957546 0.00047898
0.91886608 0.60957546 0.00047946
0.91886608 0.60957546 0.00047898
0.91886608 0.60957546 0.00047898
0.91886608 0.60957546 0.00047898
0.91886608 0.60957546 0.00047898
0.91886608 0.60957546 0.00047898
0.91886608 0.60957546 0.00047983
0.91886608 0.60957546 0.00047898
0.91886608 0.60957546 0.00047983
0.91886608 0.60957546 0.00047898
0.91886608 0.60957546 0.00047898
0.00047928 0.65282019 0.00047898
0.00047928 0.65282019 0.00047898
0.00047928 0.65282019 0.00047898
0.10565237 0.65282019 0.00047898
0.18272562 0.65282019 0.00047898
0.24967750 0.65282019 0.00047898
0.31046225 0.65282019 0.00047927
0.36688529 0.65282019 0.00047898
0.41997449 0.65282019 0.00047898
0.47038910 0.65282019 0.00047898
0.51858542 0.65282019 0.00047927
0.56489656 0.65282019 0.00047898
0.60957546 0.65282019 0.00047898
0.65282019 0.65282019 0.00047898
0.69478962 0.65282019 0.00047898
0.73561375 0.65282019 0.00047898
0.77540073 0.65282019 0.00047935
0.81424179 0.65282019 0.00047898
0.85221484 0.65282019 0.00047940
0.88938705 0.65282019 0.00047898
0.91886608 0.65282019 0.00047898
0.91886608 0.65282019 0.00047898
0.91886608 0.65282019 0.00047898
0.91886608 0.65282019 0.00047953
0.91886608 0.65282019 0.00047898
0.91886608 0.65282019 0.00047898
0.91886608 0.65282019 0.00047898
0.91886608 0.65282019 0.00047898
0.91886608 0.65282019 0.00047971
0.91886608 0.65282019 0.00047898
0.91886608 0.65282019 0.00047983
0.91886608 0.65282019 0.00047898
0.91886608 0.65282019 0.00047898
0.00047927 0.69478962 0.00047931
0.00047927 0.69478962 0.00047931
0.00047927 0.69478962 0.00047931
0.10565237 0.69478962 0.00047898
0.18272562 0.69478962 0.00047898
0.24967750 0.69478962 0.00047898
0.31046225 0.69478962 0.00047931
0.36688529 0.69478962 0.00047898
0.41997449 0.69478962 0.00047931
0.47038910 0.69478962 0.00047898
0.51858542 0.69478962 0.00047931
0.56489656 0.69478962 0.00047898
0.60957546 0.69478962 0.00047898
0.65282019 0.69478962 0.00047931
0.69478962 0.69478962 0.00047898
0.73561375 0.69478962 0.00047935
0.77540073 0.69478962 0.00047898
0.81424179 0.69478962 0.00047940
0.85221484 0.69478962 0.00047898
0.88938705 0.69478962 0.00047898
0.91886608 0.69478962 0.00047898
0.91886608 0.69478962 0.00047898
0.91886608 0.69478962 0.00047898
0.91886608 0.69478962 0.00047898
0.91886608 0.69478962 0.00047953
0.91886608 0.69478962 0.00047898
0.91886608 0.69478962 0.00047898
0.91886608 0.69478962 0.00047971
0.91886608 0.69478962 0.00047898
0.91886608 0.69478962 0.00047898
0.91886608 0.69478962 0.00047983
0.91886608 0.69478962 0.00047898
0.91886608 0.69478962 0.00047997
0.00047933 0.73561375 0.00047898
0.00047933 0.73561375 0.00047898
0.00047933 0.73561375 0.00047898
0.10565237 0.73561375 0.00047898
0.18272562 0.73561375 0.00047898
0.24967750 0.73561375 0.00047898
0.31046225 0.73561375 0.00047898
0.36688529 0.73561375 0.00047898
0.41997449 0.73561375 0.00047898
0.47038910 0.73561375 0.00047898
0.51858542 0.73561375 0.00047898
0.56489656 0.73561375 0.00047898
0.60957546 0.73561375 0.00047898
0.65282019 0.73561375 0.00047898
0.69478962 0.73561375 0.00047898
0.73561375 0.73561375 0.00047935
0.77540073 0.73561375 0.00047898
0.81424179 0.73561375 0.00047898
0.85221484 0.73561375 0.00047940
0.88938705 0.73561375 0.00047898
0.91886608 0.73561375 0.00047898
0.91886608 0.73561375 0.00047898
0.91886608 0.73561375 0.00047946
0.91886608 0.73561375 0.00047898
0.91886608 0.73561375 0.00047953
0.91886608 0.73561375 0.00047898
0.91886608 0.73561375 0.00047898
0.91886608 0.73561375 0.00047971
0.91886608 0.73561375 0.00047898
0.91886608 0.73561375 0.00047983
0.91886608 0.73561375 0.00047898
0.91886608 0.73561375 0.00047898
0.91886608 0.73561375 0.00047997
0.00047898 0.77540073 0.00047898
0.00047898 0.77540073 0.00047898
0.00047898 0.77540073 0.00047898
0.10565237 0.77540073 0.00047898
0.18272562 0.77540073 0.00047935
0.24967750 0.77540073 0.00047935
0.31046225 0.77540073 0.00047898
0.36688529 0.77540073 0.00047898
0.41997449 0.77540073 0.00047898
0.47038910 0.77540073 0.00047898
0.51858542 0.77540073 0.00047898
0.56489656 0.77540073 0.00047898
0.60957546 0.77540073 0.00047898
0.65282019 0.77540073 0.00047898
0.69478962 0.77540073 0.00047898
0.73561375 0.77540073 0.00047898
0.77540073 0.77540073 0.00047898
0.81424179 0.77540073 0.00047940
0.85221484 0.77540073 0.00047898
0.88938705 0.77540073 0.00047898
0.91886608 0.77540073 0.00047898
0.91886608 0.77540073 0.00047898
0.91886608 0.77540073 0.00047946
0.91886608 0.77540073 0.00047898
0.91886608 0.77540073 0.00047898
0.91886608 0.77540073 0.00047961
0.91886608 0.77540073 0.00047898
0.91886608 0.77540073 0.00047898
0.91886608 0.77540073 0.00047898
0.91886608 0.77540073 0.00047898
0.91886608 0.77540073 0.00047898
0.91886608 0.77540073 0.00047997
0.91886608 0.77540073 0.00047898
0.00047930 0.81424179 0.00047898
0.00047930 0.81424179 0.00047898
0.00047930 0.81424179 0.00047898
0.10565237 0.81424179 0.00047898
0.18272562 0.81424179 0.00047898
0.24967750 0.81424179 0.00047898
0.31046225 0.81424179 0.00047898
0.36688529 0.81424179 0.00047898
0.41997449 0.81424179 0.00047935
0.47038910 0.81424179 0.00047898
0.51858542 0.81424179 0.00047935
0.56489656 0.81424179 0.00047935
0.60957546 0.81424179 0.00047898
0.65282019 0.81424179 0.00047935
0.69478962 0.81424179 0.00047898
0.73561375 0.81424179 0.00047898
0.77540073 0.81424179 0.00047898
0.81424179 0.81424179 0.00047940
0.85221484 0.81424179 0.00047898
0.88938705 0.81424179 0.00047898
0.91886608 0.81424179 0.00047898
0.91886608 0.81424179 0.00047898
0.91886608 0.81424179 0.00047898
0.91886608 0.81424179 0.00047898
0.91886608 0.81424179 0.00047898
0.91886608 0.81424179 0.00047898
0.91886608 0.81424179 0.00047898
0.91886608 0.81424179 0.00047898
0.91886608 0.81424179 0.00047983
0.91886608 0.81424179 0.00047898
0.91886608 0.81424179 0.00047898
0.91886608 0.81424179 0.00047997
0.91886608 0.81424179 0.00047997
0.00047946 0.85221484 0.00047898
0.00047946 0.85221484 0.00047898
0.00047946 0.85221484 0.00047898
0.10565237 0.85221484 0.00047898
0.18272562 0.85221484 0.00047898
0.24967750 0.85221484 0.00047898
0.31046225 0.85221484 0.00047898
0.36688529 0.85221484 0.00047940
0.41997449 0.85221484 0.00047898
0.47038910 0.85221484 0.00047898
0.51858542 0.85221484 0.00047898
0.56489656 0.85221484 0.00047898
0.60957546 0.85221484 0.00047898
0.65282019 0.85221484 0.00047898
0.69478962 0.85221484 0.00047898
0.73561375 0.85221484 0.00047940
0.77540073 0.85221484 0.00047898
0.81424179 0.85221484 0.00047898
0.85221484 0.85221484 0.00047898
0.88938705 0.85221484 0.00047898
0.91886608 0.85221484 0.00047898
0.91886608 0.85221484 0.00047898
0.91886608 0.85221484 0.00047898
0.91886608 0.85221484 0.00047953
0.91886608 0.85221484 0.00047898
0.91886608 0.85221484 0.00047961
0.91886608 0.85221484 0.00047898
0.91886608 0.85221484 0.00047898
0.91886608 0.85221484 0.00047898
0.91886608 0.85221484 0.00047898
0.91886608 0.85221484 0.00047898
0.91886608 0.85221484 0.00047898
0.91886608 0.85221484 0.00047898
0.00047947 0.88938705 0.00047898
0.00047947 0.88938705 0.00047898
0.00047947 0.88938705 0.00047898
0.10565237 0.88938705 0.00047898
0.18272562 0.88938705 0.00047898
0.24967750 0.88938705 0.00047898
0.31046225 0.88938705 0.00047898
0.36688529 0.88938705 0.00047898
0.41997449 0.88938705 0.00047898
0.47038910 0.88938705 0.00047940
0.51858542 0.88938705 0.00047898
0.56489656 0.88938705 0.00047898
0.60957546 0.88938705 0.00047898
0.65282019 0.88938705 0.00047898
0.69478962 0.88938705 0.00047898
0.73561375 0.88938705 0.00047898
0.77540073 0.88938705 0.00047898
0.81424179 0.88938705 0.00047898
0.85221484 0.88938705 0.00047946
0.88938705 0.88938705 0.00047898
0.91886608 0.88938705 0.00047898
0.91886608 0.88938705 0.00047898
0.91886608 0.88938705 0.00047898
0.91886608 0.88938705 0.00047898
0.91886608 0.88938705 0.00047898
0.91886608 0.88938705 0.00047898
0.91886608 0.88938705 0.00047898
0.91886608 0.88938705 0.00047971
0.91886608 0.88938705 0.00047971
0.91886608 0.88938705 0.00047898
0.91886608 0.88938705 0.00047898
0.91886608 0.88938705 0.00047898
0.91886608 0.88938705 0.00048014
0.00047941 0.91886608 0.00047898
0.00047941 0.91886608 0.00047898
0.00047941 0.91886608 0.00047898
0.10565237 0.91886608 0.00047946
0.18272562 0.91886608 0.00047898
0.24967750 0.91886608 0.00047946
0.31046225 0.91886608 0.00047946
0.36688529 0.91886608 0.00047898
0.41997449 0.91886608 0.00047946
0.47038910 0.91886608 0.00047898
0.51858542 0.91886608 0.00047898
0.56489656 0.91886608 0.00047946
0.60957546 0.91886608 0.00047898
0.65282019 0.91886608 0.00047946
0.69478962 0.91886608 0.00047898
0.73561375 0.91886608 0.00047898
0.77540073 0.91886608 0.00047898
0.81424179 0.91886608 0.00047898
0.85221484 0.91886608 0.00047898
0.88938705 0.91886608 0.00047898
0.91886608 0.91886608 0.00047898
0.91886608 0.91886608 0.00047898
0.91886608 0.91886608 0.00047898
0.91886608 0.91886608 0.00047898
0.91886608 0.91886608 0.00047898
0.91886608 0.91886608 0.00047898
0.91886608 0.91886608 0.00047961
0.91886608 0.91886608 0.00047898
0.91886608 0.91886608 0.00047898
0.91886608 0.91886608 0.00047898
0.91886608 0.91886608 0.00047898
0.91886608 0.91886608 0.00047898
0.91886608 0.91886608 0.00047898
0.00047954 0.91886608 0.00047898
0.00047954 0.91886608 0.00047898
0.00047954 0.91886608 0.00047898
0.10565237 0.91886608 0.00047898
0.18272562 0.91886608 0.00047898
0.24967750 0.91886608 0.00047898
0.31046225 0.91886608 0.00047898
0.36688529 0.91886608 0.00047898
0.41997449 0.91886608 0.00047946
0.47038910 0.91886608 0.00047898
0.51858542 0.91886608 0.00047946
0.56489656 0.91886608 0.00047898
0.60957546 0.91886608 0.00047946
0.65282019 0.91886608 0.00047898
0.69478962 0.91886608 0.00047946
0.73561375 0.91886608 0.00047898
0.77540073 0.91886608 0.00047898
0.81424179 0.91886608 0.00047898
0.85221484 0.91886608 0.00047898
0.88938705 0.91886608 0.00047898
0.91886608 0.91886608 0.00047898
0.91886608 0.91886608 0.00047898
0.91886608 0.91886608 0.00047898
0.91886608 0.91886608 0.00047898
0.91886608 0.91886608 0.00047898
0.91886608 0.91886608 0.00047898
0.91886608 0.91886608 0.00047898
