src/ffmpeg_scripts/luts/luminance_-2p00.cube
TITLE "luminance_-2p00"
LUT_3D_SIZE 9
# PQ (EOTF Only)/Rec2020 -> PQ (EOTF Only)/Rec2020, CineEI Shift -2.00, Black Level 0.00% IRE, Input 109% -> Output 109% - Created with LUTCalc v4.01 by Ben Turley October 2020
0.06256172 0.06256172 0.06256172
0.09678047 0.06256172 0.06256172
0.18235122 0.06256172 0.06256172
0.28031079 0.06256172 0.06256172
0.38709426 0.06256188 0.06256187
0.50103293 0.06256188 0.06256172
0.62111258 0.06256172 0.06256172
0.74663698 0.06256203 0.06256172
0.87709209 0.06256213 0.06256213
0.06256178 0.09678047 0.06256172
0.09678047 0.09678047 0.06256172
0.18235122 0.09678047 0.06256172
0.28031079 0.09678047 0.06256172
0.38709426 0.09678047 0.06256172
0.50103293 0.09678047 0.06256172
0.62111258 0.09678047 0.06256172
0.74663698 0.09678047 0.06256172
0.87709209 0.09678047 0.06256172
0.06256172 0.18235122 0.06256172
0.09678047 0.18235122 0.06256172
0.18235122 0.18235122 0.06256172
0.28031079 0.18235122 0.06256172
0.38709426 0.18235122 0.06256187
0.50103293 0.18235122 0.06256172
0.62111258 0.18235122 0.06256172
0.74663698 0.18235122 0.06256172
0.87709209 0.18235122 0.06256172
0.06256185 0.28031079 0.06256172
0.09678047 0.28031079 0.06256172
0.18235122 0.28031079 0.06256172
0.28031079 0.28031079 0.06256185
0.38709426 0.28031079 0.06256187
0.50103293 0.28031079 0.06256172
0.62111258 0.28031079 0.06256172
0.74663698 0.28031079 0.06256204
0.87709209 0.28031079 0.06256172
0.06256172 0.38709426 0.06256172
0.09678047 0.38709426 0.06256187
0.18235122 0.38709426 0.06256187
0.28031079 0.38709426 0.06256172
0.38709426 0.38709426 0.06256172
0.50103293 0.38709426 0.06256172
0.62111258 0.38709426 0.06256172
0.74663698 0.38709426 0.06256172
0.87709209 0.38709426 0.06256172
0.06256172 0.50103293 0.06256172
0.09678047 0.50103293 0.06256191
0.18235122 0.50103293 0.06256191
0.28031079 0.50103293 0.06256172
0.38709426 0.50103293 0.06256191
0.50103293 0.50103293 0.06256172
0.62111258 0.50103293 0.06256197
0.74663698 0.50103293 0.06256172
0.87709209 0.50103293 0.06256172
0.06256197 0.62111258 0.06256172
0.09678047 0.62111258 0.06256172
0.18235122 0.62111258 0.06256172
0.28031079 0.62111258 0.06256172
0.38709426 0.62111258 0.06256172
0.50103293 0.62111258 0.06256197
0.62111258 0.62111258 0.06256172
0.74663698 0.62111258 0.06256204
0.87709209 0.62111258 0.06256213
0.06256207 0.74663698 0.06256172
0.09678047 0.74663698 0.06256172
0.18235122 0.74663698 0.06256172
0.28031079 0.74663698 0.06256204
0.38709426 0.74663698 0.06256204
0.50103293 0.74663698 0.06256172
0.62111258 0.74663698 0.06256172
0.74663698 0.74663698 0.06256172
0.87709209 0.74663698 0.06256213
0.06256218 0.87709209 0.06256213
0.09678047 0.87709209 0.06256213
0.18235122 0.87709209 0.06256213
0.28031079 0.87709209 0.06256172
0.38709426 0.87709209 0.06256172
0.50103293 0.87709209 0.06256172
0.62111258 0.87709209 0.06256213
0.74663698 0.87709209 0.06256172
0.87709209 0.87709209 0.06256172
0.06256172 0.06256179 0.09678047
0.09678047 0.06256172 0.09678047
0.18235122 0.06256179 0.09678047
0.28031079 0.06256172 0.09678047
0.38709426 0.06256172 0.09678047
0.50103293 0.06256172 0.09678047
0.62111258 0.06256189 0.09678047
0.74663698 0.06256205 0.09678047
0.87709209 0.06256206 0.09678047
0.06256172 0.09678047 0.09678047
0.09678047 0.09678047 0.09678047
0.18235122 0.09678047 0.09678047
0.28031079 0.09678047 0.09678047
0.38709426 0.09678047 0.09678047
0.50103293 0.09678047 0.09678047
0.62111258 0.09678047 0.09678047
0.74663698 0.09678047 0.09678047
0.87709209 0.09678047 0.09678047
0.06256180 0.18235122 0.09678047
0.09678047 0.18235122 0.09678047
0.18235122 0.18235122 0.09678047
0.28031079 0.18235122 0.09678047
0.38709426 0.18235122 0.09678047
0.50103293 0.18235122 0.09678047
0.62111258 0.18235122 0.09678047
0.74663698 0.18235122 0.09678047
0.87709209 0.18235122 0.09678047
0.06256185 0.28031079 0.09678047
0.09678047 0.28031079 0.09678047
0.18235122 0.28031079 0.09678047
0.28031079 0.28031079 0.09678047
0.38709426 0.28031079 0.09678047
0.50103293 0.28031079 0.09678047
0.62111258 0.28031079 0.09678047
0.74663698 0.28031079 0.09678047
0.87709209 0.28031079 0.09678047
0.06256189 0.38709426 0.09678047
0.09678047 0.38709426 0.09678047
0.18235122 0.38709426 0.09678047
0.28031079 0.38709426 0.09678047
0.38709426 0.38709426 0.09678047
0.50103293 0.38709426 0.09678047
0.62111258 0.38709426 0.09678047
0.74663698 0.38709426 0.09678047
0.87709209 0.38709426 0.09678047
0.06256192 0.50103293 0.09678047
0.09678047 0.50103293 0.09678047
0.18235122 0.50103293 0.09678047
0.28031079 0.50103293 0.09678047
0.38709426 0.50103293 0.09678047
0.50103293 0.50103293 0.09678047
0.62111258 0.50103293 0.09678047
0.74663698 0.50103293 0.09678047
0.87709209 0.50103293 0.09678047
0.06256199 0.62111258 0.09678047
0.09678047 0.62111258 0.09678047
0.18235122 0.62111258 0.09678047
0.28031079 0.62111258 0.09678047
0.38709426 0.62111258 0.09678047
0.50103293 0.62111258 0.09678047
0.62111258 0.62111258 0.09678047
0.74663698 0.62111258 0.09678047
0.87709209 0.62111258 0.09678047
0.06256198 0.74663698 0.09678047
0.09678047 0.74663698 0.09678047
0.18235122 0.74663698 0.09678047
0.28031079 0.74663698 0.09678047
0.38709426 0.74663698 0.09678047
0.50103293 0.74663698 0.09678047
0.62111258 0.74663698 0.09678047
0.74663698 0.74663698 0.09678047
0.87709209 0.74663698 0.09678047
0.06256172 0.87709209 0.09678047
0.09678047 0.87709209 0.09678047
0.18235122 0.87709209 0.09678047
0.28031079 0.87709209 0.09678047
0.38709426 0.87709209 0.09678047
0.50103293 0.87709209 0.09678047
0.62111258 0.87709209 0.09678047
0.74663698 0.87709209 0.09678047
0.87709209 0.87709209 0.09678047
0.06256172 0.06256182 0.18235122
0.09678047 0.06256184 0.18235122
0.18235122 0.06256172 0.18235122
0.28031079 0.06256172 0.18235122
0.38709426 0.06256185 0.18235122
0.50103293 0.06256172 0.18235122
0.62111258 0.06256189 0.18235122
0.74663698 0.06256200 0.18235122
0.87709209 0.06256212 0.18235122
0.06256172 0.09678047 0.18235122
0.09678047 0.09678047 0.18235122
0.18235122 0.09678047 0.18235122
0.28031079 0.09678047 0.18235122
0.38709426 0.09678047 0.18235122
0.50103293 0.09678047 0.18235122
0.62111258 0.09678047 0.18235122
0.74663698 0.09678047 0.18235122
0.87709209 0.09678047 0.18235122
0.06256172 0.18235122 0.18235122
0.09678047 0.18235122 0.18235122
0.18235122 0.18235122 0.18235122
0.28031079 0.18235122 0.18235122
0.38709426 0.18235122 0.18235122
0.50103293 0.18235122 0.18235122
0.62111258 0.18235122 0.18235122
0.74663698 0.18235122 0.18235122
0.87709209 0.18235122 0.18235122
0.06256186 0.28031079 0.18235122
0.09678047 0.28031079 0.18235122
0.18235122 0.28031079 0.18235122
0.28031079 0.28031079 0.18235122
0.38709426 0.28031079 0.18235122
0.50103293 0.28031079 0.18235122
0.62111258 0.28031079 0.18235122
0.74663698 0.28031079 0.18235122
0.87709209 0.28031079 0.18235122
0.06256187 0.38709426 0.18235122
0.09678047 0.38709426 0.18235122
0.18235122 0.38709426 0.18235122
0.28031079 0.38709426 0.18235122
0.38709426 0.38709426 0.18235122
0.50103293 0.38709426 0.18235122
0.62111258 0.38709426 0.18235122
0.74663698 0.38709426 0.18235122
0.87709209 0.38709426 0.18235122
0.06256195 0.50103293 0.18235122
0.09678047 0.50103293 0.18235122
0.18235122 0.50103293 0.18235122
0.28031079 0.50103293 0.18235122
0.38709426 0.50103293 0.18235122
0.50103293 0.50103293 0.18235122
0.62111258 0.50103293 0.18235122
0.74663698 0.50103293 0.18235122
0.87709209 0.50103293 0.18235122
0.06256198 0.62111258 0.18235122
0.09678047 0.62111258 0.18235122
0.18235122 0.62111258 0.18235122
0.28031079 0.62111258 0.18235122
0.38709426 0.62111258 0.18235122
0.50103293 0.62111258 0.18235122
0.62111258 0.62111258 0.18235122
0.74663698 0.62111258 0.18235122
0.87709209 0.62111258 0.18235122
0.06256198 0.74663698 0.18235122
0.09678047 0.74663698 0.18235122
0.18235122 0.74663698 0.18235122
0.28031079 0.74663698 0.18235122
0.38709426 0.74663698 0.18235122
0.50103293 0.74663698 0.18235122
0.62111258 0.74663698 0.18235122
0.74663698 0.74663698 0.18235122
0.87709209 0.74663698 0.18235122
0.06256217 0.87709209 0.18235122
0.09678047 0.87709209 0.18235122
0.18235122 0.87709209 0.18235122
0.28031079 0.87709209 0.18235122
0.38709426 0.87709209 0.18235122
0.50103293 0.87709209 0.18235122
0.62111258 0.87709209 0.18235122
0.74663698 0.87709209 0.18235122
0.87709209 0.87709209 0.18235122
0.06256172 0.06256187 0.28031079
0.09678047 0.06256187 0.28031079
0.18235122 0.06256187 0.28031079
0.28031079 0.06256189 0.28031079
0.38709426 0.06256189 0.28031079
0.50103293 0.06256191 0.28031079
0.62111258 0.06256172 0.28031079
0.74663698 0.06256200 0.28031079
0.87709209 0.06256210 0.28031079
0.06256172 0.09678047 0.28031079
0.09678047 0.09678047 0.28031079
0.18235122 0.09678047 0.28031079
0.28031079 0.09678047 0.28031079
0.38709426 0.09678047 0.28031079
0.50103293 0.09678047 0.28031079
0.62111258 0.09678047 0.28031079
0.74663698 0.09678047 0.28031079
0.87709209 0.09678047 0.28031079
0.06256172 0.18235122 0.28031079
0.09678047 0.18235122 0.28031079
0.18235122 0.18235122 0.28031079
0.28031079 0.18235122 0.28031079
0.38709426 0.18235122 0.28031079
0.50103293 0.18235122 0.28031079
0.62111258 0.18235122 0.28031079
0.74663698 0.18235122 0.28031079
0.87709209 0.18235122 0.28031079
0.06256172 0.28031079 0.28031079
0.09678047 0.28031079 0.28031079
0.18235122 0.28031079 0.28031079
0.28031079 0.28031079 0.28031079
0.38709426 0.28031079 0.28031079
0.50103293 0.28031079 0.28031079
0.62111258 0.28031079 0.28031079
0.74663698 0.28031079 0.28031079
0.87709209 0.28031079 0.28031079
0.06256172 0.38709426 0.28031079
0.09678047 0.38709426 0.28031079
0.18235122 0.38709426 0.28031079
0.28031079 0.38709426 0.28031079
0.38709426 0.38709426 0.28031079
0.50103293 0.38709426 0.28031079
0.62111258 0.38709426 0.28031079
0.74663698 0.38709426 0.28031079
0.87709209 0.38709426 0.28031079
0.06256190 0.50103293 0.28031079
0.09678047 0.50103293 0.28031079
0.18235122 0.50103293 0.28031079
0.28031079 0.50103293 0.28031079
0.38709426 0.50103293 0.28031079
0.50103293 0.50103293 0.28031079
0.62111258 0.50103293 0.28031079
0.74663698 0.50103293 0.28031079
0.87709209 0.50103293 0.28031079
0.06256203 0.62111258 0.28031079
0.09678047 0.62111258 0.28031079
0.18235122 0.62111258 0.28031079
0.28031079 0.62111258 0.28031079
0.38709426 0.62111258 0.28031079
0.50103293 0.62111258 0.28031079
0.62111258 0.62111258 0.28031079
0.74663698 0.62111258 0.28031079
0.87709209 0.62111258 0.28031079
0.06256203 0.74663698 0.28031079
0.09678047 0.74663698 0.28031079
0.18235122 0.74663698 0.28031079
0.28031079 0.74663698 0.28031079
0.38709426 0.74663698 0.28031079
0.50103293 0.74663698 0.28031079
0.62111258 0.74663698 0.28031079
0.74663698 0.74663698 0.28031079
0.87709209 0.74663698 0.28031079
0.06256217 0.87709209 0.28031079
0.09678047 0.87709209 0.28031079
0.18235122 0.87709209 0.28031079
0.28031079 0.87709209 0.28031079
0.38709426 0.87709209 0.28031079
0.50103293 0.87709209 0.28031079
0.62111258 0.87709209 0.28031079
0.74663698 0.87709209 0.28031079
0.87709209 0.87709209 0.28031079
0.06256172 0.06256191 0.38709426
0.09678047 0.06256195 0.38709426
0.18235122 0.06256191 0.38709426
0.28031079 0.06256172 0.38709426
0.38709426 0.06256191 0.38709426
0.50103293 0.06256172 0.38709426
0.62111258 0.06256197 0.38709426
0.74663698 0.06256172 0.38709426
0.87709209 0.06256211 0.38709426
0.06256172 0.09678047 0.38709426
0.09678047 0.09678047 0.38709426
0.18235122 0.09678047 0.38709426
0.28031079 0.09678047 0.38709426
0.38709426 0.09678047 0.38709426
0.50103293 0.09678047 0.38709426
0.62111258 0.09678047 0.38709426
0.74663698 0.09678047 0.38709426
0.87709209 0.09678047 0.38709426
0.06256172 0.18235122 0.38709426
0.09678047 0.18235122 0.38709426
0.18235122 0.18235122 0.38709426
0.28031079 0.18235122 0.38709426
0.38709426 0.18235122 0.38709426
0.50103293 0.18235122 0.38709426
0.62111258 0.18235122 0.38709426
0.74663698 0.18235122 0.38709426
0.87709209 0.18235122 0.38709426
0.06256189 0.28031079 0.38709426
0.09678047 0.28031079 0.38709426
0.18235122 0.28031079 0.38709426
0.28031079 0.28031079 0.38709426
0.38709426 0.28031079 0.38709426
0.50103293 0.28031079 0.38709426
0.62111258 0.28031079 0.38709426
0.74663698 0.28031079 0.38709426
0.87709209 0.28031079 0.38709426
0.06256172 0.38709426 0.38709426
0.09678047 0.38709426 0.38709426
0.18235122 0.38709426 0.38709426
0.28031079 0.38709426 0.38709426
0.38709426 0.38709426 0.38709426
0.50103293 0.38709426 0.38709426
0.62111258 0.38709426 0.38709426
0.74663698 0.38709426 0.38709426
0.87709209 0.38709426 0.38709426
0.06256172 0.50103293 0.38709426
0.09678047 0.50103293 0.38709426
0.18235122 0.50103293 0.38709426
0.28031079 0.50103293 0.38709426
0.38709426 0.50103293 0.38709426
0.50103293 0.50103293 0.38709426
0.62111258 0.50103293 0.38709426
0.74663698 0.50103293 0.38709426
0.87709209 0.50103293 0.38709426
0.06256202 0.62111258 0.38709426
0.09678047 0.62111258 0.38709426
0.18235122 0.62111258 0.38709426
0.28031079 0.62111258 0.38709426
0.38709426 0.62111258 0.38709426
0.50103293 0.62111258 0.38709426
0.62111258 0.62111258 0.38709426
0.74663698 0.62111258 0.38709426
0.87709209 0.62111258 0.38709426
0.06256205 0.74663698 0.38709426
0.09678047 0.74663698 0.38709426
0.18235122 0.74663698 0.38709426
0.28031079 0.74663698 0.38709426
0.38709426 0.74663698 0.38709426
0.50103293 0.74663698 0.38709426
0.62111258 0.74663698 0.38709426
0.74663698 0.74663698 0.38709426
0.87709209 0.74663698 0.38709426
0.06256172 0.87709209 0.38709426
0.09678047 0.87709209 0.38709426
0.18235122 0.87709209 0.38709426
0.28031079 0.87709209 0.38709426
0.38709426 0.87709209 0.38709426
0.50103293 0.87709209 0.38709426
0.62111258 0.87709209 0.38709426
0.74663698 0.87709209 0.38709426
0.87709209 0.87709209 0.38709426
0.06256172 0.06256200 0.50103293
0.09678047 0.06256202 0.50103293
0.18235122 0.06256200 0.50103293
0.28031079 0.06256197 0.50103293
0.38709426 0.06256204 0.50103293
0.50103293 0.06256172 0.50103293
0.62111258 0.06256200 0.50103293
0.74663698 0.06256210 0.50103293
0.87709209 0.06256172 0.50103293
0.06256172 0.09678047 0.50103293
0.09678047 0.09678047 0.50103293
0.18235122 0.09678047 0.50103293
0.28031079 0.09678047 0.50103293
0.38709426 0.09678047 0.50103293
0.50103293 0.09678047 0.50103293
0.62111258 0.09678047 0.50103293
0.74663698 0.09678047 0.50103293
0.87709209 0.09678047 0.50103293
0.06256172 0.18235122 0.50103293
0.09678047 0.18235122 0.50103293
0.18235122 0.18235122 0.50103293
0.28031079 0.18235122 0.50103293
0.38709426 0.18235122 0.50103293
0.50103293 0.18235122 0.50103293
0.62111258 0.18235122 0.50103293
0.74663698 0.18235122 0.50103293
0.87709209 0.18235122 0.50103293
0.06256172 0.28031079 0.50103293
0.09678047 0.28031079 0.50103293
0.18235122 0.28031079 0.50103293
0.28031079 0.28031079 0.50103293
0.38709426 0.28031079 0.50103293
0.50103293 0.28031079 0.50103293
0.62111258 0.28031079 0.50103293
0.74663698 0.28031079 0.50103293
0.87709209 0.28031079 0.50103293
0.06256172 0.38709426 0.50103293
0.09678047 0.38709426 0.50103293
0.18235122 0.38709426 0.50103293
0.28031079 0.38709426 0.50103293
0.38709426 0.38709426 0.50103293
0.50103293 0.38709426 0.50103293
0.62111258 0.38709426 0.50103293
0.74663698 0.38709426 0.50103293
0.87709209 0.38709426 0.50103293
0.06256194 0.50103293 0.50103293
0.09678047 0.50103293 0.50103293
0.18235122 0.50103293 0.50103293
0.28031079 0.50103293 0.50103293
0.38709426 0.50103293 0.50103293
0.50103293 0.50103293 0.50103293
0.62111258 0.50103293 0.50103293
0.74663698 0.50103293 0.50103293
0.87709209 0.50103293 0.50103293
0.06256194 0.62111258 0.50103293
0.09678047 0.62111258 0.50103293
0.18235122 0.62111258 0.50103293
0.28031079 0.62111258 0.50103293
0.38709426 0.62111258 0.50103293
0.50103293 0.62111258 0.50103293
0.62111258 0.62111258 0.50103293
0.74663698 0.62111258 0.50103293
0.87709209 0.62111258 0.50103293
0.06256200 0.74663698 0.50103293
0.09678047 0.74663698 0.50103293
0.18235122 0.74663698 0.50103293
0.28031079 0.74663698 0.50103293
0.38709426 0.74663698 0.50103293
0.50103293 0.74663698 0.50103293
0.62111258 0.74663698 0.50103293
0.74663698 0.74663698 0.50103293
0.87709209 0.74663698 0.50103293
0.06256219 0.87709209 0.50103293
0.09678047 0.87709209 0.50103293
0.18235122 0.87709209 0.50103293
0.28031079 0.87709209 0.50103293
0.38709426 0.87709209 0.50103293
0.50103293 0.87709209 0.50103293
0.62111258 0.87709209 0.50103293
0.74663698 0.87709209 0.50103293
0.87709209 0.87709209 0.50103293
0.06256172 0.06256204 0.62111258
0.09678047 0.06256208 0.62111258
0.18235122 0.06256204 0.62111258
0.28031079 0.06256208 0.62111258
0.38709426 0.06256172 0.62111258
0.50103293 0.06256204 0.62111258
0.62111258 0.06256204 0.62111258
0.74663698 0.06256204 0.62111258
0.87709209 0.06256213 0.62111258
0.06256172 0.09678047 0.62111258
0.09678047 0.09678047 0.62111258
0.18235122 0.09678047 0.62111258
0.28031079 0.09678047 0.62111258
0.38709426 0.09678047 0.62111258
0.50103293 0.09678047 0.62111258
0.62111258 0.09678047 0.62111258
0.74663698 0.09678047 0.62111258
0.87709209 0.09678047 0.62111258
0.06256172 0.18235122 0.62111258
0.09678047 0.18235122 0.62111258
0.18235122 0.18235122 0.62111258
0.28031079 0.18235122 0.62111258
0.38709426 0.18235122 0.62111258
0.50103293 0.18235122 0.62111258
0.62111258 0.18235122 0.62111258
0.74663698 0.18235122 0.62111258
0.87709209 0.18235122 0.62111258
0.06256172 0.28031079 0.62111258
0.09678047 0.28031079 0.62111258
0.18235122 0.28031079 0.62111258
0.28031079 0.28031079 0.62111258
0.38709426 0.28031079 0.62111258
0.50103293 0.28031079 0.62111258
0.62111258 0.28031079 0.62111258
0.74663698 0.28031079 0.62111258
0.87709209 0.28031079 0.62111258
0.06256172 0.38709426 0.62111258
0.09678047 0.38709426 0.62111258
0.18235122 0.38709426 0.62111258
0.28031079 0.38709426 0.62111258
0.38709426 0.38709426 0.62111258
0.50103293 0.38709426 0.62111258
0.62111258 0.38709426 0.62111258
0.74663698 0.38709426 0.62111258
0.87709209 0.38709426 0.62111258
0.06256172 0.50103293 0.62111258
0.09678047 0.50103293 0.62111258
0.18235122 0.50103293 0.62111258
0.28031079 0.50103293 0.62111258
0.38709426 0.50103293 0.62111258
0.50103293 0.50103293 0.62111258
0.62111258 0.50103293 0.62111258
0.74663698 0.50103293 0.62111258
0.87709209 0.50103293 0.62111258
0.06256172 0.62111258 0.62111258
0.09678047 0.62111258 0.62111258
0.18235122 0.62111258 0.62111258
0.28031079 0.62111258 0.62111258
0.38709426 0.62111258 0.62111258
0.50103293 0.62111258 0.62111258
0.62111258 0.62111258 0.62111258
0.74663698 0.62111258 0.62111258
0.87709209 0.62111258 0.62111258
0.06256212 0.74663698 0.62111258
0.09678047 0.74663698 0.62111258
0.18235122 0.74663698 0.62111258
0.28031079 0.74663698 0.62111258
0.38709426 0.74663698 0.62111258
0.50103293 0.74663698 0.62111258
0.62111258 0.74663698 0.62111258
0.74663698 0.74663698 0.62111258
0.87709209 0.74663698 0.62111258
0.06256204 0.87709209 0.62111258
0.09678047 0.87709209 0.62111258
0.18235122 0.87709209 0.62111258
0.28031079 0.87709209 0.62111258
0.38709426 0.87709209 0.62111258
0.50103293 0.87709209 0.62111258
0.62111258 0.87709209 0.62111258
0.74663698 0.87709209 0.62111258
0.87709209 0.87709209 0.62111258
0.06256172 0.06256172 0.74663698
0.09678047 0.06256213 0.74663698
0.18235122 0.06256213 0.74663698
0.28031079 0.06256213 0.74663698
0.38709426 0.06256172 0.74663698
0.50103293 0.06256172 0.74663698
0.62111258 0.06256213 0.74663698
0.74663698 0.06256219 0.74663698
0.87709209 0.06256223 0.74663698
0.06256172 0.09678047 0.74663698
0.09678047 0.09678047 0.74663698
0.18235122 0.09678047 0.74663698
0.28031079 0.09678047 0.74663698
0.38709426 0.09678047 0.74663698
0.50103293 0.09678047 0.74663698
0.62111258 0.09678047 0.74663698
0.74663698 0.09678047 0.74663698
0.87709209 0.09678047 0.74663698
0.06256172 0.18235122 0.74663698
0.09678047 0.18235122 0.74663698
0.18235122 0.18235122 0.74663698
0.28031079 0.18235122 0.74663698
0.38709426 0.18235122 0.74663698
0.50103293 0.18235122 0.74663698
0.62111258 0.18235122 0.74663698
0.74663698 0.18235122 0.74663698
0.87709209 0.18235122 0.74663698
0.06256172 0.28031079 0.74663698
0.09678047 0.28031079 0.74663698
0.18235122 0.28031079 0.74663698
0.28031079 0.28031079 0.74663698
0.38709426 0.28031079 0.74663698
0.50103293 0.28031079 0.74663698
0.62111258 0.28031079 0.74663698
0.74663698 0.28031079 0.74663698
0.87709209 0.28031079 0.74663698
0.06256172 0.38709426 0.74663698
0.09678047 0.38709426 0.74663698
0.18235122 0.38709426 0.74663698
0.28031079 0.38709426 0.74663698
0.38709426 0.38709426 0.74663698
0.50103293 0.38709426 0.74663698
0.62111258 0.38709426 0.74663698
0.74663698 0.38709426 0.74663698
0.87709209 0.38709426 0.74663698
0.06256172 0.50103293 0.74663698
0.09678047 0.50103293 0.74663698
0.18235122 0.50103293 0.74663698
0.28031079 0.50103293 0.74663698
0.38709426 0.50103293 0.74663698
0.50103293 0.50103293 0.74663698
0.62111258 0.50103293 0.74663698
0.74663698 0.50103293 0.74663698
0.87709209 0.50103293 0.74663698
0.06256172 0.62111258 0.74663698
0.09678047 0.62111258 0.74663698
0.18235122 0.62111258 0.74663698
0.28031079 0.62111258 0.74663698
0.38709426 0.62111258 0.74663698
0.50103293 0.62111258 0.74663698
0.62111258 0.62111258 0.74663698
0.74663698 0.62111258 0.74663698
0.87709209 0.62111258 0.74663698
0.06256172 0.74663698 0.74663698
0.09678047 0.74663698 0.74663698
0.18235122 0.74663698 0.74663698
0.28031079 0.74663698 0.74663698
0.38709426 0.74663698 0.74663698
0.50103293 0.74663698 0.74663698
0.62111258 0.74663698 0.74663698
0.74663698 0.74663698 0.74663698
0.87709209 0.74663698 0.74663698
0.06256219 0.87709209 0.74663698
0.09678047 0.87709209 0.74663698
0.18235122 0.87709209 0.74663698
0.28031079 0.87709209 0.74663698
0.38709426 0.87709209 0.74663698
0.50103293 0.87709209 0.74663698
0.62111258 0.87709209 0.74663698
0.74663698 0.87709209 0.74663698
0.87709209 0.87709209 0.74663698
0.06256172 0.06256172 0.87709209
0.09678047 0.06256172 0.87709209
0.18235122 0.06256227 0.87709209
0.28031079 0.06256172 0.87709209
0.38709426 0.06256172 0.87709209
0.50103293 0.06256235 0.87709209
0.62111258 0.06256227 0.87709209
0.74663698 0.06256235 0.87709209
0.87709209 0.06256172 0.87709209
0.06256172 0.09678047 0.87709209
0.09678047 0.09678047 0.87709209
0.18235122 0.09678047 0.87709209
0.28031079 0.09678047 0.87709209
0.38709426 0.09678047 0.87709209
0.50103293 0.09678047 0.87709209
0.62111258 0.09678047 0.87709209
0.74663698 0.09678047 0.87709209
0.87709209 0.09678047 0.87709209
0.06256172 0.18235122 0.87709209
0.09678047 0.18235122 0.87709209
0.18235122 0.18235122 0.87709209
0.28031079 0.18235122 0.87709209
0.38709426 0.18235122 0.87709209
0.50103293 0.18235122 0.87709209
0.62111258 0.18235122 0.87709209
0.74663698 0.18235122 0.87709209
0.87709209 0.18235122 0.87709209
0.06256172 0.28031079 0.87709209
0.09678047 0.28031079 0.87709209
0.18235122 0.28031079 0.87709209
0.28031079 0.28031079 0.87709209
0.38709426 0.28031079 0.87709209
0.50103293 0.28031079 0.87709209
0.62111258 0.28031079 0.87709209
0.74663698 0.28031079 0.87709209
0.87709209 0.28031079 0.87709209
0.06256172 0.38709426 0.87709209
0.09678047 0.38709426 0.87709209
0.18235122 0.38709426 0.87709209
0.28031079 0.38709426 0.87709209
0.38709426 0.38709426 0.87709209
0.50103293 0.38709426 0.87709209
0.62111258 0.38709426 0.87709209
0.74663698 0.38709426 0.87709209
0.87709209 0.38709426 0.87709209
0.06256172 0.50103293 0.87709209
0.09678047 0.50103293 0.87709209
0.18235122 0.50103293 0.87709209
0.28031079 0.50103293 0.87709209
0.38709426 0.50103293 0.87709209
0.50103293 0.50103293 0.87709209
0.62111258 0.50103293 0.87709209
0.74663698 0.50103293 0.87709209
0.87709209 0.50103293 0.87709209
0.06256172 0.62111258 0.87709209
0.09678047 0.62111258 0.87709209
0.18235122 0.62111258 0.87709209
0.28031079 0.62111258 0.87709209
0.38709426 0.62111258 0.87709209
0.50103293 0.62111258 0.87709209
0.62111258 0.62111258 0.87709209
0.74663698 0.62111258 0.87709209
0.87709209 0.62111258 0.87709209
0.06256219 0.74663698 0.87709209
0.09678047 0.74663698 0.87709209
0.18235122 0.74663698 0.87709209
0.28031079 0.74663698 0.87709209
0.38709426 0.74663698 0.87709209
0.50103293 0.74663698 0.87709209
0.62111258 0.74663698 0.87709209
0.74663698 0.74663698 0.87709209
0.87709209 0.74663698 0.87709209
0.06256219 0.87709209 0.87709209
0.09678047 0.87709209 0.87709209
0.18235122 0.87709209 0.87709209
0.28031079 0.87709209 0.87709209
0.38709426 0.87709209 0.87709209
0.50103293 0.87709209 0.87709209
0.62111258 0.87709209 0.87709209
0.74663698 0.87709209 0.87709209
0.87709209 0.87709209 0.87709209
