src/ffmpeg_scripts/luts/luminance_-0p67.cube
TITLE "luminance_-0p67"
LUT_3D_SIZE 33
# PQ (EOTF Only)/Rec2020 -> PQ (EOTF Only)/Rec2020, CineEI Shift -0.67, Black Level 0.00% IRE, Input 109% -> Output 109% - Created with LUTCalc v4.01 by Ben Turley October 2020
0.06256172 0.06256172 0.06256172
0.06256172 0.06256172 0.06256172
0.06256172 0.06256172 0.06256172
0.08762842 0.06256172 0.06256172
0.11404720 0.06256178 0.06256172
0.14116579 0.06256172 0.06256172
0.16879328 0.06256172 0.06256179
0.19682816 0.06256180 0.06256180
0.22520604 0.06256180 0.06256172
0.25388195 0.06256182 0.06256182
0.28282246 0.06256184 0.06256182
0.31200166 0.06256185 0.06256172
0.34139877 0.06256172 0.06256172
0.37099673 0.06256172 0.06256172
0.40078124 0.06256172 0.06256172
0.43074012 0.06256172 0.06256172
0.46086289 0.06256185 0.06256189
0.49114037 0.06256172 0.06256172
0.52156448 0.06256193 0.06256191
0.55212806 0.06256191 0.06256172
0.58282467 0.06256172 0.06256172
0.61364852 0.06256194 0.06256172
0.64459437 0.06256199 0.06256172
0.67565743 0.06256172 0.06256172
0.70683334 0.06256172 0.06256172
0.73811807 0.06256202 0.06256200
0.76950791 0.06256172 0.06256172
0.80099944 0.06256172 0.06256172
0.83258945 0.06256172 0.06256172
0.86427498 0.06256172 0.06256172
0.89605325 0.06256172 0.06256213
0.91886608 0.06256172 0.06256172
0.91886608 0.06256219 0.06256219
0.06256172 0.06256172 0.06256172
0.06256172 0.06256172 0.06256172
0.06256172 0.06256172 0.06256172
0.08762842 0.06256172 0.06256172
0.11404720 0.06256178 0.06256172
0.14116579 0.06256172 0.06256172
0.16879328 0.06256172 0.06256179
0.19682816 0.06256180 0.06256180
0.22520604 0.06256180 0.06256172
0.25388195 0.06256182 0.06256182
0.28282246 0.06256184 0.06256182
0.31200166 0.06256185 0.06256172
0.34139877 0.06256172 0.06256172
0.37099673 0.06256172 0.06256172
0.40078124 0.06256172 0.06256172
0.43074012 0.06256172 0.06256172
0.46086289 0.06256185 0.06256189
0.49114037 0.06256172 0.06256172
0.52156448 0.06256193 0.06256191
0.55212806 0.06256191 0.06256172
0.58282467 0.06256172 0.06256172
0.61364852 0.06256194 0.06256172
0.64459437 0.06256199 0.06256172
0.67565743 0.06256172 0.06256172
0.70683334 0.06256172 0.06256172
0.73811807 0.06256202 0.06256200
0.76950791 0.06256172 0.06256172
0.80099944 0.06256172 0.06256172
0.83258945 0.06256172 0.06256172
0.86427498 0.06256172 0.06256172
0.89605325 0.06256172 0.06256213
0.91886608 0.06256172 0.06256172
0.91886608 0.06256219 0.06256219
0.06256172 0.06256172 0.06256172
0.06256172 0.06256172 0.06256172
0.06256172 0.06256172 0.06256172
0.08762842 0.06256172 0.06256172
0.11404720 0.06256178 0.06256172
0.14116579 0.06256172 0.06256172
0.16879328 0.06256172 0.06256179
0.19682816 0.06256180 0.06256180
0.22520604 0.06256180 0.06256172
0.25388195 0.06256182 0.06256182
0.28282246 0.06256184 0.06256182
0.31200166 0.06256185 0.06256172
0.34139877 0.06256172 0.06256172
0.37099673 0.06256172 0.06256172
0.40078124 0.06256172 0.06256172
0.43074012 0.06256172 0.06256172
0.46086289 0.06256185 0.06256189
0.49114037 0.06256172 0.06256172
0.52156448 0.06256193 0.06256191
0.55212806 0.06256191 0.06256172
0.58282467 0.06256172 0.06256172
0.61364852 0.06256194 0.06256172
0.64459437 0.06256199 0.06256172
0.67565743 0.06256172 0.06256172
0.70683334 0.06256172 0.06256172
0.73811807 0.06256202 0.06256200
0.76950791 0.06256172 0.06256172
0.80099944 0.06256172 0.06256172
0.83258945 0.06256172 0.06256172
0.86427498 0.06256172 0.06256172
0.89605325 0.06256172 0.06256213
0.91886608 0.06256172 0.06256172
0.91886608 0.06256219 0.06256219
0.06256177 0.08762842 0.06256172
0.06256177 0.08762842 0.06256172
0.06256177 0.08762842 0.06256172
0.08762842 0.08762842 0.06256172
0.11404720 0.08762842 0.06256172
0.14116579 0.08762842 0.06256172
0.16879328 0.08762842 0.06256179
0.19682816 0.08762842 0.06256180
0.22520604 0.08762842 0.06256172
0.25388195 0.08762842 0.06256172
0.28282246 0.08762842 0.06256172
0.31200166 0.08762842 0.06256172
0.34139877 0.08762842 0.06256172
0.37099673 0.08762842 0.06256172
0.40078124 0.08762842 0.06256172
0.43074012 0.08762842 0.06256172
0.46086289 0.08762842 0.06256189
0.49114037 0.08762842 0.06256172
0.52156448 0.08762842 0.06256172
0.55212806 0.08762842 0.06256172
0.58282467 0.08762842 0.06256194
0.61364852 0.08762842 0.06256194
0.64459437 0.08762842 0.06256172
0.67565743 0.08762842 0.06256172
0.70683334 0.08762842 0.06256172
0.73811807 0.08762842 0.06256172
0.76950791 0.08762842 0.06256172
0.80099944 0.08762842 0.06256172
0.83258945 0.08762842 0.06256172
0.86427498 0.08762842 0.06256208
0.89605325 0.08762842 0.06256213
0.91886608 0.08762842 0.06256172
0.91886608 0.08762842 0.06256172
0.06256180 0.11404720 0.06256172
0.06256180 0.11404720 0.06256172
0.06256180 0.11404720 0.06256172
0.08762842 0.11404720 0.06256172
0.11404720 0.11404720 0.06256172
0.14116579 0.11404720 0.06256172
0.16879328 0.11404720 0.06256179
0.19682816 0.11404720 0.06256180
0.22520604 0.11404720 0.06256172
0.25388195 0.11404720 0.06256172
0.28282246 0.11404720 0.06256172
0.31200166 0.11404720 0.06256172
0.34139877 0.11404720 0.06256185
0.37099673 0.11404720 0.06256185
0.40078124 0.11404720 0.06256187
0.43074012 0.11404720 0.06256172
0.46086289 0.11404720 0.06256172
0.49114037 0.11404720 0.06256189
0.52156448 0.11404720 0.06256172
0.55212806 0.11404720 0.06256172
0.58282467 0.11404720 0.06256172
0.61364852 0.11404720 0.06256172
0.64459437 0.11404720 0.06256172
0.67565743 0.11404720 0.06256172
0.70683334 0.11404720 0.06256172
0.73811807 0.11404720 0.06256172
0.76950791 0.11404720 0.06256172
0.80099944 0.11404720 0.06256204
0.83258945 0.11404720 0.06256213
0.86427498 0.11404720 0.06256172
0.89605325 0.11404720 0.06256213
0.91886608 0.11404720 0.06256172
0.91886608 0.11404720 0.06256219
0.06256178 0.14116579 0.06256172
0.06256178 0.14116579 0.06256172
0.06256178 0.14116579 0.06256172
0.08762842 0.14116579 0.06256172
0.11404720 0.14116579 0.06256172
0.14116579 0.14116579 0.06256172
0.16879328 0.14116579 0.06256181
0.19682816 0.14116579 0.06256172
0.22520604 0.14116579 0.06256172
0.25388195 0.14116579 0.06256182
0.28282246 0.14116579 0.06256184
0.31200166 0.14116579 0.06256172
0.34139877 0.14116579 0.06256172
0.37099673 0.14116579 0.06256172
0.40078124 0.14116579 0.06256187
0.43074012 0.14116579 0.06256172
0.46086289 0.14116579 0.06256172
0.49114037 0.14116579 0.06256172
0.52156448 0.14116579 0.06256172
0.55212806 0.14116579 0.06256172
0.58282467 0.14116579 0.06256172
0.61364852 0.14116579 0.06256172
0.64459437 0.14116579 0.06256172
0.67565743 0.14116579 0.06256172
0.70683334 0.14116579 0.06256172
0.73811807 0.14116579 0.06256200
0.76950791 0.14116579 0.06256204
0.80099944 0.14116579 0.06256172
0.83258945 0.14116579 0.06256208
0.86427498 0.14116579 0.06256172
0.89605325 0.14116579 0.06256172
0.91886608 0.14116579 0.06256172
0.91886608 0.14116579 0.06256219
0.06256180 0.16879328 0.06256172
0.06256180 0.16879328 0.06256172
0.06256180 0.16879328 0.06256172
0.08762842 0.16879328 0.06256172
0.11404720 0.16879328 0.06256172
0.14116579 0.16879328 0.06256172
0.16879328 0.16879328 0.06256180
0.19682816 0.16879328 0.06256172
0.22520604 0.16879328 0.06256172
0.25388195 0.16879328 0.06256172
0.28282246 0.16879328 0.06256172
0.31200166 0.16879328 0.06256172
0.34139877 0.16879328 0.06256172
0.37099673 0.16879328 0.06256185
0.40078124 0.16879328 0.06256187
0.43074012 0.16879328 0.06256172
0.46086289 0.16879328 0.06256172
0.49114037 0.16879328 0.06256172
0.52156448 0.16879328 0.06256172
0.55212806 0.16879328 0.06256172
0.58282467 0.16879328 0.06256172
0.61364852 0.16879328 0.06256172
0.64459437 0.16879328 0.06256197
0.67565743 0.16879328 0.06256197
0.70683334 0.16879328 0.06256172
0.73811807 0.16879328 0.06256200
0.76950791 0.16879328 0.06256172
0.80099944 0.16879328 0.06256208
0.83258945 0.16879328 0.06256208
0.86427498 0.16879328 0.06256172
0.89605325 0.16879328 0.06256172
0.91886608 0.16879328 0.06256172
0.91886608 0.16879328 0.06256172
0.06256183 0.19682816 0.06256172
0.06256183 0.19682816 0.06256172
0.06256183 0.19682816 0.06256172
0.08762842 0.19682816 0.06256172
0.11404720 0.19682816 0.06256172
0.14116579 0.19682816 0.06256172
0.16879328 0.19682816 0.06256172
0.19682816 0.19682816 0.06256172
0.22520604 0.19682816 0.06256172
0.25388195 0.19682816 0.06256172
0.28282246 0.19682816 0.06256184
0.31200166 0.19682816 0.06256172
0.34139877 0.19682816 0.06256172
0.37099673 0.19682816 0.06256172
0.40078124 0.19682816 0.06256187
0.43074012 0.19682816 0.06256172
0.46086289 0.19682816 0.06256172
0.49114037 0.19682816 0.06256172
0.52156448 0.19682816 0.06256191
0.55212806 0.19682816 0.06256191
0.58282467 0.19682816 0.06256172
0.61364852 0.19682816 0.06256172
0.64459437 0.19682816 0.06256172
0.67565743 0.19682816 0.06256197
0.70683334 0.19682816 0.06256172
0.73811807 0.19682816 0.06256172
0.76950791 0.19682816 0.06256172
0.80099944 0.19682816 0.06256172
0.83258945 0.19682816 0.06256172
0.86427498 0.19682816 0.06256172
0.89605325 0.19682816 0.06256172
0.91886608 0.19682816 0.06256172
0.91886608 0.19682816 0.06256172
0.06256172 0.22520604 0.06256172
0.06256172 0.22520604 0.06256172
0.06256172 0.22520604 0.06256172
0.08762842 0.22520604 0.06256172
0.11404720 0.22520604 0.06256172
0.14116579 0.22520604 0.06256182
0.16879328 0.22520604 0.06256172
0.19682816 0.22520604 0.06256172
0.22520604 0.22520604 0.06256172
0.25388195 0.22520604 0.06256172
0.28282246 0.22520604 0.06256172
0.31200166 0.22520604 0.06256172
0.34139877 0.22520604 0.06256172
0.37099673 0.22520604 0.06256185
0.40078124 0.22520604 0.06256187
0.43074012 0.22520604 0.06256172
0.46086289 0.22520604 0.06256189
0.49114037 0.22520604 0.06256191
0.52156448 0.22520604 0.06256172
0.55212806 0.22520604 0.06256172
0.58282467 0.22520604 0.06256172
0.61364852 0.22520604 0.06256172
0.64459437 0.22520604 0.06256172
0.67565743 0.22520604 0.06256172
0.70683334 0.22520604 0.06256172
0.73811807 0.22520604 0.06256200
0.76950791 0.22520604 0.06256172
0.80099944 0.22520604 0.06256204
0.83258945 0.22520604 0.06256172
0.86427498 0.22520604 0.06256172
0.89605325 0.22520604 0.06256172
0.91886608 0.22520604 0.06256172
0.91886608 0.22520604 0.06256172
0.06256184 0.25388195 0.06256172
0.06256184 0.25388195 0.06256172
0.06256184 0.25388195 0.06256172
0.08762842 0.25388195 0.06256172
0.11404720 0.25388195 0.06256172
0.14116579 0.25388195 0.06256172
0.16879328 0.25388195 0.06256172
0.19682816 0.25388195 0.06256172
0.22520604 0.25388195 0.06256184
0.25388195 0.25388195 0.06256172
0.28282246 0.25388195 0.06256184
0.31200166 0.25388195 0.06256185
0.34139877 0.25388195 0.06256185
0.37099673 0.25388195 0.06256187
0.40078124 0.25388195 0.06256172
0.43074012 0.25388195 0.06256172
0.46086289 0.25388195 0.06256189
0.49114037 0.25388195 0.06256172
0.52156448 0.25388195 0.06256172
0.55212806 0.25388195 0.06256172
0.58282467 0.25388195 0.06256172
0.61364852 0.25388195 0.06256172
0.64459437 0.25388195 0.06256172
0.67565743 0.25388195 0.06256197
0.70683334 0.25388195 0.06256200
0.73811807 0.25388195 0.06256200
0.76950791 0.25388195 0.06256172
0.80099944 0.25388195 0.06256172
0.83258945 0.25388195 0.06256208
0.86427498 0.25388195 0.06256172
0.89605325 0.25388195 0.06256172
0.91886608 0.25388195 0.06256172
0.91886608 0.25388195 0.06256172
0.06256186 0.28282246 0.06256172
0.06256186 0.28282246 0.06256172
0.06256186 0.28282246 0.06256172
0.08762842 0.28282246 0.06256172
0.11404720 0.28282246 0.06256172
0.14116579 0.28282246 0.06256172
0.16879328 0.28282246 0.06256172
0.19682816 0.28282246 0.06256172
0.22520604 0.28282246 0.06256172
0.25388195 0.28282246 0.06256172
0.28282246 0.28282246 0.06256172
0.31200166 0.28282246 0.06256172
0.34139877 0.28282246 0.06256172
0.37099673 0.28282246 0.06256172
0.40078124 0.28282246 0.06256172
0.43074012 0.28282246 0.06256172
0.46086289 0.28282246 0.06256172
0.49114037 0.28282246 0.06256191
0.52156448 0.28282246 0.06256172
0.55212806 0.28282246 0.06256172
0.58282467 0.28282246 0.06256172
0.61364852 0.28282246 0.06256172
0.64459437 0.28282246 0.06256197
0.67565743 0.28282246 0.06256197
0.70683334 0.28282246 0.06256172
0.73811807 0.28282246 0.06256200
0.76950791 0.28282246 0.06256172
0.80099944 0.28282246 0.06256172
0.83258945 0.28282246 0.06256172
0.86427498 0.28282246 0.06256172
0.89605325 0.28282246 0.06256172
0.91886608 0.28282246 0.06256172
0.91886608 0.28282246 0.06256172
0.06256188 0.31200166 0.06256172
0.06256188 0.31200166 0.06256172
0.06256188 0.31200166 0.06256172
0.08762842 0.31200166 0.06256172
0.11404720 0.31200166 0.06256172
0.14116579 0.31200166 0.06256172
0.16879328 0.31200166 0.06256172
0.19682816 0.31200166 0.06256172
0.22520604 0.31200166 0.06256172
0.25388195 0.31200166 0.06256172
0.28282246 0.31200166 0.06256172
0.31200166 0.31200166 0.06256185
0.34139877 0.31200166 0.06256172
0.37099673 0.31200166 0.06256172
0.40078124 0.31200166 0.06256187
0.43074012 0.31200166 0.06256172
0.46086289 0.31200166 0.06256172
0.49114037 0.31200166 0.06256172
0.52156448 0.31200166 0.06256172
0.55212806 0.31200166 0.06256172
0.58282467 0.31200166 0.06256194
0.61364852 0.31200166 0.06256172
0.64459437 0.31200166 0.06256172
0.67565743 0.31200166 0.06256197
0.70683334 0.31200166 0.06256172
0.73811807 0.31200166 0.06256200
0.76950791 0.31200166 0.06256172
0.80099944 0.31200166 0.06256172
0.83258945 0.31200166 0.06256172
0.86427498 0.31200166 0.06256172
0.89605325 0.31200166 0.06256172
0.91886608 0.31200166 0.06256172
0.91886608 0.31200166 0.06256172
0.06256185 0.34139877 0.06256185
0.06256185 0.34139877 0.06256185
0.06256185 0.34139877 0.06256185
0.08762842 0.34139877 0.06256185
0.11404720 0.34139877 0.06256185
0.14116579 0.34139877 0.06256185
0.16879328 0.34139877 0.06256172
0.19682816 0.34139877 0.06256172
0.22520604 0.34139877 0.06256172
0.25388195 0.34139877 0.06256185
0.28282246 0.34139877 0.06256172
0.31200166 0.34139877 0.06256172
0.34139877 0.34139877 0.06256172
0.37099673 0.34139877 0.06256172
0.40078124 0.34139877 0.06256172
0.43074012 0.34139877 0.06256172
0.46086289 0.34139877 0.06256189
0.49114037 0.34139877 0.06256172
0.52156448 0.34139877 0.06256172
0.55212806 0.34139877 0.06256172
0.58282467 0.34139877 0.06256172
0.61364852 0.34139877 0.06256172
0.64459437 0.34139877 0.06256197
0.67565743 0.34139877 0.06256172
0.70683334 0.34139877 0.06256172
0.73811807 0.34139877 0.06256172
0.76950791 0.34139877 0.06256204
0.80099944 0.34139877 0.06256204
0.83258945 0.34139877 0.06256172
0.86427498 0.34139877 0.06256172
0.89605325 0.34139877 0.06256172
0.91886608 0.34139877 0.06256172
0.91886608 0.34139877 0.06256219
0.06256182 0.37099673 0.06256172
0.06256182 0.37099673 0.06256172
0.06256182 0.37099673 0.06256172
0.08762842 0.37099673 0.06256172
0.11404720 0.37099673 0.06256172
0.14116579 0.37099673 0.06256172
0.16879328 0.37099673 0.06256187
0.19682816 0.37099673 0.06256172
0.22520604 0.37099673 0.06256172
0.25388195 0.37099673 0.06256172
0.28282246 0.37099673 0.06256187
0.31200166 0.37099673 0.06256172
0.34139877 0.37099673 0.06256172
0.37099673 0.37099673 0.06256172
0.40078124 0.37099673 0.06256172
0.43074012 0.37099673 0.06256172
0.46086289 0.37099673 0.06256189
0.49114037 0.37099673 0.06256172
0.52156448 0.37099673 0.06256191
0.55212806 0.37099673 0.06256172
0.58282467 0.37099673 0.06256172
0.61364852 0.37099673 0.06256172
0.64459437 0.37099673 0.06256172
0.67565743 0.37099673 0.06256172
0.70683334 0.37099673 0.06256172
0.73811807 0.37099673 0.06256172
0.76950791 0.37099673 0.06256172
0.80099944 0.37099673 0.06256172
0.83258945 0.37099673 0.06256172
0.86427498 0.37099673 0.06256172
0.89605325 0.37099673 0.06256172
0.91886608 0.37099673 0.06256172
0.91886608 0.37099673 0.06256219
0.06256186 0.40078124 0.06256172
0.06256186 0.40078124 0.06256172
0.06256186 0.40078124 0.06256172
0.08762842 0.40078124 0.06256172
0.11404720 0.40078124 0.06256172
0.14116579 0.40078124 0.06256172
0.16879328 0.40078124 0.06256172
0.19682816 0.40078124 0.06256172
0.22520604 0.40078124 0.06256172
0.25388195 0.40078124 0.06256172
0.28282246 0.40078124 0.06256187
0.31200166 0.40078124 0.06256172
0.34139877 0.40078124 0.06256172
0.37099673 0.40078124 0.06256172
0.40078124 0.40078124 0.06256172
0.43074012 0.40078124 0.06256189
0.46086289 0.40078124 0.06256172
0.49114037 0.40078124 0.06256191
0.52156448 0.40078124 0.06256172
0.55212806 0.40078124 0.06256172
0.58282467 0.40078124 0.06256172
0.61364852 0.40078124 0.06256172
0.64459437 0.40078124 0.06256172
0.67565743 0.40078124 0.06256172
0.70683334 0.40078124 0.06256172
0.73811807 0.40078124 0.06256172
0.76950791 0.40078124 0.06256172
0.80099944 0.40078124 0.06256172
0.83258945 0.40078124 0.06256208
0.86427498 0.40078124 0.06256172
0.89605325 0.40078124 0.06256172
0.91886608 0.40078124 0.06256172
0.91886608 0.40078124 0.06256172
0.06256191 0.43074012 0.06256172
0.06256191 0.43074012 0.06256172
0.06256191 0.43074012 0.06256172
0.08762842 0.43074012 0.06256172
0.11404720 0.43074012 0.06256172
0.14116579 0.43074012 0.06256172
0.16879328 0.43074012 0.06256172
0.19682816 0.43074012 0.06256172
0.22520604 0.43074012 0.06256172
0.25388195 0.43074012 0.06256172
0.28282246 0.43074012 0.06256172
0.31200166 0.43074012 0.06256172
0.34139877 0.43074012 0.06256189
0.37099673 0.43074012 0.06256172
0.40078124 0.43074012 0.06256172
0.43074012 0.43074012 0.06256172
0.46086289 0.43074012 0.06256172
0.49114037 0.43074012 0.06256172
0.52156448 0.43074012 0.06256172
0.55212806 0.43074012 0.06256172
0.58282467 0.43074012 0.06256172
0.61364852 0.43074012 0.06256172
0.64459437 0.43074012 0.06256197
0.67565743 0.43074012 0.06256200
0.70683334 0.43074012 0.06256172
0.73811807 0.43074012 0.06256172
0.76950791 0.43074012 0.06256172
0.80099944 0.43074012 0.06256172
0.83258945 0.43074012 0.06256208
0.86427498 0.43074012 0.06256172
0.89605325 0.43074012 0.06256172
0.91886608 0.43074012 0.06256172
0.91886608 0.43074012 0.06256219
0.06256172 0.46086289 0.06256189
0.06256172 0.46086289 0.06256189
0.06256172 0.46086289 0.06256189
0.08762842 0.46086289 0.06256172
0.11404720 0.46086289 0.06256189
0.14116579 0.46086289 0.06256189
0.16879328 0.46086289 0.06256172
0.19682816 0.46086289 0.06256172
0.22520604 0.46086289 0.06256172
0.25388195 0.46086289 0.06256172
0.28282246 0.46086289 0.06256172
0.31200166 0.46086289 0.06256172
0.34139877 0.46086289 0.06256172
0.37099673 0.46086289 0.06256172
0.40078124 0.46086289 0.06256172
0.43074012 0.46086289 0.06256191
0.46086289 0.46086289 0.06256172
0.49114037 0.46086289 0.06256172
0.52156448 0.46086289 0.06256172
0.55212806 0.46086289 0.06256194
0.58282467 0.46086289 0.06256172
0.61364852 0.46086289 0.06256172
0.64459437 0.46086289 0.06256172
0.67565743 0.46086289 0.06256172
0.70683334 0.46086289 0.06256172
0.73811807 0.46086289 0.06256172
0.76950791 0.46086289 0.06256172
0.80099944 0.46086289 0.06256172
0.83258945 0.46086289 0.06256172
0.86427498 0.46086289 0.06256172
0.89605325 0.46086289 0.06256172
0.91886608 0.46086289 0.06256172
0.91886608 0.46086289 0.06256172
0.06256194 0.49114037 0.06256172
0.06256194 0.49114037 0.06256172
0.06256194 0.49114037 0.06256172
0.08762842 0.49114037 0.06256172
0.11404720 0.49114037 0.06256172
0.14116579 0.49114037 0.06256172
0.16879328 0.49114037 0.06256172
0.19682816 0.49114037 0.06256172
0.22520604 0.49114037 0.06256172
0.25388195 0.49114037 0.06256191
0.28282246 0.49114037 0.06256191
0.31200166 0.49114037 0.06256191
0.34139877 0.49114037 0.06256172
0.37099673 0.49114037 0.06256191
0.40078124 0.49114037 0.06256191
0.43074012 0.49114037 0.06256172
0.46086289 0.49114037 0.06256191
0.49114037 0.49114037 0.06256194
0.52156448 0.49114037 0.06256194
0.55212806 0.49114037 0.06256194
0.58282467 0.49114037 0.06256172
0.61364852 0.49114037 0.06256172
0.64459437 0.49114037 0.06256172
0.67565743 0.49114037 0.06256172
0.70683334 0.49114037 0.06256200
0.73811807 0.49114037 0.06256172
0.76950791 0.49114037 0.06256172
0.80099944 0.49114037 0.06256204
0.83258945 0.49114037 0.06256172
0.86427498 0.49114037 0.06256172
0.89605325 0.49114037 0.06256172
0.91886608 0.49114037 0.06256172
0.91886608 0.49114037 0.06256172
0.06256192 0.52156448 0.06256172
0.06256192 0.52156448 0.06256172
0.06256192 0.52156448 0.06256172
0.08762842 0.52156448 0.06256172
0.11404720 0.52156448 0.06256172
0.14116579 0.52156448 0.06256172
0.16879328 0.52156448 0.06256172
0.19682816 0.52156448 0.06256172
0.22520604 0.52156448 0.06256172
0.25388195 0.52156448 0.06256172
0.28282246 0.52156448 0.06256172
0.31200166 0.52156448 0.06256172
0.34139877 0.52156448 0.06256172
0.37099673 0.52156448 0.06256172
0.40078124 0.52156448 0.06256172
0.43074012 0.52156448 0.06256194
0.46086289 0.52156448 0.06256172
0.49114037 0.52156448 0.06256172
0.52156448 0.52156448 0.06256194
0.55212806 0.52156448 0.06256172
0.58282467 0.52156448 0.06256172
0.61364852 0.52156448 0.06256172
0.64459437 0.52156448 0.06256197
0.67565743 0.52156448 0.06256172
0.70683334 0.52156448 0.06256172
0.73811807 0.52156448 0.06256172
0.76950791 0.52156448 0.06256172
0.80099944 0.52156448 0.06256172
0.83258945 0.52156448 0.06256172
0.86427498 0.52156448 0.06256172
0.89605325 0.52156448 0.06256172
0.91886608 0.52156448 0.06256172
0.91886608 0.52156448 0.06256172
0.06256197 0.55212806 0.06256172
0.06256197 0.55212806 0.06256172
0.06256197 0.55212806 0.06256172
0.08762842 0.55212806 0.06256172
0.11404720 0.55212806 0.06256172
0.14116579 0.55212806 0.06256172
0.16879328 0.55212806 0.06256172
0.19682816 0.55212806 0.06256172
0.22520604 0.55212806 0.06256172
0.25388195 0.55212806 0.06256172
0.28282246 0.55212806 0.06256172
0.31200166 0.55212806 0.06256194
0.34139877 0.55212806 0.06256172
0.37099673 0.55212806 0.06256172
0.40078124 0.55212806 0.06256172
0.43074012 0.55212806 0.06256194
0.46086289 0.55212806 0.06256194
0.49114037 0.55212806 0.06256172
0.52156448 0.55212806 0.06256197
0.55212806 0.55212806 0.06256172
0.58282467 0.55212806 0.06256172
0.61364852 0.55212806 0.06256172
0.64459437 0.55212806 0.06256200
0.67565743 0.55212806 0.06256172
0.70683334 0.55212806 0.06256172
0.73811807 0.55212806 0.06256172
0.76950791 0.55212806 0.06256204
0.80099944 0.55212806 0.06256172
0.83258945 0.55212806 0.06256208
0.86427498 0.55212806 0.06256172
0.89605325 0.55212806 0.06256172
0.91886608 0.55212806 0.06256213
0.91886608 0.55212806 0.06256172
0.06256195 0.58282467 0.06256172
0.06256195 0.58282467 0.06256172
0.06256195 0.58282467 0.06256172
0.08762842 0.58282467 0.06256172
0.11404720 0.58282467 0.06256194
0.14116579 0.58282467 0.06256194
0.16879328 0.58282467 0.06256172
0.19682816 0.58282467 0.06256172
0.22520604 0.58282467 0.06256197
0.25388195 0.58282467 0.06256172
0.28282246 0.58282467 0.06256194
0.31200166 0.58282467 0.06256172
0.34139877 0.58282467 0.06256172
0.37099673 0.58282467 0.06256172
0.40078124 0.58282467 0.06256172
0.43074012 0.58282467 0.06256172
0.46086289 0.58282467 0.06256172
0.49114037 0.58282467 0.06256172
0.52156448 0.58282467 0.06256197
0.55212806 0.58282467 0.06256172
0.58282467 0.58282467 0.06256172
0.61364852 0.58282467 0.06256172
0.64459437 0.58282467 0.06256172
0.67565743 0.58282467 0.06256200
0.70683334 0.58282467 0.06256172
0.73811807 0.58282467 0.06256172
0.76950791 0.58282467 0.06256204
0.80099944 0.58282467 0.06256172
0.83258945 0.58282467 0.06256172
0.86427498 0.58282467 0.06256172
0.89605325 0.58282467 0.06256213
0.91886608 0.58282467 0.06256219
0.91886608 0.58282467 0.06256172
0.06256197 0.61364852 0.06256172
0.06256197 0.61364852 0.06256172
0.06256197 0.61364852 0.06256172
0.08762842 0.61364852 0.06256172
0.11404720 0.61364852 0.06256172
0.14116579 0.61364852 0.06256197
0.16879328 0.61364852 0.06256172
0.19682816 0.61364852 0.06256197
0.22520604 0.61364852 0.06256172
0.25388195 0.61364852 0.06256172
0.28282246 0.61364852 0.06256172
0.31200166 0.61364852 0.06256172
0.34139877 0.61364852 0.06256172
0.37099673 0.61364852 0.06256172
0.40078124 0.61364852 0.06256172
0.43074012 0.61364852 0.06256172
0.46086289 0.61364852 0.06256172
0.49114037 0.61364852 0.06256172
0.52156448 0.61364852 0.06256172
0.55212806 0.61364852 0.06256172
0.58282467 0.61364852 0.06256197
0.61364852 0.61364852 0.06256172
0.64459437 0.61364852 0.06256172
0.67565743 0.61364852 0.06256172
0.70683334 0.61364852 0.06256172
0.73811807 0.61364852 0.06256172
0.76950791 0.61364852 0.06256172
