src/ffmpeg_scripts/luts/luminance_-0p67.cube
TITLE "luminance_-0p67"
LUT_3D_SIZE 9
# PQ (EOTF Only)/Rec2020 -> PQ (EOTF Only)/Rec2020, CineEI Shift -0.67, Black Level 0.00% IRE, Input 109% -> Output 109% - Created with LUTCalc v4.01 by Ben Turley October 2020
0.06256172 0.06256172 0.06256172
0.11404720 0.06256178 0.06256172
0.22520604 0.06256180 0.06256172
0.34139877 0.06256172 0.06256172
0.46086289 0.06256185 0.06256189
0.58282467 0.06256172 0.06256172
0.70683334 0.06256172 0.06256172
0.83258945 0.06256172 0.06256172
0.91886608 0.06256219 0.06256219
0.06256180 0.11404720 0.06256172
0.11404720 0.11404720 0.06256172
0.22520604 0.11404720 0.06256172
0.34139877 0.11404720 0.06256185
0.46086289 0.11404720 0.06256172
0.58282467 0.11404720 0.06256172
0.70683334 0.11404720 0.06256172
0.83258945 0.11404720 0.06256213
0.91886608 0.11404720 0.06256219
0.06256172 0.22520604 0.06256172
0.11404720 0.22520604 0.06256172
0.22520604 0.22520604 0.06256172
0.34139877 0.22520604 0.06256172
0.46086289 0.22520604 0.06256189
0.58282467 0.22520604 0.06256172
0.70683334 0.22520604 0.06256172
0.83258945 0.22520604 0.06256172
0.91886608 0.22520604 0.06256172
0.06256185 0.34139877 0.06256185
0.11404720 0.34139877 0.06256185
0.22520604 0.34139877 0.06256172
0.34139877 0.34139877 0.06256172
0.46086289 0.34139877 0.06256189
0.58282467 0.34139877 0.06256172
0.70683334 0.34139877 0.06256172
0.83258945 0.34139877 0.06256172
0.91886608 0.34139877 0.06256219
0.06256172 0.46086289 0.06256189
0.11404720 0.46086289 0.06256189
0.22520604 0.46086289 0.06256172
0.34139877 0.46086289 0.06256172
0.46086289 0.46086289 0.06256172
0.58282467 0.46086289 0.06256172
0.70683334 0.46086289 0.06256172
0.83258945 0.46086289 0.06256172
0.91886608 0.46086289 0.06256172
0.06256195 0.58282467 0.06256172
0.11404720 0.58282467 0.06256194
0.22520604 0.58282467 0.06256197
0.34139877 0.58282467 0.06256172
0.46086289 0.58282467 0.06256172
0.58282467 0.58282467 0.06256172
0.70683334 0.58282467 0.06256172
0.83258945 0.58282467 0.06256172
0.91886608 0.58282467 0.06256172
0.06256204 0.70683334 0.06256172
0.11404720 0.70683334 0.06256172
0.22520604 0.70683334 0.06256172
0.34139877 0.70683334 0.06256172
0.46086289 0.70683334 0.06256172
0.58282467 0.70683334 0.06256172
0.70683334 0.70683334 0.06256204
0.83258945 0.70683334 0.06256208
0.91886608 0.70683334 0.06256227
0.06256211 0.83258945 0.06256172
0.11404720 0.83258945 0.06256172
0.22520604 0.83258945 0.06256172
0.34139877 0.83258945 0.06256172
0.46086289 0.83258945 0.06256172
0.58282467 0.83258945 0.06256172
0.70683334 0.83258945 0.06256172
0.83258945 0.83258945 0.06256172
0.91886608 0.83258945 0.06256219
0.06256225 0.91886608 0.06256172
0.11404720 0.91886608 0.06256219
0.22520604 0.91886608 0.06256172
0.34139877 0.91886608 0.06256172
0.46086289 0.91886608 0.06256172
0.58282467 0.91886608 0.06256172
0.70683334 0.91886608 0.06256172
0.83258945 0.91886608 0.06256172
0.91886608 0.91886608 0.06256172
0.06256172 0.06256172 0.11404720
0.11404720 0.06256179 0.11404720
0.22520604 0.06256172 0.11404720
0.34139877 0.06256172 0.11404720
0.46086289 0.06256187 0.11404720
0.58282467 0.06256172 0.11404720
0.70683334 0.06256172 0.11404720
0.83258945 0.06256207 0.11404720
0.91886608 0.06256172 0.11404720
0.06256172 0.11404720 0.11404720
0.11404720 0.11404720 0.11404720
0.22520604 0.11404720 0.11404720
0.34139877 0.11404720 0.11404720
0.46086289 0.11404720 0.11404720
0.58282467 0.11404720 0.11404720
0.70683334 0.11404720 0.11404720
0.83258945 0.11404720 0.11404720
0.91886608 0.11404720 0.11404720
0.06256180 0.22520604 0.11404720
0.11404720 0.22520604 0.11404720
0.22520604 0.22520604 0.11404720
0.34139877 0.22520604 0.11404720
0.46086289 0.22520604 0.11404720
0.58282467 0.22520604 0.11404720
0.70683334 0.22520604 0.11404720
0.83258945 0.22520604 0.11404720
0.91886608 0.22520604 0.11404720
0.06256183 0.34139877 0.11404720
0.11404720 0.34139877 0.11404720
0.22520604 0.34139877 0.11404720
0.34139877 0.34139877 0.11404720
0.46086289 0.34139877 0.11404720
0.58282467 0.34139877 0.11404720
0.70683334 0.34139877 0.11404720
0.83258945 0.34139877 0.11404720
0.91886608 0.34139877 0.11404720
0.06256185 0.46086289 0.11404720
0.11404720 0.46086289 0.11404720
0.22520604 0.46086289 0.11404720
0.34139877 0.46086289 0.11404720
0.46086289 0.46086289 0.11404720
0.58282467 0.46086289 0.11404720
0.70683334 0.46086289 0.11404720
0.83258945 0.46086289 0.11404720
0.91886608 0.46086289 0.11404720
0.06256194 0.58282467 0.11404720
0.11404720 0.58282467 0.11404720
0.22520604 0.58282467 0.11404720
0.34139877 0.58282467 0.11404720
0.46086289 0.58282467 0.11404720
0.58282467 0.58282467 0.11404720
0.70683334 0.58282467 0.11404720
0.83258945 0.58282467 0.11404720
0.91886608 0.58282467 0.11404720
0.06256206 0.70683334 0.11404720
0.11404720 0.70683334 0.11404720
0.22520604 0.70683334 0.11404720
0.34139877 0.70683334 0.11404720
0.46086289 0.70683334 0.11404720
0.58282467 0.70683334 0.11404720
0.70683334 0.70683334 0.11404720
0.83258945 0.70683334 0.11404720
0.91886608 0.70683334 0.11404720
0.06256210 0.83258945 0.11404720
0.11404720 0.83258945 0.11404720
0.22520604 0.83258945 0.11404720
0.34139877 0.83258945 0.11404720
0.46086289 0.83258945 0.11404720
0.58282467 0.83258945 0.11404720
0.70683334 0.83258945 0.11404720
0.83258945 0.83258945 0.11404720
0.91886608 0.83258945 0.11404720
0.06256232 0.91886608 0.11404720
0.11404720 0.91886608 0.11404720
0.22520604 0.91886608 0.11404720
0.34139877 0.91886608 0.11404720
0.46086289 0.91886608 0.11404720
0.58282467 0.91886608 0.11404720
0.70683334 0.91886608 0.11404720
0.83258945 0.91886608 0.11404720
0.91886608 0.91886608 0.11404720
0.06256172 0.06256185 0.22520604
0.11404720 0.06256172 0.22520604
0.22520604 0.06256185 0.22520604
0.34139877 0.06256185 0.22520604
0.46086289 0.06256172 0.22520604
0.58282467 0.06256172 0.22520604
0.70683334 0.06256200 0.22520604
0.83258945 0.06256216 0.22520604
0.91886608 0.06256213 0.22520604
0.06256172 0.11404720 0.22520604
0.11404720 0.11404720 0.22520604
0.22520604 0.11404720 0.22520604
0.34139877 0.11404720 0.22520604
0.46086289 0.11404720 0.22520604
0.58282467 0.11404720 0.22520604
0.70683334 0.11404720 0.22520604
0.83258945 0.11404720 0.22520604
0.91886608 0.11404720 0.22520604
0.06256172 0.22520604 0.22520604
0.11404720 0.22520604 0.22520604
0.22520604 0.22520604 0.22520604
0.34139877 0.22520604 0.22520604
0.46086289 0.22520604 0.22520604
0.58282467 0.22520604 0.22520604
0.70683334 0.22520604 0.22520604
0.83258945 0.22520604 0.22520604
0.91886608 0.22520604 0.22520604
0.06256187 0.34139877 0.22520604
0.11404720 0.34139877 0.22520604
0.22520604 0.34139877 0.22520604
0.34139877 0.34139877 0.22520604
0.46086289 0.34139877 0.22520604
0.58282467 0.34139877 0.22520604
0.70683334 0.34139877 0.22520604
0.83258945 0.34139877 0.22520604
0.91886608 0.34139877 0.22520604
0.06256190 0.46086289 0.22520604
0.11404720 0.46086289 0.22520604
0.22520604 0.46086289 0.22520604
0.34139877 0.46086289 0.22520604
0.46086289 0.46086289 0.22520604
0.58282467 0.46086289 0.22520604
0.70683334 0.46086289 0.22520604
0.83258945 0.46086289 0.22520604
0.91886608 0.46086289 0.22520604
0.06256196 0.58282467 0.22520604
0.11404720 0.58282467 0.22520604
0.22520604 0.58282467 0.22520604
0.34139877 0.58282467 0.22520604
0.46086289 0.58282467 0.22520604
0.58282467 0.58282467 0.22520604
0.70683334 0.58282467 0.22520604
0.83258945 0.58282467 0.22520604
0.91886608 0.58282467 0.22520604
0.06256191 0.70683334 0.22520604
0.11404720 0.70683334 0.22520604
0.22520604 0.70683334 0.22520604
0.34139877 0.70683334 0.22520604
0.46086289 0.70683334 0.22520604
0.58282467 0.70683334 0.22520604
0.70683334 0.70683334 0.22520604
0.83258945 0.70683334 0.22520604
0.91886608 0.70683334 0.22520604
0.06256214 0.83258945 0.22520604
0.11404720 0.83258945 0.22520604
0.22520604 0.83258945 0.22520604
0.34139877 0.83258945 0.22520604
0.46086289 0.83258945 0.22520604
0.58282467 0.83258945 0.22520604
0.70683334 0.83258945 0.22520604
0.83258945 0.83258945 0.22520604
0.91886608 0.83258945 0.22520604
0.06256233 0.91886608 0.22520604
0.11404720 0.91886608 0.22520604
0.22520604 0.91886608 0.22520604
0.34139877 0.91886608 0.22520604
0.46086289 0.91886608 0.22520604
0.58282467 0.91886608 0.22520604
0.70683334 0.91886608 0.22520604
0.83258945 0.91886608 0.22520604
0.91886608 0.91886608 0.22520604
0.06256187 0.06256191 0.34139877
0.11404720 0.06256189 0.34139877
0.22520604 0.06256191 0.34139877
0.34139877 0.06256193 0.34139877
0.46086289 0.06256194 0.34139877
0.58282467 0.06256198 0.34139877
0.70683334 0.06256172 0.34139877
0.83258945 0.06256172 0.34139877
0.91886608 0.06256219 0.34139877
0.06256172 0.11404720 0.34139877
0.11404720 0.11404720 0.34139877
0.22520604 0.11404720 0.34139877
0.34139877 0.11404720 0.34139877
0.46086289 0.11404720 0.34139877
0.58282467 0.11404720 0.34139877
0.70683334 0.11404720 0.34139877
0.83258945 0.11404720 0.34139877
0.91886608 0.11404720 0.34139877
0.06256172 0.22520604 0.34139877
0.11404720 0.22520604 0.34139877
0.22520604 0.22520604 0.34139877
0.34139877 0.22520604 0.34139877
0.46086289 0.22520604 0.34139877
0.58282467 0.22520604 0.34139877
0.70683334 0.22520604 0.34139877
0.83258945 0.22520604 0.34139877
0.91886608 0.22520604 0.34139877
0.06256189 0.34139877 0.34139877
0.11404720 0.34139877 0.34139877
0.22520604 0.34139877 0.34139877
0.34139877 0.34139877 0.34139877
0.46086289 0.34139877 0.34139877
0.58282467 0.34139877 0.34139877
0.70683334 0.34139877 0.34139877
0.83258945 0.34139877 0.34139877
0.91886608 0.34139877 0.34139877
0.06256191 0.46086289 0.34139877
0.11404720 0.46086289 0.34139877
0.22520604 0.46086289 0.34139877
0.34139877 0.46086289 0.34139877
0.46086289 0.46086289 0.34139877
0.58282467 0.46086289 0.34139877
0.70683334 0.46086289 0.34139877
0.83258945 0.46086289 0.34139877
0.91886608 0.46086289 0.34139877
0.06256199 0.58282467 0.34139877
0.11404720 0.58282467 0.34139877
0.22520604 0.58282467 0.34139877
0.34139877 0.58282467 0.34139877
0.46086289 0.58282467 0.34139877
0.58282467 0.58282467 0.34139877
0.70683334 0.58282467 0.34139877
0.83258945 0.58282467 0.34139877
0.91886608 0.58282467 0.34139877
0.06256205 0.70683334 0.34139877
0.11404720 0.70683334 0.34139877
0.22520604 0.70683334 0.34139877
0.34139877 0.70683334 0.34139877
0.46086289 0.70683334 0.34139877
0.58282467 0.70683334 0.34139877
0.70683334 0.70683334 0.34139877
0.83258945 0.70683334 0.34139877
0.91886608 0.70683334 0.34139877
0.06256172 0.83258945 0.34139877
0.11404720 0.83258945 0.34139877
0.22520604 0.83258945 0.34139877
0.34139877 0.83258945 0.34139877
0.46086289 0.83258945 0.34139877
0.58282467 0.83258945 0.34139877
0.70683334 0.83258945 0.34139877
0.83258945 0.83258945 0.34139877
0.91886608 0.83258945 0.34139877
0.06256172 0.91886608 0.34139877
0.11404720 0.91886608 0.34139877
0.22520604 0.91886608 0.34139877
0.34139877 0.91886608 0.34139877
0.46086289 0.91886608 0.34139877
0.58282467 0.91886608 0.34139877
0.70683334 0.91886608 0.34139877
0.83258945 0.91886608 0.34139877
0.91886608 0.91886608 0.34139877
0.06256172 0.06256172 0.46086289
0.11404720 0.06256200 0.46086289
0.22520604 0.06256172 0.46086289
0.34139877 0.06256197 0.46086289
0.46086289 0.06256172 0.46086289
0.58282467 0.06256172 0.46086289
0.70683334 0.06256172 0.46086289
0.83258945 0.06256208 0.46086289
0.91886608 0.06256217 0.46086289
0.06256172 0.11404720 0.46086289
0.11404720 0.11404720 0.46086289
0.22520604 0.11404720 0.46086289
0.34139877 0.11404720 0.46086289
0.46086289 0.11404720 0.46086289
0.58282467 0.11404720 0.46086289
0.70683334 0.11404720 0.46086289
0.83258945 0.11404720 0.46086289
0.91886608 0.11404720 0.46086289
0.06256172 0.22520604 0.46086289
0.11404720 0.22520604 0.46086289
0.22520604 0.22520604 0.46086289
0.34139877 0.22520604 0.46086289
0.46086289 0.22520604 0.46086289
0.58282467 0.22520604 0.46086289
0.70683334 0.22520604 0.46086289
0.83258945 0.22520604 0.46086289
0.91886608 0.22520604 0.46086289
0.06256191 0.34139877 0.46086289
0.11404720 0.34139877 0.46086289
0.22520604 0.34139877 0.46086289
0.34139877 0.34139877 0.46086289
0.46086289 0.34139877 0.46086289
0.58282467 0.34139877 0.46086289
0.70683334 0.34139877 0.46086289
0.83258945 0.34139877 0.46086289
0.91886608 0.34139877 0.46086289
0.06256172 0.46086289 0.46086289
0.11404720 0.46086289 0.46086289
0.22520604 0.46086289 0.46086289
0.34139877 0.46086289 0.46086289
0.46086289 0.46086289 0.46086289
0.58282467 0.46086289 0.46086289
0.70683334 0.46086289 0.46086289
0.83258945 0.46086289 0.46086289
0.91886608 0.46086289 0.46086289
0.06256198 0.58282467 0.46086289
0.11404720 0.58282467 0.46086289
0.22520604 0.58282467 0.46086289
0.34139877 0.58282467 0.46086289
0.46086289 0.58282467 0.46086289
0.58282467 0.58282467 0.46086289
0.70683334 0.58282467 0.46086289
0.83258945 0.58282467 0.46086289
0.91886608 0.58282467 0.46086289
0.06256206 0.70683334 0.46086289
0.11404720 0.70683334 0.46086289
0.22520604 0.70683334 0.46086289
0.34139877 0.70683334 0.46086289
0.46086289 0.70683334 0.46086289
0.58282467 0.70683334 0.46086289
0.70683334 0.70683334 0.46086289
0.83258945 0.70683334 0.46086289
0.91886608 0.70683334 0.46086289
0.06256215 0.83258945 0.46086289
0.11404720 0.83258945 0.46086289
0.22520604 0.83258945 0.46086289
0.34139877 0.83258945 0.46086289
0.46086289 0.83258945 0.46086289
0.58282467 0.83258945 0.46086289
0.70683334 0.83258945 0.46086289
0.83258945 0.83258945 0.46086289
0.91886608 0.83258945 0.46086289
0.06256172 0.91886608 0.46086289
0.11404720 0.91886608 0.46086289
0.22520604 0.91886608 0.46086289
0.34139877 0.91886608 0.46086289
0.46086289 0.91886608 0.46086289
0.58282467 0.91886608 0.46086289
0.70683334 0.91886608 0.46086289
0.83258945 0.91886608 0.46086289
0.91886608 0.91886608 0.46086289
0.06256172 0.06256208 0.58282467
0.11404720 0.06256204 0.58282467
0.22520604 0.06256208 0.58282467
0.34139877 0.06256204 0.58282467
0.46086289 0.06256211 0.58282467
0.58282467 0.06256208 0.58282467
0.70683334 0.06256204 0.58282467
0.83258945 0.06256172 0.58282467
0.91886608 0.06256172 0.58282467
0.06256172 0.11404720 0.58282467
0.11404720 0.11404720 0.58282467
0.22520604 0.11404720 0.58282467
0.34139877 0.11404720 0.58282467
0.46086289 0.11404720 0.58282467
0.58282467 0.11404720 0.58282467
0.70683334 0.11404720 0.58282467
0.83258945 0.11404720 0.58282467
0.91886608 0.11404720 0.58282467
0.06256197 0.22520604 0.58282467
0.11404720 0.22520604 0.58282467
0.22520604 0.22520604 0.58282467
0.34139877 0.22520604 0.58282467
0.46086289 0.22520604 0.58282467
0.58282467 0.22520604 0.58282467
0.70683334 0.22520604 0.58282467
0.83258945 0.22520604 0.58282467
0.91886608 0.22520604 0.58282467
0.06256197 0.34139877 0.58282467
0.11404720 0.34139877 0.58282467
0.22520604 0.34139877 0.58282467
0.34139877 0.34139877 0.58282467
0.46086289 0.34139877 0.58282467
0.58282467 0.34139877 0.58282467
0.70683334 0.34139877 0.58282467
0.83258945 0.34139877 0.58282467
0.91886608 0.34139877 0.58282467
0.06256172 0.46086289 0.58282467
0.11404720 0.46086289 0.58282467
0.22520604 0.46086289 0.58282467
0.34139877 0.46086289 0.58282467
0.46086289 0.46086289 0.58282467
0.58282467 0.46086289 0.58282467
0.70683334 0.46086289 0.58282467
0.83258945 0.46086289 0.58282467
0.91886608 0.46086289 0.58282467
0.06256197 0.58282467 0.58282467
0.11404720 0.58282467 0.58282467
0.22520604 0.58282467 0.58282467
0.34139877 0.58282467 0.58282467
0.46086289 0.58282467 0.58282467
0.58282467 0.58282467 0.58282467
0.70683334 0.58282467 0.58282467
0.83258945 0.58282467 0.58282467
0.91886608 0.58282467 0.58282467
0.06256208 0.70683334 0.58282467
0.11404720 0.70683334 0.58282467
0.22520604 0.70683334 0.58282467
0.34139877 0.70683334 0.58282467
0.46086289 0.70683334 0.58282467
0.58282467 0.70683334 0.58282467
0.70683334 0.70683334 0.58282467
0.83258945 0.70683334 0.58282467
0.91886608 0.70683334 0.58282467
0.06256200 0.83258945 0.58282467
0.11404720 0.83258945 0.58282467
0.22520604 0.83258945 0.58282467
0.34139877 0.83258945 0.58282467
0.46086289 0.83258945 0.58282467
0.58282467 0.83258945 0.58282467
0.70683334 0.83258945 0.58282467
0.83258945 0.83258945 0.58282467
0.91886608 0.83258945 0.58282467
0.06256231 0.91886608 0.58282467
0.11404720 0.91886608 0.58282467
0.22520604 0.91886608 0.58282467
0.34139877 0.91886608 0.58282467
0.46086289 0.91886608 0.58282467
0.58282467 0.91886608 0.58282467
0.70683334 0.91886608 0.58282467
0.83258945 0.91886608 0.58282467
0.91886608 0.91886608 0.58282467
0.06256172 0.06256208 0.70683334
0.11404720 0.06256217 0.70683334
0.22520604 0.06256172 0.70683334
0.34139877 0.06256213 0.70683334
0.46086289 0.06256217 0.70683334
0.58282467 0.06256172 0.70683334
0.70683334 0.06256219 0.70683334
0.83258945 0.06256172 0.70683334
0.91886608 0.06256172 0.70683334
0.06256172 0.11404720 0.70683334
0.11404720 0.11404720 0.70683334
0.22520604 0.11404720 0.70683334
0.34139877 0.11404720 0.70683334
0.46086289 0.11404720 0.70683334
0.58282467 0.11404720 0.70683334
0.70683334 0.11404720 0.70683334
0.83258945 0.11404720 0.70683334
0.91886608 0.11404720 0.70683334
0.06256172 0.22520604 0.70683334
0.11404720 0.22520604 0.70683334
0.22520604 0.22520604 0.70683334
0.34139877 0.22520604 0.70683334
0.46086289 0.22520604 0.70683334
0.58282467 0.22520604 0.70683334
0.70683334 0.22520604 0.70683334
0.83258945 0.22520604 0.70683334
0.91886608 0.22520604 0.70683334
0.06256172 0.34139877 0.70683334
0.11404720 0.34139877 0.70683334
0.22520604 0.34139877 0.70683334
0.34139877 0.34139877 0.70683334
0.46086289 0.34139877 0.70683334
0.58282467 0.34139877 0.70683334
0.70683334 0.34139877 0.70683334
0.83258945 0.34139877 0.70683334
0.91886608 0.34139877 0.70683334
0.06256172 0.46086289 0.70683334
0.11404720 0.46086289 0.70683334
0.22520604 0.46086289 0.70683334
0.34139877 0.46086289 0.70683334
0.46086289 0.46086289 0.70683334
0.58282467 0.46086289 0.70683334
0.70683334 0.46086289 0.70683334
0.83258945 0.46086289 0.70683334
0.91886608 0.46086289 0.70683334
0.06256172 0.58282467 0.70683334
0.11404720 0.58282467 0.70683334
0.22520604 0.58282467 0.70683334
0.34139877 0.58282467 0.70683334
0.46086289 0.58282467 0.70683334
0.58282467 0.58282467 0.70683334
0.70683334 0.58282467 0.70683334
0.83258945 0.58282467 0.70683334
0.91886608 0.58282467 0.70683334
0.06256172 0.70683334 0.70683334
0.11404720 0.70683334 0.70683334
0.22520604 0.70683334 0.70683334
0.34139877 0.70683334 0.70683334
0.46086289 0.70683334 0.70683334
0.58282467 0.70683334 0.70683334
0.70683334 0.70683334 0.70683334
0.83258945 0.70683334 0.70683334
0.91886608 0.70683334 0.70683334
0.06256172 0.83258945 0.70683334
0.11404720 0.83258945 0.70683334
0.22520604 0.83258945 0.70683334
0.34139877 0.83258945 0.70683334
0.46086289 0.83258945 0.70683334
0.58282467 0.83258945 0.70683334
0.70683334 0.83258945 0.70683334
0.83258945 0.83258945 0.70683334
0.91886608 0.83258945 0.70683334
0.06256225 0.91886608 0.70683334
0.11404720 0.91886608 0.70683334
0.22520604 0.91886608 0.70683334
0.34139877 0.91886608 0.70683334
0.46086289 0.91886608 0.70683334
0.58282467 0.91886608 0.70683334
0.70683334 0.91886608 0.70683334
0.83258945 0.91886608 0.70683334
0.91886608 0.91886608 0.70683334
0.06256172 0.06256227 0.83258945
0.11404720 0.06256219 0.83258945
0.22520604 0.06256227 0.83258945
0.34139877 0.06256227 0.83258945
0.46086289 0.06256172 0.83258945
0.58282467 0.06256227 0.83258945
0.70683334 0.06256227 0.83258945
0.83258945 0.06256219 0.83258945
0.91886608 0.06256227 0.83258945
0.06256172 0.11404720 0.83258945
0.11404720 0.11404720 0.83258945
0.22520604 0.11404720 0.83258945
0.34139877 0.11404720 0.83258945
0.46086289 0.11404720 0.83258945
0.58282467 0.11404720 0.83258945
0.70683334 0.11404720 0.83258945
0.83258945 0.11404720 0.83258945
0.91886608 0.11404720 0.83258945
0.06256172 0.22520604 0.83258945
0.11404720 0.22520604 0.83258945
0.22520604 0.22520604 0.83258945
0.34139877 0.22520604 0.83258945
0.46086289 0.22520604 0.83258945
0.58282467 0.22520604 0.83258945
0.70683334 0.22520604 0.83258945
0.83258945 0.22520604 0.83258945
0.91886608 0.22520604 0.83258945
0.06256172 0.34139877 0.83258945
0.11404720 0.34139877 0.83258945
0.22520604 0.34139877 0.83258945
0.34139877 0.34139877 0.83258945
0.46086289 0.34139877 0.83258945
0.58282467 0.34139877 0.83258945
0.70683334 0.34139877 0.83258945
0.83258945 0.34139877 0.83258945
0.91886608 0.34139877 0.83258945
0.06256172 0.46086289 0.83258945
0.11404720 0.46086289 0.83258945
0.22520604 0.46086289 0.83258945
0.34139877 0.46086289 0.83258945
0.46086289 0.46086289 0.83258945
0.58282467 0.46086289 0.83258945
0.70683334 0.46086289 0.83258945
0.83258945 0.46086289 0.83258945
0.91886608 0.46086289 0.83258945
0.06256213 0.58282467 0.83258945
0.11404720 0.58282467 0.83258945
0.22520604 0.58282467 0.83258945
0.34139877 0.58282467 0.83258945
0.46086289 0.58282467 0.83258945
0.58282467 0.58282467 0.83258945
0.70683334 0.58282467 0.83258945
0.83258945 0.58282467 0.83258945
0.91886608 0.58282467 0.83258945
0.06256172 0.70683334 0.83258945
0.11404720 0.70683334 0.83258945
0.22520604 0.70683334 0.83258945
0.34139877 0.70683334 0.83258945
0.46086289 0.70683334 0.83258945
0.58282467 0.70683334 0.83258945
0.70683334 0.70683334 0.83258945
0.83258945 0.70683334 0.83258945
0.91886608 0.70683334 0.83258945
0.06256172 0.83258945 0.83258945
0.11404720 0.83258945 0.83258945
0.22520604 0.83258945 0.83258945
0.34139877 0.83258945 0.83258945
0.46086289 0.83258945 0.83258945
0.58282467 0.83258945 0.83258945
0.70683334 0.83258945 0.83258945
0.83258945 0.83258945 0.83258945
0.91886608 0.83258945 0.83258945
0.06256235 0.91886608 0.83258945
0.11404720 0.91886608 0.83258945
0.22520604 0.91886608 0.83258945
0.34139877 0.91886608 0.83258945
0.46086289 0.91886608 0.83258945
0.58282467 0.91886608 0.83258945
0.70683334 0.91886608 0.83258945
0.83258945 0.91886608 0.83258945
0.91886608 0.91886608 0.83258945
0.06256227 0.06256252 0.91886608
0.11404720 0.06256245 0.91886608
0.22520604 0.06256245 0.91886608
0.34139877 0.06256245 0.91886608
0.46086289 0.06256245 0.91886608
0.58282467 0.06256235 0.91886608
0.70683334 0.06256235 0.91886608
0.83258945 0.06256172 0.91886608
0.91886608 0.06256172 0.91886608
0.06256227 0.11404720 0.91886608
0.11404720 0.11404720 0.91886608
0.22520604 0.11404720 0.91886608
0.34139877 0.11404720 0.91886608
0.46086289 0.11404720 0.91886608
0.58282467 0.11404720 0.91886608
0.70683334 0.11404720 0.91886608
0.83258945 0.11404720 0.91886608
0.91886608 0.11404720 0.91886608
0.06256227 0.22520604 0.91886608
0.11404720 0.22520604 0.91886608
0.22520604 0.22520604 0.91886608
0.34139877 0.22520604 0.91886608
0.46086289 0.22520604 0.91886608
0.58282467 0.22520604 0.91886608
0.70683334 0.22520604 0.91886608
0.83258945 0.22520604 0.91886608
0.91886608 0.22520604 0.91886608
0.06256172 0.34139877 0.91886608
0.11404720 0.34139877 0.91886608
0.22520604 0.34139877 0.91886608
0.34139877 0.34139877 0.91886608
0.46086289 0.34139877 0.91886608
0.58282467 0.34139877 0.91886608
0.70683334 0.34139877 0.91886608
0.83258945 0.34139877 0.91886608
0.91886608 0.34139877 0.91886608
0.06256172 0.46086289 0.91886608
0.11404720 0.46086289 0.91886608
0.22520604 0.46086289 0.91886608
0.34139877 0.46086289 0.91886608
0.46086289 0.46086289 0.91886608
0.58282467 0.46086289 0.91886608
0.70683334 0.46086289 0.91886608
0.83258945 0.46086289 0.91886608
0.91886608 0.46086289 0.91886608
0.06256172 0.58282467 0.91886608
0.11404720 0.58282467 0.91886608
0.22520604 0.58282467 0.91886608
0.34139877 0.58282467 0.91886608
0.46086289 0.58282467 0.91886608
0.58282467 0.58282467 0.91886608
0.70683334 0.58282467 0.91886608
0.83258945 0.58282467 0.91886608
0.91886608 0.58282467 0.91886608
0.06256172 0.70683334 0.91886608
0.11404720 0.70683334 0.91886608
0.22520604 0.70683334 0.91886608
0.34139877 0.70683334 0.91886608
0.46086289 0.70683334 0.91886608
0.58282467 0.70683334 0.91886608
0.70683334 0.70683334 0.91886608
0.83258945 0.70683334 0.91886608
0.91886608 0.70683334 0.91886608
0.06256172 0.83258945 0.91886608
0.11404720 0.83258945 0.91886608
0.22520604 0.83258945 0.91886608
0.34139877 0.83258945 0.91886608
0.46086289 0.83258945 0.91886608
0.58282467 0.83258945 0.91886608
0.70683334 0.83258945 0.91886608
0.83258945 0.83258945 0.91886608
0.91886608 0.83258945 0.91886608
0.06256227 0.91886608 0.91886608
0.11404720 0.91886608 0.91886608
0.22520604 0.91886608 0.91886608
0.34139877 0.91886608 0.91886608
0.46086289 0.91886608 0.91886608
0.58282467 0.91886608 0.91886608
0.70683334 0.91886608 0.91886608
0.83258945 0.91886608 0.91886608
0.91886608 0.91886608 0.91886608
