src/ffmpeg_scripts/luts/luminance-unclipped_-4p00.cube
TITLE "luminance-unclipped_-4p00"
LUT_3D_SIZE 33
# PQ (EOTF Only)/Rec2020 -> PQ (EOTF Only)/Rec2020, CineEI Shift -4.00, Black Level -7.25% IRE, Input 109% -> Output 109% - Created with LUTCalc v4.01 by Ben Turley October 2020
0.00047898 0.00047898 0.00047898
0.00047898 0.00047898 0.00047898
0.00047898 0.00047898 0.00047898
0.00930615 0.00047901 0.00047898
0.02082689 0.00047902 0.00047898
0.03424092 0.00047898 0.00047898
0.04924389 0.00047898 0.00047904
0.06566056 0.00047904 0.00047898
0.08337344 0.00047898 0.00047898
0.10229682 0.00047898 0.00047906
0.12236469 0.00047907 0.00047898
0.14352428 0.00047907 0.00047898
0.16573215 0.00047898 0.00047898
0.18895182 0.00047909 0.00047909
0.21315207 0.00047898 0.00047898
0.23830582 0.00047898 0.00047898
0.26438931 0.00047912 0.00047912
0.29138149 0.00047909 0.00047912
0.31926354 0.00047898 0.00047898
0.34801852 0.00047898 0.00047898
0.37763108 0.00047898 0.00047898
0.40808723 0.00047898 0.00047898
0.43937418 0.00047912 0.00047918
0.47148014 0.00047898 0.00047898
0.50439424 0.00047898 0.00047898
0.53810640 0.00047898 0.00047898
0.57260725 0.00047920 0.00047898
0.60788805 0.00047920 0.00047898
0.64394062 0.00047920 0.00047898
0.68075731 0.00047929 0.00047898
0.71833091 0.00047898 0.00047898
0.75665464 0.00047929 0.00047898
0.79572210 0.00047929 0.00047898
0.00047898 0.00047898 0.00047898
0.00047898 0.00047898 0.00047898
0.00047898 0.00047898 0.00047898
0.00930615 0.00047901 0.00047898
0.02082689 0.00047902 0.00047898
0.03424092 0.00047898 0.00047898
0.04924389 0.00047898 0.00047904
0.06566056 0.00047904 0.00047898
0.08337344 0.00047898 0.00047898
0.10229682 0.00047898 0.00047906
0.12236469 0.00047907 0.00047898
0.14352428 0.00047907 0.00047898
0.16573215 0.00047898 0.00047898
0.18895182 0.00047909 0.00047909
0.21315207 0.00047898 0.00047898
0.23830582 0.00047898 0.00047898
0.26438931 0.00047912 0.00047912
0.29138149 0.00047909 0.00047912
0.31926354 0.00047898 0.00047898
0.34801852 0.00047898 0.00047898
0.37763108 0.00047898 0.00047898
0.40808723 0.00047898 0.00047898
0.43937418 0.00047912 0.00047918
0.47148014 0.00047898 0.00047898
0.50439424 0.00047898 0.00047898
0.53810640 0.00047898 0.00047898
0.57260725 0.00047920 0.00047898
0.60788805 0.00047920 0.00047898
0.64394062 0.00047920 0.00047898
0.68075731 0.00047929 0.00047898
0.71833091 0.00047898 0.00047898
0.75665464 0.00047929 0.00047898
0.79572210 0.00047929 0.00047898
0.00047898 0.00047898 0.00047898
0.00047898 0.00047898 0.00047898
0.00047898 0.00047898 0.00047898
0.00930615 0.00047901 0.00047898
0.02082689 0.00047902 0.00047898
0.03424092 0.00047898 0.00047898
0.04924389 0.00047898 0.00047904
0.06566056 0.00047904 0.00047898
0.08337344 0.00047898 0.00047898
0.10229682 0.00047898 0.00047906
0.12236469 0.00047907 0.00047898
0.14352428 0.00047907 0.00047898
0.16573215 0.00047898 0.00047898
0.18895182 0.00047909 0.00047909
0.21315207 0.00047898 0.00047898
0.23830582 0.00047898 0.00047898
0.26438931 0.00047912 0.00047912
0.29138149 0.00047909 0.00047912
0.31926354 0.00047898 0.00047898
0.34801852 0.00047898 0.00047898
0.37763108 0.00047898 0.00047898
0.40808723 0.00047898 0.00047898
0.43937418 0.00047912 0.00047918
0.47148014 0.00047898 0.00047898
0.50439424 0.00047898 0.00047898
0.53810640 0.00047898 0.00047898
0.57260725 0.00047920 0.00047898
0.60788805 0.00047920 0.00047898
0.64394062 0.00047920 0.00047898
0.68075731 0.00047929 0.00047898
0.71833091 0.00047898 0.00047898
0.75665464 0.00047929 0.00047898
0.79572210 0.00047929 0.00047898
0.00047902 0.00930615 0.00047898
0.00047902 0.00930615 0.00047898
0.00047902 0.00930615 0.00047898
0.00930615 0.00930615 0.00047898
0.02082689 0.00930615 0.00047898
0.03424092 0.00930615 0.00047898
0.04924389 0.00930615 0.00047898
0.06566056 0.00930615 0.00047898
0.08337344 0.00930615 0.00047898
0.10229682 0.00930615 0.00047898
0.12236469 0.00930615 0.00047898
0.14352428 0.00930615 0.00047898
0.16573215 0.00930615 0.00047898
0.18895182 0.00930615 0.00047898
0.21315207 0.00930615 0.00047898
0.23830582 0.00930615 0.00047898
0.26438931 0.00930615 0.00047898
0.29138149 0.00930615 0.00047898
0.31926354 0.00930615 0.00047898
0.34801852 0.00930615 0.00047898
0.37763108 0.00930615 0.00047898
0.40808723 0.00930615 0.00047898
0.43937418 0.00930615 0.00047898
0.47148014 0.00930615 0.00047918
0.50439424 0.00930615 0.00047898
0.53810640 0.00930615 0.00047898
0.57260725 0.00930615 0.00047898
0.60788805 0.00930615 0.00047898
0.64394062 0.00930615 0.00047898
0.68075731 0.00930615 0.00047898
0.71833091 0.00930615 0.00047931
0.75665464 0.00930615 0.00047931
0.79572210 0.00930615 0.00047898
0.00047904 0.02082689 0.00047898
0.00047904 0.02082689 0.00047898
0.00047904 0.02082689 0.00047898
0.00930615 0.02082689 0.00047898
0.02082689 0.02082689 0.00047898
0.03424092 0.02082689 0.00047898
0.04924389 0.02082689 0.00047898
0.06566056 0.02082689 0.00047905
0.08337344 0.02082689 0.00047898
0.10229682 0.02082689 0.00047898
0.12236469 0.02082689 0.00047898
0.14352428 0.02082689 0.00047908
0.16573215 0.02082689 0.00047898
0.18895182 0.02082689 0.00047898
0.21315207 0.02082689 0.00047898
0.23830582 0.02082689 0.00047898
0.26438931 0.02082689 0.00047898
0.29138149 0.02082689 0.00047898
0.31926354 0.02082689 0.00047898
0.34801852 0.02082689 0.00047898
0.37763108 0.02082689 0.00047898
0.40808723 0.02082689 0.00047898
0.43937418 0.02082689 0.00047898
0.47148014 0.02082689 0.00047918
0.50439424 0.02082689 0.00047898
0.53810640 0.02082689 0.00047898
0.57260725 0.02082689 0.00047898
0.60788805 0.02082689 0.00047898
0.64394062 0.02082689 0.00047927
0.68075731 0.02082689 0.00047898
0.71833091 0.02082689 0.00047898
0.75665464 0.02082689 0.00047898
0.79572210 0.02082689 0.00047898
0.00047904 0.03424092 0.00047898
0.00047904 0.03424092 0.00047898
0.00047904 0.03424092 0.00047898
0.00930615 0.03424092 0.00047898
0.02082689 0.03424092 0.00047904
0.03424092 0.03424092 0.00047898
0.04924389 0.03424092 0.00047898
0.06566056 0.03424092 0.00047898
0.08337344 0.03424092 0.00047898
0.10229682 0.03424092 0.00047898
0.12236469 0.03424092 0.00047907
0.14352428 0.03424092 0.00047898
0.16573215 0.03424092 0.00047898
0.18895182 0.03424092 0.00047898
0.21315207 0.03424092 0.00047910
0.23830582 0.03424092 0.00047898
0.26438931 0.03424092 0.00047898
0.29138149 0.03424092 0.00047898
0.31926354 0.03424092 0.00047898
0.34801852 0.03424092 0.00047898
0.37763108 0.03424092 0.00047898
0.40808723 0.03424092 0.00047898
0.43937418 0.03424092 0.00047918
0.47148014 0.03424092 0.00047898
0.50439424 0.03424092 0.00047898
0.53810640 0.03424092 0.00047898
0.57260725 0.03424092 0.00047898
0.60788805 0.03424092 0.00047898
0.64394062 0.03424092 0.00047898
0.68075731 0.03424092 0.00047898
0.71833091 0.03424092 0.00047898
0.75665464 0.03424092 0.00047898
0.79572210 0.03424092 0.00047935
0.00047904 0.04924389 0.00047898
0.00047904 0.04924389 0.00047898
0.00047904 0.04924389 0.00047898
0.00930615 0.04924389 0.00047898
0.02082689 0.04924389 0.00047898
0.03424092 0.04924389 0.00047898
0.04924389 0.04924389 0.00047905
0.06566056 0.04924389 0.00047898
0.08337344 0.04924389 0.00047898
0.10229682 0.04924389 0.00047898
0.12236469 0.04924389 0.00047898
0.14352428 0.04924389 0.00047898
0.16573215 0.04924389 0.00047898
0.18895182 0.04924389 0.00047909
0.21315207 0.04924389 0.00047898
0.23830582 0.04924389 0.00047898
0.26438931 0.04924389 0.00047898
0.29138149 0.04924389 0.00047898
0.31926354 0.04924389 0.00047898
0.34801852 0.04924389 0.00047898
0.37763108 0.04924389 0.00047898
0.40808723 0.04924389 0.00047898
0.43937418 0.04924389 0.00047918
0.47148014 0.04924389 0.00047898
0.50439424 0.04924389 0.00047898
0.53810640 0.04924389 0.00047898
0.57260725 0.04924389 0.00047898
0.60788805 0.04924389 0.00047923
0.64394062 0.04924389 0.00047898
0.68075731 0.04924389 0.00047898
0.71833091 0.04924389 0.00047931
0.75665464 0.04924389 0.00047898
0.79572210 0.04924389 0.00047898
0.00047906 0.06566056 0.00047905
0.00047906 0.06566056 0.00047905
0.00047906 0.06566056 0.00047905
0.00930615 0.06566056 0.00047898
0.02082689 0.06566056 0.00047898
0.03424092 0.06566056 0.00047905
0.04924389 0.06566056 0.00047898
0.06566056 0.06566056 0.00047898
0.08337344 0.06566056 0.00047898
0.10229682 0.06566056 0.00047898
0.12236469 0.06566056 0.00047907
0.14352428 0.06566056 0.00047898
0.16573215 0.06566056 0.00047898
0.18895182 0.06566056 0.00047898
0.21315207 0.06566056 0.00047910
0.23830582 0.06566056 0.00047910
0.26438931 0.06566056 0.00047912
0.29138149 0.06566056 0.00047898
0.31926354 0.06566056 0.00047914
0.34801852 0.06566056 0.00047898
0.37763108 0.06566056 0.00047898
0.40808723 0.06566056 0.00047898
0.43937418 0.06566056 0.00047918
0.47148014 0.06566056 0.00047918
0.50439424 0.06566056 0.00047898
0.53810640 0.06566056 0.00047898
0.57260725 0.06566056 0.00047898
0.60788805 0.06566056 0.00047898
0.64394062 0.06566056 0.00047898
0.68075731 0.06566056 0.00047898
0.71833091 0.06566056 0.00047898
0.75665464 0.06566056 0.00047898
0.79572210 0.06566056 0.00047898
0.00047898 0.08337344 0.00047898
0.00047898 0.08337344 0.00047898
0.00047898 0.08337344 0.00047898
0.00930615 0.08337344 0.00047906
0.02082689 0.08337344 0.00047898
0.03424092 0.08337344 0.00047898
0.04924389 0.08337344 0.00047898
0.06566056 0.08337344 0.00047898
0.08337344 0.08337344 0.00047898
0.10229682 0.08337344 0.00047898
0.12236469 0.08337344 0.00047898
0.14352428 0.08337344 0.00047898
0.16573215 0.08337344 0.00047898
0.18895182 0.08337344 0.00047909
0.21315207 0.08337344 0.00047898
0.23830582 0.08337344 0.00047898
0.26438931 0.08337344 0.00047898
0.29138149 0.08337344 0.00047912
0.31926354 0.08337344 0.00047898
0.34801852 0.08337344 0.00047898
0.37763108 0.08337344 0.00047898
0.40808723 0.08337344 0.00047898
0.43937418 0.08337344 0.00047898
0.47148014 0.08337344 0.00047898
0.50439424 0.08337344 0.00047898
0.53810640 0.08337344 0.00047898
0.57260725 0.08337344 0.00047898
0.60788805 0.08337344 0.00047898
0.64394062 0.08337344 0.00047898
0.68075731 0.08337344 0.00047898
0.71833091 0.08337344 0.00047898
0.75665464 0.08337344 0.00047898
0.79572210 0.08337344 0.00047898
0.00047909 0.10229682 0.00047898
0.00047909 0.10229682 0.00047898
0.00047909 0.10229682 0.00047898
0.00930615 0.10229682 0.00047898
0.02082689 0.10229682 0.00047898
0.03424092 0.10229682 0.00047907
0.04924389 0.10229682 0.00047898
0.06566056 0.10229682 0.00047898
0.08337344 0.10229682 0.00047907
0.10229682 0.10229682 0.00047898
0.12236469 0.10229682 0.00047908
0.14352428 0.10229682 0.00047908
0.16573215 0.10229682 0.00047898
0.18895182 0.10229682 0.00047909
0.21315207 0.10229682 0.00047898
0.23830582 0.10229682 0.00047898
0.26438931 0.10229682 0.00047912
0.29138149 0.10229682 0.00047898
0.31926354 0.10229682 0.00047898
0.34801852 0.10229682 0.00047898
0.37763108 0.10229682 0.00047898
0.40808723 0.10229682 0.00047898
0.43937418 0.10229682 0.00047898
0.47148014 0.10229682 0.00047898
0.50439424 0.10229682 0.00047920
0.53810640 0.10229682 0.00047898
0.57260725 0.10229682 0.00047898
0.60788805 0.10229682 0.00047898
0.64394062 0.10229682 0.00047898
0.68075731 0.10229682 0.00047898
0.71833091 0.10229682 0.00047931
0.75665464 0.10229682 0.00047898
0.79572210 0.10229682 0.00047898
0.00047910 0.12236469 0.00047898
0.00047910 0.12236469 0.00047898
0.00047910 0.12236469 0.00047898
0.00930615 0.12236469 0.00047898
0.02082689 0.12236469 0.00047898
0.03424092 0.12236469 0.00047898
0.04924389 0.12236469 0.00047898
0.06566056 0.12236469 0.00047898
0.08337344 0.12236469 0.00047898
0.10229682 0.12236469 0.00047898
0.12236469 0.12236469 0.00047898
0.14352428 0.12236469 0.00047898
0.16573215 0.12236469 0.00047898
0.18895182 0.12236469 0.00047898
0.21315207 0.12236469 0.00047898
0.23830582 0.12236469 0.00047898
0.26438931 0.12236469 0.00047912
0.29138149 0.12236469 0.00047912
0.31926354 0.12236469 0.00047898
0.34801852 0.12236469 0.00047898
0.37763108 0.12236469 0.00047898
0.40808723 0.12236469 0.00047898
0.43937418 0.12236469 0.00047898
0.47148014 0.12236469 0.00047918
0.50439424 0.12236469 0.00047898
0.53810640 0.12236469 0.00047898
0.57260725 0.12236469 0.00047898
0.60788805 0.12236469 0.00047898
0.64394062 0.12236469 0.00047898
0.68075731 0.12236469 0.00047898
0.71833091 0.12236469 0.00047931
0.75665464 0.12236469 0.00047898
0.79572210 0.12236469 0.00047898
0.00047908 0.14352428 0.00047898
0.00047908 0.14352428 0.00047898
0.00047908 0.14352428 0.00047898
0.00930615 0.14352428 0.00047898
0.02082689 0.14352428 0.00047898
0.03424092 0.14352428 0.00047898
0.04924389 0.14352428 0.00047898
0.06566056 0.14352428 0.00047898
0.08337344 0.14352428 0.00047898
0.10229682 0.14352428 0.00047898
0.12236469 0.14352428 0.00047898
0.14352428 0.14352428 0.00047898
0.16573215 0.14352428 0.00047898
0.18895182 0.14352428 0.00047898
0.21315207 0.14352428 0.00047910
0.23830582 0.14352428 0.00047898
0.26438931 0.14352428 0.00047898
0.29138149 0.14352428 0.00047898
0.31926354 0.14352428 0.00047898
0.34801852 0.14352428 0.00047898
0.37763108 0.14352428 0.00047898
0.40808723 0.14352428 0.00047898
0.43937418 0.14352428 0.00047898
0.47148014 0.14352428 0.00047918
0.50439424 0.14352428 0.00047898
0.53810640 0.14352428 0.00047920
0.57260725 0.14352428 0.00047898
0.60788805 0.14352428 0.00047898
0.64394062 0.14352428 0.00047898
0.68075731 0.14352428 0.00047898
0.71833091 0.14352428 0.00047898
0.75665464 0.14352428 0.00047898
0.79572210 0.14352428 0.00047898
0.00047910 0.16573215 0.00047909
0.00047910 0.16573215 0.00047909
0.00047910 0.16573215 0.00047909
0.00930615 0.16573215 0.00047909
0.02082689 0.16573215 0.00047898
0.03424092 0.16573215 0.00047909
0.04924389 0.16573215 0.00047909
0.06566056 0.16573215 0.00047909
0.08337344 0.16573215 0.00047898
0.10229682 0.16573215 0.00047898
0.12236469 0.16573215 0.00047898
0.14352428 0.16573215 0.00047898
0.16573215 0.16573215 0.00047910
0.18895182 0.16573215 0.00047898
0.21315207 0.16573215 0.00047898
0.23830582 0.16573215 0.00047898
0.26438931 0.16573215 0.00047898
0.29138149 0.16573215 0.00047912
0.31926354 0.16573215 0.00047898
0.34801852 0.16573215 0.00047898
0.37763108 0.16573215 0.00047898
0.40808723 0.16573215 0.00047898
0.43937418 0.16573215 0.00047898
0.47148014 0.16573215 0.00047898
0.50439424 0.16573215 0.00047898
0.53810640 0.16573215 0.00047898
0.57260725 0.16573215 0.00047923
0.60788805 0.16573215 0.00047923
0.64394062 0.16573215 0.00047898
0.68075731 0.16573215 0.00047898
0.71833091 0.16573215 0.00047898
0.75665464 0.16573215 0.00047898
0.79572210 0.16573215 0.00047898
0.00047911 0.18895182 0.00047898
0.00047911 0.18895182 0.00047898
0.00047911 0.18895182 0.00047898
0.00930615 0.18895182 0.00047909
0.02082689 0.18895182 0.00047898
0.03424092 0.18895182 0.00047898
0.04924389 0.18895182 0.00047898
0.06566056 0.18895182 0.00047898
0.08337344 0.18895182 0.00047898
0.10229682 0.18895182 0.00047910
0.12236469 0.18895182 0.00047898
0.14352428 0.18895182 0.00047898
0.16573215 0.18895182 0.00047898
0.18895182 0.18895182 0.00047910
0.21315207 0.18895182 0.00047898
0.23830582 0.18895182 0.00047898
0.26438931 0.18895182 0.00047898
0.29138149 0.18895182 0.00047898
0.31926354 0.18895182 0.00047898
0.34801852 0.18895182 0.00047914
0.37763108 0.18895182 0.00047898
0.40808723 0.18895182 0.00047898
0.43937418 0.18895182 0.00047898
0.47148014 0.18895182 0.00047898
0.50439424 0.18895182 0.00047898
0.53810640 0.18895182 0.00047920
0.57260725 0.18895182 0.00047898
0.60788805 0.18895182 0.00047898
0.64394062 0.18895182 0.00047898
0.68075731 0.18895182 0.00047898
0.71833091 0.18895182 0.00047931
0.75665464 0.18895182 0.00047898
0.79572210 0.18895182 0.00047898
0.00047898 0.21315207 0.00047910
0.00047898 0.21315207 0.00047910
0.00047898 0.21315207 0.00047910
0.00930615 0.21315207 0.00047898
0.02082689 0.21315207 0.00047898
0.03424092 0.21315207 0.00047898
0.04924389 0.21315207 0.00047898
0.06566056 0.21315207 0.00047898
0.08337344 0.21315207 0.00047898
0.10229682 0.21315207 0.00047898
0.12236469 0.21315207 0.00047898
0.14352428 0.21315207 0.00047898
0.16573215 0.21315207 0.00047898
0.18895182 0.21315207 0.00047912
0.21315207 0.21315207 0.00047898
0.23830582 0.21315207 0.00047898
0.26438931 0.21315207 0.00047898
0.29138149 0.21315207 0.00047898
0.31926354 0.21315207 0.00047898
0.34801852 0.21315207 0.00047898
0.37763108 0.21315207 0.00047898
0.40808723 0.21315207 0.00047898
0.43937418 0.21315207 0.00047898
0.47148014 0.21315207 0.00047898
0.50439424 0.21315207 0.00047898
0.53810640 0.21315207 0.00047898
0.57260725 0.21315207 0.00047898
0.60788805 0.21315207 0.00047898
0.64394062 0.21315207 0.00047898
0.68075731 0.21315207 0.00047898
0.71833091 0.21315207 0.00047898
0.75665464 0.21315207 0.00047898
0.79572210 0.21315207 0.00047935
0.00047914 0.23830582 0.00047898
0.00047914 0.23830582 0.00047898
0.00047914 0.23830582 0.00047898
0.00930615 0.23830582 0.00047898
0.02082689 0.23830582 0.00047898
0.03424092 0.23830582 0.00047898
0.04924389 0.23830582 0.00047898
0.06566056 0.23830582 0.00047898
0.08337344 0.23830582 0.00047898
0.10229682 0.23830582 0.00047898
0.12236469 0.23830582 0.00047898
0.14352428 0.23830582 0.00047898
0.16573215 0.23830582 0.00047898
0.18895182 0.23830582 0.00047898
0.21315207 0.23830582 0.00047898
0.23830582 0.23830582 0.00047898
0.26438931 0.23830582 0.00047898
0.29138149 0.23830582 0.00047898
0.31926354 0.23830582 0.00047898
0.34801852 0.23830582 0.00047898
0.37763108 0.23830582 0.00047898
0.40808723 0.23830582 0.00047898
0.43937418 0.23830582 0.00047898
0.47148014 0.23830582 0.00047898
0.50439424 0.23830582 0.00047920
0.53810640 0.23830582 0.00047898
0.57260725 0.23830582 0.00047898
0.60788805 0.23830582 0.00047898
0.64394062 0.23830582 0.00047927
0.68075731 0.23830582 0.00047898
0.71833091 0.23830582 0.00047898
0.75665464 0.23830582 0.00047898
0.79572210 0.23830582 0.00047898
0.00047911 0.26438931 0.00047898
0.00047911 0.26438931 0.00047898
0.00047911 0.26438931 0.00047898
0.00930615 0.26438931 0.00047898
0.02082689 0.26438931 0.00047898
0.03424092 0.26438931 0.00047898
0.04924389 0.26438931 0.00047898
0.06566056 0.26438931 0.00047898
0.08337344 0.26438931 0.00047898
0.10229682 0.26438931 0.00047898
0.12236469 0.26438931 0.00047898
0.14352428 0.26438931 0.00047898
0.16573215 0.26438931 0.00047898
0.18895182 0.26438931 0.00047898
0.21315207 0.26438931 0.00047898
0.23830582 0.26438931 0.00047898
0.26438931 0.26438931 0.00047898
0.29138149 0.26438931 0.00047914
0.31926354 0.26438931 0.00047898
0.34801852 0.26438931 0.00047898
0.37763108 0.26438931 0.00047898
0.40808723 0.26438931 0.00047898
0.43937418 0.26438931 0.00047898
0.47148014 0.26438931 0.00047898
0.50439424 0.26438931 0.00047898
0.53810640 0.26438931 0.00047898
0.57260725 0.26438931 0.00047898
0.60788805 0.26438931 0.00047898
0.64394062 0.26438931 0.00047898
0.68075731 0.26438931 0.00047898
0.71833091 0.26438931 0.00047931
0.75665464 0.26438931 0.00047898
0.79572210 0.26438931 0.00047898
0.00047911 0.29138149 0.00047898
0.00047911 0.29138149 0.00047898
0.00047911 0.29138149 0.00047898
0.00930615 0.29138149 0.00047898
0.02082689 0.29138149 0.00047914
0.03424092 0.29138149 0.00047898
0.04924389 0.29138149 0.00047898
0.06566056 0.29138149 0.00047898
0.08337344 0.29138149 0.00047898
0.10229682 0.29138149 0.00047898
0.12236469 0.29138149 0.00047898
0.14352428 0.29138149 0.00047898
0.16573215 0.29138149 0.00047898
0.18895182 0.29138149 0.00047914
0.21315207 0.29138149 0.00047898
0.23830582 0.29138149 0.00047898
0.26438931 0.29138149 0.00047898
0.29138149 0.29138149 0.00047898
0.31926354 0.29138149 0.00047898
0.34801852 0.29138149 0.00047898
0.37763108 0.29138149 0.00047898
0.40808723 0.29138149 0.00047898
0.43937418 0.29138149 0.00047898
0.47148014 0.29138149 0.00047898
0.50439424 0.29138149 0.00047898
0.53810640 0.29138149 0.00047920
0.57260725 0.29138149 0.00047898
0.60788805 0.29138149 0.00047898
0.64394062 0.29138149 0.00047927
0.68075731 0.29138149 0.00047898
0.71833091 0.29138149 0.00047898
0.75665464 0.29138149 0.00047898
0.79572210 0.29138149 0.00047898
0.00047914 0.31926354 0.00047898
0.00047914 0.31926354 0.00047898
0.00047914 0.31926354 0.00047898
0.00930615 0.31926354 0.00047898
0.02082689 0.31926354 0.00047898
0.03424092 0.31926354 0.00047898
0.04924389 0.31926354 0.00047898
0.06566056 0.31926354 0.00047898
0.08337344 0.31926354 0.00047898
0.10229682 0.31926354 0.00047898
0.12236469 0.31926354 0.00047898
0.14352428 0.31926354 0.00047898
0.16573215 0.31926354 0.00047898
0.18895182 0.31926354 0.00047898
0.21315207 0.31926354 0.00047898
0.23830582 0.31926354 0.00047898
0.26438931 0.31926354 0.00047898
0.29138149 0.31926354 0.00047898
0.31926354 0.31926354 0.00047898
0.34801852 0.31926354 0.00047898
0.37763108 0.31926354 0.00047898
0.40808723 0.31926354 0.00047898
0.43937418 0.31926354 0.00047918
0.47148014 0.31926354 0.00047898
0.50439424 0.31926354 0.00047898
0.53810640 0.31926354 0.00047898
0.57260725 0.31926354 0.00047898
0.60788805 0.31926354 0.00047898
0.64394062 0.31926354 0.00047927
0.68075731 0.31926354 0.00047898
0.71833091 0.31926354 0.00047898
0.75665464 0.31926354 0.00047898
0.79572210 0.31926354 0.00047898
0.00047915 0.34801852 0.00047898
0.00047915 0.34801852 0.00047898
0.00047915 0.34801852 0.00047898
0.00930615 0.34801852 0.00047898
0.02082689 0.34801852 0.00047898
0.03424092 0.34801852 0.00047898
0.04924389 0.34801852 0.00047898
0.06566056 0.34801852 0.00047898
0.08337344 0.34801852 0.00047898
0.10229682 0.34801852 0.00047898
0.12236469 0.34801852 0.00047898
0.14352428 0.34801852 0.00047898
0.16573215 0.34801852 0.00047898
0.18895182 0.34801852 0.00047898
0.21315207 0.34801852 0.00047898
0.23830582 0.34801852 0.00047916
0.26438931 0.34801852 0.00047898
0.29138149 0.34801852 0.00047898
0.31926354 0.34801852 0.00047916
0.34801852 0.34801852 0.00047898
0.37763108 0.34801852 0.00047898
0.40808723 0.34801852 0.00047898
0.43937418 0.34801852 0.00047898
0.47148014 0.34801852 0.00047898
0.50439424 0.34801852 0.00047898
0.53810640 0.34801852 0.00047898
0.57260725 0.34801852 0.00047923
0.60788805 0.34801852 0.00047898
0.64394062 0.34801852 0.00047927
0.68075731 0.34801852 0.00047898
0.71833091 0.34801852 0.00047898
0.75665464 0.34801852 0.00047898
0.79572210 0.34801852 0.00047935
0.00047918 0.37763108 0.00047898
0.00047918 0.37763108 0.00047898
0.00047918 0.37763108 0.00047898
0.00930615 0.37763108 0.00047898
0.02082689 0.37763108 0.00047898
0.03424092 0.37763108 0.00047916
0.04924389 0.37763108 0.00047898
0.06566056 0.37763108 0.00047898
0.08337344 0.37763108 0.00047898
0.10229682 0.37763108 0.00047916
0.12236469 0.37763108 0.00047898
0.14352428 0.37763108 0.00047898
0.16573215 0.37763108 0.00047898
0.18895182 0.37763108 0.00047898
0.21315207 0.37763108 0.00047898
0.23830582 0.37763108 0.00047898
0.26438931 0.37763108 0.00047898
0.29138149 0.37763108 0.00047898
0.31926354 0.37763108 0.00047898
0.34801852 0.37763108 0.00047898
0.37763108 0.37763108 0.00047898
0.40808723 0.37763108 0.00047898
0.43937418 0.37763108 0.00047898
0.47148014 0.37763108 0.00047920
0.50439424 0.37763108 0.00047898
0.53810640 0.37763108 0.00047898
0.57260725 0.37763108 0.00047923
0.60788805 0.37763108 0.00047898
0.64394062 0.37763108 0.00047898
0.68075731 0.37763108 0.00047898
0.71833091 0.37763108 0.00047898
0.75665464 0.37763108 0.00047898
0.79572210 0.37763108 0.00047898
0.00047919 0.40808723 0.00047898
0.00047919 0.40808723 0.00047898
0.00047919 0.40808723 0.00047898
0.00930615 0.40808723 0.00047898
0.02082689 0.40808723 0.00047898
0.03424092 0.40808723 0.00047898
0.04924389 0.40808723 0.00047898
0.06566056 0.40808723 0.00047898
0.08337344 0.40808723 0.00047898
0.10229682 0.40808723 0.00047898
0.12236469 0.40808723 0.00047898
0.14352428 0.40808723 0.00047898
0.16573215 0.40808723 0.00047898
0.18895182 0.40808723 0.00047898
0.21315207 0.40808723 0.00047898
0.23830582 0.40808723 0.00047898
0.26438931 0.40808723 0.00047898
0.29138149 0.40808723 0.00047898
0.31926354 0.40808723 0.00047898
0.34801852 0.40808723 0.00047898
0.37763108 0.40808723 0.00047898
0.40808723 0.40808723 0.00047898
0.43937418 0.40808723 0.00047898
0.47148014 0.40808723 0.00047898
0.50439424 0.40808723 0.00047898
0.53810640 0.40808723 0.00047898
0.57260725 0.40808723 0.00047898
