src/ffmpeg_scripts/luts/luminance-unclipped_0p33.cube
TITLE "luminance-unclipped_0p33"
LUT_3D_SIZE 33
# PQ (EOTF Only)/Rec2020 -> PQ (EOTF Only)/Rec2020, CineEI Shift 0.33, Black Level -7.25% IRE, Input 109% -> Output 109% - Created with LUTCalc v4.01 by Ben Turley October 2020
0.00047898 0.00047898 0.00047898
0.00047898 0.00047898 0.00047898
0.00047898 0.00047898 0.00047898
0.04068566 0.00047898 0.00047898
0.07993362 0.00047906 0.00047898
0.11867157 0.00047898 0.00047898
0.15705410 0.00047898 0.00047908
0.19516063 0.00047909 0.00047909
0.23304030 0.00047909 0.00047898
0.27072677 0.00047911 0.00047912
0.30824462 0.00047914 0.00047912
0.34561268 0.00047916 0.00047898
0.38284582 0.00047898 0.00047898
0.41995612 0.00047898 0.00047898
0.45695360 0.00047898 0.00047898
0.49384672 0.00047898 0.00047898
0.53064269 0.00047916 0.00047920
0.56734778 0.00047898 0.00047898
0.60396745 0.00047925 0.00047923
0.64050652 0.00047923 0.00047898
0.67696930 0.00047898 0.00047898
0.71335961 0.00047927 0.00047898
0.74968092 0.00047934 0.00047898
0.78593637 0.00047898 0.00047898
0.82212880 0.00047898 0.00047898
0.85826082 0.00047938 0.00047935
0.89433482 0.00047898 0.00047898
0.91886608 0.00047898 0.00047898
0.91886608 0.00047898 0.00047898
0.91886608 0.00047898 0.00047898
0.91886608 0.00047898 0.00047953
0.91886608 0.00047898 0.00047898
0.91886608 0.00047961 0.00047961
0.00047898 0.00047898 0.00047898
0.00047898 0.00047898 0.00047898
0.00047898 0.00047898 0.00047898
0.04068566 0.00047898 0.00047898
0.07993362 0.00047906 0.00047898
0.11867157 0.00047898 0.00047898
0.15705410 0.00047898 0.00047908
0.19516063 0.00047909 0.00047909
0.23304030 0.00047909 0.00047898
0.27072677 0.00047911 0.00047912
0.30824462 0.00047914 0.00047912
0.34561268 0.00047916 0.00047898
0.38284582 0.00047898 0.00047898
0.41995612 0.00047898 0.00047898
0.45695360 0.00047898 0.00047898
0.49384672 0.00047898 0.00047898
0.53064269 0.00047916 0.00047920
0.56734778 0.00047898 0.00047898
0.60396745 0.00047925 0.00047923
0.64050652 0.00047923 0.00047898
0.67696930 0.00047898 0.00047898
0.71335961 0.00047927 0.00047898
0.74968092 0.00047934 0.00047898
0.78593637 0.00047898 0.00047898
0.82212880 0.00047898 0.00047898
0.85826082 0.00047938 0.00047935
0.89433482 0.00047898 0.00047898
0.91886608 0.00047898 0.00047898
0.91886608 0.00047898 0.00047898
0.91886608 0.00047898 0.00047898
0.91886608 0.00047898 0.00047953
0.91886608 0.00047898 0.00047898
0.91886608 0.00047961 0.00047961
0.00047898 0.00047898 0.00047898
0.00047898 0.00047898 0.00047898
0.00047898 0.00047898 0.00047898
0.04068566 0.00047898 0.00047898
0.07993362 0.00047906 0.00047898
0.11867157 0.00047898 0.00047898
0.15705410 0.00047898 0.00047908
0.19516063 0.00047909 0.00047909
0.23304030 0.00047909 0.00047898
0.27072677 0.00047911 0.00047912
0.30824462 0.00047914 0.00047912
0.34561268 0.00047916 0.00047898
0.38284582 0.00047898 0.00047898
0.41995612 0.00047898 0.00047898
0.45695360 0.00047898 0.00047898
0.49384672 0.00047898 0.00047898
0.53064269 0.00047916 0.00047920
0.56734778 0.00047898 0.00047898
0.60396745 0.00047925 0.00047923
0.64050652 0.00047923 0.00047898
0.67696930 0.00047898 0.00047898
0.71335961 0.00047927 0.00047898
0.74968092 0.00047934 0.00047898
0.78593637 0.00047898 0.00047898
0.82212880 0.00047898 0.00047898
0.85826082 0.00047938 0.00047935
0.89433482 0.00047898 0.00047898
0.91886608 0.00047898 0.00047898
0.91886608 0.00047898 0.00047898
0.91886608 0.00047898 0.00047898
0.91886608 0.00047898 0.00047953
0.91886608 0.00047898 0.00047898
0.91886608 0.00047961 0.00047961
0.00047905 0.04068566 0.00047898
0.00047905 0.04068566 0.00047898
0.00047905 0.04068566 0.00047898
0.04068566 0.04068566 0.00047898
0.07993362 0.04068566 0.00047898
0.11867157 0.04068566 0.00047898
0.15705410 0.04068566 0.00047908
0.19516063 0.04068566 0.00047909
0.23304030 0.04068566 0.00047898
0.27072677 0.04068566 0.00047898
0.30824462 0.04068566 0.00047898
0.34561268 0.04068566 0.00047898
0.38284582 0.04068566 0.00047898
0.41995612 0.04068566 0.00047898
0.45695360 0.04068566 0.00047898
0.49384672 0.04068566 0.00047898
0.53064269 0.04068566 0.00047920
0.56734778 0.04068566 0.00047898
0.60396745 0.04068566 0.00047898
0.64050652 0.04068566 0.00047898
0.67696930 0.04068566 0.00047927
0.71335961 0.04068566 0.00047927
0.74968092 0.04068566 0.00047898
0.78593637 0.04068566 0.00047898
0.82212880 0.04068566 0.00047898
0.85826082 0.04068566 0.00047898
0.89433482 0.04068566 0.00047898
0.91886608 0.04068566 0.00047898
0.91886608 0.04068566 0.00047898
0.91886608 0.04068566 0.00047946
0.91886608 0.04068566 0.00047953
0.91886608 0.04068566 0.00047898
0.91886608 0.04068566 0.00047898
0.00047908 0.07993362 0.00047898
0.00047908 0.07993362 0.00047898
0.00047908 0.07993362 0.00047898
0.04068566 0.07993362 0.00047898
0.07993362 0.07993362 0.00047898
0.11867157 0.07993362 0.00047898
0.15705410 0.07993362 0.00047908
0.19516063 0.07993362 0.00047909
0.23304030 0.07993362 0.00047898
0.27072677 0.07993362 0.00047898
0.30824462 0.07993362 0.00047898
0.34561268 0.07993362 0.00047898
0.38284582 0.07993362 0.00047916
0.41995612 0.07993362 0.00047916
0.45695360 0.07993362 0.00047918
0.49384672 0.07993362 0.00047898
0.53064269 0.07993362 0.00047898
0.56734778 0.07993362 0.00047920
0.60396745 0.07993362 0.00047898
0.64050652 0.07993362 0.00047898
0.67696930 0.07993362 0.00047898
0.71335961 0.07993362 0.00047898
0.74968092 0.07993362 0.00047898
0.78593637 0.07993362 0.00047898
0.82212880 0.07993362 0.00047898
0.85826082 0.07993362 0.00047898
0.89433482 0.07993362 0.00047898
0.91886608 0.07993362 0.00047940
0.91886608 0.07993362 0.00047953
0.91886608 0.07993362 0.00047898
0.91886608 0.07993362 0.00047953
0.91886608 0.07993362 0.00047898
0.91886608 0.07993362 0.00047961
0.00047906 0.11867157 0.00047898
0.00047906 0.11867157 0.00047898
0.00047906 0.11867157 0.00047898
0.04068566 0.11867157 0.00047898
0.07993362 0.11867157 0.00047898
0.11867157 0.11867157 0.00047898
0.15705410 0.11867157 0.00047910
0.19516063 0.11867157 0.00047898
0.23304030 0.11867157 0.00047898
0.27072677 0.11867157 0.00047912
0.30824462 0.11867157 0.00047914
0.34561268 0.11867157 0.00047898
0.38284582 0.11867157 0.00047898
0.41995612 0.11867157 0.00047898
0.45695360 0.11867157 0.00047918
0.49384672 0.11867157 0.00047898
0.53064269 0.11867157 0.00047898
0.56734778 0.11867157 0.00047898
0.60396745 0.11867157 0.00047898
0.64050652 0.11867157 0.00047898
0.67696930 0.11867157 0.00047898
0.71335961 0.11867157 0.00047898
0.74968092 0.11867157 0.00047898
0.78593637 0.11867157 0.00047898
0.82212880 0.11867157 0.00047898
0.85826082 0.11867157 0.00047935
0.89433482 0.11867157 0.00047940
0.91886608 0.11867157 0.00047898
0.91886608 0.11867157 0.00047946
0.91886608 0.11867157 0.00047898
0.91886608 0.11867157 0.00047898
0.91886608 0.11867157 0.00047898
0.91886608 0.11867157 0.00047961
0.00047909 0.15705410 0.00047898
0.00047909 0.15705410 0.00047898
0.00047909 0.15705410 0.00047898
0.04068566 0.15705410 0.00047898
0.07993362 0.15705410 0.00047898
0.11867157 0.15705410 0.00047898
0.15705410 0.15705410 0.00047909
0.19516063 0.15705410 0.00047898
0.23304030 0.15705410 0.00047898
0.27072677 0.15705410 0.00047898
0.30824462 0.15705410 0.00047898
0.34561268 0.15705410 0.00047898
0.38284582 0.15705410 0.00047898
0.41995612 0.15705410 0.00047916
0.45695360 0.15705410 0.00047918
0.49384672 0.15705410 0.00047898
0.53064269 0.15705410 0.00047898
0.56734778 0.15705410 0.00047898
0.60396745 0.15705410 0.00047898
0.64050652 0.15705410 0.00047898
0.67696930 0.15705410 0.00047898
0.71335961 0.15705410 0.00047898
0.74968092 0.15705410 0.00047931
0.78593637 0.15705410 0.00047931
0.82212880 0.15705410 0.00047898
0.85826082 0.15705410 0.00047935
0.89433482 0.15705410 0.00047898
0.91886608 0.15705410 0.00047946
0.91886608 0.15705410 0.00047946
0.91886608 0.15705410 0.00047898
0.91886608 0.15705410 0.00047898
0.91886608 0.15705410 0.00047898
0.91886608 0.15705410 0.00047898
0.00047913 0.19516063 0.00047898
0.00047913 0.19516063 0.00047898
0.00047913 0.19516063 0.00047898
0.04068566 0.19516063 0.00047898
0.07993362 0.19516063 0.00047898
0.11867157 0.19516063 0.00047898
0.15705410 0.19516063 0.00047898
0.19516063 0.19516063 0.00047898
0.23304030 0.19516063 0.00047898
0.27072677 0.19516063 0.00047898
0.30824462 0.19516063 0.00047914
0.34561268 0.19516063 0.00047898
0.38284582 0.19516063 0.00047898
0.41995612 0.19516063 0.00047898
0.45695360 0.19516063 0.00047918
0.49384672 0.19516063 0.00047898
0.53064269 0.19516063 0.00047898
0.56734778 0.19516063 0.00047898
0.60396745 0.19516063 0.00047923
0.64050652 0.19516063 0.00047923
0.67696930 0.19516063 0.00047898
0.71335961 0.19516063 0.00047898
0.74968092 0.19516063 0.00047898
0.78593637 0.19516063 0.00047931
0.82212880 0.19516063 0.00047898
0.85826082 0.19516063 0.00047898
0.89433482 0.19516063 0.00047898
0.91886608 0.19516063 0.00047898
0.91886608 0.19516063 0.00047898
0.91886608 0.19516063 0.00047898
0.91886608 0.19516063 0.00047898
0.91886608 0.19516063 0.00047898
0.91886608 0.19516063 0.00047898
0.00047898 0.23304030 0.00047898
0.00047898 0.23304030 0.00047898
0.00047898 0.23304030 0.00047898
0.04068566 0.23304030 0.00047898
0.07993362 0.23304030 0.00047898
0.11867157 0.23304030 0.00047912
0.15705410 0.23304030 0.00047898
0.19516063 0.23304030 0.00047898
0.23304030 0.23304030 0.00047898
0.27072677 0.23304030 0.00047898
0.30824462 0.23304030 0.00047898
0.34561268 0.23304030 0.00047898
0.38284582 0.23304030 0.00047898
0.41995612 0.23304030 0.00047916
0.45695360 0.23304030 0.00047918
0.49384672 0.23304030 0.00047898
0.53064269 0.23304030 0.00047920
0.56734778 0.23304030 0.00047923
0.60396745 0.23304030 0.00047898
0.64050652 0.23304030 0.00047898
0.67696930 0.23304030 0.00047898
0.71335961 0.23304030 0.00047898
0.74968092 0.23304030 0.00047898
0.78593637 0.23304030 0.00047898
0.82212880 0.23304030 0.00047898
0.85826082 0.23304030 0.00047935
0.89433482 0.23304030 0.00047898
0.91886608 0.23304030 0.00047940
0.91886608 0.23304030 0.00047898
0.91886608 0.23304030 0.00047898
0.91886608 0.23304030 0.00047898
0.91886608 0.23304030 0.00047898
0.91886608 0.23304030 0.00047898
0.00047913 0.27072677 0.00047898
0.00047913 0.27072677 0.00047898
0.00047913 0.27072677 0.00047898
0.04068566 0.27072677 0.00047898
0.07993362 0.27072677 0.00047898
0.11867157 0.27072677 0.00047898
0.15705410 0.27072677 0.00047898
0.19516063 0.27072677 0.00047898
0.23304030 0.27072677 0.00047914
0.27072677 0.27072677 0.00047898
0.30824462 0.27072677 0.00047914
0.34561268 0.27072677 0.00047916
0.38284582 0.27072677 0.00047916
0.41995612 0.27072677 0.00047918
0.45695360 0.27072677 0.00047898
0.49384672 0.27072677 0.00047898
0.53064269 0.27072677 0.00047920
0.56734778 0.27072677 0.00047898
0.60396745 0.27072677 0.00047898
0.64050652 0.27072677 0.00047898
0.67696930 0.27072677 0.00047898
0.71335961 0.27072677 0.00047898
0.74968092 0.27072677 0.00047898
0.78593637 0.27072677 0.00047931
0.82212880 0.27072677 0.00047935
0.85826082 0.27072677 0.00047935
0.89433482 0.27072677 0.00047898
0.91886608 0.27072677 0.00047898
0.91886608 0.27072677 0.00047946
0.91886608 0.27072677 0.00047898
0.91886608 0.27072677 0.00047898
0.91886608 0.27072677 0.00047898
0.91886608 0.27072677 0.00047898
0.00047916 0.30824462 0.00047898
0.00047916 0.30824462 0.00047898
0.00047916 0.30824462 0.00047898
0.04068566 0.30824462 0.00047898
0.07993362 0.30824462 0.00047898
0.11867157 0.30824462 0.00047898
0.15705410 0.30824462 0.00047898
0.19516063 0.30824462 0.00047898
0.23304030 0.30824462 0.00047898
0.27072677 0.30824462 0.00047898
0.30824462 0.30824462 0.00047898
0.34561268 0.30824462 0.00047898
0.38284582 0.30824462 0.00047898
0.41995612 0.30824462 0.00047898
0.45695360 0.30824462 0.00047898
0.49384672 0.30824462 0.00047898
0.53064269 0.30824462 0.00047898
0.56734778 0.30824462 0.00047923
0.60396745 0.30824462 0.00047898
0.64050652 0.30824462 0.00047898
0.67696930 0.30824462 0.00047898
0.71335961 0.30824462 0.00047898
0.74968092 0.30824462 0.00047931
0.78593637 0.30824462 0.00047931
0.82212880 0.30824462 0.00047898
0.85826082 0.30824462 0.00047935
0.89433482 0.30824462 0.00047898
0.91886608 0.30824462 0.00047898
0.91886608 0.30824462 0.00047898
0.91886608 0.30824462 0.00047898
0.91886608 0.30824462 0.00047898
0.91886608 0.30824462 0.00047898
0.91886608 0.30824462 0.00047898
0.00047920 0.34561268 0.00047898
0.00047920 0.34561268 0.00047898
0.00047920 0.34561268 0.00047898
0.04068566 0.34561268 0.00047898
0.07993362 0.34561268 0.00047898
0.11867157 0.34561268 0.00047898
0.15705410 0.34561268 0.00047898
0.19516063 0.34561268 0.00047898
0.23304030 0.34561268 0.00047898
0.27072677 0.34561268 0.00047898
0.30824462 0.34561268 0.00047898
0.34561268 0.34561268 0.00047916
0.38284582 0.34561268 0.00047898
0.41995612 0.34561268 0.00047898
0.45695360 0.34561268 0.00047918
0.49384672 0.34561268 0.00047898
0.53064269 0.34561268 0.00047898
0.56734778 0.34561268 0.00047898
0.60396745 0.34561268 0.00047898
0.64050652 0.34561268 0.00047898
0.67696930 0.34561268 0.00047927
0.71335961 0.34561268 0.00047898
0.74968092 0.34561268 0.00047898
0.78593637 0.34561268 0.00047931
0.82212880 0.34561268 0.00047898
0.85826082 0.34561268 0.00047935
0.89433482 0.34561268 0.00047898
0.91886608 0.34561268 0.00047898
0.91886608 0.34561268 0.00047898
0.91886608 0.34561268 0.00047898
0.91886608 0.34561268 0.00047898
0.91886608 0.34561268 0.00047898
0.91886608 0.34561268 0.00047898
0.00047915 0.38284582 0.00047916
0.00047915 0.38284582 0.00047916
0.00047915 0.38284582 0.00047916
0.04068566 0.38284582 0.00047916
0.07993362 0.38284582 0.00047916
0.11867157 0.38284582 0.00047916
0.15705410 0.38284582 0.00047898
0.19516063 0.38284582 0.00047898
0.23304030 0.38284582 0.00047898
0.27072677 0.38284582 0.00047916
0.30824462 0.38284582 0.00047898
0.34561268 0.38284582 0.00047898
0.38284582 0.38284582 0.00047898
0.41995612 0.38284582 0.00047898
0.45695360 0.38284582 0.00047898
0.49384672 0.38284582 0.00047898
0.53064269 0.38284582 0.00047920
0.56734778 0.38284582 0.00047898
0.60396745 0.38284582 0.00047898
0.64050652 0.38284582 0.00047898
0.67696930 0.38284582 0.00047898
0.71335961 0.38284582 0.00047898
0.74968092 0.38284582 0.00047931
0.78593637 0.38284582 0.00047898
0.82212880 0.38284582 0.00047898
0.85826082 0.38284582 0.00047898
0.89433482 0.38284582 0.00047940
0.91886608 0.38284582 0.00047940
0.91886608 0.38284582 0.00047898
0.91886608 0.38284582 0.00047898
0.91886608 0.38284582 0.00047898
0.91886608 0.38284582 0.00047898
0.91886608 0.38284582 0.00047961
0.00047912 0.41995612 0.00047898
0.00047912 0.41995612 0.00047898
0.00047912 0.41995612 0.00047898
0.04068566 0.41995612 0.00047898
0.07993362 0.41995612 0.00047898
0.11867157 0.41995612 0.00047898
0.15705410 0.41995612 0.00047918
0.19516063 0.41995612 0.00047898
0.23304030 0.41995612 0.00047898
0.27072677 0.41995612 0.00047898
0.30824462 0.41995612 0.00047918
0.34561268 0.41995612 0.00047898
0.38284582 0.41995612 0.00047898
0.41995612 0.41995612 0.00047898
0.45695360 0.41995612 0.00047898
0.49384672 0.41995612 0.00047898
0.53064269 0.41995612 0.00047920
0.56734778 0.41995612 0.00047898
0.60396745 0.41995612 0.00047923
0.64050652 0.41995612 0.00047898
0.67696930 0.41995612 0.00047898
0.71335961 0.41995612 0.00047898
0.74968092 0.41995612 0.00047898
0.78593637 0.41995612 0.00047898
0.82212880 0.41995612 0.00047898
0.85826082 0.41995612 0.00047898
0.89433482 0.41995612 0.00047898
0.91886608 0.41995612 0.00047898
0.91886608 0.41995612 0.00047898
0.91886608 0.41995612 0.00047898
0.91886608 0.41995612 0.00047898
0.91886608 0.41995612 0.00047898
0.91886608 0.41995612 0.00047961
0.00047917 0.45695360 0.00047898
0.00047917 0.45695360 0.00047898
0.00047917 0.45695360 0.00047898
0.04068566 0.45695360 0.00047898
0.07993362 0.45695360 0.00047898
0.11867157 0.45695360 0.00047898
0.15705410 0.45695360 0.00047898
0.19516063 0.45695360 0.00047898
0.23304030 0.45695360 0.00047898
0.27072677 0.45695360 0.00047898
0.30824462 0.45695360 0.00047918
0.34561268 0.45695360 0.00047898
0.38284582 0.45695360 0.00047898
0.41995612 0.45695360 0.00047898
0.45695360 0.45695360 0.00047898
0.49384672 0.45695360 0.00047920
0.53064269 0.45695360 0.00047898
0.56734778 0.45695360 0.00047923
0.60396745 0.45695360 0.00047898
0.64050652 0.45695360 0.00047898
0.67696930 0.45695360 0.00047898
0.71335961 0.45695360 0.00047898
0.74968092 0.45695360 0.00047898
0.78593637 0.45695360 0.00047898
0.82212880 0.45695360 0.00047898
0.85826082 0.45695360 0.00047898
0.89433482 0.45695360 0.00047898
0.91886608 0.45695360 0.00047898
0.91886608 0.45695360 0.00047946
0.91886608 0.45695360 0.00047898
0.91886608 0.45695360 0.00047898
0.91886608 0.45695360 0.00047898
0.91886608 0.45695360 0.00047898
0.00047923 0.49384672 0.00047898
0.00047923 0.49384672 0.00047898
0.00047923 0.49384672 0.00047898
0.04068566 0.49384672 0.00047898
0.07993362 0.49384672 0.00047898
0.11867157 0.49384672 0.00047898
0.15705410 0.49384672 0.00047898
0.19516063 0.49384672 0.00047898
0.23304030 0.49384672 0.00047898
0.27072677 0.49384672 0.00047898
0.30824462 0.49384672 0.00047898
0.34561268 0.49384672 0.00047898
0.38284582 0.49384672 0.00047920
0.41995612 0.49384672 0.00047898
0.45695360 0.49384672 0.00047898
0.49384672 0.49384672 0.00047898
0.53064269 0.49384672 0.00047898
0.56734778 0.49384672 0.00047898
0.60396745 0.49384672 0.00047898
0.64050652 0.49384672 0.00047898
0.67696930 0.49384672 0.00047898
0.71335961 0.49384672 0.00047898
0.74968092 0.49384672 0.00047931
0.78593637 0.49384672 0.00047935
0.82212880 0.49384672 0.00047898
0.85826082 0.49384672 0.00047898
0.89433482 0.49384672 0.00047898
0.91886608 0.49384672 0.00047898
0.91886608 0.49384672 0.00047946
0.91886608 0.49384672 0.00047898
0.91886608 0.49384672 0.00047898
0.91886608 0.49384672 0.00047898
0.91886608 0.49384672 0.00047961
0.00047898 0.53064269 0.00047920
0.00047898 0.53064269 0.00047920
0.00047898 0.53064269 0.00047920
0.04068566 0.53064269 0.00047898
0.07993362 0.53064269 0.00047920
0.11867157 0.53064269 0.00047920
0.15705410 0.53064269 0.00047898
0.19516063 0.53064269 0.00047898
0.23304030 0.53064269 0.00047898
0.27072677 0.53064269 0.00047898
0.30824462 0.53064269 0.00047898
0.34561268 0.53064269 0.00047898
0.38284582 0.53064269 0.00047898
0.41995612 0.53064269 0.00047898
0.45695360 0.53064269 0.00047898
0.49384672 0.53064269 0.00047923
0.53064269 0.53064269 0.00047898
0.56734778 0.53064269 0.00047898
0.60396745 0.53064269 0.00047898
0.64050652 0.53064269 0.00047927
0.67696930 0.53064269 0.00047898
0.71335961 0.53064269 0.00047898
0.74968092 0.53064269 0.00047898
0.78593637 0.53064269 0.00047898
0.82212880 0.53064269 0.00047898
0.85826082 0.53064269 0.00047898
0.89433482 0.53064269 0.00047898
0.91886608 0.53064269 0.00047898
0.91886608 0.53064269 0.00047898
0.91886608 0.53064269 0.00047898
0.91886608 0.53064269 0.00047898
0.91886608 0.53064269 0.00047898
0.91886608 0.53064269 0.00047898
0.00047927 0.56734778 0.00047898
0.00047927 0.56734778 0.00047898
0.00047927 0.56734778 0.00047898
0.04068566 0.56734778 0.00047898
0.07993362 0.56734778 0.00047898
0.11867157 0.56734778 0.00047898
0.15705410 0.56734778 0.00047898
0.19516063 0.56734778 0.00047898
0.23304030 0.56734778 0.00047898
0.27072677 0.56734778 0.00047923
0.30824462 0.56734778 0.00047923
0.34561268 0.56734778 0.00047923
0.38284582 0.56734778 0.00047898
0.41995612 0.56734778 0.00047923
0.45695360 0.56734778 0.00047923
0.49384672 0.56734778 0.00047898
0.53064269 0.56734778 0.00047923
0.56734778 0.56734778 0.00047927
0.60396745 0.56734778 0.00047927
0.64050652 0.56734778 0.00047927
0.67696930 0.56734778 0.00047898
0.71335961 0.56734778 0.00047898
0.74968092 0.56734778 0.00047898
0.78593637 0.56734778 0.00047898
0.82212880 0.56734778 0.00047935
0.85826082 0.56734778 0.00047898
0.89433482 0.56734778 0.00047898
0.91886608 0.56734778 0.00047940
0.91886608 0.56734778 0.00047898
0.91886608 0.56734778 0.00047898
0.91886608 0.56734778 0.00047898
0.91886608 0.56734778 0.00047898
0.91886608 0.56734778 0.00047898
0.00047924 0.60396745 0.00047898
0.00047924 0.60396745 0.00047898
0.00047924 0.60396745 0.00047898
0.04068566 0.60396745 0.00047898
0.07993362 0.60396745 0.00047898
0.11867157 0.60396745 0.00047898
0.15705410 0.60396745 0.00047898
0.19516063 0.60396745 0.00047898
0.23304030 0.60396745 0.00047898
0.27072677 0.60396745 0.00047898
0.30824462 0.60396745 0.00047898
0.34561268 0.60396745 0.00047898
0.38284582 0.60396745 0.00047898
0.41995612 0.60396745 0.00047898
0.45695360 0.60396745 0.00047898
0.49384672 0.60396745 0.00047927
0.53064269 0.60396745 0.00047898
0.56734778 0.60396745 0.00047898
0.60396745 0.60396745 0.00047927
0.64050652 0.60396745 0.00047898
0.67696930 0.60396745 0.00047898
0.71335961 0.60396745 0.00047898
0.74968092 0.60396745 0.00047931
0.78593637 0.60396745 0.00047898
0.82212880 0.60396745 0.00047898
0.85826082 0.60396745 0.00047898
0.89433482 0.60396745 0.00047898
0.91886608 0.60396745 0.00047898
0.91886608 0.60396745 0.00047898
0.91886608 0.60396745 0.00047898
0.91886608 0.60396745 0.00047898
0.91886608 0.60396745 0.00047898
0.91886608 0.60396745 0.00047898
0.00047931 0.64050652 0.00047898
0.00047931 0.64050652 0.00047898
0.00047931 0.64050652 0.00047898
0.04068566 0.64050652 0.00047898
0.07993362 0.64050652 0.00047898
0.11867157 0.64050652 0.00047898
0.15705410 0.64050652 0.00047898
0.19516063 0.64050652 0.00047898
0.23304030 0.64050652 0.00047898
0.27072677 0.64050652 0.00047898
0.30824462 0.64050652 0.00047898
0.34561268 0.64050652 0.00047927
0.38284582 0.64050652 0.00047898
0.41995612 0.64050652 0.00047898
0.45695360 0.64050652 0.00047898
0.49384672 0.64050652 0.00047927
0.53064269 0.64050652 0.00047927
0.56734778 0.64050652 0.00047898
0.60396745 0.64050652 0.00047931
0.64050652 0.64050652 0.00047898
0.67696930 0.64050652 0.00047898
0.71335961 0.64050652 0.00047898
0.74968092 0.64050652 0.00047935
0.78593637 0.64050652 0.00047898
0.82212880 0.64050652 0.00047898
0.85826082 0.64050652 0.00047898
0.89433482 0.64050652 0.00047940
0.91886608 0.64050652 0.00047898
0.91886608 0.64050652 0.00047946
0.91886608 0.64050652 0.00047898
0.91886608 0.64050652 0.00047898
0.91886608 0.64050652 0.00047953
0.91886608 0.64050652 0.00047898
0.00047928 0.67696930 0.00047898
0.00047928 0.67696930 0.00047898
0.00047928 0.67696930 0.00047898
0.04068566 0.67696930 0.00047898
0.07993362 0.67696930 0.00047927
0.11867157 0.67696930 0.00047927
0.15705410 0.67696930 0.00047898
0.19516063 0.67696930 0.00047898
0.23304030 0.67696930 0.00047931
0.27072677 0.67696930 0.00047898
0.30824462 0.67696930 0.00047927
0.34561268 0.67696930 0.00047898
0.38284582 0.67696930 0.00047898
0.41995612 0.67696930 0.00047898
0.45695360 0.67696930 0.00047898
0.49384672 0.67696930 0.00047898
0.53064269 0.67696930 0.00047898
0.56734778 0.67696930 0.00047898
0.60396745 0.67696930 0.00047931
0.64050652 0.67696930 0.00047898
0.67696930 0.67696930 0.00047898
0.71335961 0.67696930 0.00047898
0.74968092 0.67696930 0.00047898
0.78593637 0.67696930 0.00047935
0.82212880 0.67696930 0.00047898
0.85826082 0.67696930 0.00047898
0.89433482 0.67696930 0.00047940
0.91886608 0.67696930 0.00047898
0.91886608 0.67696930 0.00047898
0.91886608 0.67696930 0.00047898
0.91886608 0.67696930 0.00047953
0.91886608 0.67696930 0.00047961
0.91886608 0.67696930 0.00047898
0.00047931 0.71335961 0.00047898
0.00047931 0.71335961 0.00047898
0.00047931 0.71335961 0.00047898
0.04068566 0.71335961 0.00047898
0.07993362 0.71335961 0.00047898
0.11867157 0.71335961 0.00047931
0.15705410 0.71335961 0.00047898
0.19516063 0.71335961 0.00047931
0.23304030 0.71335961 0.00047898
0.27072677 0.71335961 0.00047898
0.30824462 0.71335961 0.00047898
0.34561268 0.71335961 0.00047898
0.38284582 0.71335961 0.00047898
0.41995612 0.71335961 0.00047898
0.45695360 0.71335961 0.00047898
0.49384672 0.71335961 0.00047898
0.53064269 0.71335961 0.00047898
0.56734778 0.71335961 0.00047898
0.60396745 0.71335961 0.00047898
0.64050652 0.71335961 0.00047898
0.67696930 0.71335961 0.00047931
0.71335961 0.71335961 0.00047898
0.74968092 0.71335961 0.00047898
0.78593637 0.71335961 0.00047898
0.82212880 0.71335961 0.00047898
0.85826082 0.71335961 0.00047898
0.89433482 0.71335961 0.00047898
