src/ffmpeg_scripts/luts/luminance_1p00.cube
TITLE "luminance_1p00"
LUT_3D_SIZE 9
# PQ (EOTF Only)/Rec2020 -> PQ (EOTF Only)/Rec2020, CineEI Shift 1.00, Black Level 0.00% IRE, Input 109% -> Output 109% - Created with LUTCalc v4.01 by Ben Turley October 2020
0.06256172 0.06256172 0.06256172
0.14475437 0.06256177 0.06256172
0.29138472 0.06256172 0.06256172
0.42883853 0.06256172 0.06256172
0.56094033 0.06256196 0.06256172
0.68922762 0.06256198 0.06256172
0.81454685 0.06256205 0.06256172
0.91886608 0.06256172 0.06256172
0.91886608 0.06256237 0.06256235
0.06256180 0.14475437 0.06256172
0.14475437 0.14475437 0.06256172
0.29138472 0.14475437 0.06256172
0.42883853 0.14475437 0.06256172
0.56094033 0.14475437 0.06256172
0.68922762 0.14475437 0.06256172
0.81454685 0.14475437 0.06256172
0.91886608 0.14475437 0.06256219
0.91886608 0.14475437 0.06256172
0.06256172 0.29138472 0.06256172
0.14475437 0.29138472 0.06256172
0.29138472 0.29138472 0.06256172
0.42883853 0.29138472 0.06256172
0.56094033 0.29138472 0.06256172
0.68922762 0.29138472 0.06256172
0.81454685 0.29138472 0.06256172
0.91886608 0.29138472 0.06256172
0.91886608 0.29138472 0.06256172
0.06256190 0.42883853 0.06256189
0.14475437 0.42883853 0.06256172
0.29138472 0.42883853 0.06256172
0.42883853 0.42883853 0.06256191
0.56094033 0.42883853 0.06256172
0.68922762 0.42883853 0.06256172
0.81454685 0.42883853 0.06256172
0.91886608 0.42883853 0.06256219
0.91886608 0.42883853 0.06256172
0.06256172 0.56094033 0.06256172
0.14475437 0.56094033 0.06256172
0.29138472 0.56094033 0.06256172
0.42883853 0.56094033 0.06256172
0.56094033 0.56094033 0.06256172
0.68922762 0.56094033 0.06256172
0.81454685 0.56094033 0.06256172
0.91886608 0.56094033 0.06256172
0.91886608 0.56094033 0.06256172
0.06256191 0.68922762 0.06256172
0.14475437 0.68922762 0.06256172
0.29138472 0.68922762 0.06256172
0.42883853 0.68922762 0.06256172
0.56094033 0.68922762 0.06256200
0.68922762 0.68922762 0.06256172
0.81454685 0.68922762 0.06256172
0.91886608 0.68922762 0.06256172
0.91886608 0.68922762 0.06256172
0.06256210 0.81454685 0.06256172
0.14475437 0.81454685 0.06256172
0.29138472 0.81454685 0.06256172
0.42883853 0.81454685 0.06256172
0.56094033 0.81454685 0.06256172
0.68922762 0.81454685 0.06256208
0.81454685 0.81454685 0.06256172
0.91886608 0.81454685 0.06256219
0.91886608 0.81454685 0.06256235
0.06256235 0.91886608 0.06256172
0.14475437 0.91886608 0.06256172
0.29138472 0.91886608 0.06256172
0.42883853 0.91886608 0.06256172
0.56094033 0.91886608 0.06256172
0.68922762 0.91886608 0.06256172
0.81454685 0.91886608 0.06256172
0.91886608 0.91886608 0.06256172
0.91886608 0.91886608 0.06256172
0.06256245 0.91886608 0.06256172
0.14475437 0.91886608 0.06256172
0.29138472 0.91886608 0.06256172
0.42883853 0.91886608 0.06256172
0.56094033 0.91886608 0.06256172
0.68922762 0.91886608 0.06256172
0.81454685 0.91886608 0.06256172
0.91886608 0.91886608 0.06256172
0.91886608 0.91886608 0.06256172
0.06256172 0.06256182 0.14475437
0.14475437 0.06256181 0.14475437
0.29138472 0.06256172 0.14475437
0.42883853 0.06256172 0.14475437
0.56094033 0.06256197 0.14475437
0.68922762 0.06256172 0.14475437
0.81454685 0.06256200 0.14475437
0.91886608 0.06256211 0.14475437
0.91886608 0.06256227 0.14475437
0.06256180 0.14475437 0.14475437
0.14475437 0.14475437 0.14475437
0.29138472 0.14475437 0.14475437
0.42883853 0.14475437 0.14475437
0.56094033 0.14475437 0.14475437
0.68922762 0.14475437 0.14475437
0.81454685 0.14475437 0.14475437
0.91886608 0.14475437 0.14475437
0.91886608 0.14475437 0.14475437
0.06256184 0.29138472 0.14475437
0.14475437 0.29138472 0.14475437
0.29138472 0.29138472 0.14475437
0.42883853 0.29138472 0.14475437
0.56094033 0.29138472 0.14475437
0.68922762 0.29138472 0.14475437
0.81454685 0.29138472 0.14475437
0.91886608 0.29138472 0.14475437
0.91886608 0.29138472 0.14475437
0.06256190 0.42883853 0.14475437
0.14475437 0.42883853 0.14475437
0.29138472 0.42883853 0.14475437
0.42883853 0.42883853 0.14475437
0.56094033 0.42883853 0.14475437
0.68922762 0.42883853 0.14475437
0.81454685 0.42883853 0.14475437
0.91886608 0.42883853 0.14475437
0.91886608 0.42883853 0.14475437
0.06256197 0.56094033 0.14475437
0.14475437 0.56094033 0.14475437
0.29138472 0.56094033 0.14475437
0.42883853 0.56094033 0.14475437
0.56094033 0.56094033 0.14475437
0.68922762 0.56094033 0.14475437
0.81454685 0.56094033 0.14475437
0.91886608 0.56094033 0.14475437
0.91886608 0.56094033 0.14475437
0.06256202 0.68922762 0.14475437
0.14475437 0.68922762 0.14475437
0.29138472 0.68922762 0.14475437
0.42883853 0.68922762 0.14475437
0.56094033 0.68922762 0.14475437
0.68922762 0.68922762 0.14475437
0.81454685 0.68922762 0.14475437
0.91886608 0.68922762 0.14475437
0.91886608 0.68922762 0.14475437
0.06256212 0.81454685 0.14475437
0.14475437 0.81454685 0.14475437
0.29138472 0.81454685 0.14475437
0.42883853 0.81454685 0.14475437
0.56094033 0.81454685 0.14475437
0.68922762 0.81454685 0.14475437
0.81454685 0.81454685 0.14475437
0.91886608 0.81454685 0.14475437
0.91886608 0.81454685 0.14475437
0.06256229 0.91886608 0.14475437
0.14475437 0.91886608 0.14475437
0.29138472 0.91886608 0.14475437
0.42883853 0.91886608 0.14475437
0.56094033 0.91886608 0.14475437
0.68922762 0.91886608 0.14475437
0.81454685 0.91886608 0.14475437
0.91886608 0.91886608 0.14475437
0.91886608 0.91886608 0.14475437
0.06256242 0.91886608 0.14475437
0.14475437 0.91886608 0.14475437
0.29138472 0.91886608 0.14475437
0.42883853 0.91886608 0.14475437
0.56094033 0.91886608 0.14475437
0.68922762 0.91886608 0.14475437
0.81454685 0.91886608 0.14475437
0.91886608 0.91886608 0.14475437
0.91886608 0.91886608 0.14475437
0.06256172 0.06256172 0.29138472
0.14475437 0.06256172 0.29138472
0.29138472 0.06256187 0.29138472
0.42883853 0.06256172 0.29138472
0.56094033 0.06256194 0.29138472
0.68922762 0.06256198 0.29138472
0.81454685 0.06256200 0.29138472
0.91886608 0.06256172 0.29138472
0.91886608 0.06256237 0.29138472
0.06256172 0.14475437 0.29138472
0.14475437 0.14475437 0.29138472
0.29138472 0.14475437 0.29138472
0.42883853 0.14475437 0.29138472
0.56094033 0.14475437 0.29138472
0.68922762 0.14475437 0.29138472
0.81454685 0.14475437 0.29138472
0.91886608 0.14475437 0.29138472
0.91886608 0.14475437 0.29138472
0.06256172 0.29138472 0.29138472
0.14475437 0.29138472 0.29138472
0.29138472 0.29138472 0.29138472
0.42883853 0.29138472 0.29138472
0.56094033 0.29138472 0.29138472
0.68922762 0.29138472 0.29138472
0.81454685 0.29138472 0.29138472
0.91886608 0.29138472 0.29138472
0.91886608 0.29138472 0.29138472
0.06256191 0.42883853 0.29138472
0.14475437 0.42883853 0.29138472
0.29138472 0.42883853 0.29138472
0.42883853 0.42883853 0.29138472
0.56094033 0.42883853 0.29138472
0.68922762 0.42883853 0.29138472
0.81454685 0.42883853 0.29138472
0.91886608 0.42883853 0.29138472
0.91886608 0.42883853 0.29138472
0.06256195 0.56094033 0.29138472
0.14475437 0.56094033 0.29138472
0.29138472 0.56094033 0.29138472
0.42883853 0.56094033 0.29138472
0.56094033 0.56094033 0.29138472
0.68922762 0.56094033 0.29138472
0.81454685 0.56094033 0.29138472
0.91886608 0.56094033 0.29138472
0.91886608 0.56094033 0.29138472
0.06256205 0.68922762 0.29138472
0.14475437 0.68922762 0.29138472
0.29138472 0.68922762 0.29138472
0.42883853 0.68922762 0.29138472
0.56094033 0.68922762 0.29138472
0.68922762 0.68922762 0.29138472
0.81454685 0.68922762 0.29138472
0.91886608 0.68922762 0.29138472
0.91886608 0.68922762 0.29138472
0.06256211 0.81454685 0.29138472
0.14475437 0.81454685 0.29138472
0.29138472 0.81454685 0.29138472
0.42883853 0.81454685 0.29138472
0.56094033 0.81454685 0.29138472
0.68922762 0.81454685 0.29138472
0.81454685 0.81454685 0.29138472
0.91886608 0.81454685 0.29138472
0.91886608 0.81454685 0.29138472
0.06256237 0.91886608 0.29138472
0.14475437 0.91886608 0.29138472
0.29138472 0.91886608 0.29138472
0.42883853 0.91886608 0.29138472
0.56094033 0.91886608 0.29138472
0.68922762 0.91886608 0.29138472
0.81454685 0.91886608 0.29138472
0.91886608 0.91886608 0.29138472
0.91886608 0.91886608 0.29138472
0.06256242 0.91886608 0.29138472
0.14475437 0.91886608 0.29138472
0.29138472 0.91886608 0.29138472
0.42883853 0.91886608 0.29138472
0.56094033 0.91886608 0.29138472
0.68922762 0.91886608 0.29138472
0.81454685 0.91886608 0.29138472
0.91886608 0.91886608 0.29138472
0.91886608 0.91886608 0.29138472
0.06256172 0.06256194 0.42883853
0.14475437 0.06256172 0.42883853
0.29138472 0.06256172 0.42883853
0.42883853 0.06256197 0.42883853
0.56094033 0.06256172 0.42883853
0.68922762 0.06256204 0.42883853
0.81454685 0.06256200 0.42883853
0.91886608 0.06256172 0.42883853
0.91886608 0.06256233 0.42883853
0.06256172 0.14475437 0.42883853
0.14475437 0.14475437 0.42883853
0.29138472 0.14475437 0.42883853
0.42883853 0.14475437 0.42883853
0.56094033 0.14475437 0.42883853
0.68922762 0.14475437 0.42883853
0.81454685 0.14475437 0.42883853
0.91886608 0.14475437 0.42883853
0.91886608 0.14475437 0.42883853
0.06256172 0.29138472 0.42883853
0.14475437 0.29138472 0.42883853
0.29138472 0.29138472 0.42883853
0.42883853 0.29138472 0.42883853
0.56094033 0.29138472 0.42883853
0.68922762 0.29138472 0.42883853
0.81454685 0.29138472 0.42883853
0.91886608 0.29138472 0.42883853
0.91886608 0.29138472 0.42883853
0.06256191 0.42883853 0.42883853
0.14475437 0.42883853 0.42883853
0.29138472 0.42883853 0.42883853
0.42883853 0.42883853 0.42883853
0.56094033 0.42883853 0.42883853
0.68922762 0.42883853 0.42883853
0.81454685 0.42883853 0.42883853
0.91886608 0.42883853 0.42883853
0.91886608 0.42883853 0.42883853
0.06256195 0.56094033 0.42883853
0.14475437 0.56094033 0.42883853
0.29138472 0.56094033 0.42883853
0.42883853 0.56094033 0.42883853
0.56094033 0.56094033 0.42883853
0.68922762 0.56094033 0.42883853
0.81454685 0.56094033 0.42883853
0.91886608 0.56094033 0.42883853
0.91886608 0.56094033 0.42883853
0.06256199 0.68922762 0.42883853
0.14475437 0.68922762 0.42883853
0.29138472 0.68922762 0.42883853
0.42883853 0.68922762 0.42883853
0.56094033 0.68922762 0.42883853
0.68922762 0.68922762 0.42883853
0.81454685 0.68922762 0.42883853
0.91886608 0.68922762 0.42883853
0.91886608 0.68922762 0.42883853
0.06256211 0.81454685 0.42883853
0.14475437 0.81454685 0.42883853
0.29138472 0.81454685 0.42883853
0.42883853 0.81454685 0.42883853
0.56094033 0.81454685 0.42883853
0.68922762 0.81454685 0.42883853
0.81454685 0.81454685 0.42883853
0.91886608 0.81454685 0.42883853
0.91886608 0.81454685 0.42883853
0.06256232 0.91886608 0.42883853
0.14475437 0.91886608 0.42883853
0.29138472 0.91886608 0.42883853
0.42883853 0.91886608 0.42883853
0.56094033 0.91886608 0.42883853
0.68922762 0.91886608 0.42883853
0.81454685 0.91886608 0.42883853
0.91886608 0.91886608 0.42883853
0.91886608 0.91886608 0.42883853
0.06256242 0.91886608 0.42883853
0.14475437 0.91886608 0.42883853
0.29138472 0.91886608 0.42883853
0.42883853 0.91886608 0.42883853
0.56094033 0.91886608 0.42883853
0.68922762 0.91886608 0.42883853
0.81454685 0.91886608 0.42883853
0.91886608 0.91886608 0.42883853
0.91886608 0.91886608 0.42883853
0.06256172 0.06256172 0.56094033
0.14475437 0.06256200 0.56094033
0.29138472 0.06256200 0.56094033
0.42883853 0.06256172 0.56094033
0.56094033 0.06256204 0.56094033
0.68922762 0.06256172 0.56094033
0.81454685 0.06256208 0.56094033
0.91886608 0.06256217 0.56094033
0.91886608 0.06256244 0.56094033
0.06256172 0.14475437 0.56094033
0.14475437 0.14475437 0.56094033
0.29138472 0.14475437 0.56094033
0.42883853 0.14475437 0.56094033
0.56094033 0.14475437 0.56094033
0.68922762 0.14475437 0.56094033
0.81454685 0.14475437 0.56094033
0.91886608 0.14475437 0.56094033
0.91886608 0.14475437 0.56094033
0.06256172 0.29138472 0.56094033
0.14475437 0.29138472 0.56094033
0.29138472 0.29138472 0.56094033
0.42883853 0.29138472 0.56094033
0.56094033 0.29138472 0.56094033
0.68922762 0.29138472 0.56094033
0.81454685 0.29138472 0.56094033
0.91886608 0.29138472 0.56094033
0.91886608 0.29138472 0.56094033
0.06256172 0.42883853 0.56094033
0.14475437 0.42883853 0.56094033
0.29138472 0.42883853 0.56094033
0.42883853 0.42883853 0.56094033
0.56094033 0.42883853 0.56094033
0.68922762 0.42883853 0.56094033
0.81454685 0.42883853 0.56094033
0.91886608 0.42883853 0.56094033
0.91886608 0.42883853 0.56094033
0.06256172 0.56094033 0.56094033
0.14475437 0.56094033 0.56094033
0.29138472 0.56094033 0.56094033
0.42883853 0.56094033 0.56094033
0.56094033 0.56094033 0.56094033
0.68922762 0.56094033 0.56094033
0.81454685 0.56094033 0.56094033
0.91886608 0.56094033 0.56094033
0.91886608 0.56094033 0.56094033
0.06256205 0.68922762 0.56094033
0.14475437 0.68922762 0.56094033
0.29138472 0.68922762 0.56094033
0.42883853 0.68922762 0.56094033
0.56094033 0.68922762 0.56094033
0.68922762 0.68922762 0.56094033
0.81454685 0.68922762 0.56094033
0.91886608 0.68922762 0.56094033
0.91886608 0.68922762 0.56094033
0.06256221 0.81454685 0.56094033
0.14475437 0.81454685 0.56094033
0.29138472 0.81454685 0.56094033
0.42883853 0.81454685 0.56094033
0.56094033 0.81454685 0.56094033
0.68922762 0.81454685 0.56094033
0.81454685 0.81454685 0.56094033
0.91886608 0.81454685 0.56094033
0.91886608 0.81454685 0.56094033
0.06256232 0.91886608 0.56094033
0.14475437 0.91886608 0.56094033
0.29138472 0.91886608 0.56094033
0.42883853 0.91886608 0.56094033
0.56094033 0.91886608 0.56094033
0.68922762 0.91886608 0.56094033
0.81454685 0.91886608 0.56094033
0.91886608 0.91886608 0.56094033
0.91886608 0.91886608 0.56094033
0.06256244 0.91886608 0.56094033
0.14475437 0.91886608 0.56094033
0.29138472 0.91886608 0.56094033
0.42883853 0.91886608 0.56094033
0.56094033 0.91886608 0.56094033
0.68922762 0.91886608 0.56094033
0.81454685 0.91886608 0.56094033
0.91886608 0.91886608 0.56094033
0.91886608 0.91886608 0.56094033
0.06256172 0.06256208 0.68922762
0.14475437 0.06256208 0.68922762
0.29138472 0.06256213 0.68922762
0.42883853 0.06256208 0.68922762
0.56094033 0.06256213 0.68922762
0.68922762 0.06256217 0.68922762
0.81454685 0.06256172 0.68922762
0.91886608 0.06256213 0.68922762
0.91886608 0.06256172 0.68922762
0.06256172 0.14475437 0.68922762
0.14475437 0.14475437 0.68922762
0.29138472 0.14475437 0.68922762
0.42883853 0.14475437 0.68922762
0.56094033 0.14475437 0.68922762
0.68922762 0.14475437 0.68922762
0.81454685 0.14475437 0.68922762
0.91886608 0.14475437 0.68922762
0.91886608 0.14475437 0.68922762
0.06256204 0.29138472 0.68922762
0.14475437 0.29138472 0.68922762
0.29138472 0.29138472 0.68922762
0.42883853 0.29138472 0.68922762
0.56094033 0.29138472 0.68922762
0.68922762 0.29138472 0.68922762
0.81454685 0.29138472 0.68922762
0.91886608 0.29138472 0.68922762
0.91886608 0.29138472 0.68922762
0.06256172 0.42883853 0.68922762
0.14475437 0.42883853 0.68922762
0.29138472 0.42883853 0.68922762
0.42883853 0.42883853 0.68922762
0.56094033 0.42883853 0.68922762
0.68922762 0.42883853 0.68922762
0.81454685 0.42883853 0.68922762
0.91886608 0.42883853 0.68922762
0.91886608 0.42883853 0.68922762
0.06256172 0.56094033 0.68922762
0.14475437 0.56094033 0.68922762
0.29138472 0.56094033 0.68922762
0.42883853 0.56094033 0.68922762
0.56094033 0.56094033 0.68922762
0.68922762 0.56094033 0.68922762
0.81454685 0.56094033 0.68922762
0.91886608 0.56094033 0.68922762
0.91886608 0.56094033 0.68922762
0.06256204 0.68922762 0.68922762
0.14475437 0.68922762 0.68922762
0.29138472 0.68922762 0.68922762
0.42883853 0.68922762 0.68922762
0.56094033 0.68922762 0.68922762
0.68922762 0.68922762 0.68922762
0.81454685 0.68922762 0.68922762
0.91886608 0.68922762 0.68922762
0.91886608 0.68922762 0.68922762
0.06256217 0.81454685 0.68922762
0.14475437 0.81454685 0.68922762
0.29138472 0.81454685 0.68922762
0.42883853 0.81454685 0.68922762
0.56094033 0.81454685 0.68922762
0.68922762 0.81454685 0.68922762
0.81454685 0.81454685 0.68922762
0.91886608 0.81454685 0.68922762
0.91886608 0.81454685 0.68922762
0.06256230 0.91886608 0.68922762
0.14475437 0.91886608 0.68922762
0.29138472 0.91886608 0.68922762
0.42883853 0.91886608 0.68922762
0.56094033 0.91886608 0.68922762
0.68922762 0.91886608 0.68922762
0.81454685 0.91886608 0.68922762
0.91886608 0.91886608 0.68922762
0.91886608 0.91886608 0.68922762
0.06256258 0.91886608 0.68922762
0.14475437 0.91886608 0.68922762
0.29138472 0.91886608 0.68922762
0.42883853 0.91886608 0.68922762
0.56094033 0.91886608 0.68922762
0.68922762 0.91886608 0.68922762
0.81454685 0.91886608 0.68922762
0.91886608 0.91886608 0.68922762
0.91886608 0.91886608 0.68922762
0.06256172 0.06256172 0.81454685
0.14475437 0.06256172 0.81454685
0.29138472 0.06256172 0.81454685
0.42883853 0.06256219 0.81454685
0.56094033 0.06256172 0.81454685
0.68922762 0.06256172 0.81454685
0.81454685 0.06256172 0.81454685
0.91886608 0.06256172 0.81454685
0.91886608 0.06256172 0.81454685
0.06256172 0.14475437 0.81454685
0.14475437 0.14475437 0.81454685
0.29138472 0.14475437 0.81454685
0.42883853 0.14475437 0.81454685
0.56094033 0.14475437 0.81454685
0.68922762 0.14475437 0.81454685
0.81454685 0.14475437 0.81454685
0.91886608 0.14475437 0.81454685
0.91886608 0.14475437 0.81454685
0.06256172 0.29138472 0.81454685
0.14475437 0.29138472 0.81454685
0.29138472 0.29138472 0.81454685
0.42883853 0.29138472 0.81454685
0.56094033 0.29138472 0.81454685
0.68922762 0.29138472 0.81454685
0.81454685 0.29138472 0.81454685
0.91886608 0.29138472 0.81454685
0.91886608 0.29138472 0.81454685
0.06256172 0.42883853 0.81454685
0.14475437 0.42883853 0.81454685
0.29138472 0.42883853 0.81454685
0.42883853 0.42883853 0.81454685
0.56094033 0.42883853 0.81454685
0.68922762 0.42883853 0.81454685
0.81454685 0.42883853 0.81454685
0.91886608 0.42883853 0.81454685
0.91886608 0.42883853 0.81454685
0.06256172 0.56094033 0.81454685
0.14475437 0.56094033 0.81454685
0.29138472 0.56094033 0.81454685
0.42883853 0.56094033 0.81454685
0.56094033 0.56094033 0.81454685
0.68922762 0.56094033 0.81454685
0.81454685 0.56094033 0.81454685
0.91886608 0.56094033 0.81454685
0.91886608 0.56094033 0.81454685
0.06256172 0.68922762 0.81454685
0.14475437 0.68922762 0.81454685
0.29138472 0.68922762 0.81454685
0.42883853 0.68922762 0.81454685
0.56094033 0.68922762 0.81454685
0.68922762 0.68922762 0.81454685
0.81454685 0.68922762 0.81454685
0.91886608 0.68922762 0.81454685
0.91886608 0.68922762 0.81454685
0.06256172 0.81454685 0.81454685
0.14475437 0.81454685 0.81454685
0.29138472 0.81454685 0.81454685
0.42883853 0.81454685 0.81454685
0.56094033 0.81454685 0.81454685
0.68922762 0.81454685 0.81454685
0.81454685 0.81454685 0.81454685
0.91886608 0.81454685 0.81454685
0.91886608 0.81454685 0.81454685
0.06256227 0.91886608 0.81454685
0.14475437 0.91886608 0.81454685
0.29138472 0.91886608 0.81454685
0.42883853 0.91886608 0.81454685
0.56094033 0.91886608 0.81454685
0.68922762 0.91886608 0.81454685
0.81454685 0.91886608 0.81454685
0.91886608 0.91886608 0.81454685
0.91886608 0.91886608 0.81454685
0.06256248 0.91886608 0.81454685
0.14475437 0.91886608 0.81454685
0.29138472 0.91886608 0.81454685
0.42883853 0.91886608 0.81454685
0.56094033 0.91886608 0.81454685
0.68922762 0.91886608 0.81454685
0.81454685 0.91886608 0.81454685
0.91886608 0.91886608 0.81454685
0.91886608 0.91886608 0.81454685
0.06256172 0.06256245 0.91886608
0.14475437 0.06256235 0.91886608
0.29138472 0.06256235 0.91886608
0.42883853 0.06256245 0.91886608
0.56094033 0.06256172 0.91886608
0.68922762 0.06256172 0.91886608
0.81454685 0.06256235 0.91886608
0.91886608 0.06256245 0.91886608
0.91886608 0.06256245 0.91886608
0.06256172 0.14475437 0.91886608
0.14475437 0.14475437 0.91886608
0.29138472 0.14475437 0.91886608
0.42883853 0.14475437 0.91886608
0.56094033 0.14475437 0.91886608
0.68922762 0.14475437 0.91886608
0.81454685 0.14475437 0.91886608
0.91886608 0.14475437 0.91886608
0.91886608 0.14475437 0.91886608
0.06256172 0.29138472 0.91886608
0.14475437 0.29138472 0.91886608
0.29138472 0.29138472 0.91886608
0.42883853 0.29138472 0.91886608
0.56094033 0.29138472 0.91886608
0.68922762 0.29138472 0.91886608
0.81454685 0.29138472 0.91886608
0.91886608 0.29138472 0.91886608
0.91886608 0.29138472 0.91886608
0.06256172 0.42883853 0.91886608
0.14475437 0.42883853 0.91886608
0.29138472 0.42883853 0.91886608
0.42883853 0.42883853 0.91886608
0.56094033 0.42883853 0.91886608
0.68922762 0.42883853 0.91886608
0.81454685 0.42883853 0.91886608
0.91886608 0.42883853 0.91886608
0.91886608 0.42883853 0.91886608
0.06256172 0.56094033 0.91886608
0.14475437 0.56094033 0.91886608
0.29138472 0.56094033 0.91886608
0.42883853 0.56094033 0.91886608
0.56094033 0.56094033 0.91886608
0.68922762 0.56094033 0.91886608
0.81454685 0.56094033 0.91886608
0.91886608 0.56094033 0.91886608
0.91886608 0.56094033 0.91886608
0.06256172 0.68922762 0.91886608
0.14475437 0.68922762 0.91886608
0.29138472 0.68922762 0.91886608
0.42883853 0.68922762 0.91886608
0.56094033 0.68922762 0.91886608
0.68922762 0.68922762 0.91886608
0.81454685 0.68922762 0.91886608
0.91886608 0.68922762 0.91886608
0.91886608 0.68922762 0.91886608
0.06256172 0.81454685 0.91886608
0.14475437 0.81454685 0.91886608
0.29138472 0.81454685 0.91886608
0.42883853 0.81454685 0.91886608
0.56094033 0.81454685 0.91886608
0.68922762 0.81454685 0.91886608
0.81454685 0.81454685 0.91886608
0.91886608 0.81454685 0.91886608
0.91886608 0.81454685 0.91886608
0.06256172 0.91886608 0.91886608
0.14475437 0.91886608 0.91886608
0.29138472 0.91886608 0.91886608
0.42883853 0.91886608 0.91886608
0.56094033 0.91886608 0.91886608
0.68922762 0.91886608 0.91886608
0.81454685 0.91886608 0.91886608
0.91886608 0.91886608 0.91886608
0.91886608 0.91886608 0.91886608
0.06256259 0.91886608 0.91886608
0.14475437 0.91886608 0.91886608
0.29138472 0.91886608 0.91886608
0.42883853 0.91886608 0.91886608
0.56094033 0.91886608 0.91886608
0.68922762 0.91886608 0.91886608
0.81454685 0.91886608 0.91886608
0.91886608 0.91886608 0.91886608
0.91886608 0.91886608 0.91886608
0.06256172 0.06256172 0.91886608
0.14475437 0.06256172 0.91886608
0.29138472 0.06256272 0.91886608
0.42883853 0.06256257 0.91886608
0.56094033 0.06256257 0.91886608
0.68922762 0.06256257 0.91886608
0.81454685 0.06256257 0.91886608
0.91886608 0.06256257 0.91886608
0.91886608 0.06256257 0.91886608
0.06256172 0.14475437 0.91886608
0.14475437 0.14475437 0.91886608
0.29138472 0.14475437 0.91886608
0.42883853 0.14475437 0.91886608
0.56094033 0.14475437 0.91886608
0.68922762 0.14475437 0.91886608
0.81454685 0.14475437 0.91886608
0.91886608 0.14475437 0.91886608
0.91886608 0.14475437 0.91886608
0.06256172 0.29138472 0.91886608
0.14475437 0.29138472 0.91886608
0.29138472 0.29138472 0.91886608
0.42883853 0.29138472 0.91886608
0.56094033 0.29138472 0.91886608
0.68922762 0.29138472 0.91886608
0.81454685 0.29138472 0.91886608
0.91886608 0.29138472 0.91886608
0.91886608 0.29138472 0.91886608
0.06256245 0.42883853 0.91886608
0.14475437 0.42883853 0.91886608
0.29138472 0.42883853 0.91886608
0.42883853 0.42883853 0.91886608
0.56094033 0.42883853 0.91886608
0.68922762 0.42883853 0.91886608
0.81454685 0.42883853 0.91886608
0.91886608 0.42883853 0.91886608
0.91886608 0.42883853 0.91886608
0.06256172 0.56094033 0.91886608
0.14475437 0.56094033 0.91886608
0.29138472 0.56094033 0.91886608
0.42883853 0.56094033 0.91886608
0.56094033 0.56094033 0.91886608
0.68922762 0.56094033 0.91886608
0.81454685 0.56094033 0.91886608
0.91886608 0.56094033 0.91886608
0.91886608 0.56094033 0.91886608
0.06256172 0.68922762 0.91886608
0.14475437 0.68922762 0.91886608
0.29138472 0.68922762 0.91886608
0.42883853 0.68922762 0.91886608
0.56094033 0.68922762 0.91886608
0.68922762 0.68922762 0.91886608
0.81454685 0.68922762 0.91886608
0.91886608 0.68922762 0.91886608
0.91886608 0.68922762 0.91886608
0.06256172 0.81454685 0.91886608
0.14475437 0.81454685 0.91886608
0.29138472 0.81454685 0.91886608
0.42883853 0.81454685 0.91886608
0.56094033 0.81454685 0.91886608
0.68922762 0.81454685 0.91886608
0.81454685 0.81454685 0.91886608
0.91886608 0.81454685 0.91886608
0.91886608 0.81454685 0.91886608
0.06256172 0.91886608 0.91886608
0.14475437 0.91886608 0.91886608
0.29138472 0.91886608 0.91886608
0.42883853 0.91886608 0.91886608
0.56094033 0.91886608 0.91886608
0.68922762 0.91886608 0.91886608
0.81454685 0.91886608 0.91886608
0.91886608 0.91886608 0.91886608
0.91886608 0.91886608 0.91886608
0.06256245 0.91886608 0.91886608
0.14475437 0.91886608 0.91886608
0.29138472 0.91886608 0.91886608
0.42883853 0.91886608 0.91886608
0.56094033 0.91886608 0.91886608
0.68922762 0.91886608 0.91886608
0.81454685 0.91886608 0.91886608
0.91886608 0.91886608 0.91886608
0.91886608 0.91886608 0.91886608
