src/ffmpeg_scripts/luts/luminance_-2p33.cube
TITLE "luminance_-2p33"
LUT_3D_SIZE 33
# PQ (EOTF Only)/Rec2020 -> PQ (EOTF Only)/Rec2020, CineEI Shift -2.33, Black Level 0.00% IRE, Input 109% -> Output 109% - Created with LUTCalc v4.01 by Ben Turley October 2020
0.06256172 0.06256172 0.06256172
0.06256172 0.06256172 0.06256172
0.06256172 0.06256172 0.06256172
0.07664820 0.06256176 0.06256172
0.09331494 0.06256172 0.06256172
0.11156309 0.06256172 0.06256172
0.13104689 0.06256177 0.06256172
0.15157299 0.06256172 0.06256172
0.17301417 0.06256172 0.06256172
0.19527892 0.06256179 0.06256172
0.21829755 0.06256182 0.06256172
0.24201482 0.06256180 0.06256172
0.26638560 0.06256172 0.06256182
0.29137218 0.06256172 0.06256172
0.31694248 0.06256172 0.06256172
0.34306878 0.06256172 0.06256172
0.36972684 0.06256189 0.06256185
0.39689524 0.06256172 0.06256172
0.42455488 0.06256172 0.06256172
0.45268860 0.06256189 0.06256172
0.48128088 0.06256187 0.06256172
0.51031759 0.06256172 0.06256172
0.53978580 0.06256192 0.06256172
0.56967364 0.06256172 0.06256172
0.59997014 0.06256172 0.06256172
0.63066514 0.06256172 0.06256172
0.66174918 0.06256172 0.06256172
0.69321345 0.06256172 0.06256172
0.72504970 0.06256201 0.06256172
0.75725020 0.06256172 0.06256172
0.78980766 0.06256172 0.06256172
0.82271523 0.06256212 0.06256172
0.85596642 0.06256200 0.06256172
0.06256172 0.06256172 0.06256172
0.06256172 0.06256172 0.06256172
0.06256172 0.06256172 0.06256172
0.07664820 0.06256176 0.06256172
0.09331494 0.06256172 0.06256172
0.11156309 0.06256172 0.06256172
0.13104689 0.06256177 0.06256172
0.15157299 0.06256172 0.06256172
0.17301417 0.06256172 0.06256172
0.19527892 0.06256179 0.06256172
0.21829755 0.06256182 0.06256172
0.24201482 0.06256180 0.06256172
0.26638560 0.06256172 0.06256182
0.29137218 0.06256172 0.06256172
0.31694248 0.06256172 0.06256172
0.34306878 0.06256172 0.06256172
0.36972684 0.06256189 0.06256185
0.39689524 0.06256172 0.06256172
0.42455488 0.06256172 0.06256172
0.45268860 0.06256189 0.06256172
0.48128088 0.06256187 0.06256172
0.51031759 0.06256172 0.06256172
0.53978580 0.06256192 0.06256172
0.56967364 0.06256172 0.06256172
0.59997014 0.06256172 0.06256172
0.63066514 0.06256172 0.06256172
0.66174918 0.06256172 0.06256172
0.69321345 0.06256172 0.06256172
0.72504970 0.06256201 0.06256172
0.75725020 0.06256172 0.06256172
0.78980766 0.06256172 0.06256172
0.82271523 0.06256212 0.06256172
0.85596642 0.06256200 0.06256172
0.06256172 0.06256172 0.06256172
0.06256172 0.06256172 0.06256172
0.06256172 0.06256172 0.06256172
0.07664820 0.06256176 0.06256172
0.09331494 0.06256172 0.06256172
0.11156309 0.06256172 0.06256172
0.13104689 0.06256177 0.06256172
0.15157299 0.06256172 0.06256172
0.17301417 0.06256172 0.06256172
0.19527892 0.06256179 0.06256172
0.21829755 0.06256182 0.06256172
0.24201482 0.06256180 0.06256172
0.26638560 0.06256172 0.06256182
0.29137218 0.06256172 0.06256172
0.31694248 0.06256172 0.06256172
0.34306878 0.06256172 0.06256172
0.36972684 0.06256189 0.06256185
0.39689524 0.06256172 0.06256172
0.42455488 0.06256172 0.06256172
0.45268860 0.06256189 0.06256172
0.48128088 0.06256187 0.06256172
0.51031759 0.06256172 0.06256172
0.53978580 0.06256192 0.06256172
0.56967364 0.06256172 0.06256172
0.59997014 0.06256172 0.06256172
0.63066514 0.06256172 0.06256172
0.66174918 0.06256172 0.06256172
0.69321345 0.06256172 0.06256172
0.72504970 0.06256201 0.06256172
0.75725020 0.06256172 0.06256172
0.78980766 0.06256172 0.06256172
0.82271523 0.06256212 0.06256172
0.85596642 0.06256200 0.06256172
0.06256176 0.07664820 0.06256176
0.06256176 0.07664820 0.06256176
0.06256176 0.07664820 0.06256176
0.07664820 0.07664820 0.06256172
0.09331494 0.07664820 0.06256172
0.11156309 0.07664820 0.06256172
0.13104689 0.07664820 0.06256172
0.15157299 0.07664820 0.06256179
0.17301417 0.07664820 0.06256172
0.19527892 0.07664820 0.06256172
0.21829755 0.07664820 0.06256172
0.24201482 0.07664820 0.06256181
0.26638560 0.07664820 0.06256172
0.29137218 0.07664820 0.06256184
0.31694248 0.07664820 0.06256184
0.34306878 0.07664820 0.06256172
0.36972684 0.07664820 0.06256187
0.39689524 0.07664820 0.06256172
0.42455488 0.07664820 0.06256172
0.45268860 0.07664820 0.06256172
0.48128088 0.07664820 0.06256189
0.51031759 0.07664820 0.06256172
0.53978580 0.07664820 0.06256191
0.56967364 0.07664820 0.06256172
0.59997014 0.07664820 0.06256172
0.63066514 0.07664820 0.06256172
0.66174918 0.07664820 0.06256172
0.69321345 0.07664820 0.06256172
0.72504970 0.07664820 0.06256172
0.75725020 0.07664820 0.06256172
0.78980766 0.07664820 0.06256211
0.82271523 0.07664820 0.06256208
0.85596642 0.07664820 0.06256213
0.06256178 0.09331494 0.06256172
0.06256178 0.09331494 0.06256172
0.06256178 0.09331494 0.06256172
0.07664820 0.09331494 0.06256172
0.09331494 0.09331494 0.06256172
0.11156309 0.09331494 0.06256172
0.13104689 0.09331494 0.06256179
0.15157299 0.09331494 0.06256172
0.17301417 0.09331494 0.06256172
0.19527892 0.09331494 0.06256172
0.21829755 0.09331494 0.06256181
0.24201482 0.09331494 0.06256181
0.26638560 0.09331494 0.06256172
0.29137218 0.09331494 0.06256172
0.31694248 0.09331494 0.06256172
0.34306878 0.09331494 0.06256172
0.36972684 0.09331494 0.06256172
0.39689524 0.09331494 0.06256187
0.42455488 0.09331494 0.06256172
0.45268860 0.09331494 0.06256172
0.48128088 0.09331494 0.06256172
0.51031759 0.09331494 0.06256172
0.53978580 0.09331494 0.06256172
0.56967364 0.09331494 0.06256172
0.59997014 0.09331494 0.06256194
0.63066514 0.09331494 0.06256172
0.66174918 0.09331494 0.06256197
0.69321345 0.09331494 0.06256200
0.72504970 0.09331494 0.06256200
0.75725020 0.09331494 0.06256172
0.78980766 0.09331494 0.06256172
0.82271523 0.09331494 0.06256172
0.85596642 0.09331494 0.06256208
0.06256172 0.11156309 0.06256178
0.06256172 0.11156309 0.06256178
0.06256172 0.11156309 0.06256178
0.07664820 0.11156309 0.06256172
0.09331494 0.11156309 0.06256178
0.11156309 0.11156309 0.06256172
0.13104689 0.11156309 0.06256172
0.15157299 0.11156309 0.06256172
0.17301417 0.11156309 0.06256172
0.19527892 0.11156309 0.06256180
0.21829755 0.11156309 0.06256181
0.24201482 0.11156309 0.06256172
0.26638560 0.11156309 0.06256172
0.29137218 0.11156309 0.06256172
0.31694248 0.11156309 0.06256172
0.34306878 0.11156309 0.06256172
0.36972684 0.11156309 0.06256172
0.39689524 0.11156309 0.06256172
0.42455488 0.11156309 0.06256172
0.45268860 0.11156309 0.06256172
0.48128088 0.11156309 0.06256172
0.51031759 0.11156309 0.06256172
0.53978580 0.11156309 0.06256172
0.56967364 0.11156309 0.06256172
0.59997014 0.11156309 0.06256172
0.63066514 0.11156309 0.06256172
0.66174918 0.11156309 0.06256197
0.69321345 0.11156309 0.06256172
0.72504970 0.11156309 0.06256200
0.75725020 0.11156309 0.06256172
0.78980766 0.11156309 0.06256172
0.82271523 0.11156309 0.06256172
0.85596642 0.11156309 0.06256208
0.06256172 0.13104689 0.06256172
0.06256172 0.13104689 0.06256172
0.06256172 0.13104689 0.06256172
0.07664820 0.13104689 0.06256172
0.09331494 0.13104689 0.06256172
0.11156309 0.13104689 0.06256172
0.13104689 0.13104689 0.06256172
0.15157299 0.13104689 0.06256179
0.17301417 0.13104689 0.06256172
0.19527892 0.13104689 0.06256180
0.21829755 0.13104689 0.06256172
0.24201482 0.13104689 0.06256172
0.26638560 0.13104689 0.06256182
0.29137218 0.13104689 0.06256172
0.31694248 0.13104689 0.06256172
0.34306878 0.13104689 0.06256172
0.36972684 0.13104689 0.06256172
0.39689524 0.13104689 0.06256172
0.42455488 0.13104689 0.06256172
0.45268860 0.13104689 0.06256172
0.48128088 0.13104689 0.06256189
0.51031759 0.13104689 0.06256172
0.53978580 0.13104689 0.06256191
0.56967364 0.13104689 0.06256194
0.59997014 0.13104689 0.06256172
0.63066514 0.13104689 0.06256172
0.66174918 0.13104689 0.06256172
0.69321345 0.13104689 0.06256172
0.72504970 0.13104689 0.06256200
0.75725020 0.13104689 0.06256172
0.78980766 0.13104689 0.06256204
0.82271523 0.13104689 0.06256172
0.85596642 0.13104689 0.06256172
0.06256180 0.15157299 0.06256172
0.06256180 0.15157299 0.06256172
0.06256180 0.15157299 0.06256172
0.07664820 0.15157299 0.06256172
0.09331494 0.15157299 0.06256172
0.11156309 0.15157299 0.06256172
0.13104689 0.15157299 0.06256172
0.15157299 0.15157299 0.06256172
0.17301417 0.15157299 0.06256172
0.19527892 0.15157299 0.06256172
0.21829755 0.15157299 0.06256172
0.24201482 0.15157299 0.06256172
0.26638560 0.15157299 0.06256172
0.29137218 0.15157299 0.06256172
0.31694248 0.15157299 0.06256184
0.34306878 0.15157299 0.06256172
0.36972684 0.15157299 0.06256185
0.39689524 0.15157299 0.06256187
0.42455488 0.15157299 0.06256187
0.45268860 0.15157299 0.06256172
0.48128088 0.15157299 0.06256172
0.51031759 0.15157299 0.06256172
0.53978580 0.15157299 0.06256194
0.56967364 0.15157299 0.06256172
0.59997014 0.15157299 0.06256172
0.63066514 0.15157299 0.06256197
0.66174918 0.15157299 0.06256172
0.69321345 0.15157299 0.06256172
0.72504970 0.15157299 0.06256172
0.75725020 0.15157299 0.06256172
0.78980766 0.15157299 0.06256204
0.82271523 0.15157299 0.06256172
0.85596642 0.15157299 0.06256172
0.06256180 0.17301417 0.06256172
0.06256180 0.17301417 0.06256172
0.06256180 0.17301417 0.06256172
0.07664820 0.17301417 0.06256180
0.09331494 0.17301417 0.06256172
0.11156309 0.17301417 0.06256172
0.13104689 0.17301417 0.06256180
0.15157299 0.17301417 0.06256172
0.17301417 0.17301417 0.06256172
0.19527892 0.17301417 0.06256172
0.21829755 0.17301417 0.06256181
0.24201482 0.17301417 0.06256182
0.26638560 0.17301417 0.06256172
0.29137218 0.17301417 0.06256184
0.31694248 0.17301417 0.06256172
0.34306878 0.17301417 0.06256172
0.36972684 0.17301417 0.06256185
0.39689524 0.17301417 0.06256187
0.42455488 0.17301417 0.06256172
0.45268860 0.17301417 0.06256172
0.48128088 0.17301417 0.06256172
0.51031759 0.17301417 0.06256172
0.53978580 0.17301417 0.06256191
0.56967364 0.17301417 0.06256172
0.59997014 0.17301417 0.06256172
0.63066514 0.17301417 0.06256197
0.66174918 0.17301417 0.06256172
0.69321345 0.17301417 0.06256200
0.72504970 0.17301417 0.06256200
0.75725020 0.17301417 0.06256172
0.78980766 0.17301417 0.06256172
0.82271523 0.17301417 0.06256172
0.85596642 0.17301417 0.06256172
0.06256182 0.19527892 0.06256172
0.06256182 0.19527892 0.06256172
0.06256182 0.19527892 0.06256172
0.07664820 0.19527892 0.06256172
0.09331494 0.19527892 0.06256172
0.11156309 0.19527892 0.06256172
0.13104689 0.19527892 0.06256172
0.15157299 0.19527892 0.06256172
0.17301417 0.19527892 0.06256172
0.19527892 0.19527892 0.06256172
0.21829755 0.19527892 0.06256172
0.24201482 0.19527892 0.06256182
0.26638560 0.19527892 0.06256182
0.29137218 0.19527892 0.06256172
0.31694248 0.19527892 0.06256172
0.34306878 0.19527892 0.06256172
0.36972684 0.19527892 0.06256172
0.39689524 0.19527892 0.06256172
0.42455488 0.19527892 0.06256187
0.45268860 0.19527892 0.06256172
0.48128088 0.19527892 0.06256189
0.51031759 0.19527892 0.06256172
0.53978580 0.19527892 0.06256172
0.56967364 0.19527892 0.06256172
0.59997014 0.19527892 0.06256172
0.63066514 0.19527892 0.06256197
0.66174918 0.19527892 0.06256172
0.69321345 0.19527892 0.06256172
0.72504970 0.19527892 0.06256200
0.75725020 0.19527892 0.06256172
0.78980766 0.19527892 0.06256172
0.82271523 0.19527892 0.06256172
0.85596642 0.19527892 0.06256172
0.06256184 0.21829755 0.06256172
0.06256184 0.21829755 0.06256172
0.06256184 0.21829755 0.06256172
0.07664820 0.21829755 0.06256172
0.09331494 0.21829755 0.06256172
0.11156309 0.21829755 0.06256172
0.13104689 0.21829755 0.06256172
0.15157299 0.21829755 0.06256172
0.17301417 0.21829755 0.06256172
0.19527892 0.21829755 0.06256172
0.21829755 0.21829755 0.06256172
0.24201482 0.21829755 0.06256172
0.26638560 0.21829755 0.06256172
0.29137218 0.21829755 0.06256172
0.31694248 0.21829755 0.06256172
0.34306878 0.21829755 0.06256172
0.36972684 0.21829755 0.06256172
0.39689524 0.21829755 0.06256187
0.42455488 0.21829755 0.06256172
0.45268860 0.21829755 0.06256172
0.48128088 0.21829755 0.06256172
0.51031759 0.21829755 0.06256172
0.53978580 0.21829755 0.06256172
0.56967364 0.21829755 0.06256172
0.59997014 0.21829755 0.06256172
0.63066514 0.21829755 0.06256172
0.66174918 0.21829755 0.06256172
0.69321345 0.21829755 0.06256172
0.72504970 0.21829755 0.06256172
0.75725020 0.21829755 0.06256172
0.78980766 0.21829755 0.06256172
0.82271523 0.21829755 0.06256172
0.85596642 0.21829755 0.06256208
0.06256181 0.24201482 0.06256172
0.06256181 0.24201482 0.06256172
0.06256181 0.24201482 0.06256172
0.07664820 0.24201482 0.06256172
0.09331494 0.24201482 0.06256172
0.11156309 0.24201482 0.06256172
0.13104689 0.24201482 0.06256172
0.15157299 0.24201482 0.06256172
0.17301417 0.24201482 0.06256172
0.19527892 0.24201482 0.06256172
0.21829755 0.24201482 0.06256172
0.24201482 0.24201482 0.06256172
0.26638560 0.24201482 0.06256172
0.29137218 0.24201482 0.06256172
0.31694248 0.24201482 0.06256172
0.34306878 0.24201482 0.06256172
0.36972684 0.24201482 0.06256172
0.39689524 0.24201482 0.06256172
0.42455488 0.24201482 0.06256172
0.45268860 0.24201482 0.06256172
0.48128088 0.24201482 0.06256189
0.51031759 0.24201482 0.06256172
0.53978580 0.24201482 0.06256191
0.56967364 0.24201482 0.06256172
0.59997014 0.24201482 0.06256172
0.63066514 0.24201482 0.06256172
0.66174918 0.24201482 0.06256172
0.69321345 0.24201482 0.06256172
0.72504970 0.24201482 0.06256172
0.75725020 0.24201482 0.06256172
0.78980766 0.24201482 0.06256208
0.82271523 0.24201482 0.06256208
0.85596642 0.24201482 0.06256172
0.06256172 0.26638560 0.06256182
0.06256172 0.26638560 0.06256182
0.06256172 0.26638560 0.06256182
0.07664820 0.26638560 0.06256182
0.09331494 0.26638560 0.06256182
0.11156309 0.26638560 0.06256184
0.13104689 0.26638560 0.06256172
0.15157299 0.26638560 0.06256184
0.17301417 0.26638560 0.06256172
0.19527892 0.26638560 0.06256172
0.21829755 0.26638560 0.06256172
0.24201482 0.26638560 0.06256172
0.26638560 0.26638560 0.06256184
0.29137218 0.26638560 0.06256172
0.31694248 0.26638560 0.06256185
0.34306878 0.26638560 0.06256172
0.36972684 0.26638560 0.06256172
0.39689524 0.26638560 0.06256187
0.42455488 0.26638560 0.06256172
0.45268860 0.26638560 0.06256172
0.48128088 0.26638560 0.06256172
0.51031759 0.26638560 0.06256172
0.53978580 0.26638560 0.06256191
0.56967364 0.26638560 0.06256172
0.59997014 0.26638560 0.06256172
0.63066514 0.26638560 0.06256172
0.66174918 0.26638560 0.06256172
0.69321345 0.26638560 0.06256172
0.72504970 0.26638560 0.06256204
0.75725020 0.26638560 0.06256172
0.78980766 0.26638560 0.06256204
0.82271523 0.26638560 0.06256172
0.85596642 0.26638560 0.06256172
0.06256184 0.29137218 0.06256172
0.06256184 0.29137218 0.06256172
0.06256184 0.29137218 0.06256172
0.07664820 0.29137218 0.06256172
0.09331494 0.29137218 0.06256172
0.11156309 0.29137218 0.06256172
0.13104689 0.29137218 0.06256184
0.15157299 0.29137218 0.06256172
0.17301417 0.29137218 0.06256172
0.19527892 0.29137218 0.06256172
0.21829755 0.29137218 0.06256184
0.24201482 0.29137218 0.06256172
0.26638560 0.29137218 0.06256172
0.29137218 0.29137218 0.06256172
0.31694248 0.29137218 0.06256172
0.34306878 0.29137218 0.06256172
0.36972684 0.29137218 0.06256187
0.39689524 0.29137218 0.06256172
0.42455488 0.29137218 0.06256189
0.45268860 0.29137218 0.06256172
0.48128088 0.29137218 0.06256172
0.51031759 0.29137218 0.06256172
0.53978580 0.29137218 0.06256172
0.56967364 0.29137218 0.06256194
0.59997014 0.29137218 0.06256172
0.63066514 0.29137218 0.06256172
0.66174918 0.29137218 0.06256172
0.69321345 0.29137218 0.06256172
0.72504970 0.29137218 0.06256200
0.75725020 0.29137218 0.06256172
0.78980766 0.29137218 0.06256204
0.82271523 0.29137218 0.06256172
0.85596642 0.29137218 0.06256172
0.06256184 0.31694248 0.06256185
0.06256184 0.31694248 0.06256185
0.06256184 0.31694248 0.06256185
0.07664820 0.31694248 0.06256172
0.09331494 0.31694248 0.06256172
0.11156309 0.31694248 0.06256172
0.13104689 0.31694248 0.06256185
0.15157299 0.31694248 0.06256172
0.17301417 0.31694248 0.06256185
0.19527892 0.31694248 0.06256172
0.21829755 0.31694248 0.06256185
0.24201482 0.31694248 0.06256172
0.26638560 0.31694248 0.06256172
0.29137218 0.31694248 0.06256185
0.31694248 0.31694248 0.06256172
0.34306878 0.31694248 0.06256187
0.36972684 0.31694248 0.06256172
0.39689524 0.31694248 0.06256189
0.42455488 0.31694248 0.06256172
0.45268860 0.31694248 0.06256172
0.48128088 0.31694248 0.06256172
0.51031759 0.31694248 0.06256172
0.53978580 0.31694248 0.06256172
0.56967364 0.31694248 0.06256172
0.59997014 0.31694248 0.06256194
0.63066514 0.31694248 0.06256172
0.66174918 0.31694248 0.06256172
0.69321345 0.31694248 0.06256200
0.72504970 0.31694248 0.06256172
0.75725020 0.31694248 0.06256172
0.78980766 0.31694248 0.06256204
0.82271523 0.31694248 0.06256172
0.85596642 0.31694248 0.06256208
0.06256186 0.34306878 0.06256172
0.06256186 0.34306878 0.06256172
0.06256186 0.34306878 0.06256172
0.07664820 0.34306878 0.06256172
0.09331494 0.34306878 0.06256172
0.11156309 0.34306878 0.06256172
0.13104689 0.34306878 0.06256172
0.15157299 0.34306878 0.06256172
0.17301417 0.34306878 0.06256172
0.19527892 0.34306878 0.06256172
0.21829755 0.34306878 0.06256172
0.24201482 0.34306878 0.06256172
0.26638560 0.34306878 0.06256172
0.29137218 0.34306878 0.06256172
0.31694248 0.34306878 0.06256172
0.34306878 0.34306878 0.06256187
0.36972684 0.34306878 0.06256172
0.39689524 0.34306878 0.06256172
0.42455488 0.34306878 0.06256189
0.45268860 0.34306878 0.06256172
0.48128088 0.34306878 0.06256172
0.51031759 0.34306878 0.06256172
0.53978580 0.34306878 0.06256191
0.56967364 0.34306878 0.06256172
0.59997014 0.34306878 0.06256194
0.63066514 0.34306878 0.06256172
0.66174918 0.34306878 0.06256172
0.69321345 0.34306878 0.06256200
0.72504970 0.34306878 0.06256172
0.75725020 0.34306878 0.06256204
0.78980766 0.34306878 0.06256172
0.82271523 0.34306878 0.06256172
0.85596642 0.34306878 0.06256208
0.06256172 0.36972684 0.06256172
0.06256172 0.36972684 0.06256172
0.06256172 0.36972684 0.06256172
0.07664820 0.36972684 0.06256172
0.09331494 0.36972684 0.06256187
0.11156309 0.36972684 0.06256187
0.13104689 0.36972684 0.06256172
0.15157299 0.36972684 0.06256172
0.17301417 0.36972684 0.06256172
0.19527892 0.36972684 0.06256172
0.21829755 0.36972684 0.06256172
0.24201482 0.36972684 0.06256172
0.26638560 0.36972684 0.06256172
0.29137218 0.36972684 0.06256172
0.31694248 0.36972684 0.06256172
0.34306878 0.36972684 0.06256172
0.36972684 0.36972684 0.06256172
0.39689524 0.36972684 0.06256189
0.42455488 0.36972684 0.06256172
0.45268860 0.36972684 0.06256172
0.48128088 0.36972684 0.06256172
0.51031759 0.36972684 0.06256172
0.53978580 0.36972684 0.06256191
0.56967364 0.36972684 0.06256172
0.59997014 0.36972684 0.06256172
0.63066514 0.36972684 0.06256197
0.66174918 0.36972684 0.06256172
0.69321345 0.36972684 0.06256172
0.72504970 0.36972684 0.06256172
0.75725020 0.36972684 0.06256172
0.78980766 0.36972684 0.06256172
0.82271523 0.36972684 0.06256208
0.85596642 0.36972684 0.06256172
0.06256185 0.39689524 0.06256172
0.06256185 0.39689524 0.06256172
0.06256185 0.39689524 0.06256172
0.07664820 0.39689524 0.06256172
0.09331494 0.39689524 0.06256172
0.11156309 0.39689524 0.06256172
0.13104689 0.39689524 0.06256172
0.15157299 0.39689524 0.06256172
0.17301417 0.39689524 0.06256187
0.19527892 0.39689524 0.06256172
0.21829755 0.39689524 0.06256187
0.24201482 0.39689524 0.06256187
0.26638560 0.39689524 0.06256172
0.29137218 0.39689524 0.06256187
0.31694248 0.39689524 0.06256172
0.34306878 0.39689524 0.06256172
0.36972684 0.39689524 0.06256172
0.39689524 0.39689524 0.06256189
0.42455488 0.39689524 0.06256172
0.45268860 0.39689524 0.06256172
0.48128088 0.39689524 0.06256172
0.51031759 0.39689524 0.06256172
0.53978580 0.39689524 0.06256172
0.56967364 0.39689524 0.06256172
0.59997014 0.39689524 0.06256172
0.63066514 0.39689524 0.06256172
0.66174918 0.39689524 0.06256172
0.69321345 0.39689524 0.06256172
0.72504970 0.39689524 0.06256204
0.75725020 0.39689524 0.06256172
0.78980766 0.39689524 0.06256172
0.82271523 0.39689524 0.06256208
0.85596642 0.39689524 0.06256208
0.06256191 0.42455488 0.06256172
0.06256191 0.42455488 0.06256172
0.06256191 0.42455488 0.06256172
0.07664820 0.42455488 0.06256172
0.09331494 0.42455488 0.06256172
0.11156309 0.42455488 0.06256172
0.13104689 0.42455488 0.06256172
0.15157299 0.42455488 0.06256189
0.17301417 0.42455488 0.06256172
0.19527892 0.42455488 0.06256172
0.21829755 0.42455488 0.06256172
0.24201482 0.42455488 0.06256172
0.26638560 0.42455488 0.06256172
0.29137218 0.42455488 0.06256172
0.31694248 0.42455488 0.06256172
0.34306878 0.42455488 0.06256189
0.36972684 0.42455488 0.06256172
0.39689524 0.42455488 0.06256172
0.42455488 0.42455488 0.06256172
0.45268860 0.42455488 0.06256172
0.48128088 0.42455488 0.06256172
0.51031759 0.42455488 0.06256172
0.53978580 0.42455488 0.06256172
0.56967364 0.42455488 0.06256194
0.59997014 0.42455488 0.06256172
0.63066514 0.42455488 0.06256197
0.66174918 0.42455488 0.06256172
0.69321345 0.42455488 0.06256172
0.72504970 0.42455488 0.06256172
0.75725020 0.42455488 0.06256172
0.78980766 0.42455488 0.06256172
0.82271523 0.42455488 0.06256172
0.85596642 0.42455488 0.06256172
0.06256191 0.45268860 0.06256172
0.06256191 0.45268860 0.06256172
0.06256191 0.45268860 0.06256172
0.07664820 0.45268860 0.06256172
0.09331494 0.45268860 0.06256172
0.11156309 0.45268860 0.06256172
0.13104689 0.45268860 0.06256172
0.15157299 0.45268860 0.06256172
0.17301417 0.45268860 0.06256172
0.19527892 0.45268860 0.06256189
0.21829755 0.45268860 0.06256172
0.24201482 0.45268860 0.06256172
0.26638560 0.45268860 0.06256172
0.29137218 0.45268860 0.06256172
0.31694248 0.45268860 0.06256172
0.34306878 0.45268860 0.06256172
0.36972684 0.45268860 0.06256172
0.39689524 0.45268860 0.06256172
0.42455488 0.45268860 0.06256191
0.45268860 0.45268860 0.06256172
0.48128088 0.45268860 0.06256172
0.51031759 0.45268860 0.06256172
0.53978580 0.45268860 0.06256172
0.56967364 0.45268860 0.06256172
0.59997014 0.45268860 0.06256172
0.63066514 0.45268860 0.06256172
0.66174918 0.45268860 0.06256172
0.69321345 0.45268860 0.06256200
0.72504970 0.45268860 0.06256200
0.75725020 0.45268860 0.06256172
0.78980766 0.45268860 0.06256172
0.82271523 0.45268860 0.06256172
0.85596642 0.45268860 0.06256213
0.06256189 0.48128088 0.06256172
0.06256189 0.48128088 0.06256172
0.06256189 0.48128088 0.06256172
0.07664820 0.48128088 0.06256191
0.09331494 0.48128088 0.06256172
0.11156309 0.48128088 0.06256191
0.13104689 0.48128088 0.06256191
0.15157299 0.48128088 0.06256172
0.17301417 0.48128088 0.06256191
0.19527892 0.48128088 0.06256172
0.21829755 0.48128088 0.06256172
0.24201482 0.48128088 0.06256191
0.26638560 0.48128088 0.06256172
0.29137218 0.48128088 0.06256191
0.31694248 0.48128088 0.06256172
0.34306878 0.48128088 0.06256172
0.36972684 0.48128088 0.06256172
0.39689524 0.48128088 0.06256172
0.42455488 0.48128088 0.06256172
0.45268860 0.48128088 0.06256172
0.48128088 0.48128088 0.06256172
0.51031759 0.48128088 0.06256172
0.53978580 0.48128088 0.06256172
0.56967364 0.48128088 0.06256172
0.59997014 0.48128088 0.06256172
0.63066514 0.48128088 0.06256172
0.66174918 0.48128088 0.06256197
0.69321345 0.48128088 0.06256172
0.72504970 0.48128088 0.06256172
0.75725020 0.48128088 0.06256172
0.78980766 0.48128088 0.06256172
0.82271523 0.48128088 0.06256172
0.85596642 0.48128088 0.06256172
0.06256194 0.51031759 0.06256172
0.06256194 0.51031759 0.06256172
0.06256194 0.51031759 0.06256172
0.07664820 0.51031759 0.06256172
0.09331494 0.51031759 0.06256172
0.11156309 0.51031759 0.06256172
0.13104689 0.51031759 0.06256172
0.15157299 0.51031759 0.06256172
0.17301417 0.51031759 0.06256191
0.19527892 0.51031759 0.06256172
0.21829755 0.51031759 0.06256191
0.24201482 0.51031759 0.06256172
0.26638560 0.51031759 0.06256191
0.29137218 0.51031759 0.06256172
0.31694248 0.51031759 0.06256191
0.34306878 0.51031759 0.06256172
0.36972684 0.51031759 0.06256172
0.39689524 0.51031759 0.06256172
0.42455488 0.51031759 0.06256172
0.45268860 0.51031759 0.06256172
0.48128088 0.51031759 0.06256172
0.51031759 0.51031759 0.06256172
0.53978580 0.51031759 0.06256172
0.56967364 0.51031759 0.06256172
0.59997014 0.51031759 0.06256172
0.63066514 0.51031759 0.06256172
0.66174918 0.51031759 0.06256172
