src/ffmpeg_scripts/luts/luminance_-0p33.cube
TITLE "luminance_-0p33"
LUT_3D_SIZE 9
# PQ (EOTF Only)/Rec2020 -> PQ (EOTF Only)/Rec2020, CineEI Shift -0.33, Black Level 0.00% IRE, Input 109% -> Output 109% - Created with LUTCalc v4.01 by Ben Turley October 2020
0.06256172 0.06256172 0.06256172
0.11931411 0.06256178 0.06256172
0.23732126 0.06256172 0.06256172
0.35795743 0.06256172 0.06256185
0.48026455 0.06256187 0.06256191
0.60382925 0.06256172 0.06256172
0.72841341 0.06256172 0.06256172
0.85386020 0.06256212 0.06256172
0.91886608 0.06256213 0.06256219
0.06256179 0.11931411 0.06256172
0.11931411 0.11931411 0.06256172
0.23732126 0.11931411 0.06256172
0.35795743 0.11931411 0.06256172
0.48026455 0.11931411 0.06256172
0.60382925 0.11931411 0.06256172
0.72841341 0.11931411 0.06256172
0.85386020 0.11931411 0.06256208
0.91886608 0.11931411 0.06256172
0.06256183 0.23732126 0.06256172
0.11931411 0.23732126 0.06256172
0.23732126 0.23732126 0.06256172
0.35795743 0.23732126 0.06256172
0.48026455 0.23732126 0.06256189
0.60382925 0.23732126 0.06256172
0.72841341 0.23732126 0.06256172
0.85386020 0.23732126 0.06256172
0.91886608 0.23732126 0.06256172
0.06256188 0.35795743 0.06256185
0.11931411 0.35795743 0.06256172
0.23732126 0.35795743 0.06256172
0.35795743 0.35795743 0.06256187
0.48026455 0.35795743 0.06256191
0.60382925 0.35795743 0.06256172
0.72841341 0.35795743 0.06256172
0.85386020 0.35795743 0.06256208
0.91886608 0.35795743 0.06256172
0.06256172 0.48026455 0.06256172
0.11931411 0.48026455 0.06256172
0.23732126 0.48026455 0.06256172
0.35795743 0.48026455 0.06256172
0.48026455 0.48026455 0.06256172
0.60382925 0.48026455 0.06256172
0.72841341 0.48026455 0.06256172
0.85386020 0.48026455 0.06256172
0.91886608 0.48026455 0.06256172
0.06256195 0.60382925 0.06256197
0.11931411 0.60382925 0.06256172
0.23732126 0.60382925 0.06256197
0.35795743 0.60382925 0.06256172
0.48026455 0.60382925 0.06256197
0.60382925 0.60382925 0.06256172
0.72841341 0.60382925 0.06256172
0.85386020 0.60382925 0.06256172
0.91886608 0.60382925 0.06256172
0.06256172 0.72841341 0.06256172
0.11931411 0.72841341 0.06256172
0.23732126 0.72841341 0.06256172
0.35795743 0.72841341 0.06256204
0.48026455 0.72841341 0.06256172
0.60382925 0.72841341 0.06256204
0.72841341 0.72841341 0.06256172
0.85386020 0.72841341 0.06256172
0.91886608 0.72841341 0.06256219
0.06256210 0.85386020 0.06256172
0.11931411 0.85386020 0.06256172
0.23732126 0.85386020 0.06256172
0.35795743 0.85386020 0.06256172
0.48026455 0.85386020 0.06256172
0.60382925 0.85386020 0.06256172
0.72841341 0.85386020 0.06256172
0.85386020 0.85386020 0.06256172
0.91886608 0.85386020 0.06256172
0.06256228 0.91886608 0.06256227
0.11931411 0.91886608 0.06256227
0.23732126 0.91886608 0.06256172
0.35795743 0.91886608 0.06256172
0.48026455 0.91886608 0.06256172
0.60382925 0.91886608 0.06256172
0.72841341 0.91886608 0.06256172
0.85386020 0.91886608 0.06256227
0.91886608 0.91886608 0.06256172
0.06256172 0.06256180 0.11931411
0.11931411 0.06256179 0.11931411
0.23732126 0.06256172 0.11931411
0.35795743 0.06256172 0.11931411
0.48026455 0.06256190 0.11931411
0.60382925 0.06256172 0.11931411
0.72841341 0.06256172 0.11931411
0.85386020 0.06256212 0.11931411
0.91886608 0.06256217 0.11931411
0.06256179 0.11931411 0.11931411
0.11931411 0.11931411 0.11931411
0.23732126 0.11931411 0.11931411
0.35795743 0.11931411 0.11931411
0.48026455 0.11931411 0.11931411
0.60382925 0.11931411 0.11931411
0.72841341 0.11931411 0.11931411
0.85386020 0.11931411 0.11931411
0.91886608 0.11931411 0.11931411
0.06256183 0.23732126 0.11931411
0.11931411 0.23732126 0.11931411
0.23732126 0.23732126 0.11931411
0.35795743 0.23732126 0.11931411
0.48026455 0.23732126 0.11931411
0.60382925 0.23732126 0.11931411
0.72841341 0.23732126 0.11931411
0.85386020 0.23732126 0.11931411
0.91886608 0.23732126 0.11931411
0.06256185 0.35795743 0.11931411
0.11931411 0.35795743 0.11931411
0.23732126 0.35795743 0.11931411
0.35795743 0.35795743 0.11931411
0.48026455 0.35795743 0.11931411
0.60382925 0.35795743 0.11931411
0.72841341 0.35795743 0.11931411
0.85386020 0.35795743 0.11931411
0.91886608 0.35795743 0.11931411
0.06256172 0.48026455 0.11931411
0.11931411 0.48026455 0.11931411
0.23732126 0.48026455 0.11931411
0.35795743 0.48026455 0.11931411
0.48026455 0.48026455 0.11931411
0.60382925 0.48026455 0.11931411
0.72841341 0.48026455 0.11931411
0.85386020 0.48026455 0.11931411
0.91886608 0.48026455 0.11931411
0.06256200 0.60382925 0.11931411
0.11931411 0.60382925 0.11931411
0.23732126 0.60382925 0.11931411
0.35795743 0.60382925 0.11931411
0.48026455 0.60382925 0.11931411
0.60382925 0.60382925 0.11931411
0.72841341 0.60382925 0.11931411
0.85386020 0.60382925 0.11931411
0.91886608 0.60382925 0.11931411
0.06256172 0.72841341 0.11931411
0.11931411 0.72841341 0.11931411
0.23732126 0.72841341 0.11931411
0.35795743 0.72841341 0.11931411
0.48026455 0.72841341 0.11931411
0.60382925 0.72841341 0.11931411
0.72841341 0.72841341 0.11931411
0.85386020 0.72841341 0.11931411
0.91886608 0.72841341 0.11931411
0.06256213 0.85386020 0.11931411
0.11931411 0.85386020 0.11931411
0.23732126 0.85386020 0.11931411
0.35795743 0.85386020 0.11931411
0.48026455 0.85386020 0.11931411
0.60382925 0.85386020 0.11931411
0.72841341 0.85386020 0.11931411
0.85386020 0.85386020 0.11931411
0.91886608 0.85386020 0.11931411
0.06256211 0.91886608 0.11931411
0.11931411 0.91886608 0.11931411
0.23732126 0.91886608 0.11931411
0.35795743 0.91886608 0.11931411
0.48026455 0.91886608 0.11931411
0.60382925 0.91886608 0.11931411
0.72841341 0.91886608 0.11931411
0.85386020 0.91886608 0.11931411
0.91886608 0.91886608 0.11931411
0.06256172 0.06256185 0.23732126
0.11931411 0.06256185 0.23732126
0.23732126 0.06256185 0.23732126
0.35795743 0.06256172 0.23732126
0.48026455 0.06256191 0.23732126
0.60382925 0.06256198 0.23732126
0.72841341 0.06256172 0.23732126
0.85386020 0.06256214 0.23732126
0.91886608 0.06256217 0.23732126
0.06256172 0.11931411 0.23732126
0.11931411 0.11931411 0.23732126
0.23732126 0.11931411 0.23732126
0.35795743 0.11931411 0.23732126
0.48026455 0.11931411 0.23732126
0.60382925 0.11931411 0.23732126
0.72841341 0.11931411 0.23732126
0.85386020 0.11931411 0.23732126
0.91886608 0.11931411 0.23732126
0.06256172 0.23732126 0.23732126
0.11931411 0.23732126 0.23732126
0.23732126 0.23732126 0.23732126
0.35795743 0.23732126 0.23732126
0.48026455 0.23732126 0.23732126
0.60382925 0.23732126 0.23732126
0.72841341 0.23732126 0.23732126
0.85386020 0.23732126 0.23732126
0.91886608 0.23732126 0.23732126
0.06256172 0.35795743 0.23732126
0.11931411 0.35795743 0.23732126
0.23732126 0.35795743 0.23732126
0.35795743 0.35795743 0.23732126
0.48026455 0.35795743 0.23732126
0.60382925 0.35795743 0.23732126
0.72841341 0.35795743 0.23732126
0.85386020 0.35795743 0.23732126
0.91886608 0.35795743 0.23732126
0.06256194 0.48026455 0.23732126
0.11931411 0.48026455 0.23732126
0.23732126 0.48026455 0.23732126
0.35795743 0.48026455 0.23732126
0.48026455 0.48026455 0.23732126
0.60382925 0.48026455 0.23732126
0.72841341 0.48026455 0.23732126
0.85386020 0.48026455 0.23732126
0.91886608 0.48026455 0.23732126
0.06256200 0.60382925 0.23732126
0.11931411 0.60382925 0.23732126
0.23732126 0.60382925 0.23732126
0.35795743 0.60382925 0.23732126
0.48026455 0.60382925 0.23732126
0.60382925 0.60382925 0.23732126
0.72841341 0.60382925 0.23732126
0.85386020 0.60382925 0.23732126
0.91886608 0.60382925 0.23732126
0.06256213 0.72841341 0.23732126
0.11931411 0.72841341 0.23732126
0.23732126 0.72841341 0.23732126
0.35795743 0.72841341 0.23732126
0.48026455 0.72841341 0.23732126
0.60382925 0.72841341 0.23732126
0.72841341 0.72841341 0.23732126
0.85386020 0.72841341 0.23732126
0.91886608 0.72841341 0.23732126
0.06256197 0.85386020 0.23732126
0.11931411 0.85386020 0.23732126
0.23732126 0.85386020 0.23732126
0.35795743 0.85386020 0.23732126
0.48026455 0.85386020 0.23732126
0.60382925 0.85386020 0.23732126
0.72841341 0.85386020 0.23732126
0.85386020 0.85386020 0.23732126
0.91886608 0.85386020 0.23732126
0.06256172 0.91886608 0.23732126
0.11931411 0.91886608 0.23732126
0.23732126 0.91886608 0.23732126
0.35795743 0.91886608 0.23732126
0.48026455 0.91886608 0.23732126
0.60382925 0.91886608 0.23732126
0.72841341 0.91886608 0.23732126
0.85386020 0.91886608 0.23732126
0.91886608 0.91886608 0.23732126
0.06256172 0.06256191 0.35795743
0.11931411 0.06256191 0.35795743
0.23732126 0.06256191 0.35795743
0.35795743 0.06256172 0.35795743
0.48026455 0.06256172 0.35795743
0.60382925 0.06256197 0.35795743
0.72841341 0.06256172 0.35795743
0.85386020 0.06256172 0.35795743
0.91886608 0.06256208 0.35795743
0.06256172 0.11931411 0.35795743
0.11931411 0.11931411 0.35795743
0.23732126 0.11931411 0.35795743
0.35795743 0.11931411 0.35795743
0.48026455 0.11931411 0.35795743
0.60382925 0.11931411 0.35795743
0.72841341 0.11931411 0.35795743
0.85386020 0.11931411 0.35795743
0.91886608 0.11931411 0.35795743
0.06256172 0.23732126 0.35795743
0.11931411 0.23732126 0.35795743
0.23732126 0.23732126 0.35795743
0.35795743 0.23732126 0.35795743
0.48026455 0.23732126 0.35795743
0.60382925 0.23732126 0.35795743
0.72841341 0.23732126 0.35795743
0.85386020 0.23732126 0.35795743
0.91886608 0.23732126 0.35795743
0.06256187 0.35795743 0.35795743
0.11931411 0.35795743 0.35795743
0.23732126 0.35795743 0.35795743
0.35795743 0.35795743 0.35795743
0.48026455 0.35795743 0.35795743
0.60382925 0.35795743 0.35795743
0.72841341 0.35795743 0.35795743
0.85386020 0.35795743 0.35795743
0.91886608 0.35795743 0.35795743
0.06256172 0.48026455 0.35795743
0.11931411 0.48026455 0.35795743
0.23732126 0.48026455 0.35795743
0.35795743 0.48026455 0.35795743
0.48026455 0.48026455 0.35795743
0.60382925 0.48026455 0.35795743
0.72841341 0.48026455 0.35795743
0.85386020 0.48026455 0.35795743
0.91886608 0.48026455 0.35795743
0.06256197 0.60382925 0.35795743
0.11931411 0.60382925 0.35795743
0.23732126 0.60382925 0.35795743
0.35795743 0.60382925 0.35795743
0.48026455 0.60382925 0.35795743
0.60382925 0.60382925 0.35795743
0.72841341 0.60382925 0.35795743
0.85386020 0.60382925 0.35795743
0.91886608 0.60382925 0.35795743
0.06256210 0.72841341 0.35795743
0.11931411 0.72841341 0.35795743
0.23732126 0.72841341 0.35795743
0.35795743 0.72841341 0.35795743
0.48026455 0.72841341 0.35795743
0.60382925 0.72841341 0.35795743
0.72841341 0.72841341 0.35795743
0.85386020 0.72841341 0.35795743
0.91886608 0.72841341 0.35795743
0.06256172 0.85386020 0.35795743
0.11931411 0.85386020 0.35795743
0.23732126 0.85386020 0.35795743
0.35795743 0.85386020 0.35795743
0.48026455 0.85386020 0.35795743
0.60382925 0.85386020 0.35795743
0.72841341 0.85386020 0.35795743
0.85386020 0.85386020 0.35795743
0.91886608 0.85386020 0.35795743
0.06256225 0.91886608 0.35795743
0.11931411 0.91886608 0.35795743
0.23732126 0.91886608 0.35795743
0.35795743 0.91886608 0.35795743
0.48026455 0.91886608 0.35795743
0.60382925 0.91886608 0.35795743
0.72841341 0.91886608 0.35795743
0.85386020 0.91886608 0.35795743
0.91886608 0.91886608 0.35795743
0.06256172 0.06256200 0.48026455
0.11931411 0.06256172 0.48026455
0.23732126 0.06256172 0.48026455
0.35795743 0.06256197 0.48026455
0.48026455 0.06256197 0.48026455
0.60382925 0.06256172 0.48026455
0.72841341 0.06256197 0.48026455
0.85386020 0.06256200 0.48026455
0.91886608 0.06256228 0.48026455
0.06256191 0.11931411 0.48026455
0.11931411 0.11931411 0.48026455
0.23732126 0.11931411 0.48026455
0.35795743 0.11931411 0.48026455
0.48026455 0.11931411 0.48026455
0.60382925 0.11931411 0.48026455
0.72841341 0.11931411 0.48026455
0.85386020 0.11931411 0.48026455
0.91886608 0.11931411 0.48026455
0.06256172 0.23732126 0.48026455
0.11931411 0.23732126 0.48026455
0.23732126 0.23732126 0.48026455
0.35795743 0.23732126 0.48026455
0.48026455 0.23732126 0.48026455
0.60382925 0.23732126 0.48026455
0.72841341 0.23732126 0.48026455
0.85386020 0.23732126 0.48026455
0.91886608 0.23732126 0.48026455
0.06256172 0.35795743 0.48026455
0.11931411 0.35795743 0.48026455
0.23732126 0.35795743 0.48026455
0.35795743 0.35795743 0.48026455
0.48026455 0.35795743 0.48026455
0.60382925 0.35795743 0.48026455
0.72841341 0.35795743 0.48026455
0.85386020 0.35795743 0.48026455
0.91886608 0.35795743 0.48026455
0.06256172 0.48026455 0.48026455
0.11931411 0.48026455 0.48026455
0.23732126 0.48026455 0.48026455
0.35795743 0.48026455 0.48026455
0.48026455 0.48026455 0.48026455
0.60382925 0.48026455 0.48026455
0.72841341 0.48026455 0.48026455
0.85386020 0.48026455 0.48026455
0.91886608 0.48026455 0.48026455
0.06256172 0.60382925 0.48026455
0.11931411 0.60382925 0.48026455
0.23732126 0.60382925 0.48026455
0.35795743 0.60382925 0.48026455
0.48026455 0.60382925 0.48026455
0.60382925 0.60382925 0.48026455
0.72841341 0.60382925 0.48026455
0.85386020 0.60382925 0.48026455
0.91886608 0.60382925 0.48026455
0.06256172 0.72841341 0.48026455
0.11931411 0.72841341 0.48026455
0.23732126 0.72841341 0.48026455
0.35795743 0.72841341 0.48026455
0.48026455 0.72841341 0.48026455
0.60382925 0.72841341 0.48026455
0.72841341 0.72841341 0.48026455
0.85386020 0.72841341 0.48026455
0.91886608 0.72841341 0.48026455
0.06256219 0.85386020 0.48026455
0.11931411 0.85386020 0.48026455
0.23732126 0.85386020 0.48026455
0.35795743 0.85386020 0.48026455
0.48026455 0.85386020 0.48026455
0.60382925 0.85386020 0.48026455
0.72841341 0.85386020 0.48026455
0.85386020 0.85386020 0.48026455
0.91886608 0.85386020 0.48026455
0.06256172 0.91886608 0.48026455
0.11931411 0.91886608 0.48026455
0.23732126 0.91886608 0.48026455
0.35795743 0.91886608 0.48026455
0.48026455 0.91886608 0.48026455
0.60382925 0.91886608 0.48026455
0.72841341 0.91886608 0.48026455
0.85386020 0.91886608 0.48026455
0.91886608 0.91886608 0.48026455
0.06256197 0.06256204 0.60382925
0.11931411 0.06256208 0.60382925
0.23732126 0.06256204 0.60382925
0.35795743 0.06256208 0.60382925
0.48026455 0.06256208 0.60382925
0.60382925 0.06256204 0.60382925
0.72841341 0.06256208 0.60382925
0.85386020 0.06256204 0.60382925
0.91886608 0.06256172 0.60382925
0.06256172 0.11931411 0.60382925
0.11931411 0.11931411 0.60382925
0.23732126 0.11931411 0.60382925
0.35795743 0.11931411 0.60382925
0.48026455 0.11931411 0.60382925
0.60382925 0.11931411 0.60382925
0.72841341 0.11931411 0.60382925
0.85386020 0.11931411 0.60382925
0.91886608 0.11931411 0.60382925
0.06256197 0.23732126 0.60382925
0.11931411 0.23732126 0.60382925
0.23732126 0.23732126 0.60382925
0.35795743 0.23732126 0.60382925
0.48026455 0.23732126 0.60382925
0.60382925 0.23732126 0.60382925
0.72841341 0.23732126 0.60382925
0.85386020 0.23732126 0.60382925
0.91886608 0.23732126 0.60382925
0.06256172 0.35795743 0.60382925
0.11931411 0.35795743 0.60382925
0.23732126 0.35795743 0.60382925
0.35795743 0.35795743 0.60382925
0.48026455 0.35795743 0.60382925
0.60382925 0.35795743 0.60382925
0.72841341 0.35795743 0.60382925
0.85386020 0.35795743 0.60382925
0.91886608 0.35795743 0.60382925
0.06256172 0.48026455 0.60382925
0.11931411 0.48026455 0.60382925
0.23732126 0.48026455 0.60382925
0.35795743 0.48026455 0.60382925
0.48026455 0.48026455 0.60382925
0.60382925 0.48026455 0.60382925
0.72841341 0.48026455 0.60382925
0.85386020 0.48026455 0.60382925
0.91886608 0.48026455 0.60382925
0.06256172 0.60382925 0.60382925
0.11931411 0.60382925 0.60382925
0.23732126 0.60382925 0.60382925
0.35795743 0.60382925 0.60382925
0.48026455 0.60382925 0.60382925
0.60382925 0.60382925 0.60382925
0.72841341 0.60382925 0.60382925
0.85386020 0.60382925 0.60382925
0.91886608 0.60382925 0.60382925
0.06256204 0.72841341 0.60382925
0.11931411 0.72841341 0.60382925
0.23732126 0.72841341 0.60382925
0.35795743 0.72841341 0.60382925
0.48026455 0.72841341 0.60382925
0.60382925 0.72841341 0.60382925
0.72841341 0.72841341 0.60382925
0.85386020 0.72841341 0.60382925
0.91886608 0.72841341 0.60382925
0.06256172 0.85386020 0.60382925
0.11931411 0.85386020 0.60382925
0.23732126 0.85386020 0.60382925
0.35795743 0.85386020 0.60382925
0.48026455 0.85386020 0.60382925
0.60382925 0.85386020 0.60382925
0.72841341 0.85386020 0.60382925
0.85386020 0.85386020 0.60382925
0.91886608 0.85386020 0.60382925
0.06256233 0.91886608 0.60382925
0.11931411 0.91886608 0.60382925
0.23732126 0.91886608 0.60382925
0.35795743 0.91886608 0.60382925
0.48026455 0.91886608 0.60382925
0.60382925 0.91886608 0.60382925
0.72841341 0.91886608 0.60382925
0.85386020 0.91886608 0.60382925
0.91886608 0.91886608 0.60382925
0.06256172 0.06256213 0.72841341
0.11931411 0.06256213 0.72841341
0.23732126 0.06256172 0.72841341
0.35795743 0.06256213 0.72841341
0.48026455 0.06256213 0.72841341
0.60382925 0.06256213 0.72841341
0.72841341 0.06256213 0.72841341
0.85386020 0.06256172 0.72841341
0.91886608 0.06256172 0.72841341
0.06256172 0.11931411 0.72841341
0.11931411 0.11931411 0.72841341
0.23732126 0.11931411 0.72841341
0.35795743 0.11931411 0.72841341
0.48026455 0.11931411 0.72841341
0.60382925 0.11931411 0.72841341
0.72841341 0.11931411 0.72841341
0.85386020 0.11931411 0.72841341
0.91886608 0.11931411 0.72841341
0.06256172 0.23732126 0.72841341
0.11931411 0.23732126 0.72841341
0.23732126 0.23732126 0.72841341
0.35795743 0.23732126 0.72841341
0.48026455 0.23732126 0.72841341
0.60382925 0.23732126 0.72841341
0.72841341 0.23732126 0.72841341
0.85386020 0.23732126 0.72841341
0.91886608 0.23732126 0.72841341
0.06256172 0.35795743 0.72841341
0.11931411 0.35795743 0.72841341
0.23732126 0.35795743 0.72841341
0.35795743 0.35795743 0.72841341
0.48026455 0.35795743 0.72841341
0.60382925 0.35795743 0.72841341
0.72841341 0.35795743 0.72841341
0.85386020 0.35795743 0.72841341
0.91886608 0.35795743 0.72841341
0.06256172 0.48026455 0.72841341
0.11931411 0.48026455 0.72841341
0.23732126 0.48026455 0.72841341
0.35795743 0.48026455 0.72841341
0.48026455 0.48026455 0.72841341
0.60382925 0.48026455 0.72841341
0.72841341 0.48026455 0.72841341
0.85386020 0.48026455 0.72841341
0.91886608 0.48026455 0.72841341
0.06256172 0.60382925 0.72841341
0.11931411 0.60382925 0.72841341
0.23732126 0.60382925 0.72841341
0.35795743 0.60382925 0.72841341
0.48026455 0.60382925 0.72841341
0.60382925 0.60382925 0.72841341
0.72841341 0.60382925 0.72841341
0.85386020 0.60382925 0.72841341
0.91886608 0.60382925 0.72841341
0.06256172 0.72841341 0.72841341
0.11931411 0.72841341 0.72841341
0.23732126 0.72841341 0.72841341
0.35795743 0.72841341 0.72841341
0.48026455 0.72841341 0.72841341
0.60382925 0.72841341 0.72841341
0.72841341 0.72841341 0.72841341
0.85386020 0.72841341 0.72841341
0.91886608 0.72841341 0.72841341
0.06256172 0.85386020 0.72841341
0.11931411 0.85386020 0.72841341
0.23732126 0.85386020 0.72841341
0.35795743 0.85386020 0.72841341
0.48026455 0.85386020 0.72841341
0.60382925 0.85386020 0.72841341
0.72841341 0.85386020 0.72841341
0.85386020 0.85386020 0.72841341
0.91886608 0.85386020 0.72841341
0.06256228 0.91886608 0.72841341
0.11931411 0.91886608 0.72841341
0.23732126 0.91886608 0.72841341
0.35795743 0.91886608 0.72841341
0.48026455 0.91886608 0.72841341
0.60382925 0.91886608 0.72841341
0.72841341 0.91886608 0.72841341
0.85386020 0.91886608 0.72841341
0.91886608 0.91886608 0.72841341
0.06256172 0.06256235 0.85386020
0.11931411 0.06256235 0.85386020
0.23732126 0.06256172 0.85386020
0.35795743 0.06256235 0.85386020
0.48026455 0.06256172 0.85386020
0.60382925 0.06256227 0.85386020
0.72841341 0.06256227 0.85386020
0.85386020 0.06256235 0.85386020
0.91886608 0.06256227 0.85386020
0.06256172 0.11931411 0.85386020
0.11931411 0.11931411 0.85386020
0.23732126 0.11931411 0.85386020
0.35795743 0.11931411 0.85386020
0.48026455 0.11931411 0.85386020
0.60382925 0.11931411 0.85386020
0.72841341 0.11931411 0.85386020
0.85386020 0.11931411 0.85386020
0.91886608 0.11931411 0.85386020
0.06256172 0.23732126 0.85386020
0.11931411 0.23732126 0.85386020
0.23732126 0.23732126 0.85386020
0.35795743 0.23732126 0.85386020
0.48026455 0.23732126 0.85386020
0.60382925 0.23732126 0.85386020
0.72841341 0.23732126 0.85386020
0.85386020 0.23732126 0.85386020
0.91886608 0.23732126 0.85386020
0.06256172 0.35795743 0.85386020
0.11931411 0.35795743 0.85386020
0.23732126 0.35795743 0.85386020
0.35795743 0.35795743 0.85386020
0.48026455 0.35795743 0.85386020
0.60382925 0.35795743 0.85386020
0.72841341 0.35795743 0.85386020
0.85386020 0.35795743 0.85386020
0.91886608 0.35795743 0.85386020
0.06256172 0.48026455 0.85386020
0.11931411 0.48026455 0.85386020
0.23732126 0.48026455 0.85386020
0.35795743 0.48026455 0.85386020
0.48026455 0.48026455 0.85386020
0.60382925 0.48026455 0.85386020
0.72841341 0.48026455 0.85386020
0.85386020 0.48026455 0.85386020
0.91886608 0.48026455 0.85386020
0.06256213 0.60382925 0.85386020
0.11931411 0.60382925 0.85386020
0.23732126 0.60382925 0.85386020
0.35795743 0.60382925 0.85386020
0.48026455 0.60382925 0.85386020
0.60382925 0.60382925 0.85386020
0.72841341 0.60382925 0.85386020
0.85386020 0.60382925 0.85386020
0.91886608 0.60382925 0.85386020
0.06256172 0.72841341 0.85386020
0.11931411 0.72841341 0.85386020
0.23732126 0.72841341 0.85386020
0.35795743 0.72841341 0.85386020
0.48026455 0.72841341 0.85386020
0.60382925 0.72841341 0.85386020
0.72841341 0.72841341 0.85386020
0.85386020 0.72841341 0.85386020
0.91886608 0.72841341 0.85386020
0.06256172 0.85386020 0.85386020
0.11931411 0.85386020 0.85386020
0.23732126 0.85386020 0.85386020
0.35795743 0.85386020 0.85386020
0.48026455 0.85386020 0.85386020
0.60382925 0.85386020 0.85386020
0.72841341 0.85386020 0.85386020
0.85386020 0.85386020 0.85386020
0.91886608 0.85386020 0.85386020
0.06256238 0.91886608 0.85386020
0.11931411 0.91886608 0.85386020
0.23732126 0.91886608 0.85386020
0.35795743 0.91886608 0.85386020
0.48026455 0.91886608 0.85386020
0.60382925 0.91886608 0.85386020
0.72841341 0.91886608 0.85386020
0.85386020 0.91886608 0.85386020
0.91886608 0.91886608 0.85386020
0.06256172 0.06256245 0.91886608
0.11931411 0.06256172 0.91886608
0.23732126 0.06256245 0.91886608
0.35795743 0.06256245 0.91886608
0.48026455 0.06256257 0.91886608
0.60382925 0.06256245 0.91886608
0.72841341 0.06256245 0.91886608
0.85386020 0.06256245 0.91886608
0.91886608 0.06256245 0.91886608
0.06256227 0.11931411 0.91886608
0.11931411 0.11931411 0.91886608
0.23732126 0.11931411 0.91886608
0.35795743 0.11931411 0.91886608
0.48026455 0.11931411 0.91886608
0.60382925 0.11931411 0.91886608
0.72841341 0.11931411 0.91886608
0.85386020 0.11931411 0.91886608
0.91886608 0.11931411 0.91886608
0.06256227 0.23732126 0.91886608
0.11931411 0.23732126 0.91886608
0.23732126 0.23732126 0.91886608
0.35795743 0.23732126 0.91886608
0.48026455 0.23732126 0.91886608
0.60382925 0.23732126 0.91886608
0.72841341 0.23732126 0.91886608
0.85386020 0.23732126 0.91886608
0.91886608 0.23732126 0.91886608
0.06256227 0.35795743 0.91886608
0.11931411 0.35795743 0.91886608
0.23732126 0.35795743 0.91886608
0.35795743 0.35795743 0.91886608
0.48026455 0.35795743 0.91886608
0.60382925 0.35795743 0.91886608
0.72841341 0.35795743 0.91886608
0.85386020 0.35795743 0.91886608
0.91886608 0.35795743 0.91886608
0.06256172 0.48026455 0.91886608
0.11931411 0.48026455 0.91886608
0.23732126 0.48026455 0.91886608
0.35795743 0.48026455 0.91886608
0.48026455 0.48026455 0.91886608
0.60382925 0.48026455 0.91886608
0.72841341 0.48026455 0.91886608
0.85386020 0.48026455 0.91886608
0.91886608 0.48026455 0.91886608
0.06256172 0.60382925 0.91886608
0.11931411 0.60382925 0.91886608
0.23732126 0.60382925 0.91886608
0.35795743 0.60382925 0.91886608
0.48026455 0.60382925 0.91886608
0.60382925 0.60382925 0.91886608
0.72841341 0.60382925 0.91886608
0.85386020 0.60382925 0.91886608
0.91886608 0.60382925 0.91886608
0.06256227 0.72841341 0.91886608
0.11931411 0.72841341 0.91886608
0.23732126 0.72841341 0.91886608
0.35795743 0.72841341 0.91886608
0.48026455 0.72841341 0.91886608
0.60382925 0.72841341 0.91886608
0.72841341 0.72841341 0.91886608
0.85386020 0.72841341 0.91886608
0.91886608 0.72841341 0.91886608
0.06256227 0.85386020 0.91886608
0.11931411 0.85386020 0.91886608
0.23732126 0.85386020 0.91886608
0.35795743 0.85386020 0.91886608
0.48026455 0.85386020 0.91886608
0.60382925 0.85386020 0.91886608
0.72841341 0.85386020 0.91886608
0.85386020 0.85386020 0.91886608
0.91886608 0.85386020 0.91886608
0.06256227 0.91886608 0.91886608
0.11931411 0.91886608 0.91886608
0.23732126 0.91886608 0.91886608
0.35795743 0.91886608 0.91886608
0.48026455 0.91886608 0.91886608
0.60382925 0.91886608 0.91886608
0.72841341 0.91886608 0.91886608
0.85386020 0.91886608 0.91886608
0.91886608 0.91886608 0.91886608
