src/ffmpeg_scripts/luts/luminance-unclipped_1p33.cube
TITLE "luminance-unclipped_1p33"
LUT_3D_SIZE 33
# PQ (EOTF Only)/Rec2020 -> PQ (EOTF Only)/Rec2020, CineEI Shift 1.33, Black Level -7.25% IRE, Input 109% -> Output 109% - Created with LUTCalc v4.01 by Ben Turley October 2020
0.00047898 0.00047898 0.00047898
0.00047898 0.00047898 0.00047898
0.00047898 0.00047898 0.00047898
0.05521495 0.00047898 0.00047904
0.10446851 0.00047898 0.00047898
0.15121862 0.00047898 0.00047898
0.19629530 0.00047898 0.00047898
0.24011022 0.00047898 0.00047910
0.28291169 0.00047898 0.00047898
0.32486639 0.00047898 0.00047916
0.36609409 0.00047916 0.00047898
0.40668509 0.00047912 0.00047898
0.44670991 0.00047898 0.00047898
0.48622517 0.00047898 0.00047898
0.52527734 0.00047898 0.00047898
0.56390522 0.00047919 0.00047920
0.60214173 0.00047920 0.00047898
0.64001510 0.00047927 0.00047898
0.67754986 0.00047930 0.00047927
0.71476750 0.00047934 0.00047898
0.75168696 0.00047898 0.00047898
0.78832514 0.00047898 0.00047898
0.82469713 0.00047898 0.00047898
0.86081653 0.00047898 0.00047898
0.89669567 0.00047931 0.00047898
0.91886608 0.00047898 0.00047940
0.91886608 0.00047898 0.00047898
0.91886608 0.00047948 0.00047898
0.91886608 0.00047898 0.00047898
0.91886608 0.00047898 0.00047898
0.91886608 0.00047961 0.00047961
0.91886608 0.00047961 0.00047898
0.91886608 0.00047975 0.00047983
0.00047898 0.00047898 0.00047898
0.00047898 0.00047898 0.00047898
0.00047898 0.00047898 0.00047898
0.05521495 0.00047898 0.00047904
0.10446851 0.00047898 0.00047898
0.15121862 0.00047898 0.00047898
0.19629530 0.00047898 0.00047898
0.24011022 0.00047898 0.00047910
0.28291169 0.00047898 0.00047898
0.32486639 0.00047898 0.00047916
0.36609409 0.00047916 0.00047898
0.40668509 0.00047912 0.00047898
0.44670991 0.00047898 0.00047898
0.48622517 0.00047898 0.00047898
0.52527734 0.00047898 0.00047898
0.56390522 0.00047919 0.00047920
0.60214173 0.00047920 0.00047898
0.64001510 0.00047927 0.00047898
0.67754986 0.00047930 0.00047927
0.71476750 0.00047934 0.00047898
0.75168696 0.00047898 0.00047898
0.78832514 0.00047898 0.00047898
0.82469713 0.00047898 0.00047898
0.86081653 0.00047898 0.00047898
0.89669567 0.00047931 0.00047898
0.91886608 0.00047898 0.00047940
0.91886608 0.00047898 0.00047898
0.91886608 0.00047948 0.00047898
0.91886608 0.00047898 0.00047898
0.91886608 0.00047898 0.00047898
0.91886608 0.00047961 0.00047961
0.91886608 0.00047961 0.00047898
0.91886608 0.00047975 0.00047983
0.00047898 0.00047898 0.00047898
0.00047898 0.00047898 0.00047898
0.00047898 0.00047898 0.00047898
0.05521495 0.00047898 0.00047904
0.10446851 0.00047898 0.00047898
0.15121862 0.00047898 0.00047898
0.19629530 0.00047898 0.00047898
0.24011022 0.00047898 0.00047910
0.28291169 0.00047898 0.00047898
0.32486639 0.00047898 0.00047916
0.36609409 0.00047916 0.00047898
0.40668509 0.00047912 0.00047898
0.44670991 0.00047898 0.00047898
0.48622517 0.00047898 0.00047898
0.52527734 0.00047898 0.00047898
0.56390522 0.00047919 0.00047920
0.60214173 0.00047920 0.00047898
0.64001510 0.00047927 0.00047898
0.67754986 0.00047930 0.00047927
0.71476750 0.00047934 0.00047898
0.75168696 0.00047898 0.00047898
0.78832514 0.00047898 0.00047898
0.82469713 0.00047898 0.00047898
0.86081653 0.00047898 0.00047898
0.89669567 0.00047931 0.00047898
0.91886608 0.00047898 0.00047940
0.91886608 0.00047898 0.00047898
0.91886608 0.00047948 0.00047898
0.91886608 0.00047898 0.00047898
0.91886608 0.00047898 0.00047898
0.91886608 0.00047961 0.00047961
0.91886608 0.00047961 0.00047898
0.91886608 0.00047975 0.00047983
0.00047906 0.05521495 0.00047898
0.00047906 0.05521495 0.00047898
0.00047906 0.05521495 0.00047898
0.05521495 0.05521495 0.00047898
0.10446851 0.05521495 0.00047898
0.15121862 0.05521495 0.00047898
0.19629530 0.05521495 0.00047898
0.24011022 0.05521495 0.00047898
0.28291169 0.05521495 0.00047898
0.32486639 0.05521495 0.00047898
0.36609409 0.05521495 0.00047898
0.40668509 0.05521495 0.00047898
0.44670991 0.05521495 0.00047898
0.48622517 0.05521495 0.00047898
0.52527734 0.05521495 0.00047898
0.56390522 0.05521495 0.00047920
0.60214173 0.05521495 0.00047898
0.64001510 0.05521495 0.00047898
0.67754986 0.05521495 0.00047898
0.71476750 0.05521495 0.00047898
0.75168696 0.05521495 0.00047898
0.78832514 0.05521495 0.00047898
0.82469713 0.05521495 0.00047898
0.86081653 0.05521495 0.00047935
0.89669567 0.05521495 0.00047940
0.91886608 0.05521495 0.00047898
0.91886608 0.05521495 0.00047898
0.91886608 0.05521495 0.00047946
0.91886608 0.05521495 0.00047898
0.91886608 0.05521495 0.00047953
0.91886608 0.05521495 0.00047961
0.91886608 0.05521495 0.00047898
0.91886608 0.05521495 0.00047898
0.00047908 0.10446851 0.00047898
0.00047908 0.10446851 0.00047898
0.00047908 0.10446851 0.00047898
0.05521495 0.10446851 0.00047898
0.10446851 0.10446851 0.00047898
0.15121862 0.10446851 0.00047898
0.19629530 0.10446851 0.00047909
0.24011022 0.10446851 0.00047910
0.28291169 0.10446851 0.00047898
0.32486639 0.10446851 0.00047914
0.36609409 0.10446851 0.00047898
0.40668509 0.10446851 0.00047916
0.44670991 0.10446851 0.00047918
0.48622517 0.10446851 0.00047918
0.52527734 0.10446851 0.00047898
0.56390522 0.10446851 0.00047898
0.60214173 0.10446851 0.00047898
0.64001510 0.10446851 0.00047923
0.67754986 0.10446851 0.00047898
0.71476750 0.10446851 0.00047898
0.75168696 0.10446851 0.00047898
0.78832514 0.10446851 0.00047898
0.82469713 0.10446851 0.00047898
0.86081653 0.10446851 0.00047935
0.89669567 0.10446851 0.00047940
0.91886608 0.10446851 0.00047940
0.91886608 0.10446851 0.00047898
0.91886608 0.10446851 0.00047953
0.91886608 0.10446851 0.00047961
0.91886608 0.10446851 0.00047898
0.91886608 0.10446851 0.00047961
0.91886608 0.10446851 0.00047898
0.91886608 0.10446851 0.00047971
0.00047907 0.15121862 0.00047898
0.00047907 0.15121862 0.00047898
0.00047907 0.15121862 0.00047898
0.05521495 0.15121862 0.00047898
0.10446851 0.15121862 0.00047909
0.15121862 0.15121862 0.00047898
0.19629530 0.15121862 0.00047910
0.24011022 0.15121862 0.00047898
0.28291169 0.15121862 0.00047898
0.32486639 0.15121862 0.00047914
0.36609409 0.15121862 0.00047898
0.40668509 0.15121862 0.00047898
0.44670991 0.15121862 0.00047898
0.48622517 0.15121862 0.00047918
0.52527734 0.15121862 0.00047920
0.56390522 0.15121862 0.00047898
0.60214173 0.15121862 0.00047898
0.64001510 0.15121862 0.00047923
0.67754986 0.15121862 0.00047898
0.71476750 0.15121862 0.00047898
0.75168696 0.15121862 0.00047898
0.78832514 0.15121862 0.00047898
0.82469713 0.15121862 0.00047898
0.86081653 0.15121862 0.00047898
0.89669567 0.15121862 0.00047898
0.91886608 0.15121862 0.00047898
0.91886608 0.15121862 0.00047898
0.91886608 0.15121862 0.00047898
0.91886608 0.15121862 0.00047953
0.91886608 0.15121862 0.00047898
0.91886608 0.15121862 0.00047898
0.91886608 0.15121862 0.00047898
0.91886608 0.15121862 0.00047983
0.00047911 0.19629530 0.00047898
0.00047911 0.19629530 0.00047898
0.00047911 0.19629530 0.00047898
0.05521495 0.19629530 0.00047898
0.10446851 0.19629530 0.00047898
0.15121862 0.19629530 0.00047898
0.19629530 0.19629530 0.00047898
0.24011022 0.19629530 0.00047898
0.28291169 0.19629530 0.00047898
0.32486639 0.19629530 0.00047898
0.36609409 0.19629530 0.00047898
0.40668509 0.19629530 0.00047898
0.44670991 0.19629530 0.00047898
0.48622517 0.19629530 0.00047898
0.52527734 0.19629530 0.00047898
0.56390522 0.19629530 0.00047920
0.60214173 0.19629530 0.00047898
0.64001510 0.19629530 0.00047898
0.67754986 0.19629530 0.00047898
0.71476750 0.19629530 0.00047898
0.75168696 0.19629530 0.00047898
0.78832514 0.19629530 0.00047898
0.82469713 0.19629530 0.00047940
0.86081653 0.19629530 0.00047898
0.89669567 0.19629530 0.00047898
0.91886608 0.19629530 0.00047898
0.91886608 0.19629530 0.00047898
0.91886608 0.19629530 0.00047946
0.91886608 0.19629530 0.00047898
0.91886608 0.19629530 0.00047898
0.91886608 0.19629530 0.00047898
0.91886608 0.19629530 0.00047898
0.91886608 0.19629530 0.00047898
0.00047911 0.24011022 0.00047898
0.00047911 0.24011022 0.00047898
0.00047911 0.24011022 0.00047898
0.05521495 0.24011022 0.00047898
0.10446851 0.24011022 0.00047898
0.15121862 0.24011022 0.00047898
0.19629530 0.24011022 0.00047898
0.24011022 0.24011022 0.00047898
0.28291169 0.24011022 0.00047898
0.32486639 0.24011022 0.00047898
0.36609409 0.24011022 0.00047916
0.40668509 0.24011022 0.00047898
0.44670991 0.24011022 0.00047898
0.48622517 0.24011022 0.00047898
0.52527734 0.24011022 0.00047920
0.56390522 0.24011022 0.00047898
0.60214173 0.24011022 0.00047898
0.64001510 0.24011022 0.00047898
0.67754986 0.24011022 0.00047927
0.71476750 0.24011022 0.00047898
0.75168696 0.24011022 0.00047898
0.78832514 0.24011022 0.00047898
0.82469713 0.24011022 0.00047935
0.86081653 0.24011022 0.00047935
0.89669567 0.24011022 0.00047940
0.91886608 0.24011022 0.00047940
0.91886608 0.24011022 0.00047898
0.91886608 0.24011022 0.00047898
0.91886608 0.24011022 0.00047898
0.91886608 0.24011022 0.00047898
0.91886608 0.24011022 0.00047898
0.91886608 0.24011022 0.00047898
0.91886608 0.24011022 0.00047898
0.00047914 0.28291169 0.00047898
0.00047914 0.28291169 0.00047898
0.00047914 0.28291169 0.00047898
0.05521495 0.28291169 0.00047912
0.10446851 0.28291169 0.00047898
0.15121862 0.28291169 0.00047898
0.19629530 0.28291169 0.00047898
0.24011022 0.28291169 0.00047898
0.28291169 0.28291169 0.00047898
0.32486639 0.28291169 0.00047898
0.36609409 0.28291169 0.00047898
0.40668509 0.28291169 0.00047898
0.44670991 0.28291169 0.00047898
0.48622517 0.28291169 0.00047918
0.52527734 0.28291169 0.00047898
0.56390522 0.28291169 0.00047920
0.60214173 0.28291169 0.00047923
0.64001510 0.28291169 0.00047927
0.67754986 0.28291169 0.00047898
0.71476750 0.28291169 0.00047898
0.75168696 0.28291169 0.00047898
0.78832514 0.28291169 0.00047898
0.82469713 0.28291169 0.00047898
0.86081653 0.28291169 0.00047898
0.89669567 0.28291169 0.00047940
0.91886608 0.28291169 0.00047946
0.91886608 0.28291169 0.00047898
0.91886608 0.28291169 0.00047898
0.91886608 0.28291169 0.00047898
0.91886608 0.28291169 0.00047898
0.91886608 0.28291169 0.00047898
0.91886608 0.28291169 0.00047898
0.91886608 0.28291169 0.00047898
0.00047918 0.32486639 0.00047898
0.00047918 0.32486639 0.00047898
0.00047918 0.32486639 0.00047898
0.05521495 0.32486639 0.00047898
0.10446851 0.32486639 0.00047898
0.15121862 0.32486639 0.00047898
0.19629530 0.32486639 0.00047898
0.24011022 0.32486639 0.00047898
0.28291169 0.32486639 0.00047898
0.32486639 0.32486639 0.00047898
0.36609409 0.32486639 0.00047898
0.40668509 0.32486639 0.00047918
0.44670991 0.32486639 0.00047918
0.48622517 0.32486639 0.00047898
0.52527734 0.32486639 0.00047898
0.56390522 0.32486639 0.00047898
0.60214173 0.32486639 0.00047898
0.64001510 0.32486639 0.00047898
0.67754986 0.32486639 0.00047898
0.71476750 0.32486639 0.00047898
0.75168696 0.32486639 0.00047898
0.78832514 0.32486639 0.00047898
0.82469713 0.32486639 0.00047898
0.86081653 0.32486639 0.00047935
0.89669567 0.32486639 0.00047940
0.91886608 0.32486639 0.00047898
0.91886608 0.32486639 0.00047898
0.91886608 0.32486639 0.00047898
0.91886608 0.32486639 0.00047953
0.91886608 0.32486639 0.00047898
0.91886608 0.32486639 0.00047898
0.91886608 0.32486639 0.00047898
0.91886608 0.32486639 0.00047898
0.00047921 0.36609409 0.00047898
0.00047921 0.36609409 0.00047898
0.00047921 0.36609409 0.00047898
0.05521495 0.36609409 0.00047898
0.10446851 0.36609409 0.00047898
0.15121862 0.36609409 0.00047898
0.19629530 0.36609409 0.00047898
0.24011022 0.36609409 0.00047898
0.28291169 0.36609409 0.00047898
0.32486639 0.36609409 0.00047898
0.36609409 0.36609409 0.00047898
0.40668509 0.36609409 0.00047898
0.44670991 0.36609409 0.00047898
0.48622517 0.36609409 0.00047898
0.52527734 0.36609409 0.00047898
0.56390522 0.36609409 0.00047898
0.60214173 0.36609409 0.00047898
0.64001510 0.36609409 0.00047898
0.67754986 0.36609409 0.00047898
0.71476750 0.36609409 0.00047898
0.75168696 0.36609409 0.00047898
0.78832514 0.36609409 0.00047898
0.82469713 0.36609409 0.00047935
0.86081653 0.36609409 0.00047935
0.89669567 0.36609409 0.00047898
0.91886608 0.36609409 0.00047898
0.91886608 0.36609409 0.00047898
0.91886608 0.36609409 0.00047946
0.91886608 0.36609409 0.00047898
0.91886608 0.36609409 0.00047898
0.91886608 0.36609409 0.00047898
0.91886608 0.36609409 0.00047898
0.91886608 0.36609409 0.00047898
0.00047923 0.40668509 0.00047898
0.00047923 0.40668509 0.00047898
0.00047923 0.40668509 0.00047898
0.05521495 0.40668509 0.00047898
0.10446851 0.40668509 0.00047898
0.15121862 0.40668509 0.00047918
0.19629530 0.40668509 0.00047898
0.24011022 0.40668509 0.00047898
0.28291169 0.40668509 0.00047898
0.32486639 0.40668509 0.00047898
0.36609409 0.40668509 0.00047898
0.40668509 0.40668509 0.00047898
0.44670991 0.40668509 0.00047898
0.48622517 0.40668509 0.00047898
0.52527734 0.40668509 0.00047923
0.56390522 0.40668509 0.00047923
0.60214173 0.40668509 0.00047898
0.64001510 0.40668509 0.00047898
0.67754986 0.40668509 0.00047927
0.71476750 0.40668509 0.00047898
0.75168696 0.40668509 0.00047931
0.78832514 0.40668509 0.00047898
0.82469713 0.40668509 0.00047898
0.86081653 0.40668509 0.00047898
0.89669567 0.40668509 0.00047898
0.91886608 0.40668509 0.00047940
0.91886608 0.40668509 0.00047898
0.91886608 0.40668509 0.00047898
0.91886608 0.40668509 0.00047898
0.91886608 0.40668509 0.00047898
0.91886608 0.40668509 0.00047898
0.91886608 0.40668509 0.00047961
0.91886608 0.40668509 0.00047898
0.00047922 0.44670991 0.00047918
0.00047922 0.44670991 0.00047918
0.00047922 0.44670991 0.00047918
0.05521495 0.44670991 0.00047918
0.10446851 0.44670991 0.00047898
0.15121862 0.44670991 0.00047898
0.19629530 0.44670991 0.00047918
0.24011022 0.44670991 0.00047898
0.28291169 0.44670991 0.00047898
0.32486639 0.44670991 0.00047918
0.36609409 0.44670991 0.00047898
0.40668509 0.44670991 0.00047898
0.44670991 0.44670991 0.00047920
0.48622517 0.44670991 0.00047898
0.52527734 0.44670991 0.00047898
0.56390522 0.44670991 0.00047898
0.60214173 0.44670991 0.00047923
0.64001510 0.44670991 0.00047898
0.67754986 0.44670991 0.00047898
0.71476750 0.44670991 0.00047898
0.75168696 0.44670991 0.00047931
0.78832514 0.44670991 0.00047898
0.82469713 0.44670991 0.00047935
0.86081653 0.44670991 0.00047898
0.89669567 0.44670991 0.00047898
0.91886608 0.44670991 0.00047898
0.91886608 0.44670991 0.00047898
0.91886608 0.44670991 0.00047898
0.91886608 0.44670991 0.00047898
0.91886608 0.44670991 0.00047898
0.91886608 0.44670991 0.00047961
0.91886608 0.44670991 0.00047898
0.91886608 0.44670991 0.00047971
0.00047915 0.48622517 0.00047898
0.00047915 0.48622517 0.00047898
0.00047915 0.48622517 0.00047898
0.05521495 0.48622517 0.00047898
0.10446851 0.48622517 0.00047898
0.15121862 0.48622517 0.00047898
0.19629530 0.48622517 0.00047920
0.24011022 0.48622517 0.00047898
0.28291169 0.48622517 0.00047898
0.32486639 0.48622517 0.00047898
0.36609409 0.48622517 0.00047920
0.40668509 0.48622517 0.00047898
0.44670991 0.48622517 0.00047898
0.48622517 0.48622517 0.00047898
0.52527734 0.48622517 0.00047898
0.56390522 0.48622517 0.00047898
0.60214173 0.48622517 0.00047898
0.64001510 0.48622517 0.00047898
0.67754986 0.48622517 0.00047927
0.71476750 0.48622517 0.00047898
0.75168696 0.48622517 0.00047898
0.78832514 0.48622517 0.00047898
0.82469713 0.48622517 0.00047898
0.86081653 0.48622517 0.00047898
0.89669567 0.48622517 0.00047898
0.91886608 0.48622517 0.00047940
0.91886608 0.48622517 0.00047946
0.91886608 0.48622517 0.00047898
0.91886608 0.48622517 0.00047898
0.91886608 0.48622517 0.00047898
0.91886608 0.48622517 0.00047961
0.91886608 0.48622517 0.00047898
0.91886608 0.48622517 0.00047898
0.00047919 0.52527734 0.00047898
0.00047919 0.52527734 0.00047898
0.00047919 0.52527734 0.00047898
0.05521495 0.52527734 0.00047898
0.10446851 0.52527734 0.00047898
0.15121862 0.52527734 0.00047898
0.19629530 0.52527734 0.00047920
0.24011022 0.52527734 0.00047898
0.28291169 0.52527734 0.00047898
0.32486639 0.52527734 0.00047920
0.36609409 0.52527734 0.00047920
0.40668509 0.52527734 0.00047898
0.44670991 0.52527734 0.00047898
0.48622517 0.52527734 0.00047923
0.52527734 0.52527734 0.00047898
0.56390522 0.52527734 0.00047898
0.60214173 0.52527734 0.00047898
0.64001510 0.52527734 0.00047898
0.67754986 0.52527734 0.00047898
0.71476750 0.52527734 0.00047898
0.75168696 0.52527734 0.00047898
0.78832514 0.52527734 0.00047898
0.82469713 0.52527734 0.00047898
0.86081653 0.52527734 0.00047898
0.89669567 0.52527734 0.00047898
0.91886608 0.52527734 0.00047898
0.91886608 0.52527734 0.00047898
0.91886608 0.52527734 0.00047898
0.91886608 0.52527734 0.00047953
0.91886608 0.52527734 0.00047898
0.91886608 0.52527734 0.00047898
0.91886608 0.52527734 0.00047898
0.91886608 0.52527734 0.00047898
0.00047931 0.56390522 0.00047898
0.00047931 0.56390522 0.00047898
0.00047931 0.56390522 0.00047898
0.05521495 0.56390522 0.00047898
0.10446851 0.56390522 0.00047898
0.15121862 0.56390522 0.00047923
0.19629530 0.56390522 0.00047898
0.24011022 0.56390522 0.00047898
0.28291169 0.56390522 0.00047898
0.32486639 0.56390522 0.00047898
0.36609409 0.56390522 0.00047898
0.40668509 0.56390522 0.00047898
0.44670991 0.56390522 0.00047898
0.48622517 0.56390522 0.00047898
0.52527734 0.56390522 0.00047898
0.56390522 0.56390522 0.00047898
0.60214173 0.56390522 0.00047898
0.64001510 0.56390522 0.00047898
0.67754986 0.56390522 0.00047898
0.71476750 0.56390522 0.00047898
0.75168696 0.56390522 0.00047898
0.78832514 0.56390522 0.00047898
0.82469713 0.56390522 0.00047898
0.86081653 0.56390522 0.00047898
0.89669567 0.56390522 0.00047898
0.91886608 0.56390522 0.00047898
0.91886608 0.56390522 0.00047898
0.91886608 0.56390522 0.00047898
0.91886608 0.56390522 0.00047953
0.91886608 0.56390522 0.00047898
0.91886608 0.56390522 0.00047898
0.91886608 0.56390522 0.00047898
0.91886608 0.56390522 0.00047971
0.00047923 0.60214173 0.00047898
0.00047923 0.60214173 0.00047898
0.00047923 0.60214173 0.00047898
0.05521495 0.60214173 0.00047898
0.10446851 0.60214173 0.00047923
0.15121862 0.60214173 0.00047923
0.19629530 0.60214173 0.00047898
0.24011022 0.60214173 0.00047898
0.28291169 0.60214173 0.00047898
0.32486639 0.60214173 0.00047898
0.36609409 0.60214173 0.00047898
0.40668509 0.60214173 0.00047898
0.44670991 0.60214173 0.00047898
0.48622517 0.60214173 0.00047898
0.52527734 0.60214173 0.00047898
0.56390522 0.60214173 0.00047898
0.60214173 0.60214173 0.00047898
0.64001510 0.60214173 0.00047927
0.67754986 0.60214173 0.00047898
0.71476750 0.60214173 0.00047898
0.75168696 0.60214173 0.00047898
0.78832514 0.60214173 0.00047898
0.82469713 0.60214173 0.00047935
0.86081653 0.60214173 0.00047898
0.89669567 0.60214173 0.00047898
0.91886608 0.60214173 0.00047898
0.91886608 0.60214173 0.00047898
0.91886608 0.60214173 0.00047898
0.91886608 0.60214173 0.00047898
0.91886608 0.60214173 0.00047898
0.91886608 0.60214173 0.00047898
0.91886608 0.60214173 0.00047898
0.91886608 0.60214173 0.00047898
0.00047931 0.64001510 0.00047898
0.00047931 0.64001510 0.00047898
0.00047931 0.64001510 0.00047898
0.05521495 0.64001510 0.00047927
0.10446851 0.64001510 0.00047898
0.15121862 0.64001510 0.00047898
0.19629530 0.64001510 0.00047898
0.24011022 0.64001510 0.00047898
0.28291169 0.64001510 0.00047898
0.32486639 0.64001510 0.00047898
0.36609409 0.64001510 0.00047927
0.40668509 0.64001510 0.00047927
0.44670991 0.64001510 0.00047898
0.48622517 0.64001510 0.00047927
0.52527734 0.64001510 0.00047898
0.56390522 0.64001510 0.00047927
0.60214173 0.64001510 0.00047931
0.64001510 0.64001510 0.00047898
0.67754986 0.64001510 0.00047898
0.71476750 0.64001510 0.00047898
0.75168696 0.64001510 0.00047898
0.78832514 0.64001510 0.00047898
0.82469713 0.64001510 0.00047898
0.86081653 0.64001510 0.00047898
0.89669567 0.64001510 0.00047898
0.91886608 0.64001510 0.00047898
0.91886608 0.64001510 0.00047946
0.91886608 0.64001510 0.00047898
0.91886608 0.64001510 0.00047898
0.91886608 0.64001510 0.00047898
0.91886608 0.64001510 0.00047898
0.91886608 0.64001510 0.00047898
0.91886608 0.64001510 0.00047898
0.00047937 0.67754986 0.00047898
0.00047937 0.67754986 0.00047898
0.00047937 0.67754986 0.00047898
0.05521495 0.67754986 0.00047898
0.10446851 0.67754986 0.00047898
0.15121862 0.67754986 0.00047898
0.19629530 0.67754986 0.00047898
0.24011022 0.67754986 0.00047898
0.28291169 0.67754986 0.00047898
0.32486639 0.67754986 0.00047898
0.36609409 0.67754986 0.00047898
0.40668509 0.67754986 0.00047898
0.44670991 0.67754986 0.00047898
0.48622517 0.67754986 0.00047898
0.52527734 0.67754986 0.00047898
0.56390522 0.67754986 0.00047898
0.60214173 0.67754986 0.00047898
0.64001510 0.67754986 0.00047898
0.67754986 0.67754986 0.00047898
0.71476750 0.67754986 0.00047931
0.75168696 0.67754986 0.00047898
0.78832514 0.67754986 0.00047898
0.82469713 0.67754986 0.00047935
0.86081653 0.67754986 0.00047898
0.89669567 0.67754986 0.00047898
0.91886608 0.67754986 0.00047898
0.91886608 0.67754986 0.00047898
0.91886608 0.67754986 0.00047898
0.91886608 0.67754986 0.00047898
0.91886608 0.67754986 0.00047898
0.91886608 0.67754986 0.00047898
0.91886608 0.67754986 0.00047961
0.91886608 0.67754986 0.00047971
0.00047936 0.71476750 0.00047898
0.00047936 0.71476750 0.00047898
0.00047936 0.71476750 0.00047898
0.05521495 0.71476750 0.00047898
0.10446851 0.71476750 0.00047898
0.15121862 0.71476750 0.00047898
0.19629530 0.71476750 0.00047898
0.24011022 0.71476750 0.00047898
0.28291169 0.71476750 0.00047898
0.32486639 0.71476750 0.00047898
0.36609409 0.71476750 0.00047898
0.40668509 0.71476750 0.00047931
0.44670991 0.71476750 0.00047898
0.48622517 0.71476750 0.00047898
0.52527734 0.71476750 0.00047898
0.56390522 0.71476750 0.00047898
0.60214173 0.71476750 0.00047898
0.64001510 0.71476750 0.00047898
0.67754986 0.71476750 0.00047935
0.71476750 0.71476750 0.00047898
0.75168696 0.71476750 0.00047898
0.78832514 0.71476750 0.00047898
0.82469713 0.71476750 0.00047940
0.86081653 0.71476750 0.00047898
0.89669567 0.71476750 0.00047898
0.91886608 0.71476750 0.00047898
0.91886608 0.71476750 0.00047898
0.91886608 0.71476750 0.00047946
0.91886608 0.71476750 0.00047953
0.91886608 0.71476750 0.00047898
0.91886608 0.71476750 0.00047898
0.91886608 0.71476750 0.00047898
0.91886608 0.71476750 0.00047898
0.00047932 0.75168696 0.00047931
0.00047932 0.75168696 0.00047931
0.00047932 0.75168696 0.00047931
0.05521495 0.75168696 0.00047931
0.10446851 0.75168696 0.00047898
0.15121862 0.75168696 0.00047935
0.19629530 0.75168696 0.00047898
0.24011022 0.75168696 0.00047898
0.28291169 0.75168696 0.00047931
0.32486639 0.75168696 0.00047898
0.36609409 0.75168696 0.00047931
0.40668509 0.75168696 0.00047898
0.44670991 0.75168696 0.00047898
0.48622517 0.75168696 0.00047931
0.52527734 0.75168696 0.00047898
0.56390522 0.75168696 0.00047898
0.60214173 0.75168696 0.00047935
0.64001510 0.75168696 0.00047898
0.67754986 0.75168696 0.00047898
0.71476750 0.75168696 0.00047898
0.75168696 0.75168696 0.00047935
0.78832514 0.75168696 0.00047898
0.82469713 0.75168696 0.00047898
0.86081653 0.75168696 0.00047940
0.89669567 0.75168696 0.00047898
0.91886608 0.75168696 0.00047898
0.91886608 0.75168696 0.00047898
0.91886608 0.75168696 0.00047898
0.91886608 0.75168696 0.00047898
0.91886608 0.75168696 0.00047898
0.91886608 0.75168696 0.00047898
0.91886608 0.75168696 0.00047898
0.91886608 0.75168696 0.00047898
0.00047944 0.78832514 0.00047898
0.00047944 0.78832514 0.00047898
0.00047944 0.78832514 0.00047898
0.05521495 0.78832514 0.00047898
0.10446851 0.78832514 0.00047898
0.15121862 0.78832514 0.00047935
0.19629530 0.78832514 0.00047898
0.24011022 0.78832514 0.00047898
0.28291169 0.78832514 0.00047898
0.32486639 0.78832514 0.00047898
0.36609409 0.78832514 0.00047898
0.40668509 0.78832514 0.00047898
0.44670991 0.78832514 0.00047898
0.48622517 0.78832514 0.00047898
0.52527734 0.78832514 0.00047898
0.56390522 0.78832514 0.00047898
0.60214173 0.78832514 0.00047898
0.64001510 0.78832514 0.00047898
0.67754986 0.78832514 0.00047898
0.71476750 0.78832514 0.00047898
0.75168696 0.78832514 0.00047898
0.78832514 0.78832514 0.00047898
0.82469713 0.78832514 0.00047898
0.86081653 0.78832514 0.00047940
0.89669567 0.78832514 0.00047898
0.91886608 0.78832514 0.00047898
0.91886608 0.78832514 0.00047898
