src/ffmpeg_scripts/luts/luminance_-1p00.cube
TITLE "luminance_-1p00"
LUT_3D_SIZE 5
# PQ (EOTF Only)/Rec2020 -> PQ (EOTF Only)/Rec2020, CineEI Shift -1.00, Black Level 0.00% IRE, Input 109% -> Output 109% - Created with LUTCalc v4.01 by Ben Turley October 2020
0.06256172 0.06256172 0.06256172
0.21365443 0.06256172 0.06256172
0.44182077 0.06256191 0.06256172
0.68528608 0.06256198 0.06256172
0.91886608 0.06256221 0.06256219
0.06256172 0.21365443 0.06256172
0.21365443 0.21365443 0.06256172
0.44182077 0.21365443 0.06256172
0.68528608 0.21365443 0.06256172
0.91886608 0.21365443 0.06256172
0.06256172 0.44182077 0.06256172
0.21365443 0.44182077 0.06256172
0.44182077 0.44182077 0.06256172
0.68528608 0.44182077 0.06256172
0.91886608 0.44182077 0.06256172
0.06256201 0.68528608 0.06256172
0.21365443 0.68528608 0.06256172
0.44182077 0.68528608 0.06256172
0.68528608 0.68528608 0.06256172
0.91886608 0.68528608 0.06256219
0.06256227 0.91886608 0.06256172
0.21365443 0.91886608 0.06256172
0.44182077 0.91886608 0.06256172
0.68528608 0.91886608 0.06256172
0.91886608 0.91886608 0.06256172
0.06256172 0.06256172 0.21365443
0.21365443 0.06256184 0.21365443
0.44182077 0.06256189 0.21365443
0.68528608 0.06256194 0.21365443
0.91886608 0.06256221 0.21365443
0.06256172 0.21365443 0.21365443
0.21365443 0.21365443 0.21365443
0.44182077 0.21365443 0.21365443
0.68528608 0.21365443 0.21365443
0.91886608 0.21365443 0.21365443
0.06256190 0.44182077 0.21365443
0.21365443 0.44182077 0.21365443
0.44182077 0.44182077 0.21365443
0.68528608 0.44182077 0.21365443
0.91886608 0.44182077 0.21365443
0.06256202 0.68528608 0.21365443
0.21365443 0.68528608 0.21365443
0.44182077 0.68528608 0.21365443
0.68528608 0.68528608 0.21365443
0.91886608 0.68528608 0.21365443
0.06256224 0.91886608 0.21365443
0.21365443 0.91886608 0.21365443
0.44182077 0.91886608 0.21365443
0.68528608 0.91886608 0.21365443
0.91886608 0.91886608 0.21365443
0.06256172 0.06256172 0.44182077
0.21365443 0.06256194 0.44182077
0.44182077 0.06256197 0.44182077
0.68528608 0.06256200 0.44182077
0.91886608 0.06256226 0.44182077
0.06256172 0.21365443 0.44182077
0.21365443 0.21365443 0.44182077
0.44182077 0.21365443 0.44182077
0.68528608 0.21365443 0.44182077
0.91886608 0.21365443 0.44182077
0.06256172 0.44182077 0.44182077
0.21365443 0.44182077 0.44182077
0.44182077 0.44182077 0.44182077
0.68528608 0.44182077 0.44182077
0.91886608 0.44182077 0.44182077
0.06256209 0.68528608 0.44182077
0.21365443 0.68528608 0.44182077
0.44182077 0.68528608 0.44182077
0.68528608 0.68528608 0.44182077
0.91886608 0.68528608 0.44182077
0.06256226 0.91886608 0.44182077
0.21365443 0.91886608 0.44182077
0.44182077 0.91886608 0.44182077
0.68528608 0.91886608 0.44182077
0.91886608 0.91886608 0.44182077
0.06256172 0.06256172 0.68528608
0.21365443 0.06256172 0.68528608
0.44182077 0.06256172 0.68528608
0.68528608 0.06256172 0.68528608
0.91886608 0.06256172 0.68528608
0.06256172 0.21365443 0.68528608
0.21365443 0.21365443 0.68528608
0.44182077 0.21365443 0.68528608
0.68528608 0.21365443 0.68528608
0.91886608 0.21365443 0.68528608
0.06256172 0.44182077 0.68528608
0.21365443 0.44182077 0.68528608
0.44182077 0.44182077 0.68528608
0.68528608 0.44182077 0.68528608
0.91886608 0.44182077 0.68528608
0.06256172 0.68528608 0.68528608
0.21365443 0.68528608 0.68528608
0.44182077 0.68528608 0.68528608
0.68528608 0.68528608 0.68528608
0.91886608 0.68528608 0.68528608
0.06256229 0.91886608 0.68528608
0.21365443 0.91886608 0.68528608
0.44182077 0.91886608 0.68528608
0.68528608 0.91886608 0.68528608
0.91886608 0.91886608 0.68528608
0.06256172 0.06256172 0.91886608
0.21365443 0.06256245 0.91886608
0.44182077 0.06256235 0.91886608
0.68528608 0.06256235 0.91886608
0.91886608 0.06256235 0.91886608
0.06256172 0.21365443 0.91886608
0.21365443 0.21365443 0.91886608
0.44182077 0.21365443 0.91886608
0.68528608 0.21365443 0.91886608
0.91886608 0.21365443 0.91886608
0.06256172 0.44182077 0.91886608
0.21365443 0.44182077 0.91886608
0.44182077 0.44182077 0.91886608
0.68528608 0.44182077 0.91886608
0.91886608 0.44182077 0.91886608
0.06256172 0.68528608 0.91886608
0.21365443 0.68528608 0.91886608
0.44182077 0.68528608 0.91886608
0.68528608 0.68528608 0.91886608
0.91886608 0.68528608 0.91886608
0.06256227 0.91886608 0.91886608
0.21365443 0.91886608 0.91886608
0.44182077 0.91886608 0.91886608
0.68528608 0.91886608 0.91886608
0.91886608 0.91886608 0.91886608
