src/ffmpeg_scripts/luts/luminance_3p00.cube
TITLE "luminance_3p00"
LUT_3D_SIZE 9
# PQ (EOTF Only)/Rec2020 -> PQ (EOTF Only)/Rec2020, CineEI Shift 3.00, Black Level 0.00% IRE, Input 109% -> Output 109% - Created with LUTCalc v4.01 by Ben Turley October 2020
0.06256172 0.06256172 0.06256172
0.19779740 0.06256179 0.06256172
0.38841341 0.06256172 0.06256172
0.54664518 0.06256172 0.06256172
0.68811012 0.06256203 0.06256172
0.81846612 0.06256205 0.06256172
0.91886608 0.06256215 0.06256172
0.91886608 0.06256172 0.06256172
0.91886608 0.06256259 0.06256257
0.06256182 0.19779740 0.06256172
0.19779740 0.19779740 0.06256172
0.38841341 0.19779740 0.06256172
0.54664518 0.19779740 0.06256172
0.68811012 0.19779740 0.06256172
0.81846612 0.19779740 0.06256172
0.91886608 0.19779740 0.06256172
0.91886608 0.19779740 0.06256235
0.91886608 0.19779740 0.06256172
0.06256172 0.38841341 0.06256172
0.19779740 0.38841341 0.06256172
0.38841341 0.38841341 0.06256172
0.54664518 0.38841341 0.06256172
0.68811012 0.38841341 0.06256172
0.81846612 0.38841341 0.06256172
0.91886608 0.38841341 0.06256172
0.91886608 0.38841341 0.06256172
0.91886608 0.38841341 0.06256172
0.06256196 0.54664518 0.06256194
0.19779740 0.54664518 0.06256172
0.38841341 0.54664518 0.06256172
0.54664518 0.54664518 0.06256197
0.68811012 0.54664518 0.06256172
0.81846612 0.54664518 0.06256172
0.91886608 0.54664518 0.06256172
0.91886608 0.54664518 0.06256235
0.91886608 0.54664518 0.06256172
0.06256172 0.68811012 0.06256172
0.19779740 0.68811012 0.06256172
0.38841341 0.68811012 0.06256172
0.54664518 0.68811012 0.06256172
0.68811012 0.68811012 0.06256172
0.81846612 0.68811012 0.06256172
0.91886608 0.68811012 0.06256172
0.91886608 0.68811012 0.06256172
0.91886608 0.68811012 0.06256172
0.06256197 0.81846612 0.06256172
0.19779740 0.81846612 0.06256172
0.38841341 0.81846612 0.06256172
0.54664518 0.81846612 0.06256172
0.68811012 0.81846612 0.06256208
0.81846612 0.81846612 0.06256172
0.91886608 0.81846612 0.06256172
0.91886608 0.81846612 0.06256172
0.91886608 0.81846612 0.06256172
0.06256222 0.91886608 0.06256172
0.19779740 0.91886608 0.06256172
0.38841341 0.91886608 0.06256172
0.54664518 0.91886608 0.06256172
0.68811012 0.91886608 0.06256172
0.81846612 0.91886608 0.06256219
0.91886608 0.91886608 0.06256172
0.91886608 0.91886608 0.06256235
0.91886608 0.91886608 0.06256257
0.06256257 0.91886608 0.06256172
0.19779740 0.91886608 0.06256172
0.38841341 0.91886608 0.06256172
0.54664518 0.91886608 0.06256172
0.68811012 0.91886608 0.06256172
0.81846612 0.91886608 0.06256172
0.91886608 0.91886608 0.06256172
0.91886608 0.91886608 0.06256172
0.91886608 0.91886608 0.06256172
0.06256272 0.91886608 0.06256172
0.19779740 0.91886608 0.06256172
0.38841341 0.91886608 0.06256172
0.54664518 0.91886608 0.06256172
0.68811012 0.91886608 0.06256172
0.81846612 0.91886608 0.06256172
0.91886608 0.91886608 0.06256172
0.91886608 0.91886608 0.06256172
0.91886608 0.91886608 0.06256172
0.06256172 0.06256185 0.19779740
0.19779740 0.06256184 0.19779740
0.38841341 0.06256172 0.19779740
0.54664518 0.06256172 0.19779740
0.68811012 0.06256204 0.19779740
0.81846612 0.06256172 0.19779740
0.91886608 0.06256208 0.19779740
0.91886608 0.06256223 0.19779740
0.91886608 0.06256245 0.19779740
0.06256182 0.19779740 0.19779740
0.19779740 0.19779740 0.19779740
0.38841341 0.19779740 0.19779740
0.54664518 0.19779740 0.19779740
0.68811012 0.19779740 0.19779740
0.81846612 0.19779740 0.19779740
0.91886608 0.19779740 0.19779740
0.91886608 0.19779740 0.19779740
0.91886608 0.19779740 0.19779740
0.06256188 0.38841341 0.19779740
0.19779740 0.38841341 0.19779740
0.38841341 0.38841341 0.19779740
0.54664518 0.38841341 0.19779740
0.68811012 0.38841341 0.19779740
0.81846612 0.38841341 0.19779740
0.91886608 0.38841341 0.19779740
0.91886608 0.38841341 0.19779740
0.91886608 0.38841341 0.19779740
0.06256195 0.54664518 0.19779740
0.19779740 0.54664518 0.19779740
0.38841341 0.54664518 0.19779740
0.54664518 0.54664518 0.19779740
0.68811012 0.54664518 0.19779740
0.81846612 0.54664518 0.19779740
0.91886608 0.54664518 0.19779740
0.91886608 0.54664518 0.19779740
0.91886608 0.54664518 0.19779740
0.06256204 0.68811012 0.19779740
0.19779740 0.68811012 0.19779740
0.38841341 0.68811012 0.19779740
0.54664518 0.68811012 0.19779740
0.68811012 0.68811012 0.19779740
0.81846612 0.68811012 0.19779740
0.91886608 0.68811012 0.19779740
0.91886608 0.68811012 0.19779740
0.91886608 0.68811012 0.19779740
0.06256211 0.81846612 0.19779740
0.19779740 0.81846612 0.19779740
0.38841341 0.81846612 0.19779740
0.54664518 0.81846612 0.19779740
0.68811012 0.81846612 0.19779740
0.81846612 0.81846612 0.19779740
0.91886608 0.81846612 0.19779740
0.91886608 0.81846612 0.19779740
0.91886608 0.81846612 0.19779740
0.06256225 0.91886608 0.19779740
0.19779740 0.91886608 0.19779740
0.38841341 0.91886608 0.19779740
0.54664518 0.91886608 0.19779740
0.68811012 0.91886608 0.19779740
0.81846612 0.91886608 0.19779740
0.91886608 0.91886608 0.19779740
0.91886608 0.91886608 0.19779740
0.91886608 0.91886608 0.19779740
0.06256249 0.91886608 0.19779740
0.19779740 0.91886608 0.19779740
0.38841341 0.91886608 0.19779740
0.54664518 0.91886608 0.19779740
0.68811012 0.91886608 0.19779740
0.81846612 0.91886608 0.19779740
0.91886608 0.91886608 0.19779740
0.91886608 0.91886608 0.19779740
0.91886608 0.91886608 0.19779740
0.06256267 0.91886608 0.19779740
0.19779740 0.91886608 0.19779740
0.38841341 0.91886608 0.19779740
0.54664518 0.91886608 0.19779740
0.68811012 0.91886608 0.19779740
0.81846612 0.91886608 0.19779740
0.91886608 0.91886608 0.19779740
0.91886608 0.91886608 0.19779740
0.91886608 0.91886608 0.19779740
0.06256172 0.06256172 0.38841341
0.19779740 0.06256172 0.38841341
0.38841341 0.06256191 0.38841341
0.54664518 0.06256172 0.38841341
0.68811012 0.06256200 0.38841341
0.81846612 0.06256206 0.38841341
0.91886608 0.06256208 0.38841341
0.91886608 0.06256172 0.38841341
0.91886608 0.06256259 0.38841341
0.06256172 0.19779740 0.38841341
0.19779740 0.19779740 0.38841341
0.38841341 0.19779740 0.38841341
0.54664518 0.19779740 0.38841341
0.68811012 0.19779740 0.38841341
0.81846612 0.19779740 0.38841341
0.91886608 0.19779740 0.38841341
0.91886608 0.19779740 0.38841341
0.91886608 0.19779740 0.38841341
0.06256172 0.38841341 0.38841341
0.19779740 0.38841341 0.38841341
0.38841341 0.38841341 0.38841341
0.54664518 0.38841341 0.38841341
0.68811012 0.38841341 0.38841341
0.81846612 0.38841341 0.38841341
0.91886608 0.38841341 0.38841341
0.91886608 0.38841341 0.38841341
0.91886608 0.38841341 0.38841341
0.06256196 0.54664518 0.38841341
0.19779740 0.54664518 0.38841341
0.38841341 0.54664518 0.38841341
0.54664518 0.54664518 0.38841341
0.68811012 0.54664518 0.38841341
0.81846612 0.54664518 0.38841341
0.91886608 0.54664518 0.38841341
0.91886608 0.54664518 0.38841341
0.91886608 0.54664518 0.38841341
0.06256201 0.68811012 0.38841341
0.19779740 0.68811012 0.38841341
0.38841341 0.68811012 0.38841341
0.54664518 0.68811012 0.38841341
0.68811012 0.68811012 0.38841341
0.81846612 0.68811012 0.38841341
0.91886608 0.68811012 0.38841341
0.91886608 0.68811012 0.38841341
0.91886608 0.68811012 0.38841341
0.06256216 0.81846612 0.38841341
0.19779740 0.81846612 0.38841341
0.38841341 0.81846612 0.38841341
0.54664518 0.81846612 0.38841341
0.68811012 0.81846612 0.38841341
0.81846612 0.81846612 0.38841341
0.91886608 0.81846612 0.38841341
0.91886608 0.81846612 0.38841341
0.91886608 0.81846612 0.38841341
0.06256223 0.91886608 0.38841341
0.19779740 0.91886608 0.38841341
0.38841341 0.91886608 0.38841341
0.54664518 0.91886608 0.38841341
0.68811012 0.91886608 0.38841341
0.81846612 0.91886608 0.38841341
0.91886608 0.91886608 0.38841341
0.91886608 0.91886608 0.38841341
0.91886608 0.91886608 0.38841341
0.06256259 0.91886608 0.38841341
0.19779740 0.91886608 0.38841341
0.38841341 0.91886608 0.38841341
0.54664518 0.91886608 0.38841341
0.68811012 0.91886608 0.38841341
0.81846612 0.91886608 0.38841341
0.91886608 0.91886608 0.38841341
0.91886608 0.91886608 0.38841341
0.91886608 0.91886608 0.38841341
0.06256267 0.91886608 0.38841341
0.19779740 0.91886608 0.38841341
0.38841341 0.91886608 0.38841341
0.54664518 0.91886608 0.38841341
0.68811012 0.91886608 0.38841341
0.81846612 0.91886608 0.38841341
0.91886608 0.91886608 0.38841341
0.91886608 0.91886608 0.38841341
0.91886608 0.91886608 0.38841341
0.06256172 0.06256200 0.54664518
0.19779740 0.06256172 0.54664518
0.38841341 0.06256172 0.54664518
0.54664518 0.06256204 0.54664518
0.68811012 0.06256172 0.54664518
0.81846612 0.06256213 0.54664518
0.91886608 0.06256208 0.54664518
0.91886608 0.06256172 0.54664518
0.91886608 0.06256255 0.54664518
0.06256172 0.19779740 0.54664518
0.19779740 0.19779740 0.54664518
0.38841341 0.19779740 0.54664518
0.54664518 0.19779740 0.54664518
0.68811012 0.19779740 0.54664518
0.81846612 0.19779740 0.54664518
0.91886608 0.19779740 0.54664518
0.91886608 0.19779740 0.54664518
0.91886608 0.19779740 0.54664518
0.06256172 0.38841341 0.54664518
0.19779740 0.38841341 0.54664518
0.38841341 0.38841341 0.54664518
0.54664518 0.38841341 0.54664518
0.68811012 0.38841341 0.54664518
0.81846612 0.38841341 0.54664518
0.91886608 0.38841341 0.54664518
0.91886608 0.38841341 0.54664518
0.91886608 0.38841341 0.54664518
0.06256197 0.54664518 0.54664518
0.19779740 0.54664518 0.54664518
0.38841341 0.54664518 0.54664518
0.54664518 0.54664518 0.54664518
0.68811012 0.54664518 0.54664518
0.81846612 0.54664518 0.54664518
0.91886608 0.54664518 0.54664518
0.91886608 0.54664518 0.54664518
0.91886608 0.54664518 0.54664518
0.06256202 0.68811012 0.54664518
0.19779740 0.68811012 0.54664518
0.38841341 0.68811012 0.54664518
0.54664518 0.68811012 0.54664518
0.68811012 0.68811012 0.54664518
0.81846612 0.68811012 0.54664518
0.91886608 0.68811012 0.54664518
0.91886608 0.68811012 0.54664518
0.91886608 0.68811012 0.54664518
0.06256207 0.81846612 0.54664518
0.19779740 0.81846612 0.54664518
0.38841341 0.81846612 0.54664518
0.54664518 0.81846612 0.54664518
0.68811012 0.81846612 0.54664518
0.81846612 0.81846612 0.54664518
0.91886608 0.81846612 0.54664518
0.91886608 0.81846612 0.54664518
0.91886608 0.81846612 0.54664518
0.06256223 0.91886608 0.54664518
0.19779740 0.91886608 0.54664518
0.38841341 0.91886608 0.54664518
0.54664518 0.91886608 0.54664518
0.68811012 0.91886608 0.54664518
0.81846612 0.91886608 0.54664518
0.91886608 0.91886608 0.54664518
0.91886608 0.91886608 0.54664518
0.91886608 0.91886608 0.54664518
0.06256252 0.91886608 0.54664518
0.19779740 0.91886608 0.54664518
0.38841341 0.91886608 0.54664518
0.54664518 0.91886608 0.54664518
0.68811012 0.91886608 0.54664518
0.81846612 0.91886608 0.54664518
0.91886608 0.91886608 0.54664518
0.91886608 0.91886608 0.54664518
0.91886608 0.91886608 0.54664518
0.06256268 0.91886608 0.54664518
0.19779740 0.91886608 0.54664518
0.38841341 0.91886608 0.54664518
0.54664518 0.91886608 0.54664518
0.68811012 0.91886608 0.54664518
0.81846612 0.91886608 0.54664518
0.91886608 0.91886608 0.54664518
0.91886608 0.91886608 0.54664518
0.91886608 0.91886608 0.54664518
0.06256172 0.06256172 0.68811012
0.19779740 0.06256208 0.68811012
0.38841341 0.06256208 0.68811012
0.54664518 0.06256172 0.68811012
0.68811012 0.06256213 0.68811012
0.81846612 0.06256172 0.68811012
0.91886608 0.06256219 0.68811012
0.91886608 0.06256231 0.68811012
0.91886608 0.06256270 0.68811012
0.06256172 0.19779740 0.68811012
0.19779740 0.19779740 0.68811012
0.38841341 0.19779740 0.68811012
0.54664518 0.19779740 0.68811012
0.68811012 0.19779740 0.68811012
0.81846612 0.19779740 0.68811012
0.91886608 0.19779740 0.68811012
0.91886608 0.19779740 0.68811012
0.91886608 0.19779740 0.68811012
0.06256172 0.38841341 0.68811012
0.19779740 0.38841341 0.68811012
0.38841341 0.38841341 0.68811012
0.54664518 0.38841341 0.68811012
0.68811012 0.38841341 0.68811012
0.81846612 0.38841341 0.68811012
0.91886608 0.38841341 0.68811012
0.91886608 0.38841341 0.68811012
0.91886608 0.38841341 0.68811012
0.06256172 0.54664518 0.68811012
0.19779740 0.54664518 0.68811012
0.38841341 0.54664518 0.68811012
0.54664518 0.54664518 0.68811012
0.68811012 0.54664518 0.68811012
0.81846612 0.54664518 0.68811012
0.91886608 0.54664518 0.68811012
0.91886608 0.54664518 0.68811012
0.91886608 0.54664518 0.68811012
0.06256172 0.68811012 0.68811012
0.19779740 0.68811012 0.68811012
0.38841341 0.68811012 0.68811012
0.54664518 0.68811012 0.68811012
0.68811012 0.68811012 0.68811012
0.81846612 0.68811012 0.68811012
0.91886608 0.68811012 0.68811012
0.91886608 0.68811012 0.68811012
0.91886608 0.68811012 0.68811012
0.06256215 0.81846612 0.68811012
0.19779740 0.81846612 0.68811012
0.38841341 0.81846612 0.68811012
0.54664518 0.81846612 0.68811012
0.68811012 0.81846612 0.68811012
0.81846612 0.81846612 0.68811012
0.91886608 0.81846612 0.68811012
0.91886608 0.81846612 0.68811012
0.91886608 0.81846612 0.68811012
0.06256237 0.91886608 0.68811012
0.19779740 0.91886608 0.68811012
0.38841341 0.91886608 0.68811012
0.54664518 0.91886608 0.68811012
0.68811012 0.91886608 0.68811012
0.81846612 0.91886608 0.68811012
0.91886608 0.91886608 0.68811012
0.91886608 0.91886608 0.68811012
0.91886608 0.91886608 0.68811012
0.06256253 0.91886608 0.68811012
0.19779740 0.91886608 0.68811012
0.38841341 0.91886608 0.68811012
0.54664518 0.91886608 0.68811012
0.68811012 0.91886608 0.68811012
0.81846612 0.91886608 0.68811012
0.91886608 0.91886608 0.68811012
0.91886608 0.91886608 0.68811012
0.91886608 0.91886608 0.68811012
0.06256270 0.91886608 0.68811012
0.19779740 0.91886608 0.68811012
0.38841341 0.91886608 0.68811012
0.54664518 0.91886608 0.68811012
0.68811012 0.91886608 0.68811012
0.81846612 0.91886608 0.68811012
0.91886608 0.91886608 0.68811012
0.91886608 0.91886608 0.68811012
0.91886608 0.91886608 0.68811012
0.06256172 0.06256219 0.81846612
0.19779740 0.06256219 0.81846612
0.38841341 0.06256227 0.81846612
0.54664518 0.06256219 0.81846612
0.68811012 0.06256227 0.81846612
0.81846612 0.06256231 0.81846612
0.91886608 0.06256172 0.81846612
0.91886608 0.06256227 0.81846612
0.91886608 0.06256172 0.81846612
0.06256172 0.19779740 0.81846612
0.19779740 0.19779740 0.81846612
0.38841341 0.19779740 0.81846612
0.54664518 0.19779740 0.81846612
0.68811012 0.19779740 0.81846612
0.81846612 0.19779740 0.81846612
0.91886608 0.19779740 0.81846612
0.91886608 0.19779740 0.81846612
0.91886608 0.19779740 0.81846612
0.06256213 0.38841341 0.81846612
0.19779740 0.38841341 0.81846612
0.38841341 0.38841341 0.81846612
0.54664518 0.38841341 0.81846612
0.68811012 0.38841341 0.81846612
0.81846612 0.38841341 0.81846612
0.91886608 0.38841341 0.81846612
0.91886608 0.38841341 0.81846612
0.91886608 0.38841341 0.81846612
0.06256172 0.54664518 0.81846612
0.19779740 0.54664518 0.81846612
0.38841341 0.54664518 0.81846612
0.54664518 0.54664518 0.81846612
0.68811012 0.54664518 0.81846612
0.81846612 0.54664518 0.81846612
0.91886608 0.54664518 0.81846612
0.91886608 0.54664518 0.81846612
0.91886608 0.54664518 0.81846612
0.06256172 0.68811012 0.81846612
0.19779740 0.68811012 0.81846612
0.38841341 0.68811012 0.81846612
0.54664518 0.68811012 0.81846612
0.68811012 0.68811012 0.81846612
0.81846612 0.68811012 0.81846612
0.91886608 0.68811012 0.81846612
0.91886608 0.68811012 0.81846612
0.91886608 0.68811012 0.81846612
0.06256213 0.81846612 0.81846612
0.19779740 0.81846612 0.81846612
0.38841341 0.81846612 0.81846612
0.54664518 0.81846612 0.81846612
0.68811012 0.81846612 0.81846612
0.81846612 0.81846612 0.81846612
0.91886608 0.81846612 0.81846612
0.91886608 0.81846612 0.81846612
0.91886608 0.81846612 0.81846612
0.06256231 0.91886608 0.81846612
0.19779740 0.91886608 0.81846612
0.38841341 0.91886608 0.81846612
0.54664518 0.91886608 0.81846612
0.68811012 0.91886608 0.81846612
0.81846612 0.91886608 0.81846612
0.91886608 0.91886608 0.81846612
0.91886608 0.91886608 0.81846612
0.91886608 0.91886608 0.81846612
0.06256250 0.91886608 0.81846612
0.19779740 0.91886608 0.81846612
0.38841341 0.91886608 0.81846612
0.54664518 0.91886608 0.81846612
0.68811012 0.91886608 0.81846612
0.81846612 0.91886608 0.81846612
0.91886608 0.91886608 0.81846612
0.91886608 0.91886608 0.81846612
0.91886608 0.91886608 0.81846612
0.06256291 0.91886608 0.81846612
0.19779740 0.91886608 0.81846612
0.38841341 0.91886608 0.81846612
0.54664518 0.91886608 0.81846612
0.68811012 0.91886608 0.81846612
0.81846612 0.91886608 0.81846612
0.91886608 0.91886608 0.81846612
0.91886608 0.91886608 0.81846612
0.91886608 0.91886608 0.81846612
0.06256172 0.06256172 0.91886608
0.19779740 0.06256172 0.91886608
0.38841341 0.06256172 0.91886608
0.54664518 0.06256235 0.91886608
0.68811012 0.06256172 0.91886608
0.81846612 0.06256172 0.91886608
0.91886608 0.06256172 0.91886608
0.91886608 0.06256172 0.91886608
0.91886608 0.06256172 0.91886608
0.06256172 0.19779740 0.91886608
0.19779740 0.19779740 0.91886608
0.38841341 0.19779740 0.91886608
0.54664518 0.19779740 0.91886608
0.68811012 0.19779740 0.91886608
0.81846612 0.19779740 0.91886608
0.91886608 0.19779740 0.91886608
0.91886608 0.19779740 0.91886608
0.91886608 0.19779740 0.91886608
0.06256172 0.38841341 0.91886608
0.19779740 0.38841341 0.91886608
0.38841341 0.38841341 0.91886608
0.54664518 0.38841341 0.91886608
0.68811012 0.38841341 0.91886608
0.81846612 0.38841341 0.91886608
0.91886608 0.38841341 0.91886608
0.91886608 0.38841341 0.91886608
0.91886608 0.38841341 0.91886608
0.06256172 0.54664518 0.91886608
0.19779740 0.54664518 0.91886608
0.38841341 0.54664518 0.91886608
0.54664518 0.54664518 0.91886608
0.68811012 0.54664518 0.91886608
0.81846612 0.54664518 0.91886608
0.91886608 0.54664518 0.91886608
0.91886608 0.54664518 0.91886608
0.91886608 0.54664518 0.91886608
0.06256172 0.68811012 0.91886608
0.19779740 0.68811012 0.91886608
0.38841341 0.68811012 0.91886608
0.54664518 0.68811012 0.91886608
0.68811012 0.68811012 0.91886608
0.81846612 0.68811012 0.91886608
0.91886608 0.68811012 0.91886608
0.91886608 0.68811012 0.91886608
0.91886608 0.68811012 0.91886608
0.06256172 0.81846612 0.91886608
0.19779740 0.81846612 0.91886608
0.38841341 0.81846612 0.91886608
0.54664518 0.81846612 0.91886608
0.68811012 0.81846612 0.91886608
0.81846612 0.81846612 0.91886608
0.91886608 0.81846612 0.91886608
0.91886608 0.81846612 0.91886608
0.91886608 0.81846612 0.91886608
0.06256172 0.91886608 0.91886608
0.19779740 0.91886608 0.91886608
0.38841341 0.91886608 0.91886608
0.54664518 0.91886608 0.91886608
0.68811012 0.91886608 0.91886608
0.81846612 0.91886608 0.91886608
0.91886608 0.91886608 0.91886608
0.91886608 0.91886608 0.91886608
0.91886608 0.91886608 0.91886608
0.06256245 0.91886608 0.91886608
0.19779740 0.91886608 0.91886608
0.38841341 0.91886608 0.91886608
0.54664518 0.91886608 0.91886608
0.68811012 0.91886608 0.91886608
0.81846612 0.91886608 0.91886608
0.91886608 0.91886608 0.91886608
0.91886608 0.91886608 0.91886608
0.91886608 0.91886608 0.91886608
0.06256276 0.91886608 0.91886608
0.19779740 0.91886608 0.91886608
0.38841341 0.91886608 0.91886608
0.54664518 0.91886608 0.91886608
0.68811012 0.91886608 0.91886608
0.81846612 0.91886608 0.91886608
0.91886608 0.91886608 0.91886608
0.91886608 0.91886608 0.91886608
0.91886608 0.91886608 0.91886608
0.06256172 0.06256272 0.91886608
0.19779740 0.06256257 0.91886608
0.38841341 0.06256257 0.91886608
0.54664518 0.06256272 0.91886608
0.68811012 0.06256172 0.91886608
0.81846612 0.06256172 0.91886608
0.91886608 0.06256257 0.91886608
0.91886608 0.06256272 0.91886608
0.91886608 0.06256272 0.91886608
0.06256172 0.19779740 0.91886608
0.19779740 0.19779740 0.91886608
0.38841341 0.19779740 0.91886608
0.54664518 0.19779740 0.91886608
0.68811012 0.19779740 0.91886608
0.81846612 0.19779740 0.91886608
0.91886608 0.19779740 0.91886608
0.91886608 0.19779740 0.91886608
0.91886608 0.19779740 0.91886608
0.06256172 0.38841341 0.91886608
0.19779740 0.38841341 0.91886608
0.38841341 0.38841341 0.91886608
0.54664518 0.38841341 0.91886608
0.68811012 0.38841341 0.91886608
0.81846612 0.38841341 0.91886608
0.91886608 0.38841341 0.91886608
0.91886608 0.38841341 0.91886608
0.91886608 0.38841341 0.91886608
0.06256172 0.54664518 0.91886608
0.19779740 0.54664518 0.91886608
0.38841341 0.54664518 0.91886608
0.54664518 0.54664518 0.91886608
0.68811012 0.54664518 0.91886608
0.81846612 0.54664518 0.91886608
0.91886608 0.54664518 0.91886608
0.91886608 0.54664518 0.91886608
0.91886608 0.54664518 0.91886608
0.06256172 0.68811012 0.91886608
0.19779740 0.68811012 0.91886608
0.38841341 0.68811012 0.91886608
0.54664518 0.68811012 0.91886608
0.68811012 0.68811012 0.91886608
0.81846612 0.68811012 0.91886608
0.91886608 0.68811012 0.91886608
0.91886608 0.68811012 0.91886608
0.91886608 0.68811012 0.91886608
0.06256172 0.81846612 0.91886608
0.19779740 0.81846612 0.91886608
0.38841341 0.81846612 0.91886608
0.54664518 0.81846612 0.91886608
0.68811012 0.81846612 0.91886608
0.81846612 0.81846612 0.91886608
0.91886608 0.81846612 0.91886608
0.91886608 0.81846612 0.91886608
0.91886608 0.81846612 0.91886608
0.06256172 0.91886608 0.91886608
0.19779740 0.91886608 0.91886608
0.38841341 0.91886608 0.91886608
0.54664518 0.91886608 0.91886608
0.68811012 0.91886608 0.91886608
0.81846612 0.91886608 0.91886608
0.91886608 0.91886608 0.91886608
0.91886608 0.91886608 0.91886608
0.91886608 0.91886608 0.91886608
0.06256172 0.91886608 0.91886608
0.19779740 0.91886608 0.91886608
0.38841341 0.91886608 0.91886608
0.54664518 0.91886608 0.91886608
0.68811012 0.91886608 0.91886608
0.81846612 0.91886608 0.91886608
0.91886608 0.91886608 0.91886608
0.91886608 0.91886608 0.91886608
0.91886608 0.91886608 0.91886608
0.06256293 0.91886608 0.91886608
0.19779740 0.91886608 0.91886608
0.38841341 0.91886608 0.91886608
0.54664518 0.91886608 0.91886608
0.68811012 0.91886608 0.91886608
0.81846612 0.91886608 0.91886608
0.91886608 0.91886608 0.91886608
0.91886608 0.91886608 0.91886608
0.91886608 0.91886608 0.91886608
0.06256172 0.06256172 0.91886608
0.19779740 0.06256172 0.91886608
0.38841341 0.06256311 0.91886608
0.54664518 0.06256289 0.91886608
0.68811012 0.06256289 0.91886608
0.81846612 0.06256289 0.91886608
0.91886608 0.06256289 0.91886608
0.91886608 0.06256289 0.91886608
0.91886608 0.06256289 0.91886608
0.06256172 0.19779740 0.91886608
0.19779740 0.19779740 0.91886608
0.38841341 0.19779740 0.91886608
0.54664518 0.19779740 0.91886608
0.68811012 0.19779740 0.91886608
0.81846612 0.19779740 0.91886608
0.91886608 0.19779740 0.91886608
0.91886608 0.19779740 0.91886608
0.91886608 0.19779740 0.91886608
0.06256172 0.38841341 0.91886608
0.19779740 0.38841341 0.91886608
0.38841341 0.38841341 0.91886608
0.54664518 0.38841341 0.91886608
0.68811012 0.38841341 0.91886608
0.81846612 0.38841341 0.91886608
0.91886608 0.38841341 0.91886608
0.91886608 0.38841341 0.91886608
0.91886608 0.38841341 0.91886608
0.06256272 0.54664518 0.91886608
0.19779740 0.54664518 0.91886608
0.38841341 0.54664518 0.91886608
0.54664518 0.54664518 0.91886608
0.68811012 0.54664518 0.91886608
0.81846612 0.54664518 0.91886608
0.91886608 0.54664518 0.91886608
0.91886608 0.54664518 0.91886608
0.91886608 0.54664518 0.91886608
0.06256172 0.68811012 0.91886608
0.19779740 0.68811012 0.91886608
0.38841341 0.68811012 0.91886608
0.54664518 0.68811012 0.91886608
0.68811012 0.68811012 0.91886608
0.81846612 0.68811012 0.91886608
0.91886608 0.68811012 0.91886608
0.91886608 0.68811012 0.91886608
0.91886608 0.68811012 0.91886608
0.06256172 0.81846612 0.91886608
0.19779740 0.81846612 0.91886608
0.38841341 0.81846612 0.91886608
0.54664518 0.81846612 0.91886608
0.68811012 0.81846612 0.91886608
0.81846612 0.81846612 0.91886608
0.91886608 0.81846612 0.91886608
0.91886608 0.81846612 0.91886608
0.91886608 0.81846612 0.91886608
0.06256172 0.91886608 0.91886608
0.19779740 0.91886608 0.91886608
0.38841341 0.91886608 0.91886608
0.54664518 0.91886608 0.91886608
0.68811012 0.91886608 0.91886608
0.81846612 0.91886608 0.91886608
0.91886608 0.91886608 0.91886608
0.91886608 0.91886608 0.91886608
0.91886608 0.91886608 0.91886608
0.06256172 0.91886608 0.91886608
0.19779740 0.91886608 0.91886608
0.38841341 0.91886608 0.91886608
0.54664518 0.91886608 0.91886608
0.68811012 0.91886608 0.91886608
0.81846612 0.91886608 0.91886608
0.91886608 0.91886608 0.91886608
0.91886608 0.91886608 0.91886608
0.91886608 0.91886608 0.91886608
0.06256272 0.91886608 0.91886608
0.19779740 0.91886608 0.91886608
0.38841341 0.91886608 0.91886608
0.54664518 0.91886608 0.91886608
0.68811012 0.91886608 0.91886608
0.81846612 0.91886608 0.91886608
0.91886608 0.91886608 0.91886608
0.91886608 0.91886608 0.91886608
0.91886608 0.91886608 0.91886608
