src/ffmpeg_scripts/luts/luminance_0p33.cube
TITLE "luminance_0p33"
LUT_3D_SIZE 9
# PQ (EOTF Only)/Rec2020 -> PQ (EOTF Only)/Rec2020, CineEI Shift 0.33, Black Level 0.00% IRE, Input 109% -> Output 109% - Created with LUTCalc v4.01 by Ben Turley October 2020
0.06256172 0.06256172 0.06256172
0.13112353 0.06256178 0.06256172
0.26324006 0.06256181 0.06256172
0.39250800 0.06256172 0.06256172
0.52004267 0.06256187 0.06256191
0.64630864 0.06256172 0.06256172
0.77156751 0.06256172 0.06256172
0.89598860 0.06256172 0.06256172
0.91886608 0.06256227 0.06256227
0.06256181 0.13112353 0.06256172
0.13112353 0.13112353 0.06256172
0.26324006 0.13112353 0.06256172
0.39250800 0.13112353 0.06256187
0.52004267 0.13112353 0.06256172
0.64630864 0.13112353 0.06256172
0.77156751 0.13112353 0.06256172
0.89598860 0.13112353 0.06256219
0.91886608 0.13112353 0.06256227
0.06256172 0.26324006 0.06256172
0.13112353 0.26324006 0.06256172
0.26324006 0.26324006 0.06256172
0.39250800 0.26324006 0.06256172
0.52004267 0.26324006 0.06256191
0.64630864 0.26324006 0.06256172
0.77156751 0.26324006 0.06256172
0.89598860 0.26324006 0.06256172
0.91886608 0.26324006 0.06256172
0.06256186 0.39250800 0.06256187
0.13112353 0.39250800 0.06256187
0.26324006 0.39250800 0.06256172
0.39250800 0.39250800 0.06256172
0.52004267 0.39250800 0.06256191
0.64630864 0.39250800 0.06256172
0.77156751 0.39250800 0.06256172
0.89598860 0.39250800 0.06256172
0.91886608 0.39250800 0.06256227
0.06256172 0.52004267 0.06256191
0.13112353 0.52004267 0.06256191
0.26324006 0.52004267 0.06256172
0.39250800 0.52004267 0.06256172
0.52004267 0.52004267 0.06256172
0.64630864 0.52004267 0.06256172
0.77156751 0.52004267 0.06256172
0.89598860 0.52004267 0.06256172
0.91886608 0.52004267 0.06256172
0.06256198 0.64630864 0.06256172
0.13112353 0.64630864 0.06256197
0.26324006 0.64630864 0.06256200
0.39250800 0.64630864 0.06256172
0.52004267 0.64630864 0.06256172
0.64630864 0.64630864 0.06256172
0.77156751 0.64630864 0.06256172
0.89598860 0.64630864 0.06256172
0.91886608 0.64630864 0.06256172
0.06256208 0.77156751 0.06256172
0.13112353 0.77156751 0.06256172
0.26324006 0.77156751 0.06256172
0.39250800 0.77156751 0.06256172
0.52004267 0.77156751 0.06256172
0.64630864 0.77156751 0.06256172
0.77156751 0.77156751 0.06256208
0.89598860 0.77156751 0.06256213
0.91886608 0.77156751 0.06256235
0.06256217 0.89598860 0.06256172
0.13112353 0.89598860 0.06256172
0.26324006 0.89598860 0.06256172
0.39250800 0.89598860 0.06256172
0.52004267 0.89598860 0.06256172
0.64630864 0.89598860 0.06256172
0.77156751 0.89598860 0.06256172
0.89598860 0.89598860 0.06256172
0.91886608 0.89598860 0.06256227
0.06256233 0.91886608 0.06256172
0.13112353 0.91886608 0.06256227
0.26324006 0.91886608 0.06256172
0.39250800 0.91886608 0.06256172
0.52004267 0.91886608 0.06256172
0.64630864 0.91886608 0.06256172
0.77156751 0.91886608 0.06256172
0.89598860 0.91886608 0.06256172
0.91886608 0.91886608 0.06256172
0.06256172 0.06256172 0.13112353
0.13112353 0.06256180 0.13112353
0.26324006 0.06256172 0.13112353
0.39250800 0.06256172 0.13112353
0.52004267 0.06256189 0.13112353
0.64630864 0.06256172 0.13112353
0.77156751 0.06256172 0.13112353
0.89598860 0.06256212 0.13112353
0.91886608 0.06256172 0.13112353
0.06256172 0.13112353 0.13112353
0.13112353 0.13112353 0.13112353
0.26324006 0.13112353 0.13112353
0.39250800 0.13112353 0.13112353
0.52004267 0.13112353 0.13112353
0.64630864 0.13112353 0.13112353
0.77156751 0.13112353 0.13112353
0.89598860 0.13112353 0.13112353
0.91886608 0.13112353 0.13112353
0.06256181 0.26324006 0.13112353
0.13112353 0.26324006 0.13112353
0.26324006 0.26324006 0.13112353
0.39250800 0.26324006 0.13112353
0.52004267 0.26324006 0.13112353
0.64630864 0.26324006 0.13112353
0.77156751 0.26324006 0.13112353
0.89598860 0.26324006 0.13112353
0.91886608 0.26324006 0.13112353
0.06256185 0.39250800 0.13112353
0.13112353 0.39250800 0.13112353
0.26324006 0.39250800 0.13112353
0.39250800 0.39250800 0.13112353
0.52004267 0.39250800 0.13112353
0.64630864 0.39250800 0.13112353
0.77156751 0.39250800 0.13112353
0.89598860 0.39250800 0.13112353
0.91886608 0.39250800 0.13112353
0.06256187 0.52004267 0.13112353
0.13112353 0.52004267 0.13112353
0.26324006 0.52004267 0.13112353
0.39250800 0.52004267 0.13112353
0.52004267 0.52004267 0.13112353
0.64630864 0.52004267 0.13112353
0.77156751 0.52004267 0.13112353
0.89598860 0.52004267 0.13112353
0.91886608 0.52004267 0.13112353
0.06256197 0.64630864 0.13112353
0.13112353 0.64630864 0.13112353
0.26324006 0.64630864 0.13112353
0.39250800 0.64630864 0.13112353
0.52004267 0.64630864 0.13112353
0.64630864 0.64630864 0.13112353
0.77156751 0.64630864 0.13112353
0.89598860 0.64630864 0.13112353
0.91886608 0.64630864 0.13112353
0.06256211 0.77156751 0.13112353
0.13112353 0.77156751 0.13112353
0.26324006 0.77156751 0.13112353
0.39250800 0.77156751 0.13112353
0.52004267 0.77156751 0.13112353
0.64630864 0.77156751 0.13112353
0.77156751 0.77156751 0.13112353
0.89598860 0.77156751 0.13112353
0.91886608 0.77156751 0.13112353
0.06256216 0.89598860 0.13112353
0.13112353 0.89598860 0.13112353
0.26324006 0.89598860 0.13112353
0.39250800 0.89598860 0.13112353
0.52004267 0.89598860 0.13112353
0.64630864 0.89598860 0.13112353
0.77156751 0.89598860 0.13112353
0.89598860 0.89598860 0.13112353
0.91886608 0.89598860 0.13112353
0.06256241 0.91886608 0.13112353
0.13112353 0.91886608 0.13112353
0.26324006 0.91886608 0.13112353
0.39250800 0.91886608 0.13112353
0.52004267 0.91886608 0.13112353
0.64630864 0.91886608 0.13112353
0.77156751 0.91886608 0.13112353
0.89598860 0.91886608 0.13112353
0.91886608 0.91886608 0.13112353
0.06256172 0.06256187 0.26324006
0.13112353 0.06256172 0.26324006
0.26324006 0.06256187 0.26324006
0.39250800 0.06256187 0.26324006
0.52004267 0.06256172 0.26324006
0.64630864 0.06256172 0.26324006
0.77156751 0.06256204 0.26324006
0.89598860 0.06256223 0.26324006
0.91886608 0.06256219 0.26324006
0.06256172 0.13112353 0.26324006
0.13112353 0.13112353 0.26324006
0.26324006 0.13112353 0.26324006
0.39250800 0.13112353 0.26324006
0.52004267 0.13112353 0.26324006
0.64630864 0.13112353 0.26324006
0.77156751 0.13112353 0.26324006
0.89598860 0.13112353 0.26324006
0.91886608 0.13112353 0.26324006
0.06256172 0.26324006 0.26324006
0.13112353 0.26324006 0.26324006
0.26324006 0.26324006 0.26324006
0.39250800 0.26324006 0.26324006
0.52004267 0.26324006 0.26324006
0.64630864 0.26324006 0.26324006
0.77156751 0.26324006 0.26324006
0.89598860 0.26324006 0.26324006
0.91886608 0.26324006 0.26324006
0.06256189 0.39250800 0.26324006
0.13112353 0.39250800 0.26324006
0.26324006 0.39250800 0.26324006
0.39250800 0.39250800 0.26324006
0.52004267 0.39250800 0.26324006
0.64630864 0.39250800 0.26324006
0.77156751 0.39250800 0.26324006
0.89598860 0.39250800 0.26324006
0.91886608 0.39250800 0.26324006
0.06256192 0.52004267 0.26324006
0.13112353 0.52004267 0.26324006
0.26324006 0.52004267 0.26324006
0.39250800 0.52004267 0.26324006
0.52004267 0.52004267 0.26324006
0.64630864 0.52004267 0.26324006
0.77156751 0.52004267 0.26324006
0.89598860 0.52004267 0.26324006
0.91886608 0.52004267 0.26324006
0.06256200 0.64630864 0.26324006
0.13112353 0.64630864 0.26324006
0.26324006 0.64630864 0.26324006
0.39250800 0.64630864 0.26324006
0.52004267 0.64630864 0.26324006
0.64630864 0.64630864 0.26324006
0.77156751 0.64630864 0.26324006
0.89598860 0.64630864 0.26324006
0.91886608 0.64630864 0.26324006
0.06256194 0.77156751 0.26324006
0.13112353 0.77156751 0.26324006
0.26324006 0.77156751 0.26324006
0.39250800 0.77156751 0.26324006
0.52004267 0.77156751 0.26324006
0.64630864 0.77156751 0.26324006
0.77156751 0.77156751 0.26324006
0.89598860 0.77156751 0.26324006
0.91886608 0.77156751 0.26324006
0.06256220 0.89598860 0.26324006
0.13112353 0.89598860 0.26324006
0.26324006 0.89598860 0.26324006
0.39250800 0.89598860 0.26324006
0.52004267 0.89598860 0.26324006
0.64630864 0.89598860 0.26324006
0.77156751 0.89598860 0.26324006
0.89598860 0.89598860 0.26324006
0.91886608 0.89598860 0.26324006
0.06256242 0.91886608 0.26324006
0.13112353 0.91886608 0.26324006
0.26324006 0.91886608 0.26324006
0.39250800 0.91886608 0.26324006
0.52004267 0.91886608 0.26324006
0.64630864 0.91886608 0.26324006
0.77156751 0.91886608 0.26324006
0.89598860 0.91886608 0.26324006
0.91886608 0.91886608 0.26324006
0.06256189 0.06256194 0.39250800
0.13112353 0.06256191 0.39250800
0.26324006 0.06256194 0.39250800
0.39250800 0.06256195 0.39250800
0.52004267 0.06256197 0.39250800
0.64630864 0.06256202 0.39250800
0.77156751 0.06256172 0.39250800
0.89598860 0.06256172 0.39250800
0.91886608 0.06256227 0.39250800
0.06256172 0.13112353 0.39250800
0.13112353 0.13112353 0.39250800
0.26324006 0.13112353 0.39250800
0.39250800 0.13112353 0.39250800
0.52004267 0.13112353 0.39250800
0.64630864 0.13112353 0.39250800
0.77156751 0.13112353 0.39250800
0.89598860 0.13112353 0.39250800
0.91886608 0.13112353 0.39250800
0.06256172 0.26324006 0.39250800
0.13112353 0.26324006 0.39250800
0.26324006 0.26324006 0.39250800
0.39250800 0.26324006 0.39250800
0.52004267 0.26324006 0.39250800
0.64630864 0.26324006 0.39250800
0.77156751 0.26324006 0.39250800
0.89598860 0.26324006 0.39250800
0.91886608 0.26324006 0.39250800
0.06256191 0.39250800 0.39250800
0.13112353 0.39250800 0.39250800
0.26324006 0.39250800 0.39250800
0.39250800 0.39250800 0.39250800
0.52004267 0.39250800 0.39250800
0.64630864 0.39250800 0.39250800
0.77156751 0.39250800 0.39250800
0.89598860 0.39250800 0.39250800
0.91886608 0.39250800 0.39250800
0.06256194 0.52004267 0.39250800
0.13112353 0.52004267 0.39250800
0.26324006 0.52004267 0.39250800
0.39250800 0.52004267 0.39250800
0.52004267 0.52004267 0.39250800
0.64630864 0.52004267 0.39250800
0.77156751 0.52004267 0.39250800
0.89598860 0.52004267 0.39250800
0.91886608 0.52004267 0.39250800
0.06256202 0.64630864 0.39250800
0.13112353 0.64630864 0.39250800
0.26324006 0.64630864 0.39250800
0.39250800 0.64630864 0.39250800
0.52004267 0.64630864 0.39250800
0.64630864 0.64630864 0.39250800
0.77156751 0.64630864 0.39250800
0.89598860 0.64630864 0.39250800
0.91886608 0.64630864 0.39250800
0.06256209 0.77156751 0.39250800
0.13112353 0.77156751 0.39250800
0.26324006 0.77156751 0.39250800
0.39250800 0.77156751 0.39250800
0.52004267 0.77156751 0.39250800
0.64630864 0.77156751 0.39250800
0.77156751 0.77156751 0.39250800
0.89598860 0.77156751 0.39250800
0.91886608 0.77156751 0.39250800
0.06256172 0.89598860 0.39250800
0.13112353 0.89598860 0.39250800
0.26324006 0.89598860 0.39250800
0.39250800 0.89598860 0.39250800
0.52004267 0.89598860 0.39250800
0.64630864 0.89598860 0.39250800
0.77156751 0.89598860 0.39250800
0.89598860 0.89598860 0.39250800
0.91886608 0.89598860 0.39250800
0.06256172 0.91886608 0.39250800
0.13112353 0.91886608 0.39250800
0.26324006 0.91886608 0.39250800
0.39250800 0.91886608 0.39250800
0.52004267 0.91886608 0.39250800
0.64630864 0.91886608 0.39250800
0.77156751 0.91886608 0.39250800
0.89598860 0.91886608 0.39250800
0.91886608 0.91886608 0.39250800
0.06256172 0.06256172 0.52004267
0.13112353 0.06256204 0.52004267
0.26324006 0.06256172 0.52004267
0.39250800 0.06256200 0.52004267
0.52004267 0.06256172 0.52004267
0.64630864 0.06256172 0.52004267
0.77156751 0.06256172 0.52004267
0.89598860 0.06256213 0.52004267
0.91886608 0.06256223 0.52004267
0.06256172 0.13112353 0.52004267
0.13112353 0.13112353 0.52004267
0.26324006 0.13112353 0.52004267
0.39250800 0.13112353 0.52004267
0.52004267 0.13112353 0.52004267
0.64630864 0.13112353 0.52004267
0.77156751 0.13112353 0.52004267
0.89598860 0.13112353 0.52004267
0.91886608 0.13112353 0.52004267
0.06256172 0.26324006 0.52004267
0.13112353 0.26324006 0.52004267
0.26324006 0.26324006 0.52004267
0.39250800 0.26324006 0.52004267
0.52004267 0.26324006 0.52004267
0.64630864 0.26324006 0.52004267
0.77156751 0.26324006 0.52004267
0.89598860 0.26324006 0.52004267
0.91886608 0.26324006 0.52004267
0.06256194 0.39250800 0.52004267
0.13112353 0.39250800 0.52004267
0.26324006 0.39250800 0.52004267
0.39250800 0.39250800 0.52004267
0.52004267 0.39250800 0.52004267
0.64630864 0.39250800 0.52004267
0.77156751 0.39250800 0.52004267
0.89598860 0.39250800 0.52004267
0.91886608 0.39250800 0.52004267
0.06256172 0.52004267 0.52004267
0.13112353 0.52004267 0.52004267
0.26324006 0.52004267 0.52004267
0.39250800 0.52004267 0.52004267
0.52004267 0.52004267 0.52004267
0.64630864 0.52004267 0.52004267
0.77156751 0.52004267 0.52004267
0.89598860 0.52004267 0.52004267
0.91886608 0.52004267 0.52004267
0.06256202 0.64630864 0.52004267
0.13112353 0.64630864 0.52004267
0.26324006 0.64630864 0.52004267
0.39250800 0.64630864 0.52004267
0.52004267 0.64630864 0.52004267
0.64630864 0.64630864 0.52004267
0.77156751 0.64630864 0.52004267
0.89598860 0.64630864 0.52004267
0.91886608 0.64630864 0.52004267
0.06256211 0.77156751 0.52004267
0.13112353 0.77156751 0.52004267
0.26324006 0.77156751 0.52004267
0.39250800 0.77156751 0.52004267
0.52004267 0.77156751 0.52004267
0.64630864 0.77156751 0.52004267
0.77156751 0.77156751 0.52004267
0.89598860 0.77156751 0.52004267
0.91886608 0.77156751 0.52004267
0.06256221 0.89598860 0.52004267
0.13112353 0.89598860 0.52004267
0.26324006 0.89598860 0.52004267
0.39250800 0.89598860 0.52004267
0.52004267 0.89598860 0.52004267
0.64630864 0.89598860 0.52004267
0.77156751 0.89598860 0.52004267
0.89598860 0.89598860 0.52004267
0.91886608 0.89598860 0.52004267
0.06256172 0.91886608 0.52004267
0.13112353 0.91886608 0.52004267
0.26324006 0.91886608 0.52004267
0.39250800 0.91886608 0.52004267
0.52004267 0.91886608 0.52004267
0.64630864 0.91886608 0.52004267
0.77156751 0.91886608 0.52004267
0.89598860 0.91886608 0.52004267
0.91886608 0.91886608 0.52004267
0.06256172 0.06256213 0.64630864
0.13112353 0.06256208 0.64630864
0.26324006 0.06256213 0.64630864
0.39250800 0.06256208 0.64630864
0.52004267 0.06256217 0.64630864
0.64630864 0.06256213 0.64630864
0.77156751 0.06256208 0.64630864
0.89598860 0.06256172 0.64630864
0.91886608 0.06256172 0.64630864
0.06256172 0.13112353 0.64630864
0.13112353 0.13112353 0.64630864
0.26324006 0.13112353 0.64630864
0.39250800 0.13112353 0.64630864
0.52004267 0.13112353 0.64630864
0.64630864 0.13112353 0.64630864
0.77156751 0.13112353 0.64630864
0.89598860 0.13112353 0.64630864
0.91886608 0.13112353 0.64630864
0.06256200 0.26324006 0.64630864
0.13112353 0.26324006 0.64630864
0.26324006 0.26324006 0.64630864
0.39250800 0.26324006 0.64630864
0.52004267 0.26324006 0.64630864
0.64630864 0.26324006 0.64630864
0.77156751 0.26324006 0.64630864
0.89598860 0.26324006 0.64630864
0.91886608 0.26324006 0.64630864
0.06256200 0.39250800 0.64630864
0.13112353 0.39250800 0.64630864
0.26324006 0.39250800 0.64630864
0.39250800 0.39250800 0.64630864
0.52004267 0.39250800 0.64630864
0.64630864 0.39250800 0.64630864
0.77156751 0.39250800 0.64630864
0.89598860 0.39250800 0.64630864
0.91886608 0.39250800 0.64630864
0.06256172 0.52004267 0.64630864
0.13112353 0.52004267 0.64630864
0.26324006 0.52004267 0.64630864
0.39250800 0.52004267 0.64630864
0.52004267 0.52004267 0.64630864
0.64630864 0.52004267 0.64630864
0.77156751 0.52004267 0.64630864
0.89598860 0.52004267 0.64630864
0.91886608 0.52004267 0.64630864
0.06256200 0.64630864 0.64630864
0.13112353 0.64630864 0.64630864
0.26324006 0.64630864 0.64630864
0.39250800 0.64630864 0.64630864
0.52004267 0.64630864 0.64630864
0.64630864 0.64630864 0.64630864
0.77156751 0.64630864 0.64630864
0.89598860 0.64630864 0.64630864
0.91886608 0.64630864 0.64630864
0.06256213 0.77156751 0.64630864
0.13112353 0.77156751 0.64630864
0.26324006 0.77156751 0.64630864
0.39250800 0.77156751 0.64630864
0.52004267 0.77156751 0.64630864
0.64630864 0.77156751 0.64630864
0.77156751 0.77156751 0.64630864
0.89598860 0.77156751 0.64630864
0.91886608 0.77156751 0.64630864
0.06256204 0.89598860 0.64630864
0.13112353 0.89598860 0.64630864
0.26324006 0.89598860 0.64630864
0.39250800 0.89598860 0.64630864
0.52004267 0.89598860 0.64630864
0.64630864 0.89598860 0.64630864
0.77156751 0.89598860 0.64630864
0.89598860 0.89598860 0.64630864
0.91886608 0.89598860 0.64630864
0.06256241 0.91886608 0.64630864
0.13112353 0.91886608 0.64630864
0.26324006 0.91886608 0.64630864
0.39250800 0.91886608 0.64630864
0.52004267 0.91886608 0.64630864
0.64630864 0.91886608 0.64630864
0.77156751 0.91886608 0.64630864
0.89598860 0.91886608 0.64630864
0.91886608 0.91886608 0.64630864
0.06256172 0.06256213 0.77156751
0.13112353 0.06256223 0.77156751
0.26324006 0.06256172 0.77156751
0.39250800 0.06256219 0.77156751
0.52004267 0.06256223 0.77156751
0.64630864 0.06256172 0.77156751
0.77156751 0.06256227 0.77156751
0.89598860 0.06256172 0.77156751
0.91886608 0.06256172 0.77156751
0.06256172 0.13112353 0.77156751
0.13112353 0.13112353 0.77156751
0.26324006 0.13112353 0.77156751
0.39250800 0.13112353 0.77156751
0.52004267 0.13112353 0.77156751
0.64630864 0.13112353 0.77156751
0.77156751 0.13112353 0.77156751
0.89598860 0.13112353 0.77156751
0.91886608 0.13112353 0.77156751
0.06256172 0.26324006 0.77156751
0.13112353 0.26324006 0.77156751
0.26324006 0.26324006 0.77156751
0.39250800 0.26324006 0.77156751
0.52004267 0.26324006 0.77156751
0.64630864 0.26324006 0.77156751
0.77156751 0.26324006 0.77156751
0.89598860 0.26324006 0.77156751
0.91886608 0.26324006 0.77156751
0.06256172 0.39250800 0.77156751
0.13112353 0.39250800 0.77156751
0.26324006 0.39250800 0.77156751
0.39250800 0.39250800 0.77156751
0.52004267 0.39250800 0.77156751
0.64630864 0.39250800 0.77156751
0.77156751 0.39250800 0.77156751
0.89598860 0.39250800 0.77156751
0.91886608 0.39250800 0.77156751
0.06256172 0.52004267 0.77156751
0.13112353 0.52004267 0.77156751
0.26324006 0.52004267 0.77156751
0.39250800 0.52004267 0.77156751
0.52004267 0.52004267 0.77156751
0.64630864 0.52004267 0.77156751
0.77156751 0.52004267 0.77156751
0.89598860 0.52004267 0.77156751
0.91886608 0.52004267 0.77156751
0.06256172 0.64630864 0.77156751
0.13112353 0.64630864 0.77156751
0.26324006 0.64630864 0.77156751
0.39250800 0.64630864 0.77156751
0.52004267 0.64630864 0.77156751
0.64630864 0.64630864 0.77156751
0.77156751 0.64630864 0.77156751
0.89598860 0.64630864 0.77156751
0.91886608 0.64630864 0.77156751
0.06256172 0.77156751 0.77156751
0.13112353 0.77156751 0.77156751
0.26324006 0.77156751 0.77156751
0.39250800 0.77156751 0.77156751
0.52004267 0.77156751 0.77156751
0.64630864 0.77156751 0.77156751
0.77156751 0.77156751 0.77156751
0.89598860 0.77156751 0.77156751
0.91886608 0.77156751 0.77156751
0.06256172 0.89598860 0.77156751
0.13112353 0.89598860 0.77156751
0.26324006 0.89598860 0.77156751
0.39250800 0.89598860 0.77156751
0.52004267 0.89598860 0.77156751
0.64630864 0.89598860 0.77156751
0.77156751 0.89598860 0.77156751
0.89598860 0.89598860 0.77156751
0.91886608 0.89598860 0.77156751
0.06256233 0.91886608 0.77156751
0.13112353 0.91886608 0.77156751
0.26324006 0.91886608 0.77156751
0.39250800 0.91886608 0.77156751
0.52004267 0.91886608 0.77156751
0.64630864 0.91886608 0.77156751
0.77156751 0.91886608 0.77156751
0.89598860 0.91886608 0.77156751
0.91886608 0.91886608 0.77156751
0.06256172 0.06256235 0.89598860
0.13112353 0.06256227 0.89598860
0.26324006 0.06256235 0.89598860
0.39250800 0.06256235 0.89598860
0.52004267 0.06256172 0.89598860
0.64630864 0.06256235 0.89598860
0.77156751 0.06256235 0.89598860
0.89598860 0.06256227 0.89598860
0.91886608 0.06256235 0.89598860
0.06256172 0.13112353 0.89598860
0.13112353 0.13112353 0.89598860
0.26324006 0.13112353 0.89598860
0.39250800 0.13112353 0.89598860
0.52004267 0.13112353 0.89598860
0.64630864 0.13112353 0.89598860
0.77156751 0.13112353 0.89598860
0.89598860 0.13112353 0.89598860
0.91886608 0.13112353 0.89598860
0.06256172 0.26324006 0.89598860
0.13112353 0.26324006 0.89598860
0.26324006 0.26324006 0.89598860
0.39250800 0.26324006 0.89598860
0.52004267 0.26324006 0.89598860
0.64630864 0.26324006 0.89598860
0.77156751 0.26324006 0.89598860
0.89598860 0.26324006 0.89598860
0.91886608 0.26324006 0.89598860
0.06256172 0.39250800 0.89598860
0.13112353 0.39250800 0.89598860
0.26324006 0.39250800 0.89598860
0.39250800 0.39250800 0.89598860
0.52004267 0.39250800 0.89598860
0.64630864 0.39250800 0.89598860
0.77156751 0.39250800 0.89598860
0.89598860 0.39250800 0.89598860
0.91886608 0.39250800 0.89598860
0.06256172 0.52004267 0.89598860
0.13112353 0.52004267 0.89598860
0.26324006 0.52004267 0.89598860
0.39250800 0.52004267 0.89598860
0.52004267 0.52004267 0.89598860
0.64630864 0.52004267 0.89598860
0.77156751 0.52004267 0.89598860
0.89598860 0.52004267 0.89598860
0.91886608 0.52004267 0.89598860
0.06256219 0.64630864 0.89598860
0.13112353 0.64630864 0.89598860
0.26324006 0.64630864 0.89598860
0.39250800 0.64630864 0.89598860
0.52004267 0.64630864 0.89598860
0.64630864 0.64630864 0.89598860
0.77156751 0.64630864 0.89598860
0.89598860 0.64630864 0.89598860
0.91886608 0.64630864 0.89598860
0.06256172 0.77156751 0.89598860
0.13112353 0.77156751 0.89598860
0.26324006 0.77156751 0.89598860
0.39250800 0.77156751 0.89598860
0.52004267 0.77156751 0.89598860
0.64630864 0.77156751 0.89598860
0.77156751 0.77156751 0.89598860
0.89598860 0.77156751 0.89598860
0.91886608 0.77156751 0.89598860
0.06256172 0.89598860 0.89598860
0.13112353 0.89598860 0.89598860
0.26324006 0.89598860 0.89598860
0.39250800 0.89598860 0.89598860
0.52004267 0.89598860 0.89598860
0.64630864 0.89598860 0.89598860
0.77156751 0.89598860 0.89598860
0.89598860 0.89598860 0.89598860
0.91886608 0.89598860 0.89598860
0.06256245 0.91886608 0.89598860
0.13112353 0.91886608 0.89598860
0.26324006 0.91886608 0.89598860
0.39250800 0.91886608 0.89598860
0.52004267 0.91886608 0.89598860
0.64630864 0.91886608 0.89598860
0.77156751 0.91886608 0.89598860
0.89598860 0.91886608 0.89598860
0.91886608 0.91886608 0.89598860
0.06256235 0.06256265 0.91886608
0.13112353 0.06256257 0.91886608
0.26324006 0.06256257 0.91886608
0.39250800 0.06256257 0.91886608
0.52004267 0.06256257 0.91886608
0.64630864 0.06256245 0.91886608
0.77156751 0.06256245 0.91886608
0.89598860 0.06256172 0.91886608
0.91886608 0.06256172 0.91886608
0.06256235 0.13112353 0.91886608
0.13112353 0.13112353 0.91886608
0.26324006 0.13112353 0.91886608
0.39250800 0.13112353 0.91886608
0.52004267 0.13112353 0.91886608
0.64630864 0.13112353 0.91886608
0.77156751 0.13112353 0.91886608
0.89598860 0.13112353 0.91886608
0.91886608 0.13112353 0.91886608
0.06256235 0.26324006 0.91886608
0.13112353 0.26324006 0.91886608
0.26324006 0.26324006 0.91886608
0.39250800 0.26324006 0.91886608
0.52004267 0.26324006 0.91886608
0.64630864 0.26324006 0.91886608
0.77156751 0.26324006 0.91886608
0.89598860 0.26324006 0.91886608
0.91886608 0.26324006 0.91886608
0.06256172 0.39250800 0.91886608
0.13112353 0.39250800 0.91886608
0.26324006 0.39250800 0.91886608
0.39250800 0.39250800 0.91886608
0.52004267 0.39250800 0.91886608
0.64630864 0.39250800 0.91886608
0.77156751 0.39250800 0.91886608
0.89598860 0.39250800 0.91886608
0.91886608 0.39250800 0.91886608
0.06256172 0.52004267 0.91886608
0.13112353 0.52004267 0.91886608
0.26324006 0.52004267 0.91886608
0.39250800 0.52004267 0.91886608
0.52004267 0.52004267 0.91886608
0.64630864 0.52004267 0.91886608
0.77156751 0.52004267 0.91886608
0.89598860 0.52004267 0.91886608
0.91886608 0.52004267 0.91886608
0.06256172 0.64630864 0.91886608
0.13112353 0.64630864 0.91886608
0.26324006 0.64630864 0.91886608
0.39250800 0.64630864 0.91886608
0.52004267 0.64630864 0.91886608
0.64630864 0.64630864 0.91886608
0.77156751 0.64630864 0.91886608
0.89598860 0.64630864 0.91886608
0.91886608 0.64630864 0.91886608
0.06256172 0.77156751 0.91886608
0.13112353 0.77156751 0.91886608
0.26324006 0.77156751 0.91886608
0.39250800 0.77156751 0.91886608
0.52004267 0.77156751 0.91886608
0.64630864 0.77156751 0.91886608
0.77156751 0.77156751 0.91886608
0.89598860 0.77156751 0.91886608
0.91886608 0.77156751 0.91886608
0.06256172 0.89598860 0.91886608
0.13112353 0.89598860 0.91886608
0.26324006 0.89598860 0.91886608
0.39250800 0.89598860 0.91886608
0.52004267 0.89598860 0.91886608
0.64630864 0.89598860 0.91886608
0.77156751 0.89598860 0.91886608
0.89598860 0.89598860 0.91886608
0.91886608 0.89598860 0.91886608
0.06256235 0.91886608 0.91886608
0.13112353 0.91886608 0.91886608
0.26324006 0.91886608 0.91886608
0.39250800 0.91886608 0.91886608
0.52004267 0.91886608 0.91886608
0.64630864 0.91886608 0.91886608
0.77156751 0.91886608 0.91886608
0.89598860 0.91886608 0.91886608
0.91886608 0.91886608 0.91886608
