src/ffmpeg_scripts/luts/luminance-unclipped_-3p67.cube
TITLE "luminance-unclipped_-3p67"
LUT_3D_SIZE 9
# PQ (EOTF Only)/Rec2020 -> PQ (EOTF Only)/Rec2020, CineEI Shift -3.67, Black Level -7.25% IRE, Input 109% -> Output 109% - Created with LUTCalc v4.01 by Ben Turley October 2020
0.00047898 0.00047898 0.00047898
0.02331872 0.00047898 0.00047898
0.09124733 0.00047898 0.00047898
0.17861858 0.00047898 0.00047898
0.28159788 0.00047910 0.00047898
0.39830772 0.00047898 0.00047898
0.52757629 0.00047916 0.00047898
0.66858419 0.00047898 0.00047898
0.82071820 0.00047937 0.00047940
0.00047904 0.02331872 0.00047898
0.02331872 0.02331872 0.00047898
0.09124733 0.02331872 0.00047898
0.17861858 0.02331872 0.00047909
0.28159788 0.02331872 0.00047898
0.39830772 0.02331872 0.00047898
0.52757629 0.02331872 0.00047920
0.66858419 0.02331872 0.00047931
0.82071820 0.02331872 0.00047935
0.00047907 0.09124733 0.00047898
0.02331872 0.09124733 0.00047898
0.09124733 0.09124733 0.00047898
0.17861858 0.09124733 0.00047898
0.28159788 0.09124733 0.00047912
0.39830772 0.09124733 0.00047898
0.52757629 0.09124733 0.00047920
0.66858419 0.09124733 0.00047898
0.82071820 0.09124733 0.00047898
0.00047911 0.17861858 0.00047909
0.02331872 0.17861858 0.00047898
0.09124733 0.17861858 0.00047898
0.17861858 0.17861858 0.00047910
0.28159788 0.17861858 0.00047912
0.39830772 0.17861858 0.00047916
0.52757629 0.17861858 0.00047898
0.66858419 0.17861858 0.00047898
0.82071820 0.17861858 0.00047935
0.00047912 0.28159788 0.00047898
0.02331872 0.28159788 0.00047912
0.09124733 0.28159788 0.00047898
0.17861858 0.28159788 0.00047898
0.28159788 0.28159788 0.00047898
0.39830772 0.28159788 0.00047898
0.52757629 0.28159788 0.00047898
0.66858419 0.28159788 0.00047898
0.82071820 0.28159788 0.00047898
0.00047917 0.39830772 0.00047916
0.02331872 0.39830772 0.00047898
0.09124733 0.39830772 0.00047916
0.17861858 0.39830772 0.00047898
0.28159788 0.39830772 0.00047918
0.39830772 0.39830772 0.00047918
0.52757629 0.39830772 0.00047898
0.66858419 0.39830772 0.00047898
0.82071820 0.39830772 0.00047898
0.00047914 0.52757629 0.00047898
0.02331872 0.52757629 0.00047898
0.09124733 0.52757629 0.00047898
0.17861858 0.52757629 0.00047898
0.28159788 0.52757629 0.00047920
0.39830772 0.52757629 0.00047898
0.52757629 0.52757629 0.00047923
0.66858419 0.52757629 0.00047898
0.82071820 0.52757629 0.00047935
0.00047929 0.66858419 0.00047898
0.02331872 0.66858419 0.00047898
0.09124733 0.66858419 0.00047898
0.17861858 0.66858419 0.00047898
0.28159788 0.66858419 0.00047898
0.39830772 0.66858419 0.00047898
0.52757629 0.66858419 0.00047898
0.66858419 0.66858419 0.00047898
0.82071820 0.66858419 0.00047898
0.00047939 0.82071820 0.00047898
0.02331872 0.82071820 0.00047940
0.09124733 0.82071820 0.00047935
0.17861858 0.82071820 0.00047898
0.28159788 0.82071820 0.00047898
0.39830772 0.82071820 0.00047898
0.52757629 0.82071820 0.00047935
0.66858419 0.82071820 0.00047898
0.82071820 0.82071820 0.00047898
0.00047898 0.00047904 0.02331872
0.02331872 0.00047905 0.02331872
0.09124733 0.00047898 0.02331872
0.17861858 0.00047909 0.02331872
0.28159788 0.00047915 0.02331872
0.39830772 0.00047898 0.02331872
0.52757629 0.00047919 0.02331872
0.66858419 0.00047926 0.02331872
0.82071820 0.00047898 0.02331872
0.00047904 0.02331872 0.02331872
0.02331872 0.02331872 0.02331872
0.09124733 0.02331872 0.02331872
0.17861858 0.02331872 0.02331872
0.28159788 0.02331872 0.02331872
0.39830772 0.02331872 0.02331872
0.52757629 0.02331872 0.02331872
0.66858419 0.02331872 0.02331872
0.82071820 0.02331872 0.02331872
0.00047906 0.09124733 0.02331872
0.02331872 0.09124733 0.02331872
0.09124733 0.09124733 0.02331872
0.17861858 0.09124733 0.02331872
0.28159788 0.09124733 0.02331872
0.39830772 0.09124733 0.02331872
0.52757629 0.09124733 0.02331872
0.66858419 0.09124733 0.02331872
0.82071820 0.09124733 0.02331872
0.00047911 0.17861858 0.02331872
0.02331872 0.17861858 0.02331872
0.09124733 0.17861858 0.02331872
0.17861858 0.17861858 0.02331872
0.28159788 0.17861858 0.02331872
0.39830772 0.17861858 0.02331872
0.52757629 0.17861858 0.02331872
0.66858419 0.17861858 0.02331872
0.82071820 0.17861858 0.02331872
0.00047910 0.28159788 0.02331872
0.02331872 0.28159788 0.02331872
0.09124733 0.28159788 0.02331872
0.17861858 0.28159788 0.02331872
0.28159788 0.28159788 0.02331872
0.39830772 0.28159788 0.02331872
0.52757629 0.28159788 0.02331872
0.66858419 0.28159788 0.02331872
0.82071820 0.28159788 0.02331872
0.00047920 0.39830772 0.02331872
0.02331872 0.39830772 0.02331872
0.09124733 0.39830772 0.02331872
0.17861858 0.39830772 0.02331872
0.28159788 0.39830772 0.02331872
0.39830772 0.39830772 0.02331872
0.52757629 0.39830772 0.02331872
0.66858419 0.39830772 0.02331872
0.82071820 0.39830772 0.02331872
0.00047925 0.52757629 0.02331872
0.02331872 0.52757629 0.02331872
0.09124733 0.52757629 0.02331872
0.17861858 0.52757629 0.02331872
0.28159788 0.52757629 0.02331872
0.39830772 0.52757629 0.02331872
0.52757629 0.52757629 0.02331872
0.66858419 0.52757629 0.02331872
0.82071820 0.52757629 0.02331872
0.00047898 0.66858419 0.02331872
0.02331872 0.66858419 0.02331872
0.09124733 0.66858419 0.02331872
0.17861858 0.66858419 0.02331872
0.28159788 0.66858419 0.02331872
0.39830772 0.66858419 0.02331872
0.52757629 0.66858419 0.02331872
0.66858419 0.66858419 0.02331872
0.82071820 0.66858419 0.02331872
0.00047944 0.82071820 0.02331872
0.02331872 0.82071820 0.02331872
0.09124733 0.82071820 0.02331872
0.17861858 0.82071820 0.02331872
0.28159788 0.82071820 0.02331872
0.39830772 0.82071820 0.02331872
0.52757629 0.82071820 0.02331872
0.66858419 0.82071820 0.02331872
0.82071820 0.82071820 0.02331872
0.00047898 0.00047910 0.09124733
0.02331872 0.00047898 0.09124733
0.09124733 0.00047909 0.09124733
0.17861858 0.00047898 0.09124733
0.28159788 0.00047912 0.09124733
0.39830772 0.00047898 0.09124733
0.52757629 0.00047920 0.09124733
0.66858419 0.00047898 0.09124733
0.82071820 0.00047933 0.09124733
0.00047898 0.02331872 0.09124733
0.02331872 0.02331872 0.09124733
0.09124733 0.02331872 0.09124733
0.17861858 0.02331872 0.09124733
0.28159788 0.02331872 0.09124733
0.39830772 0.02331872 0.09124733
0.52757629 0.02331872 0.09124733
0.66858419 0.02331872 0.09124733
0.82071820 0.02331872 0.09124733
0.00047907 0.09124733 0.09124733
0.02331872 0.09124733 0.09124733
0.09124733 0.09124733 0.09124733
0.17861858 0.09124733 0.09124733
0.28159788 0.09124733 0.09124733
0.39830772 0.09124733 0.09124733
0.52757629 0.09124733 0.09124733
0.66858419 0.09124733 0.09124733
0.82071820 0.09124733 0.09124733
0.00047911 0.17861858 0.09124733
0.02331872 0.17861858 0.09124733
0.09124733 0.17861858 0.09124733
0.17861858 0.17861858 0.09124733
0.28159788 0.17861858 0.09124733
0.39830772 0.17861858 0.09124733
0.52757629 0.17861858 0.09124733
0.66858419 0.17861858 0.09124733
0.82071820 0.17861858 0.09124733
0.00047915 0.28159788 0.09124733
0.02331872 0.28159788 0.09124733
0.09124733 0.28159788 0.09124733
0.17861858 0.28159788 0.09124733
0.28159788 0.28159788 0.09124733
0.39830772 0.28159788 0.09124733
0.52757629 0.28159788 0.09124733
0.66858419 0.28159788 0.09124733
0.82071820 0.28159788 0.09124733
0.00047918 0.39830772 0.09124733
0.02331872 0.39830772 0.09124733
0.09124733 0.39830772 0.09124733
0.17861858 0.39830772 0.09124733
0.28159788 0.39830772 0.09124733
0.39830772 0.39830772 0.09124733
0.52757629 0.39830772 0.09124733
0.66858419 0.39830772 0.09124733
0.82071820 0.39830772 0.09124733
0.00047916 0.52757629 0.09124733
0.02331872 0.52757629 0.09124733
0.09124733 0.52757629 0.09124733
0.17861858 0.52757629 0.09124733
0.28159788 0.52757629 0.09124733
0.39830772 0.52757629 0.09124733
0.52757629 0.52757629 0.09124733
0.66858419 0.52757629 0.09124733
0.82071820 0.52757629 0.09124733
0.00047931 0.66858419 0.09124733
0.02331872 0.66858419 0.09124733
0.09124733 0.66858419 0.09124733
0.17861858 0.66858419 0.09124733
0.28159788 0.66858419 0.09124733
0.39830772 0.66858419 0.09124733
0.52757629 0.66858419 0.09124733
0.66858419 0.66858419 0.09124733
0.82071820 0.66858419 0.09124733
0.00047938 0.82071820 0.09124733
0.02331872 0.82071820 0.09124733
0.09124733 0.82071820 0.09124733
0.17861858 0.82071820 0.09124733
0.28159788 0.82071820 0.09124733
0.39830772 0.82071820 0.09124733
0.52757629 0.82071820 0.09124733
0.66858419 0.82071820 0.09124733
0.82071820 0.82071820 0.09124733
0.00047898 0.00047912 0.17861858
0.02331872 0.00047912 0.17861858
0.09124733 0.00047912 0.17861858
0.17861858 0.00047915 0.17861858
0.28159788 0.00047914 0.17861858
0.39830772 0.00047916 0.17861858
0.52757629 0.00047916 0.17861858
0.66858419 0.00047927 0.17861858
0.82071820 0.00047937 0.17861858
0.00047898 0.02331872 0.17861858
0.02331872 0.02331872 0.17861858
0.09124733 0.02331872 0.17861858
0.17861858 0.02331872 0.17861858
0.28159788 0.02331872 0.17861858
0.39830772 0.02331872 0.17861858
0.52757629 0.02331872 0.17861858
0.66858419 0.02331872 0.17861858
0.82071820 0.02331872 0.17861858
0.00047898 0.09124733 0.17861858
0.02331872 0.09124733 0.17861858
0.09124733 0.09124733 0.17861858
0.17861858 0.09124733 0.17861858
0.28159788 0.09124733 0.17861858
0.39830772 0.09124733 0.17861858
0.52757629 0.09124733 0.17861858
0.66858419 0.09124733 0.17861858
0.82071820 0.09124733 0.17861858
0.00047910 0.17861858 0.17861858
0.02331872 0.17861858 0.17861858
0.09124733 0.17861858 0.17861858
0.17861858 0.17861858 0.17861858
0.28159788 0.17861858 0.17861858
0.39830772 0.17861858 0.17861858
0.52757629 0.17861858 0.17861858
0.66858419 0.17861858 0.17861858
0.82071820 0.17861858 0.17861858
0.00047910 0.28159788 0.17861858
0.02331872 0.28159788 0.17861858
0.09124733 0.28159788 0.17861858
0.17861858 0.28159788 0.17861858
0.28159788 0.28159788 0.17861858
0.39830772 0.28159788 0.17861858
0.52757629 0.28159788 0.17861858
0.66858419 0.28159788 0.17861858
0.82071820 0.28159788 0.17861858
0.00047916 0.39830772 0.17861858
0.02331872 0.39830772 0.17861858
0.09124733 0.39830772 0.17861858
0.17861858 0.39830772 0.17861858
0.28159788 0.39830772 0.17861858
0.39830772 0.39830772 0.17861858
0.52757629 0.39830772 0.17861858
0.66858419 0.39830772 0.17861858
0.82071820 0.39830772 0.17861858
0.00047925 0.52757629 0.17861858
0.02331872 0.52757629 0.17861858
0.09124733 0.52757629 0.17861858
0.17861858 0.52757629 0.17861858
0.28159788 0.52757629 0.17861858
0.39830772 0.52757629 0.17861858
0.52757629 0.52757629 0.17861858
0.66858419 0.52757629 0.17861858
0.82071820 0.52757629 0.17861858
0.00047928 0.66858419 0.17861858
0.02331872 0.66858419 0.17861858
0.09124733 0.66858419 0.17861858
0.17861858 0.66858419 0.17861858
0.28159788 0.66858419 0.17861858
0.39830772 0.66858419 0.17861858
0.52757629 0.66858419 0.17861858
0.66858419 0.66858419 0.17861858
0.82071820 0.66858419 0.17861858
0.00047938 0.82071820 0.17861858
0.02331872 0.82071820 0.17861858
0.09124733 0.82071820 0.17861858
0.17861858 0.82071820 0.17861858
0.28159788 0.82071820 0.17861858
0.39830772 0.82071820 0.17861858
0.52757629 0.82071820 0.17861858
0.66858419 0.82071820 0.17861858
0.82071820 0.82071820 0.17861858
0.00047914 0.00047918 0.28159788
0.02331872 0.00047920 0.28159788
0.09124733 0.00047898 0.28159788
0.17861858 0.00047898 0.28159788
0.28159788 0.00047898 0.28159788
0.39830772 0.00047898 0.28159788
0.52757629 0.00047923 0.28159788
0.66858419 0.00047929 0.28159788
0.82071820 0.00047943 0.28159788
0.00047898 0.02331872 0.28159788
0.02331872 0.02331872 0.28159788
0.09124733 0.02331872 0.28159788
0.17861858 0.02331872 0.28159788
0.28159788 0.02331872 0.28159788
0.39830772 0.02331872 0.28159788
0.52757629 0.02331872 0.28159788
0.66858419 0.02331872 0.28159788
0.82071820 0.02331872 0.28159788
0.00047898 0.09124733 0.28159788
0.02331872 0.09124733 0.28159788
0.09124733 0.09124733 0.28159788
0.17861858 0.09124733 0.28159788
0.28159788 0.09124733 0.28159788
0.39830772 0.09124733 0.28159788
0.52757629 0.09124733 0.28159788
0.66858419 0.09124733 0.28159788
0.82071820 0.09124733 0.28159788
0.00047898 0.17861858 0.28159788
0.02331872 0.17861858 0.28159788
0.09124733 0.17861858 0.28159788
0.17861858 0.17861858 0.28159788
0.28159788 0.17861858 0.28159788
0.39830772 0.17861858 0.28159788
0.52757629 0.17861858 0.28159788
0.66858419 0.17861858 0.28159788
0.82071820 0.17861858 0.28159788
0.00047898 0.28159788 0.28159788
0.02331872 0.28159788 0.28159788
0.09124733 0.28159788 0.28159788
0.17861858 0.28159788 0.28159788
0.28159788 0.28159788 0.28159788
0.39830772 0.28159788 0.28159788
0.52757629 0.28159788 0.28159788
0.66858419 0.28159788 0.28159788
0.82071820 0.28159788 0.28159788
0.00047918 0.39830772 0.28159788
0.02331872 0.39830772 0.28159788
0.09124733 0.39830772 0.28159788
0.17861858 0.39830772 0.28159788
0.28159788 0.39830772 0.28159788
0.39830772 0.39830772 0.28159788
0.52757629 0.39830772 0.28159788
0.66858419 0.39830772 0.28159788
0.82071820 0.39830772 0.28159788
0.00047928 0.52757629 0.28159788
0.02331872 0.52757629 0.28159788
0.09124733 0.52757629 0.28159788
0.17861858 0.52757629 0.28159788
0.28159788 0.52757629 0.28159788
0.39830772 0.52757629 0.28159788
0.52757629 0.52757629 0.28159788
0.66858419 0.52757629 0.28159788
0.82071820 0.52757629 0.28159788
0.00047932 0.66858419 0.28159788
0.02331872 0.66858419 0.28159788
0.09124733 0.66858419 0.28159788
0.17861858 0.66858419 0.28159788
0.28159788 0.66858419 0.28159788
0.39830772 0.66858419 0.28159788
0.52757629 0.66858419 0.28159788
0.66858419 0.66858419 0.28159788
0.82071820 0.66858419 0.28159788
0.00047898 0.82071820 0.28159788
0.02331872 0.82071820 0.28159788
0.09124733 0.82071820 0.28159788
0.17861858 0.82071820 0.28159788
0.28159788 0.82071820 0.28159788
0.39830772 0.82071820 0.28159788
0.52757629 0.82071820 0.28159788
0.66858419 0.82071820 0.28159788
0.82071820 0.82071820 0.28159788
0.00047898 0.00047923 0.39830772
0.02331872 0.00047923 0.39830772
0.09124733 0.00047923 0.39830772
0.17861858 0.00047927 0.39830772
0.28159788 0.00047927 0.39830772
0.39830772 0.00047923 0.39830772
0.52757629 0.00047898 0.39830772
0.66858419 0.00047927 0.39830772
0.82071820 0.00047898 0.39830772
0.00047898 0.02331872 0.39830772
0.02331872 0.02331872 0.39830772
0.09124733 0.02331872 0.39830772
0.17861858 0.02331872 0.39830772
0.28159788 0.02331872 0.39830772
0.39830772 0.02331872 0.39830772
0.52757629 0.02331872 0.39830772
0.66858419 0.02331872 0.39830772
0.82071820 0.02331872 0.39830772
0.00047898 0.09124733 0.39830772
0.02331872 0.09124733 0.39830772
0.09124733 0.09124733 0.39830772
0.17861858 0.09124733 0.39830772
0.28159788 0.09124733 0.39830772
0.39830772 0.09124733 0.39830772
0.52757629 0.09124733 0.39830772
0.66858419 0.09124733 0.39830772
0.82071820 0.09124733 0.39830772
0.00047920 0.17861858 0.39830772
0.02331872 0.17861858 0.39830772
0.09124733 0.17861858 0.39830772
0.17861858 0.17861858 0.39830772
0.28159788 0.17861858 0.39830772
0.39830772 0.17861858 0.39830772
0.52757629 0.17861858 0.39830772
0.66858419 0.17861858 0.39830772
0.82071820 0.17861858 0.39830772
0.00047898 0.28159788 0.39830772
0.02331872 0.28159788 0.39830772
0.09124733 0.28159788 0.39830772
0.17861858 0.28159788 0.39830772
0.28159788 0.28159788 0.39830772
0.39830772 0.28159788 0.39830772
0.52757629 0.28159788 0.39830772
0.66858419 0.28159788 0.39830772
0.82071820 0.28159788 0.39830772
0.00047918 0.39830772 0.39830772
0.02331872 0.39830772 0.39830772
0.09124733 0.39830772 0.39830772
0.17861858 0.39830772 0.39830772
0.28159788 0.39830772 0.39830772
0.39830772 0.39830772 0.39830772
0.52757629 0.39830772 0.39830772
0.66858419 0.39830772 0.39830772
0.82071820 0.39830772 0.39830772
0.00047924 0.52757629 0.39830772
0.02331872 0.52757629 0.39830772
0.09124733 0.52757629 0.39830772
0.17861858 0.52757629 0.39830772
0.28159788 0.52757629 0.39830772
0.39830772 0.52757629 0.39830772
0.52757629 0.52757629 0.39830772
0.66858419 0.52757629 0.39830772
0.82071820 0.52757629 0.39830772
0.00047925 0.66858419 0.39830772
0.02331872 0.66858419 0.39830772
0.09124733 0.66858419 0.39830772
0.17861858 0.66858419 0.39830772
0.28159788 0.66858419 0.39830772
0.39830772 0.66858419 0.39830772
0.52757629 0.66858419 0.39830772
0.66858419 0.66858419 0.39830772
0.82071820 0.66858419 0.39830772
0.00047944 0.82071820 0.39830772
0.02331872 0.82071820 0.39830772
0.09124733 0.82071820 0.39830772
0.17861858 0.82071820 0.39830772
0.28159788 0.82071820 0.39830772
0.39830772 0.82071820 0.39830772
0.52757629 0.82071820 0.39830772
0.66858419 0.82071820 0.39830772
0.82071820 0.82071820 0.39830772
0.00047898 0.00047933 0.52757629
0.02331872 0.00047898 0.52757629
0.09124733 0.00047898 0.52757629
0.17861858 0.00047931 0.52757629
0.28159788 0.00047898 0.52757629
0.39830772 0.00047927 0.52757629
0.52757629 0.00047898 0.52757629
0.66858419 0.00047898 0.52757629
0.82071820 0.00047935 0.52757629
0.00047898 0.02331872 0.52757629
0.02331872 0.02331872 0.52757629
0.09124733 0.02331872 0.52757629
0.17861858 0.02331872 0.52757629
0.28159788 0.02331872 0.52757629
0.39830772 0.02331872 0.52757629
0.52757629 0.02331872 0.52757629
0.66858419 0.02331872 0.52757629
0.82071820 0.02331872 0.52757629
0.00047898 0.09124733 0.52757629
0.02331872 0.09124733 0.52757629
0.09124733 0.09124733 0.52757629
0.17861858 0.09124733 0.52757629
0.28159788 0.09124733 0.52757629
0.39830772 0.09124733 0.52757629
0.52757629 0.09124733 0.52757629
0.66858419 0.09124733 0.52757629
0.82071820 0.09124733 0.52757629
0.00047898 0.17861858 0.52757629
0.02331872 0.17861858 0.52757629
0.09124733 0.17861858 0.52757629
0.17861858 0.17861858 0.52757629
0.28159788 0.17861858 0.52757629
0.39830772 0.17861858 0.52757629
0.52757629 0.17861858 0.52757629
0.66858419 0.17861858 0.52757629
0.82071820 0.17861858 0.52757629
0.00047898 0.28159788 0.52757629
0.02331872 0.28159788 0.52757629
0.09124733 0.28159788 0.52757629
0.17861858 0.28159788 0.52757629
0.28159788 0.28159788 0.52757629
0.39830772 0.28159788 0.52757629
0.52757629 0.28159788 0.52757629
0.66858419 0.28159788 0.52757629
0.82071820 0.28159788 0.52757629
0.00047898 0.39830772 0.52757629
0.02331872 0.39830772 0.52757629
0.09124733 0.39830772 0.52757629
0.17861858 0.39830772 0.52757629
0.28159788 0.39830772 0.52757629
0.39830772 0.39830772 0.52757629
0.52757629 0.39830772 0.52757629
0.66858419 0.39830772 0.52757629
0.82071820 0.39830772 0.52757629
0.00047898 0.52757629 0.52757629
0.02331872 0.52757629 0.52757629
0.09124733 0.52757629 0.52757629
0.17861858 0.52757629 0.52757629
0.28159788 0.52757629 0.52757629
0.39830772 0.52757629 0.52757629
0.52757629 0.52757629 0.52757629
0.66858419 0.52757629 0.52757629
0.82071820 0.52757629 0.52757629
0.00047923 0.66858419 0.52757629
0.02331872 0.66858419 0.52757629
0.09124733 0.66858419 0.52757629
0.17861858 0.66858419 0.52757629
0.28159788 0.66858419 0.52757629
0.39830772 0.66858419 0.52757629
0.52757629 0.66858419 0.52757629
0.66858419 0.66858419 0.52757629
0.82071820 0.66858419 0.52757629
0.00047940 0.82071820 0.52757629
0.02331872 0.82071820 0.52757629
0.09124733 0.82071820 0.52757629
0.17861858 0.82071820 0.52757629
0.28159788 0.82071820 0.52757629
0.39830772 0.82071820 0.52757629
0.52757629 0.82071820 0.52757629
0.66858419 0.82071820 0.52757629
0.82071820 0.82071820 0.52757629
0.00047898 0.00047935 0.66858419
0.02331872 0.00047940 0.66858419
0.09124733 0.00047940 0.66858419
0.17861858 0.00047940 0.66858419
0.28159788 0.00047898 0.66858419
0.39830772 0.00047898 0.66858419
0.52757629 0.00047940 0.66858419
0.66858419 0.00047935 0.66858419
0.82071820 0.00047950 0.66858419
0.00047898 0.02331872 0.66858419
0.02331872 0.02331872 0.66858419
0.09124733 0.02331872 0.66858419
0.17861858 0.02331872 0.66858419
0.28159788 0.02331872 0.66858419
0.39830772 0.02331872 0.66858419
0.52757629 0.02331872 0.66858419
0.66858419 0.02331872 0.66858419
0.82071820 0.02331872 0.66858419
0.00047898 0.09124733 0.66858419
0.02331872 0.09124733 0.66858419
0.09124733 0.09124733 0.66858419
0.17861858 0.09124733 0.66858419
0.28159788 0.09124733 0.66858419
0.39830772 0.09124733 0.66858419
0.52757629 0.09124733 0.66858419
0.66858419 0.09124733 0.66858419
0.82071820 0.09124733 0.66858419
0.00047898 0.17861858 0.66858419
0.02331872 0.17861858 0.66858419
0.09124733 0.17861858 0.66858419
0.17861858 0.17861858 0.66858419
0.28159788 0.17861858 0.66858419
0.39830772 0.17861858 0.66858419
0.52757629 0.17861858 0.66858419
0.66858419 0.17861858 0.66858419
0.82071820 0.17861858 0.66858419
0.00047898 0.28159788 0.66858419
0.02331872 0.28159788 0.66858419
0.09124733 0.28159788 0.66858419
0.17861858 0.28159788 0.66858419
0.28159788 0.28159788 0.66858419
0.39830772 0.28159788 0.66858419
0.52757629 0.28159788 0.66858419
0.66858419 0.28159788 0.66858419
0.82071820 0.28159788 0.66858419
0.00047931 0.39830772 0.66858419
0.02331872 0.39830772 0.66858419
0.09124733 0.39830772 0.66858419
0.17861858 0.39830772 0.66858419
0.28159788 0.39830772 0.66858419
0.39830772 0.39830772 0.66858419
0.52757629 0.39830772 0.66858419
0.66858419 0.39830772 0.66858419
0.82071820 0.39830772 0.66858419
0.00047898 0.52757629 0.66858419
0.02331872 0.52757629 0.66858419
0.09124733 0.52757629 0.66858419
0.17861858 0.52757629 0.66858419
0.28159788 0.52757629 0.66858419
0.39830772 0.52757629 0.66858419
0.52757629 0.52757629 0.66858419
0.66858419 0.52757629 0.66858419
0.82071820 0.52757629 0.66858419
0.00047898 0.66858419 0.66858419
0.02331872 0.66858419 0.66858419
0.09124733 0.66858419 0.66858419
0.17861858 0.66858419 0.66858419
0.28159788 0.66858419 0.66858419
0.39830772 0.66858419 0.66858419
0.52757629 0.66858419 0.66858419
0.66858419 0.66858419 0.66858419
0.82071820 0.66858419 0.66858419
0.00047942 0.82071820 0.66858419
0.02331872 0.82071820 0.66858419
0.09124733 0.82071820 0.66858419
0.17861858 0.82071820 0.66858419
0.28159788 0.82071820 0.66858419
0.39830772 0.82071820 0.66858419
0.52757629 0.82071820 0.66858419
0.66858419 0.82071820 0.66858419
0.82071820 0.82071820 0.66858419
0.00047898 0.00047953 0.82071820
0.02331872 0.00047898 0.82071820
0.09124733 0.00047958 0.82071820
0.17861858 0.00047953 0.82071820
0.28159788 0.00047958 0.82071820
0.39830772 0.00047946 0.82071820
0.52757629 0.00047953 0.82071820
0.66858419 0.00047953 0.82071820
0.82071820 0.00047953 0.82071820
0.00047940 0.02331872 0.82071820
0.02331872 0.02331872 0.82071820
0.09124733 0.02331872 0.82071820
0.17861858 0.02331872 0.82071820
0.28159788 0.02331872 0.82071820
0.39830772 0.02331872 0.82071820
0.52757629 0.02331872 0.82071820
0.66858419 0.02331872 0.82071820
0.82071820 0.02331872 0.82071820
0.00047940 0.09124733 0.82071820
0.02331872 0.09124733 0.82071820
0.09124733 0.09124733 0.82071820
0.17861858 0.09124733 0.82071820
0.28159788 0.09124733 0.82071820
0.39830772 0.09124733 0.82071820
0.52757629 0.09124733 0.82071820
0.66858419 0.09124733 0.82071820
0.82071820 0.09124733 0.82071820
0.00047946 0.17861858 0.82071820
0.02331872 0.17861858 0.82071820
0.09124733 0.17861858 0.82071820
0.17861858 0.17861858 0.82071820
0.28159788 0.17861858 0.82071820
0.39830772 0.17861858 0.82071820
0.52757629 0.17861858 0.82071820
0.66858419 0.17861858 0.82071820
0.82071820 0.17861858 0.82071820
0.00047898 0.28159788 0.82071820
0.02331872 0.28159788 0.82071820
0.09124733 0.28159788 0.82071820
0.17861858 0.28159788 0.82071820
0.28159788 0.28159788 0.82071820
0.39830772 0.28159788 0.82071820
0.52757629 0.28159788 0.82071820
0.66858419 0.28159788 0.82071820
0.82071820 0.28159788 0.82071820
0.00047898 0.39830772 0.82071820
0.02331872 0.39830772 0.82071820
0.09124733 0.39830772 0.82071820
0.17861858 0.39830772 0.82071820
0.28159788 0.39830772 0.82071820
0.39830772 0.39830772 0.82071820
0.52757629 0.39830772 0.82071820
0.66858419 0.39830772 0.82071820
0.82071820 0.39830772 0.82071820
0.00047898 0.52757629 0.82071820
0.02331872 0.52757629 0.82071820
0.09124733 0.52757629 0.82071820
0.17861858 0.52757629 0.82071820
0.28159788 0.52757629 0.82071820
0.39830772 0.52757629 0.82071820
0.52757629 0.52757629 0.82071820
0.66858419 0.52757629 0.82071820
0.82071820 0.52757629 0.82071820
0.00047898 0.66858419 0.82071820
0.02331872 0.66858419 0.82071820
0.09124733 0.66858419 0.82071820
0.17861858 0.66858419 0.82071820
0.28159788 0.66858419 0.82071820
0.39830772 0.66858419 0.82071820
0.52757629 0.66858419 0.82071820
0.66858419 0.66858419 0.82071820
0.82071820 0.66858419 0.82071820
0.00047898 0.82071820 0.82071820
0.02331872 0.82071820 0.82071820
0.09124733 0.82071820 0.82071820
0.17861858 0.82071820 0.82071820
0.28159788 0.82071820 0.82071820
0.39830772 0.82071820 0.82071820
0.52757629 0.82071820 0.82071820
0.66858419 0.82071820 0.82071820
0.82071820 0.82071820 0.82071820
