src/ffmpeg_scripts/luts/luminance-unclipped_3p00.cube
TITLE "luminance-unclipped_3p00"
LUT_3D_SIZE 5
# PQ (EOTF Only)/Rec2020 -> PQ (EOTF Only)/Rec2020, CineEI Shift 3.00, Black Level -7.25% IRE, Input 109% -> Output 109% - Created with LUTCalc v4.01 by Ben Turley October 2020
0.00047898 0.00047898 0.00047898
0.37810069 0.00047898 0.00047898
0.72541203 0.00047934 0.00047898
0.91886608 0.00047948 0.00047898
0.91886608 0.00047999 0.00047997
0.00047898 0.37810069 0.00047898
0.37810069 0.37810069 0.00047898
0.72541203 0.37810069 0.00047898
0.91886608 0.37810069 0.00047898
0.91886608 0.37810069 0.00047898
0.00047898 0.72541203 0.00047898
0.37810069 0.72541203 0.00047898
0.72541203 0.72541203 0.00047898
0.91886608 0.72541203 0.00047898
0.91886608 0.72541203 0.00047898
0.00047956 0.91886608 0.00047898
0.37810069 0.91886608 0.00047898
0.72541203 0.91886608 0.00047898
0.91886608 0.91886608 0.00047898
0.91886608 0.91886608 0.00047997
0.00048014 0.91886608 0.00047898
0.37810069 0.91886608 0.00047898
0.72541203 0.91886608 0.00047898
0.91886608 0.91886608 0.00047898
0.91886608 0.91886608 0.00047898
0.00047898 0.00047898 0.37810069
0.37810069 0.00047920 0.37810069
0.72541203 0.00047931 0.37810069
0.91886608 0.00047940 0.37810069
0.91886608 0.00047999 0.37810069
0.00047898 0.37810069 0.37810069
0.37810069 0.37810069 0.37810069
0.72541203 0.37810069 0.37810069
0.91886608 0.37810069 0.37810069
0.91886608 0.37810069 0.37810069
0.00047932 0.72541203 0.37810069
0.37810069 0.72541203 0.37810069
0.72541203 0.72541203 0.37810069
0.91886608 0.72541203 0.37810069
0.91886608 0.72541203 0.37810069
0.00047958 0.91886608 0.37810069
0.37810069 0.91886608 0.37810069
0.72541203 0.91886608 0.37810069
0.91886608 0.91886608 0.37810069
0.91886608 0.91886608 0.37810069
0.00048008 0.91886608 0.37810069
0.37810069 0.91886608 0.37810069
0.72541203 0.91886608 0.37810069
0.91886608 0.91886608 0.37810069
0.91886608 0.91886608 0.37810069
0.00047898 0.00047898 0.72541203
0.37810069 0.00047940 0.72541203
0.72541203 0.00047946 0.72541203
0.91886608 0.00047953 0.72541203
0.91886608 0.00048012 0.72541203
0.00047898 0.37810069 0.72541203
0.37810069 0.37810069 0.72541203
0.72541203 0.37810069 0.72541203
0.91886608 0.37810069 0.72541203
0.91886608 0.37810069 0.72541203
0.00047898 0.72541203 0.72541203
0.37810069 0.72541203 0.72541203
0.72541203 0.72541203 0.72541203
0.91886608 0.72541203 0.72541203
0.91886608 0.72541203 0.72541203
0.00047974 0.91886608 0.72541203
0.37810069 0.91886608 0.72541203
0.72541203 0.91886608 0.72541203
0.91886608 0.91886608 0.72541203
0.91886608 0.91886608 0.72541203
0.00048012 0.91886608 0.72541203
0.37810069 0.91886608 0.72541203
0.72541203 0.91886608 0.72541203
0.91886608 0.91886608 0.72541203
0.91886608 0.91886608 0.72541203
0.00047898 0.00047898 0.91886608
0.37810069 0.00047898 0.91886608
0.72541203 0.00047898 0.91886608
0.91886608 0.00047898 0.91886608
0.91886608 0.00047898 0.91886608
0.00047898 0.37810069 0.91886608
0.37810069 0.37810069 0.91886608
0.72541203 0.37810069 0.91886608
0.91886608 0.37810069 0.91886608
0.91886608 0.37810069 0.91886608
0.00047898 0.72541203 0.91886608
0.37810069 0.72541203 0.91886608
0.72541203 0.72541203 0.91886608
0.91886608 0.72541203 0.91886608
0.91886608 0.72541203 0.91886608
0.00047898 0.91886608 0.91886608
0.37810069 0.91886608 0.91886608
0.72541203 0.91886608 0.91886608
0.91886608 0.91886608 0.91886608
0.91886608 0.91886608 0.91886608
0.00048018 0.91886608 0.91886608
0.37810069 0.91886608 0.91886608
0.72541203 0.91886608 0.91886608
0.91886608 0.91886608 0.91886608
0.91886608 0.91886608 0.91886608
0.00047898 0.00047898 0.91886608
0.37810069 0.00048059 0.91886608
0.72541203 0.00048034 0.91886608
0.91886608 0.00048034 0.91886608
0.91886608 0.00048034 0.91886608
0.00047898 0.37810069 0.91886608
0.37810069 0.37810069 0.91886608
0.72541203 0.37810069 0.91886608
0.91886608 0.37810069 0.91886608
0.91886608 0.37810069 0.91886608
0.00047898 0.72541203 0.91886608
0.37810069 0.72541203 0.91886608
0.72541203 0.72541203 0.91886608
0.91886608 0.72541203 0.91886608
0.91886608 0.72541203 0.91886608
0.00047898 0.91886608 0.91886608
0.37810069 0.91886608 0.91886608
0.72541203 0.91886608 0.91886608
0.91886608 0.91886608 0.91886608
0.91886608 0.91886608 0.91886608
0.00048014 0.91886608 0.91886608
0.37810069 0.91886608 0.91886608
0.72541203 0.91886608 0.91886608
0.91886608 0.91886608 0.91886608
0.91886608 0.91886608 0.91886608
