src/ffmpeg_scripts/luts/luminance_-3p33.cube
TITLE "luminance_-3p33"
LUT_3D_SIZE 33
# PQ (EOTF Only)/Rec2020 -> PQ (EOTF Only)/Rec2020, CineEI Shift -3.33, Black Level 0.00% IRE, Input 109% -> Output 109% - Created with LUTCalc v4.01 by Ben Turley October 2020
0.06256172 0.06256172 0.06256172
0.06256172 0.06256172 0.06256172
0.06256172 0.06256172 0.06256172
0.07234342 0.06256172 0.06256172
0.08464669 0.06256176 0.06256172
0.09863081 0.06256172 0.06256172
0.11398608 0.06256177 0.06256177
0.13053547 0.06256178 0.06256172
0.14816077 0.06256172 0.06256172
0.16677593 0.06256172 0.06256172
0.18631477 0.06256172 0.06256172
0.20672440 0.06256180 0.06256172
0.22796130 0.06256172 0.06256181
0.24998888 0.06256179 0.06256182
0.27277582 0.06256180 0.06256172
0.29629492 0.06256172 0.06256172
0.32052228 0.06256182 0.06256185
0.34543671 0.06256172 0.06256185
0.37101922 0.06256185 0.06256185
0.39725268 0.06256188 0.06256172
0.42412156 0.06256172 0.06256172
0.45161167 0.06256191 0.06256189
0.47970999 0.06256172 0.06256172
0.50840453 0.06256172 0.06256172
0.53768417 0.06256172 0.06256172
0.56753859 0.06256172 0.06256194
0.59795818 0.06256191 0.06256172
0.62893395 0.06256194 0.06256172
0.66045746 0.06256199 0.06256172
0.69252078 0.06256172 0.06256172
0.72511646 0.06256194 0.06256172
0.75823743 0.06256172 0.06256172
0.79187703 0.06256200 0.06256204
0.06256172 0.06256172 0.06256172
0.06256172 0.06256172 0.06256172
0.06256172 0.06256172 0.06256172
0.07234342 0.06256172 0.06256172
0.08464669 0.06256176 0.06256172
0.09863081 0.06256172 0.06256172
0.11398608 0.06256177 0.06256177
0.13053547 0.06256178 0.06256172
0.14816077 0.06256172 0.06256172
0.16677593 0.06256172 0.06256172
0.18631477 0.06256172 0.06256172
0.20672440 0.06256180 0.06256172
0.22796130 0.06256172 0.06256181
0.24998888 0.06256179 0.06256182
0.27277582 0.06256180 0.06256172
0.29629492 0.06256172 0.06256172
0.32052228 0.06256182 0.06256185
0.34543671 0.06256172 0.06256185
0.37101922 0.06256185 0.06256185
0.39725268 0.06256188 0.06256172
0.42412156 0.06256172 0.06256172
0.45161167 0.06256191 0.06256189
0.47970999 0.06256172 0.06256172
0.50840453 0.06256172 0.06256172
0.53768417 0.06256172 0.06256172
0.56753859 0.06256172 0.06256194
0.59795818 0.06256191 0.06256172
0.62893395 0.06256194 0.06256172
0.66045746 0.06256199 0.06256172
0.69252078 0.06256172 0.06256172
0.72511646 0.06256194 0.06256172
0.75823743 0.06256172 0.06256172
0.79187703 0.06256200 0.06256204
0.06256172 0.06256172 0.06256172
0.06256172 0.06256172 0.06256172
0.06256172 0.06256172 0.06256172
0.07234342 0.06256172 0.06256172
0.08464669 0.06256176 0.06256172
0.09863081 0.06256172 0.06256172
0.11398608 0.06256177 0.06256177
0.13053547 0.06256178 0.06256172
0.14816077 0.06256172 0.06256172
0.16677593 0.06256172 0.06256172
0.18631477 0.06256172 0.06256172
0.20672440 0.06256180 0.06256172
0.22796130 0.06256172 0.06256181
0.24998888 0.06256179 0.06256182
0.27277582 0.06256180 0.06256172
0.29629492 0.06256172 0.06256172
0.32052228 0.06256182 0.06256185
0.34543671 0.06256172 0.06256185
0.37101922 0.06256185 0.06256185
0.39725268 0.06256188 0.06256172
0.42412156 0.06256172 0.06256172
0.45161167 0.06256191 0.06256189
0.47970999 0.06256172 0.06256172
0.50840453 0.06256172 0.06256172
0.53768417 0.06256172 0.06256172
0.56753859 0.06256172 0.06256194
0.59795818 0.06256191 0.06256172
0.62893395 0.06256194 0.06256172
0.66045746 0.06256199 0.06256172
0.69252078 0.06256172 0.06256172
0.72511646 0.06256194 0.06256172
0.75823743 0.06256172 0.06256172
0.79187703 0.06256200 0.06256204
0.06256176 0.07234342 0.06256172
0.06256176 0.07234342 0.06256172
0.06256176 0.07234342 0.06256172
0.07234342 0.07234342 0.06256172
0.08464669 0.07234342 0.06256172
0.09863081 0.07234342 0.06256172
0.11398608 0.07234342 0.06256172
0.13053547 0.07234342 0.06256172
0.14816077 0.07234342 0.06256172
0.16677593 0.07234342 0.06256179
0.18631477 0.07234342 0.06256172
0.20672440 0.07234342 0.06256172
0.22796130 0.07234342 0.06256172
0.24998888 0.07234342 0.06256172
0.27277582 0.07234342 0.06256182
0.29629492 0.07234342 0.06256172
0.32052228 0.07234342 0.06256185
0.34543671 0.07234342 0.06256172
0.37101922 0.07234342 0.06256172
0.39725268 0.07234342 0.06256172
0.42412156 0.07234342 0.06256187
0.45161167 0.07234342 0.06256172
0.47970999 0.07234342 0.06256189
0.50840453 0.07234342 0.06256172
0.53768417 0.07234342 0.06256172
0.56753859 0.07234342 0.06256172
0.59795818 0.07234342 0.06256172
0.62893395 0.07234342 0.06256172
0.66045746 0.07234342 0.06256172
0.69252078 0.07234342 0.06256172
0.72511646 0.07234342 0.06256204
0.75823743 0.07234342 0.06256172
0.79187703 0.07234342 0.06256208
0.06256177 0.08464669 0.06256172
0.06256177 0.08464669 0.06256172
0.06256177 0.08464669 0.06256172
0.07234342 0.08464669 0.06256172
0.08464669 0.08464669 0.06256172
0.09863081 0.08464669 0.06256172
0.11398608 0.08464669 0.06256179
0.13053547 0.08464669 0.06256179
0.14816077 0.08464669 0.06256172
0.16677593 0.08464669 0.06256179
0.18631477 0.08464669 0.06256172
0.20672440 0.08464669 0.06256180
0.22796130 0.08464669 0.06256172
0.24998888 0.08464669 0.06256172
0.27277582 0.08464669 0.06256182
0.29629492 0.08464669 0.06256172
0.32052228 0.08464669 0.06256172
0.34543671 0.08464669 0.06256185
0.37101922 0.08464669 0.06256172
0.39725268 0.08464669 0.06256172
0.42412156 0.08464669 0.06256172
0.45161167 0.08464669 0.06256172
0.47970999 0.08464669 0.06256172
0.50840453 0.08464669 0.06256191
0.53768417 0.08464669 0.06256172
0.56753859 0.08464669 0.06256172
0.59795818 0.08464669 0.06256194
0.62893395 0.08464669 0.06256172
0.66045746 0.08464669 0.06256197
0.69252078 0.08464669 0.06256172
0.72511646 0.08464669 0.06256172
0.75823743 0.08464669 0.06256172
0.79187703 0.08464669 0.06256172
0.06256172 0.09863081 0.06256172
0.06256172 0.09863081 0.06256172
0.06256172 0.09863081 0.06256172
0.07234342 0.09863081 0.06256172
0.08464669 0.09863081 0.06256172
0.09863081 0.09863081 0.06256172
0.11398608 0.09863081 0.06256178
0.13053547 0.09863081 0.06256179
0.14816077 0.09863081 0.06256179
0.16677593 0.09863081 0.06256179
0.18631477 0.09863081 0.06256172
0.20672440 0.09863081 0.06256172
0.22796130 0.09863081 0.06256172
0.24998888 0.09863081 0.06256172
0.27277582 0.09863081 0.06256172
0.29629492 0.09863081 0.06256172
0.32052228 0.09863081 0.06256172
0.34543671 0.09863081 0.06256172
0.37101922 0.09863081 0.06256172
0.39725268 0.09863081 0.06256172
0.42412156 0.09863081 0.06256187
0.45161167 0.09863081 0.06256189
0.47970999 0.09863081 0.06256172
0.50840453 0.09863081 0.06256172
0.53768417 0.09863081 0.06256172
0.56753859 0.09863081 0.06256172
0.59795818 0.09863081 0.06256194
0.62893395 0.09863081 0.06256172
0.66045746 0.09863081 0.06256197
0.69252078 0.09863081 0.06256172
0.72511646 0.09863081 0.06256172
0.75823743 0.09863081 0.06256172
0.79187703 0.09863081 0.06256204
0.06256176 0.11398608 0.06256172
0.06256176 0.11398608 0.06256172
0.06256176 0.11398608 0.06256172
0.07234342 0.11398608 0.06256172
0.08464669 0.11398608 0.06256172
0.09863081 0.11398608 0.06256172
0.11398608 0.11398608 0.06256172
0.13053547 0.11398608 0.06256179
0.14816077 0.11398608 0.06256172
0.16677593 0.11398608 0.06256179
0.18631477 0.11398608 0.06256172
0.20672440 0.11398608 0.06256172
0.22796130 0.11398608 0.06256172
0.24998888 0.11398608 0.06256172
0.27277582 0.11398608 0.06256184
0.29629492 0.11398608 0.06256184
0.32052228 0.11398608 0.06256172
0.34543671 0.11398608 0.06256185
0.37101922 0.11398608 0.06256172
0.39725268 0.11398608 0.06256172
0.42412156 0.11398608 0.06256172
0.45161167 0.11398608 0.06256172
0.47970999 0.11398608 0.06256189
0.50840453 0.11398608 0.06256172
0.53768417 0.11398608 0.06256172
0.56753859 0.11398608 0.06256172
0.59795818 0.11398608 0.06256194
0.62893395 0.11398608 0.06256172
0.66045746 0.11398608 0.06256172
0.69252078 0.11398608 0.06256172
0.72511646 0.11398608 0.06256200
0.75823743 0.11398608 0.06256172
0.79187703 0.11398608 0.06256172
0.06256180 0.13053547 0.06256172
0.06256180 0.13053547 0.06256172
0.06256180 0.13053547 0.06256172
0.07234342 0.13053547 0.06256172
0.08464669 0.13053547 0.06256172
0.09863081 0.13053547 0.06256172
0.11398608 0.13053547 0.06256172
0.13053547 0.13053547 0.06256172
0.14816077 0.13053547 0.06256172
0.16677593 0.13053547 0.06256172
0.18631477 0.13053547 0.06256180
0.20672440 0.13053547 0.06256172
0.22796130 0.13053547 0.06256172
0.24998888 0.13053547 0.06256182
0.27277582 0.13053547 0.06256182
0.29629492 0.13053547 0.06256172
0.32052228 0.13053547 0.06256172
0.34543671 0.13053547 0.06256185
0.37101922 0.13053547 0.06256185
0.39725268 0.13053547 0.06256172
0.42412156 0.13053547 0.06256172
0.45161167 0.13053547 0.06256172
0.47970999 0.13053547 0.06256172
0.50840453 0.13053547 0.06256172
0.53768417 0.13053547 0.06256172
0.56753859 0.13053547 0.06256172
0.59795818 0.13053547 0.06256172
0.62893395 0.13053547 0.06256172
0.66045746 0.13053547 0.06256172
0.69252078 0.13053547 0.06256172
0.72511646 0.13053547 0.06256172
0.75823743 0.13053547 0.06256172
0.79187703 0.13053547 0.06256172
0.06256179 0.14816077 0.06256172
0.06256179 0.14816077 0.06256172
0.06256179 0.14816077 0.06256172
0.07234342 0.14816077 0.06256179
0.08464669 0.14816077 0.06256172
0.09863081 0.14816077 0.06256172
0.11398608 0.14816077 0.06256172
0.13053547 0.14816077 0.06256172
0.14816077 0.14816077 0.06256172
0.16677593 0.14816077 0.06256172
0.18631477 0.14816077 0.06256180
0.20672440 0.14816077 0.06256172
0.22796130 0.14816077 0.06256172
0.24998888 0.14816077 0.06256172
0.27277582 0.14816077 0.06256172
0.29629492 0.14816077 0.06256172
0.32052228 0.14816077 0.06256184
0.34543671 0.14816077 0.06256172
0.37101922 0.14816077 0.06256172
0.39725268 0.14816077 0.06256172
0.42412156 0.14816077 0.06256172
0.45161167 0.14816077 0.06256172
0.47970999 0.14816077 0.06256172
0.50840453 0.14816077 0.06256172
0.53768417 0.14816077 0.06256172
0.56753859 0.14816077 0.06256172
0.59795818 0.14816077 0.06256172
0.62893395 0.14816077 0.06256172
0.66045746 0.14816077 0.06256172
0.69252078 0.14816077 0.06256172
0.72511646 0.14816077 0.06256172
0.75823743 0.14816077 0.06256172
0.79187703 0.14816077 0.06256172
0.06256181 0.16677593 0.06256172
0.06256181 0.16677593 0.06256172
0.06256181 0.16677593 0.06256172
0.07234342 0.16677593 0.06256172
0.08464669 0.16677593 0.06256172
0.09863081 0.16677593 0.06256172
0.11398608 0.16677593 0.06256172
0.13053547 0.16677593 0.06256172
0.14816077 0.16677593 0.06256172
0.16677593 0.16677593 0.06256172
0.18631477 0.16677593 0.06256172
0.20672440 0.16677593 0.06256181
0.22796130 0.16677593 0.06256172
0.24998888 0.16677593 0.06256182
0.27277582 0.16677593 0.06256172
0.29629492 0.16677593 0.06256172
0.32052228 0.16677593 0.06256184
0.34543671 0.16677593 0.06256185
0.37101922 0.16677593 0.06256185
0.39725268 0.16677593 0.06256187
0.42412156 0.16677593 0.06256172
0.45161167 0.16677593 0.06256172
0.47970999 0.16677593 0.06256172
0.50840453 0.16677593 0.06256191
0.53768417 0.16677593 0.06256191
0.56753859 0.16677593 0.06256194
0.59795818 0.16677593 0.06256172
0.62893395 0.16677593 0.06256172
0.66045746 0.16677593 0.06256197
0.69252078 0.16677593 0.06256172
0.72511646 0.16677593 0.06256200
0.75823743 0.16677593 0.06256172
0.79187703 0.16677593 0.06256172
0.06256182 0.18631477 0.06256172
0.06256182 0.18631477 0.06256172
0.06256182 0.18631477 0.06256172
0.07234342 0.18631477 0.06256172
0.08464669 0.18631477 0.06256172
0.09863081 0.18631477 0.06256172
0.11398608 0.18631477 0.06256172
0.13053547 0.18631477 0.06256172
0.14816077 0.18631477 0.06256172
0.16677593 0.18631477 0.06256172
0.18631477 0.18631477 0.06256172
0.20672440 0.18631477 0.06256172
0.22796130 0.18631477 0.06256172
0.24998888 0.18631477 0.06256182
0.27277582 0.18631477 0.06256172
0.29629492 0.18631477 0.06256172
0.32052228 0.18631477 0.06256172
0.34543671 0.18631477 0.06256172
0.37101922 0.18631477 0.06256172
0.39725268 0.18631477 0.06256172
0.42412156 0.18631477 0.06256172
0.45161167 0.18631477 0.06256172
0.47970999 0.18631477 0.06256172
0.50840453 0.18631477 0.06256172
0.53768417 0.18631477 0.06256172
0.56753859 0.18631477 0.06256194
0.59795818 0.18631477 0.06256172
0.62893395 0.18631477 0.06256172
0.66045746 0.18631477 0.06256172
0.69252078 0.18631477 0.06256172
0.72511646 0.18631477 0.06256172
0.75823743 0.18631477 0.06256172
0.79187703 0.18631477 0.06256172
0.06256180 0.20672440 0.06256172
0.06256180 0.20672440 0.06256172
0.06256180 0.20672440 0.06256172
0.07234342 0.20672440 0.06256172
0.08464669 0.20672440 0.06256172
0.09863081 0.20672440 0.06256172
0.11398608 0.20672440 0.06256172
0.13053547 0.20672440 0.06256172
0.14816077 0.20672440 0.06256172
0.16677593 0.20672440 0.06256172
0.18631477 0.20672440 0.06256172
0.20672440 0.20672440 0.06256182
0.22796130 0.20672440 0.06256172
0.24998888 0.20672440 0.06256172
0.27277582 0.20672440 0.06256172
0.29629492 0.20672440 0.06256172
0.32052228 0.20672440 0.06256172
0.34543671 0.20672440 0.06256172
0.37101922 0.20672440 0.06256172
0.39725268 0.20672440 0.06256172
0.42412156 0.20672440 0.06256172
0.45161167 0.20672440 0.06256172
0.47970999 0.20672440 0.06256189
0.50840453 0.20672440 0.06256172
0.53768417 0.20672440 0.06256172
0.56753859 0.20672440 0.06256172
0.59795818 0.20672440 0.06256172
0.62893395 0.20672440 0.06256172
0.66045746 0.20672440 0.06256172
0.69252078 0.20672440 0.06256172
0.72511646 0.20672440 0.06256200
0.75823743 0.20672440 0.06256172
0.79187703 0.20672440 0.06256172
0.06256183 0.22796130 0.06256181
0.06256183 0.22796130 0.06256181
0.06256183 0.22796130 0.06256181
0.07234342 0.22796130 0.06256172
0.08464669 0.22796130 0.06256172
0.09863081 0.22796130 0.06256182
0.11398608 0.22796130 0.06256182
0.13053547 0.22796130 0.06256172
0.14816077 0.22796130 0.06256172
0.16677593 0.22796130 0.06256182
0.18631477 0.22796130 0.06256172
0.20672440 0.22796130 0.06256172
0.22796130 0.22796130 0.06256182
0.24998888 0.22796130 0.06256172
0.27277582 0.22796130 0.06256172
0.29629492 0.22796130 0.06256172
0.32052228 0.22796130 0.06256185
0.34543671 0.22796130 0.06256172
0.37101922 0.22796130 0.06256185
0.39725268 0.22796130 0.06256172
0.42412156 0.22796130 0.06256172
0.45161167 0.22796130 0.06256172
0.47970999 0.22796130 0.06256189
0.50840453 0.22796130 0.06256172
0.53768417 0.22796130 0.06256172
0.56753859 0.22796130 0.06256194
0.59795818 0.22796130 0.06256172
0.62893395 0.22796130 0.06256197
0.66045746 0.22796130 0.06256197
0.69252078 0.22796130 0.06256172
0.72511646 0.22796130 0.06256200
0.75823743 0.22796130 0.06256172
0.79187703 0.22796130 0.06256172
0.06256183 0.24998888 0.06256172
0.06256183 0.24998888 0.06256172
0.06256183 0.24998888 0.06256172
0.07234342 0.24998888 0.06256182
0.08464669 0.24998888 0.06256172
0.09863081 0.24998888 0.06256172
0.11398608 0.24998888 0.06256182
0.13053547 0.24998888 0.06256172
0.14816077 0.24998888 0.06256172
0.16677593 0.24998888 0.06256172
0.18631477 0.24998888 0.06256182
0.20672440 0.24998888 0.06256172
0.22796130 0.24998888 0.06256172
0.24998888 0.24998888 0.06256184
0.27277582 0.24998888 0.06256172
0.29629492 0.24998888 0.06256172
0.32052228 0.24998888 0.06256172
0.34543671 0.24998888 0.06256172
0.37101922 0.24998888 0.06256187
0.39725268 0.24998888 0.06256172
0.42412156 0.24998888 0.06256172
0.45161167 0.24998888 0.06256172
0.47970999 0.24998888 0.06256172
0.50840453 0.24998888 0.06256172
0.53768417 0.24998888 0.06256172
0.56753859 0.24998888 0.06256172
0.59795818 0.24998888 0.06256172
0.62893395 0.24998888 0.06256172
0.66045746 0.24998888 0.06256197
0.69252078 0.24998888 0.06256172
0.72511646 0.24998888 0.06256172
0.75823743 0.24998888 0.06256172
0.79187703 0.24998888 0.06256172
0.06256183 0.27277582 0.06256172
0.06256183 0.27277582 0.06256172
0.06256183 0.27277582 0.06256172
0.07234342 0.27277582 0.06256172
0.08464669 0.27277582 0.06256172
0.09863081 0.27277582 0.06256172
0.11398608 0.27277582 0.06256172
0.13053547 0.27277582 0.06256172
0.14816077 0.27277582 0.06256172
0.16677593 0.27277582 0.06256172
0.18631477 0.27277582 0.06256185
0.20672440 0.27277582 0.06256184
0.22796130 0.27277582 0.06256172
0.24998888 0.27277582 0.06256184
0.27277582 0.27277582 0.06256172
0.29629492 0.27277582 0.06256172
0.32052228 0.27277582 0.06256185
0.34543671 0.27277582 0.06256187
0.37101922 0.27277582 0.06256187
0.39725268 0.27277582 0.06256172
0.42412156 0.27277582 0.06256172
0.45161167 0.27277582 0.06256172
0.47970999 0.27277582 0.06256189
0.50840453 0.27277582 0.06256172
0.53768417 0.27277582 0.06256191
0.56753859 0.27277582 0.06256172
0.59795818 0.27277582 0.06256172
0.62893395 0.27277582 0.06256172
0.66045746 0.27277582 0.06256172
0.69252078 0.27277582 0.06256172
0.72511646 0.27277582 0.06256172
0.75823743 0.27277582 0.06256172
0.79187703 0.27277582 0.06256204
0.06256187 0.29629492 0.06256172
0.06256187 0.29629492 0.06256172
0.06256187 0.29629492 0.06256172
0.07234342 0.29629492 0.06256172
0.08464669 0.29629492 0.06256172
0.09863081 0.29629492 0.06256172
0.11398608 0.29629492 0.06256172
0.13053547 0.29629492 0.06256172
0.14816077 0.29629492 0.06256172
0.16677593 0.29629492 0.06256172
0.18631477 0.29629492 0.06256172
0.20672440 0.29629492 0.06256172
0.22796130 0.29629492 0.06256172
0.24998888 0.29629492 0.06256172
0.27277582 0.29629492 0.06256172
0.29629492 0.29629492 0.06256172
0.32052228 0.29629492 0.06256172
0.34543671 0.29629492 0.06256172
0.37101922 0.29629492 0.06256172
0.39725268 0.29629492 0.06256172
0.42412156 0.29629492 0.06256172
0.45161167 0.29629492 0.06256172
0.47970999 0.29629492 0.06256189
0.50840453 0.29629492 0.06256172
0.53768417 0.29629492 0.06256172
0.56753859 0.29629492 0.06256172
0.59795818 0.29629492 0.06256172
0.62893395 0.29629492 0.06256172
0.66045746 0.29629492 0.06256172
0.69252078 0.29629492 0.06256172
0.72511646 0.29629492 0.06256172
0.75823743 0.29629492 0.06256172
0.79187703 0.29629492 0.06256204
0.06256172 0.32052228 0.06256172
0.06256172 0.32052228 0.06256172
0.06256172 0.32052228 0.06256172
0.07234342 0.32052228 0.06256172
0.08464669 0.32052228 0.06256172
0.09863081 0.32052228 0.06256172
0.11398608 0.32052228 0.06256172
0.13053547 0.32052228 0.06256172
0.14816077 0.32052228 0.06256172
0.16677593 0.32052228 0.06256172
0.18631477 0.32052228 0.06256172
0.20672440 0.32052228 0.06256172
0.22796130 0.32052228 0.06256172
0.24998888 0.32052228 0.06256172
0.27277582 0.32052228 0.06256185
0.29629492 0.32052228 0.06256185
0.32052228 0.32052228 0.06256172
0.34543671 0.32052228 0.06256172
0.37101922 0.32052228 0.06256172
0.39725268 0.32052228 0.06256172
0.42412156 0.32052228 0.06256172
0.45161167 0.32052228 0.06256172
0.47970999 0.32052228 0.06256189
0.50840453 0.32052228 0.06256172
0.53768417 0.32052228 0.06256172
0.56753859 0.32052228 0.06256172
0.59795818 0.32052228 0.06256172
0.62893395 0.32052228 0.06256172
0.66045746 0.32052228 0.06256172
0.69252078 0.32052228 0.06256172
0.72511646 0.32052228 0.06256172
0.75823743 0.32052228 0.06256172
0.79187703 0.32052228 0.06256172
0.06256188 0.34543671 0.06256172
0.06256188 0.34543671 0.06256172
0.06256188 0.34543671 0.06256172
0.07234342 0.34543671 0.06256172
0.08464669 0.34543671 0.06256172
0.09863081 0.34543671 0.06256172
0.11398608 0.34543671 0.06256172
0.13053547 0.34543671 0.06256172
0.14816077 0.34543671 0.06256185
0.16677593 0.34543671 0.06256172
0.18631477 0.34543671 0.06256185
0.20672440 0.34543671 0.06256185
0.22796130 0.34543671 0.06256172
0.24998888 0.34543671 0.06256185
0.27277582 0.34543671 0.06256172
0.29629492 0.34543671 0.06256172
0.32052228 0.34543671 0.06256187
0.34543671 0.34543671 0.06256172
0.37101922 0.34543671 0.06256172
0.39725268 0.34543671 0.06256172
0.42412156 0.34543671 0.06256172
0.45161167 0.34543671 0.06256189
0.47970999 0.34543671 0.06256172
0.50840453 0.34543671 0.06256172
0.53768417 0.34543671 0.06256172
0.56753859 0.34543671 0.06256172
0.59795818 0.34543671 0.06256172
0.62893395 0.34543671 0.06256197
0.66045746 0.34543671 0.06256197
0.69252078 0.34543671 0.06256172
0.72511646 0.34543671 0.06256172
0.75823743 0.34543671 0.06256204
0.79187703 0.34543671 0.06256204
0.06256189 0.37101922 0.06256172
0.06256189 0.37101922 0.06256172
0.06256189 0.37101922 0.06256172
0.07234342 0.37101922 0.06256172
0.08464669 0.37101922 0.06256172
0.09863081 0.37101922 0.06256172
0.11398608 0.37101922 0.06256172
0.13053547 0.37101922 0.06256172
0.14816077 0.37101922 0.06256172
0.16677593 0.37101922 0.06256172
0.18631477 0.37101922 0.06256172
0.20672440 0.37101922 0.06256187
0.22796130 0.37101922 0.06256172
0.24998888 0.37101922 0.06256172
0.27277582 0.37101922 0.06256172
0.29629492 0.37101922 0.06256172
0.32052228 0.37101922 0.06256172
0.34543671 0.37101922 0.06256172
0.37101922 0.37101922 0.06256172
0.39725268 0.37101922 0.06256172
0.42412156 0.37101922 0.06256172
0.45161167 0.37101922 0.06256172
0.47970999 0.37101922 0.06256172
0.50840453 0.37101922 0.06256172
0.53768417 0.37101922 0.06256172
0.56753859 0.37101922 0.06256172
0.59795818 0.37101922 0.06256172
0.62893395 0.37101922 0.06256197
0.66045746 0.37101922 0.06256172
0.69252078 0.37101922 0.06256172
0.72511646 0.37101922 0.06256172
0.75823743 0.37101922 0.06256172
0.79187703 0.37101922 0.06256204
0.06256189 0.39725268 0.06256172
0.06256189 0.39725268 0.06256172
0.06256189 0.39725268 0.06256172
0.07234342 0.39725268 0.06256172
0.08464669 0.39725268 0.06256172
0.09863081 0.39725268 0.06256172
0.11398608 0.39725268 0.06256172
0.13053547 0.39725268 0.06256172
0.14816077 0.39725268 0.06256172
0.16677593 0.39725268 0.06256172
0.18631477 0.39725268 0.06256172
0.20672440 0.39725268 0.06256187
0.22796130 0.39725268 0.06256172
0.24998888 0.39725268 0.06256172
0.27277582 0.39725268 0.06256172
0.29629492 0.39725268 0.06256172
0.32052228 0.39725268 0.06256172
0.34543671 0.39725268 0.06256172
0.37101922 0.39725268 0.06256189
0.39725268 0.39725268 0.06256172
0.42412156 0.39725268 0.06256172
0.45161167 0.39725268 0.06256172
0.47970999 0.39725268 0.06256172
0.50840453 0.39725268 0.06256172
0.53768417 0.39725268 0.06256172
0.56753859 0.39725268 0.06256172
0.59795818 0.39725268 0.06256194
0.62893395 0.39725268 0.06256172
0.66045746 0.39725268 0.06256200
0.69252078 0.39725268 0.06256172
0.72511646 0.39725268 0.06256172
0.75823743 0.39725268 0.06256172
0.79187703 0.39725268 0.06256208
0.06256188 0.42412156 0.06256189
0.06256188 0.42412156 0.06256189
0.06256188 0.42412156 0.06256189
0.07234342 0.42412156 0.06256172
0.08464669 0.42412156 0.06256172
0.09863081 0.42412156 0.06256172
0.11398608 0.42412156 0.06256189
0.13053547 0.42412156 0.06256172
0.14816077 0.42412156 0.06256189
0.16677593 0.42412156 0.06256172
0.18631477 0.42412156 0.06256189
0.20672440 0.42412156 0.06256189
0.22796130 0.42412156 0.06256172
0.24998888 0.42412156 0.06256189
0.27277582 0.42412156 0.06256172
0.29629492 0.42412156 0.06256172
0.32052228 0.42412156 0.06256189
0.34543671 0.42412156 0.06256172
0.37101922 0.42412156 0.06256189
0.39725268 0.42412156 0.06256172
0.42412156 0.42412156 0.06256172
0.45161167 0.42412156 0.06256172
0.47970999 0.42412156 0.06256172
0.50840453 0.42412156 0.06256172
0.53768417 0.42412156 0.06256172
0.56753859 0.42412156 0.06256172
0.59795818 0.42412156 0.06256172
0.62893395 0.42412156 0.06256197
0.66045746 0.42412156 0.06256172
0.69252078 0.42412156 0.06256172
0.72511646 0.42412156 0.06256200
0.75823743 0.42412156 0.06256204
0.79187703 0.42412156 0.06256172
0.06256185 0.45161167 0.06256172
0.06256185 0.45161167 0.06256172
0.06256185 0.45161167 0.06256172
0.07234342 0.45161167 0.06256172
0.08464669 0.45161167 0.06256189
0.09863081 0.45161167 0.06256189
0.11398608 0.45161167 0.06256172
0.13053547 0.45161167 0.06256172
0.14816077 0.45161167 0.06256189
0.16677593 0.45161167 0.06256172
0.18631477 0.45161167 0.06256189
0.20672440 0.45161167 0.06256172
0.22796130 0.45161167 0.06256172
0.24998888 0.45161167 0.06256189
0.27277582 0.45161167 0.06256189
0.29629492 0.45161167 0.06256172
0.32052228 0.45161167 0.06256172
0.34543671 0.45161167 0.06256189
0.37101922 0.45161167 0.06256172
0.39725268 0.45161167 0.06256172
0.42412156 0.45161167 0.06256172
0.45161167 0.45161167 0.06256172
0.47970999 0.45161167 0.06256172
0.50840453 0.45161167 0.06256172
0.53768417 0.45161167 0.06256194
0.56753859 0.45161167 0.06256172
0.59795818 0.45161167 0.06256172
