src/ffmpeg_scripts/luts/luminance_-1p67.cube
TITLE "luminance_-1p67"
LUT_3D_SIZE 9
# PQ (EOTF Only)/Rec2020 -> PQ (EOTF Only)/Rec2020, CineEI Shift -1.67, Black Level 0.00% IRE, Input 109% -> Output 109% - Created with LUTCalc v4.01 by Ben Turley October 2020
0.06256172 0.06256172 0.06256172
0.10056658 0.06256177 0.06256172
0.19223202 0.06256179 0.06256172
0.29478474 0.06256172 0.06256172
0.40491336 0.06256172 0.06256172
0.52109081 0.06256187 0.06256172
0.64239808 0.06256172 0.06256172
0.76820911 0.06256203 0.06256204
0.89806460 0.06256211 0.06256213
0.06256178 0.10056658 0.06256172
0.10056658 0.10056658 0.06256172
0.19223202 0.10056658 0.06256172
0.29478474 0.10056658 0.06256184
0.40491336 0.10056658 0.06256172
0.52109081 0.10056658 0.06256172
0.64239808 0.10056658 0.06256172
0.76820911 0.10056658 0.06256204
0.89806460 0.10056658 0.06256213
0.06256181 0.19223202 0.06256172
0.10056658 0.19223202 0.06256172
0.19223202 0.19223202 0.06256172
0.29478474 0.19223202 0.06256172
0.40491336 0.19223202 0.06256187
0.52109081 0.19223202 0.06256172
0.64239808 0.19223202 0.06256197
0.76820911 0.19223202 0.06256172
0.89806460 0.19223202 0.06256172
0.06256186 0.29478474 0.06256184
0.10056658 0.29478474 0.06256184
0.19223202 0.29478474 0.06256172
0.29478474 0.29478474 0.06256185
0.40491336 0.29478474 0.06256187
0.52109081 0.29478474 0.06256172
0.64239808 0.29478474 0.06256172
0.76820911 0.29478474 0.06256172
0.89806460 0.29478474 0.06256213
0.06256172 0.40491336 0.06256172
0.10056658 0.40491336 0.06256187
0.19223202 0.40491336 0.06256172
0.29478474 0.40491336 0.06256172
0.40491336 0.40491336 0.06256172
0.52109081 0.40491336 0.06256172
0.64239808 0.40491336 0.06256172
0.76820911 0.40491336 0.06256172
0.89806460 0.40491336 0.06256172
0.06256196 0.52109081 0.06256172
0.10056658 0.52109081 0.06256172
0.19223202 0.52109081 0.06256191
0.29478474 0.52109081 0.06256172
0.40491336 0.52109081 0.06256172
0.52109081 0.52109081 0.06256172
0.64239808 0.52109081 0.06256172
0.76820911 0.52109081 0.06256172
0.89806460 0.52109081 0.06256172
0.06256200 0.64239808 0.06256172
0.10056658 0.64239808 0.06256172
0.19223202 0.64239808 0.06256172
0.29478474 0.64239808 0.06256172
0.40491336 0.64239808 0.06256172
0.52109081 0.64239808 0.06256200
0.64239808 0.64239808 0.06256172
0.76820911 0.64239808 0.06256172
0.89806460 0.64239808 0.06256219
0.06256206 0.76820911 0.06256172
0.10056658 0.76820911 0.06256172
0.19223202 0.76820911 0.06256172
0.29478474 0.76820911 0.06256172
0.40491336 0.76820911 0.06256172
0.52109081 0.76820911 0.06256172
0.64239808 0.76820911 0.06256172
0.76820911 0.76820911 0.06256208
0.89806460 0.76820911 0.06256172
0.06256217 0.89806460 0.06256172
0.10056658 0.89806460 0.06256223
0.19223202 0.89806460 0.06256213
0.29478474 0.89806460 0.06256172
0.40491336 0.89806460 0.06256172
0.52109081 0.89806460 0.06256172
0.64239808 0.89806460 0.06256213
0.76820911 0.89806460 0.06256172
0.89806460 0.89806460 0.06256172
0.06256172 0.06256179 0.10056658
0.10056658 0.06256179 0.10056658
0.19223202 0.06256172 0.10056658
0.29478474 0.06256172 0.10056658
0.40491336 0.06256184 0.10056658
0.52109081 0.06256172 0.10056658
0.64239808 0.06256172 0.10056658
0.76820911 0.06256210 0.10056658
0.89806460 0.06256172 0.10056658
0.06256172 0.10056658 0.10056658
0.10056658 0.10056658 0.10056658
0.19223202 0.10056658 0.10056658
0.29478474 0.10056658 0.10056658
0.40491336 0.10056658 0.10056658
0.52109081 0.10056658 0.10056658
0.64239808 0.10056658 0.10056658
0.76820911 0.10056658 0.10056658
0.89806460 0.10056658 0.10056658
0.06256172 0.19223202 0.10056658
0.10056658 0.19223202 0.10056658
0.19223202 0.19223202 0.10056658
0.29478474 0.19223202 0.10056658
0.40491336 0.19223202 0.10056658
0.52109081 0.19223202 0.10056658
0.64239808 0.19223202 0.10056658
0.76820911 0.19223202 0.10056658
0.89806460 0.19223202 0.10056658
0.06256185 0.29478474 0.10056658
0.10056658 0.29478474 0.10056658
0.19223202 0.29478474 0.10056658
0.29478474 0.29478474 0.10056658
0.40491336 0.29478474 0.10056658
0.52109081 0.29478474 0.10056658
0.64239808 0.29478474 0.10056658
0.76820911 0.29478474 0.10056658
0.89806460 0.29478474 0.10056658
0.06256189 0.40491336 0.10056658
0.10056658 0.40491336 0.10056658
0.19223202 0.40491336 0.10056658
0.29478474 0.40491336 0.10056658
0.40491336 0.40491336 0.10056658
0.52109081 0.40491336 0.10056658
0.64239808 0.40491336 0.10056658
0.76820911 0.40491336 0.10056658
0.89806460 0.40491336 0.10056658
0.06256192 0.52109081 0.10056658
0.10056658 0.52109081 0.10056658
0.19223202 0.52109081 0.10056658
0.29478474 0.52109081 0.10056658
0.40491336 0.52109081 0.10056658
0.52109081 0.52109081 0.10056658
0.64239808 0.52109081 0.10056658
0.76820911 0.52109081 0.10056658
0.89806460 0.52109081 0.10056658
0.06256202 0.64239808 0.10056658
0.10056658 0.64239808 0.10056658
0.19223202 0.64239808 0.10056658
0.29478474 0.64239808 0.10056658
0.40491336 0.64239808 0.10056658
0.52109081 0.64239808 0.10056658
0.64239808 0.64239808 0.10056658
0.76820911 0.64239808 0.10056658
0.89806460 0.64239808 0.10056658
0.06256205 0.76820911 0.10056658
0.10056658 0.76820911 0.10056658
0.19223202 0.76820911 0.10056658
0.29478474 0.76820911 0.10056658
0.40491336 0.76820911 0.10056658
0.52109081 0.76820911 0.10056658
0.64239808 0.76820911 0.10056658
0.76820911 0.76820911 0.10056658
0.89806460 0.76820911 0.10056658
0.06256223 0.89806460 0.10056658
0.10056658 0.89806460 0.10056658
0.19223202 0.89806460 0.10056658
0.29478474 0.89806460 0.10056658
0.40491336 0.89806460 0.10056658
0.52109081 0.89806460 0.10056658
0.64239808 0.89806460 0.10056658
0.76820911 0.89806460 0.10056658
0.89806460 0.89806460 0.10056658
0.06256172 0.06256184 0.19223202
0.10056658 0.06256172 0.19223202
0.19223202 0.06256172 0.19223202
0.29478474 0.06256172 0.19223202
0.40491336 0.06256185 0.19223202
0.52109081 0.06256172 0.19223202
0.64239808 0.06256172 0.19223202
0.76820911 0.06256202 0.19223202
0.89806460 0.06256204 0.19223202
0.06256181 0.10056658 0.19223202
0.10056658 0.10056658 0.19223202
0.19223202 0.10056658 0.19223202
0.29478474 0.10056658 0.19223202
0.40491336 0.10056658 0.19223202
0.52109081 0.10056658 0.19223202
0.64239808 0.10056658 0.19223202
0.76820911 0.10056658 0.19223202
0.89806460 0.10056658 0.19223202
0.06256172 0.19223202 0.19223202
0.10056658 0.19223202 0.19223202
0.19223202 0.19223202 0.19223202
0.29478474 0.19223202 0.19223202
0.40491336 0.19223202 0.19223202
0.52109081 0.19223202 0.19223202
0.64239808 0.19223202 0.19223202
0.76820911 0.19223202 0.19223202
0.89806460 0.19223202 0.19223202
0.06256172 0.29478474 0.19223202
0.10056658 0.29478474 0.19223202
0.19223202 0.29478474 0.19223202
0.29478474 0.29478474 0.19223202
0.40491336 0.29478474 0.19223202
0.52109081 0.29478474 0.19223202
0.64239808 0.29478474 0.19223202
0.76820911 0.29478474 0.19223202
0.89806460 0.29478474 0.19223202
0.06256187 0.40491336 0.19223202
0.10056658 0.40491336 0.19223202
0.19223202 0.40491336 0.19223202
0.29478474 0.40491336 0.19223202
0.40491336 0.40491336 0.19223202
0.52109081 0.40491336 0.19223202
0.64239808 0.40491336 0.19223202
0.76820911 0.40491336 0.19223202
0.89806460 0.40491336 0.19223202
0.06256196 0.52109081 0.19223202
0.10056658 0.52109081 0.19223202
0.19223202 0.52109081 0.19223202
0.29478474 0.52109081 0.19223202
0.40491336 0.52109081 0.19223202
0.52109081 0.52109081 0.19223202
0.64239808 0.52109081 0.19223202
0.76820911 0.52109081 0.19223202
0.89806460 0.52109081 0.19223202
0.06256172 0.64239808 0.19223202
0.10056658 0.64239808 0.19223202
0.19223202 0.64239808 0.19223202
0.29478474 0.64239808 0.19223202
0.40491336 0.64239808 0.19223202
0.52109081 0.64239808 0.19223202
0.64239808 0.64239808 0.19223202
0.76820911 0.64239808 0.19223202
0.89806460 0.64239808 0.19223202
0.06256208 0.76820911 0.19223202
0.10056658 0.76820911 0.19223202
0.19223202 0.76820911 0.19223202
0.29478474 0.76820911 0.19223202
0.40491336 0.76820911 0.19223202
0.52109081 0.76820911 0.19223202
0.64239808 0.76820911 0.19223202
0.76820911 0.76820911 0.19223202
0.89806460 0.76820911 0.19223202
0.06256215 0.89806460 0.19223202
0.10056658 0.89806460 0.19223202
0.19223202 0.89806460 0.19223202
0.29478474 0.89806460 0.19223202
0.40491336 0.89806460 0.19223202
0.52109081 0.89806460 0.19223202
0.64239808 0.89806460 0.19223202
0.76820911 0.89806460 0.19223202
0.89806460 0.89806460 0.19223202
0.06256172 0.06256189 0.29478474
0.10056658 0.06256172 0.29478474
0.19223202 0.06256187 0.29478474
0.29478474 0.06256187 0.29478474
0.40491336 0.06256189 0.29478474
0.52109081 0.06256195 0.29478474
0.64239808 0.06256172 0.29478474
0.76820911 0.06256197 0.29478474
0.89806460 0.06256211 0.29478474
0.06256172 0.10056658 0.29478474
0.10056658 0.10056658 0.29478474
0.19223202 0.10056658 0.29478474
0.29478474 0.10056658 0.29478474
0.40491336 0.10056658 0.29478474
0.52109081 0.10056658 0.29478474
0.64239808 0.10056658 0.29478474
0.76820911 0.10056658 0.29478474
0.89806460 0.10056658 0.29478474
0.06256172 0.19223202 0.29478474
0.10056658 0.19223202 0.29478474
0.19223202 0.19223202 0.29478474
0.29478474 0.19223202 0.29478474
0.40491336 0.19223202 0.29478474
0.52109081 0.19223202 0.29478474
0.64239808 0.19223202 0.29478474
0.76820911 0.19223202 0.29478474
0.89806460 0.19223202 0.29478474
0.06256172 0.29478474 0.29478474
0.10056658 0.29478474 0.29478474
0.19223202 0.29478474 0.29478474
0.29478474 0.29478474 0.29478474
0.40491336 0.29478474 0.29478474
0.52109081 0.29478474 0.29478474
0.64239808 0.29478474 0.29478474
0.76820911 0.29478474 0.29478474
0.89806460 0.29478474 0.29478474
0.06256188 0.40491336 0.29478474
0.10056658 0.40491336 0.29478474
0.19223202 0.40491336 0.29478474
0.29478474 0.40491336 0.29478474
0.40491336 0.40491336 0.29478474
0.52109081 0.40491336 0.29478474
0.64239808 0.40491336 0.29478474
0.76820911 0.40491336 0.29478474
0.89806460 0.40491336 0.29478474
0.06256172 0.52109081 0.29478474
0.10056658 0.52109081 0.29478474
0.19223202 0.52109081 0.29478474
0.29478474 0.52109081 0.29478474
0.40491336 0.52109081 0.29478474
0.52109081 0.52109081 0.29478474
0.64239808 0.52109081 0.29478474
0.76820911 0.52109081 0.29478474
0.89806460 0.52109081 0.29478474
0.06256204 0.64239808 0.29478474
0.10056658 0.64239808 0.29478474
0.19223202 0.64239808 0.29478474
0.29478474 0.64239808 0.29478474
0.40491336 0.64239808 0.29478474
0.52109081 0.64239808 0.29478474
0.64239808 0.64239808 0.29478474
0.76820911 0.64239808 0.29478474
0.89806460 0.64239808 0.29478474
0.06256204 0.76820911 0.29478474
0.10056658 0.76820911 0.29478474
0.19223202 0.76820911 0.29478474
0.29478474 0.76820911 0.29478474
0.40491336 0.76820911 0.29478474
0.52109081 0.76820911 0.29478474
0.64239808 0.76820911 0.29478474
0.76820911 0.76820911 0.29478474
0.89806460 0.76820911 0.29478474
0.06256216 0.89806460 0.29478474
0.10056658 0.89806460 0.29478474
0.19223202 0.89806460 0.29478474
0.29478474 0.89806460 0.29478474
0.40491336 0.89806460 0.29478474
0.52109081 0.89806460 0.29478474
0.64239808 0.89806460 0.29478474
0.76820911 0.89806460 0.29478474
0.89806460 0.89806460 0.29478474
0.06256172 0.06256194 0.40491336
0.10056658 0.06256194 0.40491336
0.19223202 0.06256172 0.40491336
0.29478474 0.06256194 0.40491336
0.40491336 0.06256194 0.40491336
0.52109081 0.06256172 0.40491336
0.64239808 0.06256172 0.40491336
0.76820911 0.06256204 0.40491336
0.89806460 0.06256208 0.40491336
0.06256172 0.10056658 0.40491336
0.10056658 0.10056658 0.40491336
0.19223202 0.10056658 0.40491336
0.29478474 0.10056658 0.40491336
0.40491336 0.10056658 0.40491336
0.52109081 0.10056658 0.40491336
0.64239808 0.10056658 0.40491336
0.76820911 0.10056658 0.40491336
0.89806460 0.10056658 0.40491336
0.06256172 0.19223202 0.40491336
0.10056658 0.19223202 0.40491336
0.19223202 0.19223202 0.40491336
0.29478474 0.19223202 0.40491336
0.40491336 0.19223202 0.40491336
0.52109081 0.19223202 0.40491336
0.64239808 0.19223202 0.40491336
0.76820911 0.19223202 0.40491336
0.89806460 0.19223202 0.40491336
0.06256172 0.29478474 0.40491336
0.10056658 0.29478474 0.40491336
0.19223202 0.29478474 0.40491336
0.29478474 0.29478474 0.40491336
0.40491336 0.29478474 0.40491336
0.52109081 0.29478474 0.40491336
0.64239808 0.29478474 0.40491336
0.76820911 0.29478474 0.40491336
0.89806460 0.29478474 0.40491336
0.06256172 0.40491336 0.40491336
0.10056658 0.40491336 0.40491336
0.19223202 0.40491336 0.40491336
0.29478474 0.40491336 0.40491336
0.40491336 0.40491336 0.40491336
0.52109081 0.40491336 0.40491336
0.64239808 0.40491336 0.40491336
0.76820911 0.40491336 0.40491336
0.89806460 0.40491336 0.40491336
0.06256197 0.52109081 0.40491336
0.10056658 0.52109081 0.40491336
0.19223202 0.52109081 0.40491336
0.29478474 0.52109081 0.40491336
0.40491336 0.52109081 0.40491336
0.52109081 0.52109081 0.40491336
0.64239808 0.52109081 0.40491336
0.76820911 0.52109081 0.40491336
0.89806460 0.52109081 0.40491336
0.06256201 0.64239808 0.40491336
0.10056658 0.64239808 0.40491336
0.19223202 0.64239808 0.40491336
0.29478474 0.64239808 0.40491336
0.40491336 0.64239808 0.40491336
0.52109081 0.64239808 0.40491336
0.64239808 0.64239808 0.40491336
0.76820911 0.64239808 0.40491336
0.89806460 0.64239808 0.40491336
0.06256209 0.76820911 0.40491336
0.10056658 0.76820911 0.40491336
0.19223202 0.76820911 0.40491336
0.29478474 0.76820911 0.40491336
0.40491336 0.76820911 0.40491336
0.52109081 0.76820911 0.40491336
0.64239808 0.76820911 0.40491336
0.76820911 0.76820911 0.40491336
0.89806460 0.76820911 0.40491336
0.06256172 0.89806460 0.40491336
0.10056658 0.89806460 0.40491336
0.19223202 0.89806460 0.40491336
0.29478474 0.89806460 0.40491336
0.40491336 0.89806460 0.40491336
0.52109081 0.89806460 0.40491336
0.64239808 0.89806460 0.40491336
0.76820911 0.89806460 0.40491336
0.89806460 0.89806460 0.40491336
0.06256194 0.06256204 0.52109081
0.10056658 0.06256200 0.52109081
0.19223202 0.06256204 0.52109081
0.29478474 0.06256200 0.52109081
0.40491336 0.06256204 0.52109081
0.52109081 0.06256200 0.52109081
0.64239808 0.06256200 0.52109081
0.76820911 0.06256206 0.52109081
0.89806460 0.06256172 0.52109081
0.06256172 0.10056658 0.52109081
0.10056658 0.10056658 0.52109081
0.19223202 0.10056658 0.52109081
0.29478474 0.10056658 0.52109081
0.40491336 0.10056658 0.52109081
0.52109081 0.10056658 0.52109081
0.64239808 0.10056658 0.52109081
0.76820911 0.10056658 0.52109081
0.89806460 0.10056658 0.52109081
0.06256194 0.19223202 0.52109081
0.10056658 0.19223202 0.52109081
0.19223202 0.19223202 0.52109081
0.29478474 0.19223202 0.52109081
0.40491336 0.19223202 0.52109081
0.52109081 0.19223202 0.52109081
0.64239808 0.19223202 0.52109081
0.76820911 0.19223202 0.52109081
0.89806460 0.19223202 0.52109081
0.06256172 0.29478474 0.52109081
0.10056658 0.29478474 0.52109081
0.19223202 0.29478474 0.52109081
0.29478474 0.29478474 0.52109081
0.40491336 0.29478474 0.52109081
0.52109081 0.29478474 0.52109081
0.64239808 0.29478474 0.52109081
0.76820911 0.29478474 0.52109081
0.89806460 0.29478474 0.52109081
0.06256172 0.40491336 0.52109081
0.10056658 0.40491336 0.52109081
0.19223202 0.40491336 0.52109081
0.29478474 0.40491336 0.52109081
0.40491336 0.40491336 0.52109081
0.52109081 0.40491336 0.52109081
0.64239808 0.40491336 0.52109081
0.76820911 0.40491336 0.52109081
0.89806460 0.40491336 0.52109081
0.06256197 0.52109081 0.52109081
0.10056658 0.52109081 0.52109081
0.19223202 0.52109081 0.52109081
0.29478474 0.52109081 0.52109081
0.40491336 0.52109081 0.52109081
0.52109081 0.52109081 0.52109081
0.64239808 0.52109081 0.52109081
0.76820911 0.52109081 0.52109081
0.89806460 0.52109081 0.52109081
0.06256206 0.64239808 0.52109081
0.10056658 0.64239808 0.52109081
0.19223202 0.64239808 0.52109081
0.29478474 0.64239808 0.52109081
0.40491336 0.64239808 0.52109081
0.52109081 0.64239808 0.52109081
0.64239808 0.64239808 0.52109081
0.76820911 0.64239808 0.52109081
0.89806460 0.64239808 0.52109081
0.06256197 0.76820911 0.52109081
0.10056658 0.76820911 0.52109081
0.19223202 0.76820911 0.52109081
0.29478474 0.76820911 0.52109081
0.40491336 0.76820911 0.52109081
0.52109081 0.76820911 0.52109081
0.64239808 0.76820911 0.52109081
0.76820911 0.76820911 0.52109081
0.89806460 0.76820911 0.52109081
0.06256223 0.89806460 0.52109081
0.10056658 0.89806460 0.52109081
0.19223202 0.89806460 0.52109081
0.29478474 0.89806460 0.52109081
0.40491336 0.89806460 0.52109081
0.52109081 0.89806460 0.52109081
0.64239808 0.89806460 0.52109081
0.76820911 0.89806460 0.52109081
0.89806460 0.89806460 0.52109081
0.06256172 0.06256204 0.64239808
0.10056658 0.06256204 0.64239808
0.19223202 0.06256172 0.64239808
0.29478474 0.06256204 0.64239808
0.40491336 0.06256204 0.64239808
0.52109081 0.06256172 0.64239808
0.64239808 0.06256208 0.64239808
0.76820911 0.06256172 0.64239808
0.89806460 0.06256172 0.64239808
0.06256172 0.10056658 0.64239808
0.10056658 0.10056658 0.64239808
0.19223202 0.10056658 0.64239808
0.29478474 0.10056658 0.64239808
0.40491336 0.10056658 0.64239808
0.52109081 0.10056658 0.64239808
0.64239808 0.10056658 0.64239808
0.76820911 0.10056658 0.64239808
0.89806460 0.10056658 0.64239808
0.06256172 0.19223202 0.64239808
0.10056658 0.19223202 0.64239808
0.19223202 0.19223202 0.64239808
0.29478474 0.19223202 0.64239808
0.40491336 0.19223202 0.64239808
0.52109081 0.19223202 0.64239808
0.64239808 0.19223202 0.64239808
0.76820911 0.19223202 0.64239808
0.89806460 0.19223202 0.64239808
0.06256172 0.29478474 0.64239808
0.10056658 0.29478474 0.64239808
0.19223202 0.29478474 0.64239808
0.29478474 0.29478474 0.64239808
0.40491336 0.29478474 0.64239808
0.52109081 0.29478474 0.64239808
0.64239808 0.29478474 0.64239808
0.76820911 0.29478474 0.64239808
0.89806460 0.29478474 0.64239808
0.06256172 0.40491336 0.64239808
0.10056658 0.40491336 0.64239808
0.19223202 0.40491336 0.64239808
0.29478474 0.40491336 0.64239808
0.40491336 0.40491336 0.64239808
0.52109081 0.40491336 0.64239808
0.64239808 0.40491336 0.64239808
0.76820911 0.40491336 0.64239808
0.89806460 0.40491336 0.64239808
0.06256172 0.52109081 0.64239808
0.10056658 0.52109081 0.64239808
0.19223202 0.52109081 0.64239808
0.29478474 0.52109081 0.64239808
0.40491336 0.52109081 0.64239808
0.52109081 0.52109081 0.64239808
0.64239808 0.52109081 0.64239808
0.76820911 0.52109081 0.64239808
0.89806460 0.52109081 0.64239808
0.06256172 0.64239808 0.64239808
0.10056658 0.64239808 0.64239808
0.19223202 0.64239808 0.64239808
0.29478474 0.64239808 0.64239808
0.40491336 0.64239808 0.64239808
0.52109081 0.64239808 0.64239808
0.64239808 0.64239808 0.64239808
0.76820911 0.64239808 0.64239808
0.89806460 0.64239808 0.64239808
0.06256204 0.76820911 0.64239808
0.10056658 0.76820911 0.64239808
0.19223202 0.76820911 0.64239808
0.29478474 0.76820911 0.64239808
0.40491336 0.76820911 0.64239808
0.52109081 0.76820911 0.64239808
0.64239808 0.76820911 0.64239808
0.76820911 0.76820911 0.64239808
0.89806460 0.76820911 0.64239808
0.06256217 0.89806460 0.64239808
0.10056658 0.89806460 0.64239808
0.19223202 0.89806460 0.64239808
0.29478474 0.89806460 0.64239808
0.40491336 0.89806460 0.64239808
0.52109081 0.89806460 0.64239808
0.64239808 0.89806460 0.64239808
0.76820911 0.89806460 0.64239808
0.89806460 0.89806460 0.64239808
0.06256172 0.06256223 0.76820911
0.10056658 0.06256219 0.76820911
0.19223202 0.06256219 0.76820911
0.29478474 0.06256219 0.76820911
0.40491336 0.06256172 0.76820911
0.52109081 0.06256213 0.76820911
0.64239808 0.06256219 0.76820911
0.76820911 0.06256223 0.76820911
0.89806460 0.06256231 0.76820911
0.06256208 0.10056658 0.76820911
0.10056658 0.10056658 0.76820911
0.19223202 0.10056658 0.76820911
0.29478474 0.10056658 0.76820911
0.40491336 0.10056658 0.76820911
0.52109081 0.10056658 0.76820911
0.64239808 0.10056658 0.76820911
0.76820911 0.10056658 0.76820911
0.89806460 0.10056658 0.76820911
0.06256172 0.19223202 0.76820911
0.10056658 0.19223202 0.76820911
0.19223202 0.19223202 0.76820911
0.29478474 0.19223202 0.76820911
0.40491336 0.19223202 0.76820911
0.52109081 0.19223202 0.76820911
0.64239808 0.19223202 0.76820911
0.76820911 0.19223202 0.76820911
0.89806460 0.19223202 0.76820911
0.06256172 0.29478474 0.76820911
0.10056658 0.29478474 0.76820911
0.19223202 0.29478474 0.76820911
0.29478474 0.29478474 0.76820911
0.40491336 0.29478474 0.76820911
0.52109081 0.29478474 0.76820911
0.64239808 0.29478474 0.76820911
0.76820911 0.29478474 0.76820911
0.89806460 0.29478474 0.76820911
0.06256172 0.40491336 0.76820911
0.10056658 0.40491336 0.76820911
0.19223202 0.40491336 0.76820911
0.29478474 0.40491336 0.76820911
0.40491336 0.40491336 0.76820911
0.52109081 0.40491336 0.76820911
0.64239808 0.40491336 0.76820911
0.76820911 0.40491336 0.76820911
0.89806460 0.40491336 0.76820911
0.06256172 0.52109081 0.76820911
0.10056658 0.52109081 0.76820911
0.19223202 0.52109081 0.76820911
0.29478474 0.52109081 0.76820911
0.40491336 0.52109081 0.76820911
0.52109081 0.52109081 0.76820911
0.64239808 0.52109081 0.76820911
0.76820911 0.52109081 0.76820911
0.89806460 0.52109081 0.76820911
0.06256172 0.64239808 0.76820911
0.10056658 0.64239808 0.76820911
0.19223202 0.64239808 0.76820911
0.29478474 0.64239808 0.76820911
0.40491336 0.64239808 0.76820911
0.52109081 0.64239808 0.76820911
0.64239808 0.64239808 0.76820911
0.76820911 0.64239808 0.76820911
0.89806460 0.64239808 0.76820911
0.06256172 0.76820911 0.76820911
0.10056658 0.76820911 0.76820911
0.19223202 0.76820911 0.76820911
0.29478474 0.76820911 0.76820911
0.40491336 0.76820911 0.76820911
0.52109081 0.76820911 0.76820911
0.64239808 0.76820911 0.76820911
0.76820911 0.76820911 0.76820911
0.89806460 0.76820911 0.76820911
0.06256223 0.89806460 0.76820911
0.10056658 0.89806460 0.76820911
0.19223202 0.89806460 0.76820911
0.29478474 0.89806460 0.76820911
0.40491336 0.89806460 0.76820911
0.52109081 0.89806460 0.76820911
0.64239808 0.89806460 0.76820911
0.76820911 0.89806460 0.76820911
0.89806460 0.89806460 0.76820911
0.06256219 0.06256235 0.89806460
0.10056658 0.06256227 0.89806460
0.19223202 0.06256235 0.89806460
0.29478474 0.06256227 0.89806460
0.40491336 0.06256241 0.89806460
0.52109081 0.06256227 0.89806460
0.64239808 0.06256227 0.89806460
0.76820911 0.06256227 0.89806460
0.89806460 0.06256235 0.89806460
0.06256172 0.10056658 0.89806460
0.10056658 0.10056658 0.89806460
0.19223202 0.10056658 0.89806460
0.29478474 0.10056658 0.89806460
0.40491336 0.10056658 0.89806460
0.52109081 0.10056658 0.89806460
0.64239808 0.10056658 0.89806460
0.76820911 0.10056658 0.89806460
0.89806460 0.10056658 0.89806460
0.06256172 0.19223202 0.89806460
0.10056658 0.19223202 0.89806460
0.19223202 0.19223202 0.89806460
0.29478474 0.19223202 0.89806460
0.40491336 0.19223202 0.89806460
0.52109081 0.19223202 0.89806460
0.64239808 0.19223202 0.89806460
0.76820911 0.19223202 0.89806460
0.89806460 0.19223202 0.89806460
0.06256172 0.29478474 0.89806460
0.10056658 0.29478474 0.89806460
0.19223202 0.29478474 0.89806460
0.29478474 0.29478474 0.89806460
0.40491336 0.29478474 0.89806460
0.52109081 0.29478474 0.89806460
0.64239808 0.29478474 0.89806460
0.76820911 0.29478474 0.89806460
0.89806460 0.29478474 0.89806460
0.06256172 0.40491336 0.89806460
0.10056658 0.40491336 0.89806460
0.19223202 0.40491336 0.89806460
0.29478474 0.40491336 0.89806460
0.40491336 0.40491336 0.89806460
0.52109081 0.40491336 0.89806460
0.64239808 0.40491336 0.89806460
0.76820911 0.40491336 0.89806460
0.89806460 0.40491336 0.89806460
0.06256172 0.52109081 0.89806460
0.10056658 0.52109081 0.89806460
0.19223202 0.52109081 0.89806460
0.29478474 0.52109081 0.89806460
0.40491336 0.52109081 0.89806460
0.52109081 0.52109081 0.89806460
0.64239808 0.52109081 0.89806460
0.76820911 0.52109081 0.89806460
0.89806460 0.52109081 0.89806460
0.06256172 0.64239808 0.89806460
0.10056658 0.64239808 0.89806460
0.19223202 0.64239808 0.89806460
0.29478474 0.64239808 0.89806460
0.40491336 0.64239808 0.89806460
0.52109081 0.64239808 0.89806460
0.64239808 0.64239808 0.89806460
0.76820911 0.64239808 0.89806460
0.89806460 0.64239808 0.89806460
0.06256219 0.76820911 0.89806460
0.10056658 0.76820911 0.89806460
0.19223202 0.76820911 0.89806460
0.29478474 0.76820911 0.89806460
0.40491336 0.76820911 0.89806460
0.52109081 0.76820911 0.89806460
0.64239808 0.76820911 0.89806460
0.76820911 0.76820911 0.89806460
0.89806460 0.76820911 0.89806460
0.06256219 0.89806460 0.89806460
0.10056658 0.89806460 0.89806460
0.19223202 0.89806460 0.89806460
0.29478474 0.89806460 0.89806460
0.40491336 0.89806460 0.89806460
0.52109081 0.89806460 0.89806460
0.64239808 0.89806460 0.89806460
0.76820911 0.89806460 0.89806460
0.89806460 0.89806460 0.89806460
