src/ffmpeg_scripts/luts/luminance-unclipped_-2p00.cube
TITLE "luminance-unclipped_-2p00"
LUT_3D_SIZE 9
# PQ (EOTF Only)/Rec2020 -> PQ (EOTF Only)/Rec2020, CineEI Shift -2.00, Black Level -7.25% IRE, Input 109% -> Output 109% - Created with LUTCalc v4.01 by Ben Turley October 2020
0.00047898 0.00047898 0.00047898
0.04013427 0.00047898 0.00047898
0.13930017 0.00047898 0.00047898
0.25282316 0.00047898 0.00047898
0.37657197 0.00047917 0.00047916
0.50861276 0.00047917 0.00047898
0.64777019 0.00047898 0.00047898
0.79323740 0.00047934 0.00047898
0.91886608 0.00047946 0.00047946
0.00047905 0.04013427 0.00047898
0.04013427 0.04013427 0.00047898
0.13930017 0.04013427 0.00047898
0.25282316 0.04013427 0.00047898
0.37657197 0.04013427 0.00047898
0.50861276 0.04013427 0.00047898
0.64777019 0.04013427 0.00047898
0.79323740 0.04013427 0.00047898
0.91886608 0.04013427 0.00047898
0.00047898 0.13930017 0.00047898
0.04013427 0.13930017 0.00047898
0.13930017 0.13930017 0.00047898
0.25282316 0.13930017 0.00047898
0.37657197 0.13930017 0.00047916
0.50861276 0.13930017 0.00047898
0.64777019 0.13930017 0.00047898
0.79323740 0.13930017 0.00047898
0.91886608 0.13930017 0.00047898
0.00047913 0.25282316 0.00047898
0.04013427 0.25282316 0.00047898
0.13930017 0.25282316 0.00047898
0.25282316 0.25282316 0.00047914
0.37657197 0.25282316 0.00047916
0.50861276 0.25282316 0.00047898
0.64777019 0.25282316 0.00047898
0.79323740 0.25282316 0.00047935
0.91886608 0.25282316 0.00047898
0.00047898 0.37657197 0.00047898
0.04013427 0.37657197 0.00047916
0.13930017 0.37657197 0.00047916
0.25282316 0.37657197 0.00047898
0.37657197 0.37657197 0.00047898
0.50861276 0.37657197 0.00047898
0.64777019 0.37657197 0.00047898
0.79323740 0.37657197 0.00047898
0.91886608 0.37657197 0.00047898
0.00047898 0.50861276 0.00047898
0.04013427 0.50861276 0.00047920
0.13930017 0.50861276 0.00047920
0.25282316 0.50861276 0.00047898
0.37657197 0.50861276 0.00047920
0.50861276 0.50861276 0.00047898
0.64777019 0.50861276 0.00047927
0.79323740 0.50861276 0.00047898
0.91886608 0.50861276 0.00047898
0.00047928 0.64777019 0.00047898
0.04013427 0.64777019 0.00047898
0.13930017 0.64777019 0.00047898
0.25282316 0.64777019 0.00047898
0.37657197 0.64777019 0.00047898
0.50861276 0.64777019 0.00047927
0.64777019 0.64777019 0.00047898
0.79323740 0.64777019 0.00047935
0.91886608 0.64777019 0.00047946
0.00047939 0.79323740 0.00047898
0.04013427 0.79323740 0.00047898
0.13930017 0.79323740 0.00047898
0.25282316 0.79323740 0.00047935
0.37657197 0.79323740 0.00047935
0.50861276 0.79323740 0.00047898
0.64777019 0.79323740 0.00047898
0.79323740 0.79323740 0.00047898
0.91886608 0.79323740 0.00047946
0.00047952 0.91886608 0.00047946
0.04013427 0.91886608 0.00047946
0.13930017 0.91886608 0.00047946
0.25282316 0.91886608 0.00047898
0.37657197 0.91886608 0.00047898
0.50861276 0.91886608 0.00047898
0.64777019 0.91886608 0.00047946
0.79323740 0.91886608 0.00047898
0.91886608 0.91886608 0.00047898
0.00047898 0.00047906 0.04013427
0.04013427 0.00047898 0.04013427
0.13930017 0.00047907 0.04013427
0.25282316 0.00047898 0.04013427
0.37657197 0.00047898 0.04013427
0.50861276 0.00047898 0.04013427
0.64777019 0.00047918 0.04013427
0.79323740 0.00047937 0.04013427
0.91886608 0.00047938 0.04013427
0.00047898 0.04013427 0.04013427
0.04013427 0.04013427 0.04013427
0.13930017 0.04013427 0.04013427
0.25282316 0.04013427 0.04013427
0.37657197 0.04013427 0.04013427
0.50861276 0.04013427 0.04013427
0.64777019 0.04013427 0.04013427
0.79323740 0.04013427 0.04013427
0.91886608 0.04013427 0.04013427
0.00047908 0.13930017 0.04013427
0.04013427 0.13930017 0.04013427
0.13930017 0.13930017 0.04013427
0.25282316 0.13930017 0.04013427
0.37657197 0.13930017 0.04013427
0.50861276 0.13930017 0.04013427
0.64777019 0.13930017 0.04013427
0.79323740 0.13930017 0.04013427
0.91886608 0.13930017 0.04013427
0.00047913 0.25282316 0.04013427
0.04013427 0.25282316 0.04013427
0.13930017 0.25282316 0.04013427
0.25282316 0.25282316 0.04013427
0.37657197 0.25282316 0.04013427
0.50861276 0.25282316 0.04013427
0.64777019 0.25282316 0.04013427
0.79323740 0.25282316 0.04013427
0.91886608 0.25282316 0.04013427
0.00047918 0.37657197 0.04013427
0.04013427 0.37657197 0.04013427
0.13930017 0.37657197 0.04013427
0.25282316 0.37657197 0.04013427
0.37657197 0.37657197 0.04013427
0.50861276 0.37657197 0.04013427
0.64777019 0.37657197 0.04013427
0.79323740 0.37657197 0.04013427
0.91886608 0.37657197 0.04013427
0.00047921 0.50861276 0.04013427
0.04013427 0.50861276 0.04013427
0.13930017 0.50861276 0.04013427
0.25282316 0.50861276 0.04013427
0.37657197 0.50861276 0.04013427
0.50861276 0.50861276 0.04013427
0.64777019 0.50861276 0.04013427
0.79323740 0.50861276 0.04013427
0.91886608 0.50861276 0.04013427
0.00047929 0.64777019 0.04013427
0.04013427 0.64777019 0.04013427
0.13930017 0.64777019 0.04013427
0.25282316 0.64777019 0.04013427
0.37657197 0.64777019 0.04013427
0.50861276 0.64777019 0.04013427
0.64777019 0.64777019 0.04013427
0.79323740 0.64777019 0.04013427
0.91886608 0.64777019 0.04013427
0.00047929 0.79323740 0.04013427
0.04013427 0.79323740 0.04013427
0.13930017 0.79323740 0.04013427
0.25282316 0.79323740 0.04013427
0.37657197 0.79323740 0.04013427
0.50861276 0.79323740 0.04013427
0.64777019 0.79323740 0.04013427
0.79323740 0.79323740 0.04013427
0.91886608 0.79323740 0.04013427
0.00047898 0.91886608 0.04013427
0.04013427 0.91886608 0.04013427
0.13930017 0.91886608 0.04013427
0.25282316 0.91886608 0.04013427
0.37657197 0.91886608 0.04013427
0.50861276 0.91886608 0.04013427
0.64777019 0.91886608 0.04013427
0.79323740 0.91886608 0.04013427
0.91886608 0.91886608 0.04013427
0.00047898 0.00047910 0.13930017
0.04013427 0.00047912 0.13930017
0.13930017 0.00047898 0.13930017
0.25282316 0.00047898 0.13930017
0.37657197 0.00047914 0.13930017
0.50861276 0.00047898 0.13930017
0.64777019 0.00047918 0.13930017
0.79323740 0.00047931 0.13930017
0.91886608 0.00047945 0.13930017
0.00047898 0.04013427 0.13930017
0.04013427 0.04013427 0.13930017
0.13930017 0.04013427 0.13930017
0.25282316 0.04013427 0.13930017
0.37657197 0.04013427 0.13930017
0.50861276 0.04013427 0.13930017
0.64777019 0.04013427 0.13930017
0.79323740 0.04013427 0.13930017
0.91886608 0.04013427 0.13930017
0.00047898 0.13930017 0.13930017
0.04013427 0.13930017 0.13930017
0.13930017 0.13930017 0.13930017
0.25282316 0.13930017 0.13930017
0.37657197 0.13930017 0.13930017
0.50861276 0.13930017 0.13930017
0.64777019 0.13930017 0.13930017
0.79323740 0.13930017 0.13930017
0.91886608 0.13930017 0.13930017
0.00047915 0.25282316 0.13930017
0.04013427 0.25282316 0.13930017
0.13930017 0.25282316 0.13930017
0.25282316 0.25282316 0.13930017
0.37657197 0.25282316 0.13930017
0.50861276 0.25282316 0.13930017
0.64777019 0.25282316 0.13930017
0.79323740 0.25282316 0.13930017
0.91886608 0.25282316 0.13930017
0.00047916 0.37657197 0.13930017
0.04013427 0.37657197 0.13930017
0.13930017 0.37657197 0.13930017
0.25282316 0.37657197 0.13930017
0.37657197 0.37657197 0.13930017
0.50861276 0.37657197 0.13930017
0.64777019 0.37657197 0.13930017
0.79323740 0.37657197 0.13930017
0.91886608 0.37657197 0.13930017
0.00047924 0.50861276 0.13930017
0.04013427 0.50861276 0.13930017
0.13930017 0.50861276 0.13930017
0.25282316 0.50861276 0.13930017
0.37657197 0.50861276 0.13930017
0.50861276 0.50861276 0.13930017
0.64777019 0.50861276 0.13930017
0.79323740 0.50861276 0.13930017
0.91886608 0.50861276 0.13930017
0.00047928 0.64777019 0.13930017
0.04013427 0.64777019 0.13930017
0.13930017 0.64777019 0.13930017
0.25282316 0.64777019 0.13930017
0.37657197 0.64777019 0.13930017
0.50861276 0.64777019 0.13930017
0.64777019 0.64777019 0.13930017
0.79323740 0.64777019 0.13930017
0.91886608 0.64777019 0.13930017
0.00047928 0.79323740 0.13930017
0.04013427 0.79323740 0.13930017
0.13930017 0.79323740 0.13930017
0.25282316 0.79323740 0.13930017
0.37657197 0.79323740 0.13930017
0.50861276 0.79323740 0.13930017
0.64777019 0.79323740 0.13930017
0.79323740 0.79323740 0.13930017
0.91886608 0.79323740 0.13930017
0.00047950 0.91886608 0.13930017
0.04013427 0.91886608 0.13930017
0.13930017 0.91886608 0.13930017
0.25282316 0.91886608 0.13930017
0.37657197 0.91886608 0.13930017
0.50861276 0.91886608 0.13930017
0.64777019 0.91886608 0.13930017
0.79323740 0.91886608 0.13930017
0.91886608 0.91886608 0.13930017
0.00047898 0.00047916 0.25282316
0.04013427 0.00047916 0.25282316
0.13930017 0.00047916 0.25282316
0.25282316 0.00047918 0.25282316
0.37657197 0.00047918 0.25282316
0.50861276 0.00047920 0.25282316
0.64777019 0.00047898 0.25282316
0.79323740 0.00047931 0.25282316
0.91886608 0.00047942 0.25282316
0.00047898 0.04013427 0.25282316
0.04013427 0.04013427 0.25282316
0.13930017 0.04013427 0.25282316
0.25282316 0.04013427 0.25282316
0.37657197 0.04013427 0.25282316
0.50861276 0.04013427 0.25282316
0.64777019 0.04013427 0.25282316
0.79323740 0.04013427 0.25282316
0.91886608 0.04013427 0.25282316
0.00047898 0.13930017 0.25282316
0.04013427 0.13930017 0.25282316
0.13930017 0.13930017 0.25282316
0.25282316 0.13930017 0.25282316
0.37657197 0.13930017 0.25282316
0.50861276 0.13930017 0.25282316
0.64777019 0.13930017 0.25282316
0.79323740 0.13930017 0.25282316
0.91886608 0.13930017 0.25282316
0.00047898 0.25282316 0.25282316
0.04013427 0.25282316 0.25282316
0.13930017 0.25282316 0.25282316
0.25282316 0.25282316 0.25282316
0.37657197 0.25282316 0.25282316
0.50861276 0.25282316 0.25282316
0.64777019 0.25282316 0.25282316
0.79323740 0.25282316 0.25282316
0.91886608 0.25282316 0.25282316
0.00047898 0.37657197 0.25282316
0.04013427 0.37657197 0.25282316
0.13930017 0.37657197 0.25282316
0.25282316 0.37657197 0.25282316
0.37657197 0.37657197 0.25282316
0.50861276 0.37657197 0.25282316
0.64777019 0.37657197 0.25282316
0.79323740 0.37657197 0.25282316
0.91886608 0.37657197 0.25282316
0.00047919 0.50861276 0.25282316
0.04013427 0.50861276 0.25282316
0.13930017 0.50861276 0.25282316
0.25282316 0.50861276 0.25282316
0.37657197 0.50861276 0.25282316
0.50861276 0.50861276 0.25282316
0.64777019 0.50861276 0.25282316
0.79323740 0.50861276 0.25282316
0.91886608 0.50861276 0.25282316
0.00047934 0.64777019 0.25282316
0.04013427 0.64777019 0.25282316
0.13930017 0.64777019 0.25282316
0.25282316 0.64777019 0.25282316
0.37657197 0.64777019 0.25282316
0.50861276 0.64777019 0.25282316
0.64777019 0.64777019 0.25282316
0.79323740 0.64777019 0.25282316
0.91886608 0.64777019 0.25282316
0.00047934 0.79323740 0.25282316
0.04013427 0.79323740 0.25282316
0.13930017 0.79323740 0.25282316
0.25282316 0.79323740 0.25282316
0.37657197 0.79323740 0.25282316
0.50861276 0.79323740 0.25282316
0.64777019 0.79323740 0.25282316
0.79323740 0.79323740 0.25282316
0.91886608 0.79323740 0.25282316
0.00047951 0.91886608 0.25282316
0.04013427 0.91886608 0.25282316
0.13930017 0.91886608 0.25282316
0.25282316 0.91886608 0.25282316
0.37657197 0.91886608 0.25282316
0.50861276 0.91886608 0.25282316
0.64777019 0.91886608 0.25282316
0.79323740 0.91886608 0.25282316
0.91886608 0.91886608 0.25282316
0.00047898 0.00047920 0.37657197
0.04013427 0.00047925 0.37657197
0.13930017 0.00047920 0.37657197
0.25282316 0.00047898 0.37657197
0.37657197 0.00047920 0.37657197
0.50861276 0.00047898 0.37657197
0.64777019 0.00047927 0.37657197
0.79323740 0.00047898 0.37657197
0.91886608 0.00047944 0.37657197
0.00047898 0.04013427 0.37657197
0.04013427 0.04013427 0.37657197
0.13930017 0.04013427 0.37657197
0.25282316 0.04013427 0.37657197
0.37657197 0.04013427 0.37657197
0.50861276 0.04013427 0.37657197
0.64777019 0.04013427 0.37657197
0.79323740 0.04013427 0.37657197
0.91886608 0.04013427 0.37657197
0.00047898 0.13930017 0.37657197
0.04013427 0.13930017 0.37657197
0.13930017 0.13930017 0.37657197
0.25282316 0.13930017 0.37657197
0.37657197 0.13930017 0.37657197
0.50861276 0.13930017 0.37657197
0.64777019 0.13930017 0.37657197
0.79323740 0.13930017 0.37657197
0.91886608 0.13930017 0.37657197
0.00047918 0.25282316 0.37657197
0.04013427 0.25282316 0.37657197
0.13930017 0.25282316 0.37657197
0.25282316 0.25282316 0.37657197
0.37657197 0.25282316 0.37657197
0.50861276 0.25282316 0.37657197
0.64777019 0.25282316 0.37657197
0.79323740 0.25282316 0.37657197
0.91886608 0.25282316 0.37657197
0.00047898 0.37657197 0.37657197
0.04013427 0.37657197 0.37657197
0.13930017 0.37657197 0.37657197
0.25282316 0.37657197 0.37657197
0.37657197 0.37657197 0.37657197
0.50861276 0.37657197 0.37657197
0.64777019 0.37657197 0.37657197
0.79323740 0.37657197 0.37657197
0.91886608 0.37657197 0.37657197
0.00047898 0.50861276 0.37657197
0.04013427 0.50861276 0.37657197
0.13930017 0.50861276 0.37657197
0.25282316 0.50861276 0.37657197
0.37657197 0.50861276 0.37657197
0.50861276 0.50861276 0.37657197
0.64777019 0.50861276 0.37657197
0.79323740 0.50861276 0.37657197
0.91886608 0.50861276 0.37657197
0.00047932 0.64777019 0.37657197
0.04013427 0.64777019 0.37657197
0.13930017 0.64777019 0.37657197
0.25282316 0.64777019 0.37657197
0.37657197 0.64777019 0.37657197
0.50861276 0.64777019 0.37657197
0.64777019 0.64777019 0.37657197
0.79323740 0.64777019 0.37657197
0.91886608 0.64777019 0.37657197
0.00047937 0.79323740 0.37657197
0.04013427 0.79323740 0.37657197
0.13930017 0.79323740 0.37657197
0.25282316 0.79323740 0.37657197
0.37657197 0.79323740 0.37657197
0.50861276 0.79323740 0.37657197
0.64777019 0.79323740 0.37657197
0.79323740 0.79323740 0.37657197
0.91886608 0.79323740 0.37657197
0.00047898 0.91886608 0.37657197
0.04013427 0.91886608 0.37657197
0.13930017 0.91886608 0.37657197
0.25282316 0.91886608 0.37657197
0.37657197 0.91886608 0.37657197
0.50861276 0.91886608 0.37657197
0.64777019 0.91886608 0.37657197
0.79323740 0.91886608 0.37657197
0.91886608 0.91886608 0.37657197
0.00047898 0.00047931 0.50861276
0.04013427 0.00047933 0.50861276
0.13930017 0.00047931 0.50861276
0.25282316 0.00047927 0.50861276
0.37657197 0.00047935 0.50861276
0.50861276 0.00047898 0.50861276
0.64777019 0.00047931 0.50861276
0.79323740 0.00047942 0.50861276
0.91886608 0.00047898 0.50861276
0.00047898 0.04013427 0.50861276
0.04013427 0.04013427 0.50861276
0.13930017 0.04013427 0.50861276
0.25282316 0.04013427 0.50861276
0.37657197 0.04013427 0.50861276
0.50861276 0.04013427 0.50861276
0.64777019 0.04013427 0.50861276
0.79323740 0.04013427 0.50861276
0.91886608 0.04013427 0.50861276
0.00047898 0.13930017 0.50861276
0.04013427 0.13930017 0.50861276
0.13930017 0.13930017 0.50861276
0.25282316 0.13930017 0.50861276
0.37657197 0.13930017 0.50861276
0.50861276 0.13930017 0.50861276
0.64777019 0.13930017 0.50861276
0.79323740 0.13930017 0.50861276
0.91886608 0.13930017 0.50861276
0.00047898 0.25282316 0.50861276
0.04013427 0.25282316 0.50861276
0.13930017 0.25282316 0.50861276
0.25282316 0.25282316 0.50861276
0.37657197 0.25282316 0.50861276
0.50861276 0.25282316 0.50861276
0.64777019 0.25282316 0.50861276
0.79323740 0.25282316 0.50861276
0.91886608 0.25282316 0.50861276
0.00047898 0.37657197 0.50861276
0.04013427 0.37657197 0.50861276
0.13930017 0.37657197 0.50861276
0.25282316 0.37657197 0.50861276
0.37657197 0.37657197 0.50861276
0.50861276 0.37657197 0.50861276
0.64777019 0.37657197 0.50861276
0.79323740 0.37657197 0.50861276
0.91886608 0.37657197 0.50861276
0.00047923 0.50861276 0.50861276
0.04013427 0.50861276 0.50861276
0.13930017 0.50861276 0.50861276
0.25282316 0.50861276 0.50861276
0.37657197 0.50861276 0.50861276
0.50861276 0.50861276 0.50861276
0.64777019 0.50861276 0.50861276
0.79323740 0.50861276 0.50861276
0.91886608 0.50861276 0.50861276
0.00047923 0.64777019 0.50861276
0.04013427 0.64777019 0.50861276
0.13930017 0.64777019 0.50861276
0.25282316 0.64777019 0.50861276
0.37657197 0.64777019 0.50861276
0.50861276 0.64777019 0.50861276
0.64777019 0.64777019 0.50861276
0.79323740 0.64777019 0.50861276
0.91886608 0.64777019 0.50861276
0.00047931 0.79323740 0.50861276
0.04013427 0.79323740 0.50861276
0.13930017 0.79323740 0.50861276
0.25282316 0.79323740 0.50861276
0.37657197 0.79323740 0.50861276
0.50861276 0.79323740 0.50861276
0.64777019 0.79323740 0.50861276
0.79323740 0.79323740 0.50861276
0.91886608 0.79323740 0.50861276
0.00047953 0.91886608 0.50861276
0.04013427 0.91886608 0.50861276
0.13930017 0.91886608 0.50861276
0.25282316 0.91886608 0.50861276
0.37657197 0.91886608 0.50861276
0.50861276 0.91886608 0.50861276
0.64777019 0.91886608 0.50861276
0.79323740 0.91886608 0.50861276
0.91886608 0.91886608 0.50861276
0.00047898 0.00047935 0.64777019
0.04013427 0.00047940 0.64777019
0.13930017 0.00047935 0.64777019
0.25282316 0.00047940 0.64777019
0.37657197 0.00047898 0.64777019
0.50861276 0.00047935 0.64777019
0.64777019 0.00047935 0.64777019
0.79323740 0.00047935 0.64777019
0.91886608 0.00047946 0.64777019
0.00047898 0.04013427 0.64777019
0.04013427 0.04013427 0.64777019
0.13930017 0.04013427 0.64777019
0.25282316 0.04013427 0.64777019
0.37657197 0.04013427 0.64777019
0.50861276 0.04013427 0.64777019
0.64777019 0.04013427 0.64777019
0.79323740 0.04013427 0.64777019
0.91886608 0.04013427 0.64777019
0.00047898 0.13930017 0.64777019
0.04013427 0.13930017 0.64777019
0.13930017 0.13930017 0.64777019
0.25282316 0.13930017 0.64777019
0.37657197 0.13930017 0.64777019
0.50861276 0.13930017 0.64777019
0.64777019 0.13930017 0.64777019
0.79323740 0.13930017 0.64777019
0.91886608 0.13930017 0.64777019
0.00047898 0.25282316 0.64777019
0.04013427 0.25282316 0.64777019
0.13930017 0.25282316 0.64777019
0.25282316 0.25282316 0.64777019
0.37657197 0.25282316 0.64777019
0.50861276 0.25282316 0.64777019
0.64777019 0.25282316 0.64777019
0.79323740 0.25282316 0.64777019
0.91886608 0.25282316 0.64777019
0.00047898 0.37657197 0.64777019
0.04013427 0.37657197 0.64777019
0.13930017 0.37657197 0.64777019
0.25282316 0.37657197 0.64777019
0.37657197 0.37657197 0.64777019
0.50861276 0.37657197 0.64777019
0.64777019 0.37657197 0.64777019
0.79323740 0.37657197 0.64777019
0.91886608 0.37657197 0.64777019
0.00047898 0.50861276 0.64777019
0.04013427 0.50861276 0.64777019
0.13930017 0.50861276 0.64777019
0.25282316 0.50861276 0.64777019
0.37657197 0.50861276 0.64777019
0.50861276 0.50861276 0.64777019
0.64777019 0.50861276 0.64777019
0.79323740 0.50861276 0.64777019
0.91886608 0.50861276 0.64777019
0.00047898 0.64777019 0.64777019
0.04013427 0.64777019 0.64777019
0.13930017 0.64777019 0.64777019
0.25282316 0.64777019 0.64777019
0.37657197 0.64777019 0.64777019
0.50861276 0.64777019 0.64777019
0.64777019 0.64777019 0.64777019
0.79323740 0.64777019 0.64777019
0.91886608 0.64777019 0.64777019
0.00047945 0.79323740 0.64777019
0.04013427 0.79323740 0.64777019
0.13930017 0.79323740 0.64777019
0.25282316 0.79323740 0.64777019
0.37657197 0.79323740 0.64777019
0.50861276 0.79323740 0.64777019
0.64777019 0.79323740 0.64777019
0.79323740 0.79323740 0.64777019
0.91886608 0.79323740 0.64777019
0.00047935 0.91886608 0.64777019
0.04013427 0.91886608 0.64777019
0.13930017 0.91886608 0.64777019
0.25282316 0.91886608 0.64777019
0.37657197 0.91886608 0.64777019
0.50861276 0.91886608 0.64777019
0.64777019 0.91886608 0.64777019
0.79323740 0.91886608 0.64777019
0.91886608 0.91886608 0.64777019
0.00047898 0.00047898 0.79323740
0.04013427 0.00047946 0.79323740
0.13930017 0.00047946 0.79323740
0.25282316 0.00047946 0.79323740
0.37657197 0.00047898 0.79323740
0.50861276 0.00047898 0.79323740
0.64777019 0.00047946 0.79323740
0.79323740 0.00047953 0.79323740
0.91886608 0.00047958 0.79323740
0.00047898 0.04013427 0.79323740
0.04013427 0.04013427 0.79323740
0.13930017 0.04013427 0.79323740
0.25282316 0.04013427 0.79323740
0.37657197 0.04013427 0.79323740
0.50861276 0.04013427 0.79323740
0.64777019 0.04013427 0.79323740
0.79323740 0.04013427 0.79323740
0.91886608 0.04013427 0.79323740
0.00047898 0.13930017 0.79323740
0.04013427 0.13930017 0.79323740
0.13930017 0.13930017 0.79323740
0.25282316 0.13930017 0.79323740
0.37657197 0.13930017 0.79323740
0.50861276 0.13930017 0.79323740
0.64777019 0.13930017 0.79323740
0.79323740 0.13930017 0.79323740
0.91886608 0.13930017 0.79323740
0.00047898 0.25282316 0.79323740
0.04013427 0.25282316 0.79323740
0.13930017 0.25282316 0.79323740
0.25282316 0.25282316 0.79323740
0.37657197 0.25282316 0.79323740
0.50861276 0.25282316 0.79323740
0.64777019 0.25282316 0.79323740
0.79323740 0.25282316 0.79323740
0.91886608 0.25282316 0.79323740
0.00047898 0.37657197 0.79323740
0.04013427 0.37657197 0.79323740
0.13930017 0.37657197 0.79323740
0.25282316 0.37657197 0.79323740
0.37657197 0.37657197 0.79323740
0.50861276 0.37657197 0.79323740
0.64777019 0.37657197 0.79323740
0.79323740 0.37657197 0.79323740
0.91886608 0.37657197 0.79323740
0.00047898 0.50861276 0.79323740
0.04013427 0.50861276 0.79323740
0.13930017 0.50861276 0.79323740
0.25282316 0.50861276 0.79323740
0.37657197 0.50861276 0.79323740
0.50861276 0.50861276 0.79323740
0.64777019 0.50861276 0.79323740
0.79323740 0.50861276 0.79323740
0.91886608 0.50861276 0.79323740
0.00047898 0.64777019 0.79323740
0.04013427 0.64777019 0.79323740
0.13930017 0.64777019 0.79323740
0.25282316 0.64777019 0.79323740
0.37657197 0.64777019 0.79323740
0.50861276 0.64777019 0.79323740
0.64777019 0.64777019 0.79323740
0.79323740 0.64777019 0.79323740
0.91886608 0.64777019 0.79323740
0.00047898 0.79323740 0.79323740
0.04013427 0.79323740 0.79323740
0.13930017 0.79323740 0.79323740
0.25282316 0.79323740 0.79323740
0.37657197 0.79323740 0.79323740
0.50861276 0.79323740 0.79323740
0.64777019 0.79323740 0.79323740
0.79323740 0.79323740 0.79323740
0.91886608 0.79323740 0.79323740
0.00047953 0.91886608 0.79323740
0.04013427 0.91886608 0.79323740
0.13930017 0.91886608 0.79323740
0.25282316 0.91886608 0.79323740
0.37657197 0.91886608 0.79323740
0.50861276 0.91886608 0.79323740
0.64777019 0.91886608 0.79323740
0.79323740 0.91886608 0.79323740
0.91886608 0.91886608 0.79323740
0.00047898 0.00047898 0.91886608
0.04013427 0.00047898 0.91886608
0.13930017 0.00047961 0.91886608
0.25282316 0.00047898 0.91886608
0.37657197 0.00047898 0.91886608
0.50861276 0.00047971 0.91886608
0.64777019 0.00047961 0.91886608
0.79323740 0.00047971 0.91886608
0.91886608 0.00047898 0.91886608
0.00047898 0.04013427 0.91886608
0.04013427 0.04013427 0.91886608
0.13930017 0.04013427 0.91886608
0.25282316 0.04013427 0.91886608
0.37657197 0.04013427 0.91886608
0.50861276 0.04013427 0.91886608
0.64777019 0.04013427 0.91886608
0.79323740 0.04013427 0.91886608
0.91886608 0.04013427 0.91886608
0.00047898 0.13930017 0.91886608
0.04013427 0.13930017 0.91886608
0.13930017 0.13930017 0.91886608
0.25282316 0.13930017 0.91886608
0.37657197 0.13930017 0.91886608
0.50861276 0.13930017 0.91886608
0.64777019 0.13930017 0.91886608
0.79323740 0.13930017 0.91886608
0.91886608 0.13930017 0.91886608
0.00047898 0.25282316 0.91886608
0.04013427 0.25282316 0.91886608
0.13930017 0.25282316 0.91886608
0.25282316 0.25282316 0.91886608
0.37657197 0.25282316 0.91886608
0.50861276 0.25282316 0.91886608
0.64777019 0.25282316 0.91886608
0.79323740 0.25282316 0.91886608
0.91886608 0.25282316 0.91886608
0.00047898 0.37657197 0.91886608
0.04013427 0.37657197 0.91886608
0.13930017 0.37657197 0.91886608
0.25282316 0.37657197 0.91886608
0.37657197 0.37657197 0.91886608
0.50861276 0.37657197 0.91886608
0.64777019 0.37657197 0.91886608
0.79323740 0.37657197 0.91886608
0.91886608 0.37657197 0.91886608
0.00047898 0.50861276 0.91886608
0.04013427 0.50861276 0.91886608
0.13930017 0.50861276 0.91886608
0.25282316 0.50861276 0.91886608
0.37657197 0.50861276 0.91886608
0.50861276 0.50861276 0.91886608
0.64777019 0.50861276 0.91886608
0.79323740 0.50861276 0.91886608
0.91886608 0.50861276 0.91886608
0.00047898 0.64777019 0.91886608
0.04013427 0.64777019 0.91886608
0.13930017 0.64777019 0.91886608
0.25282316 0.64777019 0.91886608
0.37657197 0.64777019 0.91886608
0.50861276 0.64777019 0.91886608
0.64777019 0.64777019 0.91886608
0.79323740 0.64777019 0.91886608
0.91886608 0.64777019 0.91886608
0.00047953 0.79323740 0.91886608
0.04013427 0.79323740 0.91886608
0.13930017 0.79323740 0.91886608
0.25282316 0.79323740 0.91886608
0.37657197 0.79323740 0.91886608
0.50861276 0.79323740 0.91886608
0.64777019 0.79323740 0.91886608
0.79323740 0.79323740 0.91886608
0.91886608 0.79323740 0.91886608
0.00047953 0.91886608 0.91886608
0.04013427 0.91886608 0.91886608
0.13930017 0.91886608 0.91886608
0.25282316 0.91886608 0.91886608
0.37657197 0.91886608 0.91886608
0.50861276 0.91886608 0.91886608
0.64777019 0.91886608 0.91886608
0.79323740 0.91886608 0.91886608
0.91886608 0.91886608 0.91886608
