src/ffmpeg_scripts/luts/luminance_0-Native.cube
TITLE "luminance_0-Native"
LUT_3D_SIZE 33
# PQ (EOTF Only)/Rec2020 -> PQ (EOTF Only)/Rec2020, CineEI Shift 0.00, Black Level 0.00% IRE, Input 109% -> Output 109% - Created with LUTCalc v4.01 by Ben Turley October 2020
0.06256172 0.06256172 0.06256172
0.06256172 0.06256172 0.06256172
0.06256172 0.06256172 0.06256172
0.09375000 0.06256176 0.06256172
0.12500000 0.06256177 0.06256172
0.15625000 0.06256172 0.06256172
0.18750000 0.06256181 0.06256180
0.21875000 0.06256179 0.06256172
0.25000000 0.06256172 0.06256172
0.28125000 0.06256172 0.06256182
0.31250000 0.06256172 0.06256172
0.34375000 0.06256186 0.06256172
0.37500000 0.06256172 0.06256172
0.40625000 0.06256186 0.06256187
0.43750000 0.06256172 0.06256172
0.46875000 0.06256172 0.06256172
0.50000000 0.06256193 0.06256172
0.53125000 0.06256172 0.06256172
0.56250000 0.06256195 0.06256172
0.59375000 0.06256172 0.06256172
0.62500000 0.06256195 0.06256172
0.65625000 0.06256194 0.06256172
0.68750000 0.06256203 0.06256200
0.71875000 0.06256172 0.06256172
0.75000000 0.06256201 0.06256172
0.78125000 0.06256172 0.06256172
0.81250000 0.06256172 0.06256172
0.84375000 0.06256204 0.06256172
0.87500000 0.06256172 0.06256172
0.90625000 0.06256215 0.06256172
0.91886608 0.06256172 0.06256172
0.91886608 0.06256217 0.06256172
0.91886608 0.06256228 0.06256227
0.06256172 0.06256172 0.06256172
0.06256172 0.06256172 0.06256172
0.06256172 0.06256172 0.06256172
0.09375000 0.06256176 0.06256172
0.12500000 0.06256177 0.06256172
0.15625000 0.06256172 0.06256172
0.18750000 0.06256181 0.06256180
0.21875000 0.06256179 0.06256172
0.25000000 0.06256172 0.06256172
0.28125000 0.06256172 0.06256182
0.31250000 0.06256172 0.06256172
0.34375000 0.06256186 0.06256172
0.37500000 0.06256172 0.06256172
0.40625000 0.06256186 0.06256187
0.43750000 0.06256172 0.06256172
0.46875000 0.06256172 0.06256172
0.50000000 0.06256193 0.06256172
0.53125000 0.06256172 0.06256172
0.56250000 0.06256195 0.06256172
0.59375000 0.06256172 0.06256172
0.62500000 0.06256195 0.06256172
0.65625000 0.06256194 0.06256172
0.68750000 0.06256203 0.06256200
0.71875000 0.06256172 0.06256172
0.75000000 0.06256201 0.06256172
0.78125000 0.06256172 0.06256172
0.81250000 0.06256172 0.06256172
0.84375000 0.06256204 0.06256172
0.87500000 0.06256172 0.06256172
0.90625000 0.06256215 0.06256172
0.91886608 0.06256172 0.06256172
0.91886608 0.06256217 0.06256172
0.91886608 0.06256228 0.06256227
0.06256172 0.06256172 0.06256172
0.06256172 0.06256172 0.06256172
0.06256172 0.06256172 0.06256172
0.09375000 0.06256176 0.06256172
0.12500000 0.06256177 0.06256172
0.15625000 0.06256172 0.06256172
0.18750000 0.06256181 0.06256180
0.21875000 0.06256179 0.06256172
0.25000000 0.06256172 0.06256172
0.28125000 0.06256172 0.06256182
0.31250000 0.06256172 0.06256172
0.34375000 0.06256186 0.06256172
0.37500000 0.06256172 0.06256172
0.40625000 0.06256186 0.06256187
0.43750000 0.06256172 0.06256172
0.46875000 0.06256172 0.06256172
0.50000000 0.06256193 0.06256172
0.53125000 0.06256172 0.06256172
0.56250000 0.06256195 0.06256172
0.59375000 0.06256172 0.06256172
0.62500000 0.06256195 0.06256172
0.65625000 0.06256194 0.06256172
0.68750000 0.06256203 0.06256200
0.71875000 0.06256172 0.06256172
0.75000000 0.06256201 0.06256172
0.78125000 0.06256172 0.06256172
0.81250000 0.06256172 0.06256172
0.84375000 0.06256204 0.06256172
0.87500000 0.06256172 0.06256172
0.90625000 0.06256215 0.06256172
0.91886608 0.06256172 0.06256172
0.91886608 0.06256217 0.06256172
0.91886608 0.06256228 0.06256227
0.06256177 0.09375000 0.06256172
0.06256177 0.09375000 0.06256172
0.06256177 0.09375000 0.06256172
0.09375000 0.09375000 0.06256172
0.12500000 0.09375000 0.06256172
0.15625000 0.09375000 0.06256172
0.18750000 0.09375000 0.06256172
0.21875000 0.09375000 0.06256172
0.25000000 0.09375000 0.06256172
0.28125000 0.09375000 0.06256172
0.31250000 0.09375000 0.06256172
0.34375000 0.09375000 0.06256172
0.37500000 0.09375000 0.06256172
0.40625000 0.09375000 0.06256172
0.43750000 0.09375000 0.06256172
0.46875000 0.09375000 0.06256172
0.50000000 0.09375000 0.06256191
0.53125000 0.09375000 0.06256172
0.56250000 0.09375000 0.06256172
0.59375000 0.09375000 0.06256172
0.62500000 0.09375000 0.06256172
0.65625000 0.09375000 0.06256172
0.68750000 0.09375000 0.06256172
0.71875000 0.09375000 0.06256200
0.75000000 0.09375000 0.06256172
0.78125000 0.09375000 0.06256172
0.81250000 0.09375000 0.06256172
0.84375000 0.09375000 0.06256172
0.87500000 0.09375000 0.06256213
0.90625000 0.09375000 0.06256172
0.91886608 0.09375000 0.06256219
0.91886608 0.09375000 0.06256219
0.91886608 0.09375000 0.06256172
0.06256179 0.12500000 0.06256172
0.06256179 0.12500000 0.06256172
0.06256179 0.12500000 0.06256172
0.09375000 0.12500000 0.06256172
0.12500000 0.12500000 0.06256172
0.15625000 0.12500000 0.06256172
0.18750000 0.12500000 0.06256180
0.21875000 0.12500000 0.06256181
0.25000000 0.12500000 0.06256172
0.28125000 0.12500000 0.06256172
0.31250000 0.12500000 0.06256172
0.34375000 0.12500000 0.06256185
0.37500000 0.12500000 0.06256172
0.40625000 0.12500000 0.06256172
0.43750000 0.12500000 0.06256172
0.46875000 0.12500000 0.06256172
0.50000000 0.12500000 0.06256172
0.53125000 0.12500000 0.06256172
0.56250000 0.12500000 0.06256172
0.59375000 0.12500000 0.06256172
0.62500000 0.12500000 0.06256172
0.65625000 0.12500000 0.06256172
0.68750000 0.12500000 0.06256172
0.71875000 0.12500000 0.06256200
0.75000000 0.12500000 0.06256172
0.78125000 0.12500000 0.06256172
0.81250000 0.12500000 0.06256208
0.84375000 0.12500000 0.06256172
0.87500000 0.12500000 0.06256213
0.90625000 0.12500000 0.06256172
0.91886608 0.12500000 0.06256172
0.91886608 0.12500000 0.06256172
0.91886608 0.12500000 0.06256172
0.06256180 0.15625000 0.06256172
0.06256180 0.15625000 0.06256172
0.06256180 0.15625000 0.06256172
0.09375000 0.15625000 0.06256172
0.12500000 0.15625000 0.06256172
0.15625000 0.15625000 0.06256172
0.18750000 0.15625000 0.06256180
0.21875000 0.15625000 0.06256172
0.25000000 0.15625000 0.06256172
0.28125000 0.15625000 0.06256172
0.31250000 0.15625000 0.06256172
0.34375000 0.15625000 0.06256172
0.37500000 0.15625000 0.06256172
0.40625000 0.15625000 0.06256172
0.43750000 0.15625000 0.06256172
0.46875000 0.15625000 0.06256172
0.50000000 0.15625000 0.06256172
0.53125000 0.15625000 0.06256172
0.56250000 0.15625000 0.06256172
0.59375000 0.15625000 0.06256172
0.62500000 0.15625000 0.06256172
0.65625000 0.15625000 0.06256172
0.68750000 0.15625000 0.06256172
0.71875000 0.15625000 0.06256172
0.75000000 0.15625000 0.06256172
0.78125000 0.15625000 0.06256172
0.81250000 0.15625000 0.06256172
0.84375000 0.15625000 0.06256172
0.87500000 0.15625000 0.06256172
0.90625000 0.15625000 0.06256172
0.91886608 0.15625000 0.06256172
0.91886608 0.15625000 0.06256172
0.91886608 0.15625000 0.06256172
0.06256180 0.18750000 0.06256172
0.06256180 0.18750000 0.06256172
0.06256180 0.18750000 0.06256172
0.09375000 0.18750000 0.06256172
0.12500000 0.18750000 0.06256172
0.15625000 0.18750000 0.06256172
0.18750000 0.18750000 0.06256172
0.21875000 0.18750000 0.06256172
0.25000000 0.18750000 0.06256172
0.28125000 0.18750000 0.06256172
0.31250000 0.18750000 0.06256184
0.34375000 0.18750000 0.06256172
0.37500000 0.18750000 0.06256172
0.40625000 0.18750000 0.06256187
0.43750000 0.18750000 0.06256172
0.46875000 0.18750000 0.06256172
0.50000000 0.18750000 0.06256172
0.53125000 0.18750000 0.06256172
0.56250000 0.18750000 0.06256172
0.59375000 0.18750000 0.06256172
0.62500000 0.18750000 0.06256172
0.65625000 0.18750000 0.06256172
0.68750000 0.18750000 0.06256200
0.71875000 0.18750000 0.06256172
0.75000000 0.18750000 0.06256172
0.78125000 0.18750000 0.06256172
0.81250000 0.18750000 0.06256172
0.84375000 0.18750000 0.06256208
0.87500000 0.18750000 0.06256213
0.90625000 0.18750000 0.06256172
0.91886608 0.18750000 0.06256172
0.91886608 0.18750000 0.06256172
0.91886608 0.18750000 0.06256172
0.06256183 0.21875000 0.06256181
0.06256183 0.21875000 0.06256181
0.06256183 0.21875000 0.06256181
0.09375000 0.21875000 0.06256172
0.12500000 0.21875000 0.06256172
0.15625000 0.21875000 0.06256181
0.18750000 0.21875000 0.06256172
0.21875000 0.21875000 0.06256172
0.25000000 0.21875000 0.06256172
0.28125000 0.21875000 0.06256172
0.31250000 0.21875000 0.06256185
0.34375000 0.21875000 0.06256172
0.37500000 0.21875000 0.06256172
0.40625000 0.21875000 0.06256172
0.43750000 0.21875000 0.06256189
0.46875000 0.21875000 0.06256172
0.50000000 0.21875000 0.06256191
0.53125000 0.21875000 0.06256172
0.56250000 0.21875000 0.06256172
0.59375000 0.21875000 0.06256172
0.62500000 0.21875000 0.06256172
0.65625000 0.21875000 0.06256172
0.68750000 0.21875000 0.06256200
0.71875000 0.21875000 0.06256200
0.75000000 0.21875000 0.06256172
0.78125000 0.21875000 0.06256172
0.81250000 0.21875000 0.06256172
0.84375000 0.21875000 0.06256172
0.87500000 0.21875000 0.06256172
0.90625000 0.21875000 0.06256172
0.91886608 0.21875000 0.06256172
0.91886608 0.21875000 0.06256172
0.91886608 0.21875000 0.06256227
0.06256172 0.25000000 0.06256172
0.06256172 0.25000000 0.06256172
0.06256172 0.25000000 0.06256172
0.09375000 0.25000000 0.06256172
0.12500000 0.25000000 0.06256172
0.15625000 0.25000000 0.06256172
0.18750000 0.25000000 0.06256172
0.21875000 0.25000000 0.06256172
0.25000000 0.25000000 0.06256172
0.28125000 0.25000000 0.06256172
0.31250000 0.25000000 0.06256172
0.34375000 0.25000000 0.06256172
0.37500000 0.25000000 0.06256172
0.40625000 0.25000000 0.06256187
0.43750000 0.25000000 0.06256172
0.46875000 0.25000000 0.06256172
0.50000000 0.25000000 0.06256172
0.53125000 0.25000000 0.06256172
0.56250000 0.25000000 0.06256172
0.59375000 0.25000000 0.06256172
0.62500000 0.25000000 0.06256172
0.65625000 0.25000000 0.06256172
0.68750000 0.25000000 0.06256172
0.71875000 0.25000000 0.06256172
0.75000000 0.25000000 0.06256172
0.78125000 0.25000000 0.06256172
0.81250000 0.25000000 0.06256208
0.84375000 0.25000000 0.06256172
0.87500000 0.25000000 0.06256172
0.90625000 0.25000000 0.06256172
0.91886608 0.25000000 0.06256172
0.91886608 0.25000000 0.06256172
0.91886608 0.25000000 0.06256172
0.06256186 0.28125000 0.06256172
0.06256186 0.28125000 0.06256172
0.06256186 0.28125000 0.06256172
0.09375000 0.28125000 0.06256172
0.12500000 0.28125000 0.06256172
0.15625000 0.28125000 0.06256184
0.18750000 0.28125000 0.06256172
0.21875000 0.28125000 0.06256172
0.25000000 0.28125000 0.06256184
0.28125000 0.28125000 0.06256185
0.31250000 0.28125000 0.06256172
0.34375000 0.28125000 0.06256185
0.37500000 0.28125000 0.06256172
0.40625000 0.28125000 0.06256189
0.43750000 0.28125000 0.06256172
0.46875000 0.28125000 0.06256172
0.50000000 0.28125000 0.06256191
0.53125000 0.28125000 0.06256172
0.56250000 0.28125000 0.06256194
0.59375000 0.28125000 0.06256172
0.62500000 0.28125000 0.06256172
0.65625000 0.28125000 0.06256172
0.68750000 0.28125000 0.06256172
0.71875000 0.28125000 0.06256172
0.75000000 0.28125000 0.06256204
0.78125000 0.28125000 0.06256172
0.81250000 0.28125000 0.06256172
0.84375000 0.28125000 0.06256172
0.87500000 0.28125000 0.06256172
0.90625000 0.28125000 0.06256172
0.91886608 0.28125000 0.06256219
0.91886608 0.28125000 0.06256172
0.91886608 0.28125000 0.06256172
0.06256189 0.31250000 0.06256172
0.06256189 0.31250000 0.06256172
0.06256189 0.31250000 0.06256172
0.09375000 0.31250000 0.06256172
0.12500000 0.31250000 0.06256172
0.15625000 0.31250000 0.06256172
0.18750000 0.31250000 0.06256172
0.21875000 0.31250000 0.06256172
0.25000000 0.31250000 0.06256172
0.28125000 0.31250000 0.06256172
0.31250000 0.31250000 0.06256172
0.34375000 0.31250000 0.06256172
0.37500000 0.31250000 0.06256172
0.40625000 0.31250000 0.06256172
0.43750000 0.31250000 0.06256172
0.46875000 0.31250000 0.06256189
0.50000000 0.31250000 0.06256191
0.53125000 0.31250000 0.06256191
0.56250000 0.31250000 0.06256172
0.59375000 0.31250000 0.06256172
0.62500000 0.31250000 0.06256172
0.65625000 0.31250000 0.06256172
0.68750000 0.31250000 0.06256172
0.71875000 0.31250000 0.06256200
0.75000000 0.31250000 0.06256172
0.78125000 0.31250000 0.06256172
0.81250000 0.31250000 0.06256172
0.84375000 0.31250000 0.06256172
0.87500000 0.31250000 0.06256213
0.90625000 0.31250000 0.06256172
0.91886608 0.31250000 0.06256219
0.91886608 0.31250000 0.06256172
0.91886608 0.31250000 0.06256172
0.06256186 0.34375000 0.06256172
0.06256186 0.34375000 0.06256172
0.06256186 0.34375000 0.06256172
0.09375000 0.34375000 0.06256172
0.12500000 0.34375000 0.06256172
0.15625000 0.34375000 0.06256172
0.18750000 0.34375000 0.06256185
0.21875000 0.34375000 0.06256172
0.25000000 0.34375000 0.06256185
0.28125000 0.34375000 0.06256172
0.31250000 0.34375000 0.06256172
0.34375000 0.34375000 0.06256172
0.37500000 0.34375000 0.06256172
0.40625000 0.34375000 0.06256172
0.43750000 0.34375000 0.06256172
0.46875000 0.34375000 0.06256191
0.50000000 0.34375000 0.06256172
0.53125000 0.34375000 0.06256172
0.56250000 0.34375000 0.06256172
0.59375000 0.34375000 0.06256172
0.62500000 0.34375000 0.06256172
0.65625000 0.34375000 0.06256172
0.68750000 0.34375000 0.06256200
0.71875000 0.34375000 0.06256200
0.75000000 0.34375000 0.06256172
0.78125000 0.34375000 0.06256204
0.81250000 0.34375000 0.06256172
0.84375000 0.34375000 0.06256172
0.87500000 0.34375000 0.06256213
0.90625000 0.34375000 0.06256172
0.91886608 0.34375000 0.06256172
0.91886608 0.34375000 0.06256172
0.91886608 0.34375000 0.06256172
0.06256188 0.37500000 0.06256187
0.06256188 0.37500000 0.06256187
0.06256188 0.37500000 0.06256187
0.09375000 0.37500000 0.06256187
0.12500000 0.37500000 0.06256172
0.15625000 0.37500000 0.06256187
0.18750000 0.37500000 0.06256187
0.21875000 0.37500000 0.06256187
0.25000000 0.37500000 0.06256172
0.28125000 0.37500000 0.06256187
0.31250000 0.37500000 0.06256172
0.34375000 0.37500000 0.06256172
0.37500000 0.37500000 0.06256189
0.40625000 0.37500000 0.06256172
0.43750000 0.37500000 0.06256172
0.46875000 0.37500000 0.06256172
0.50000000 0.37500000 0.06256172
0.53125000 0.37500000 0.06256172
0.56250000 0.37500000 0.06256172
0.59375000 0.37500000 0.06256172
0.62500000 0.37500000 0.06256172
0.65625000 0.37500000 0.06256172
0.68750000 0.37500000 0.06256172
0.71875000 0.37500000 0.06256172
0.75000000 0.37500000 0.06256172
0.78125000 0.37500000 0.06256172
0.81250000 0.37500000 0.06256208
0.84375000 0.37500000 0.06256208
0.87500000 0.37500000 0.06256213
0.90625000 0.37500000 0.06256172
0.91886608 0.37500000 0.06256172
0.91886608 0.37500000 0.06256172
0.91886608 0.37500000 0.06256172
0.06256190 0.40625000 0.06256172
0.06256190 0.40625000 0.06256172
0.06256190 0.40625000 0.06256172
0.09375000 0.40625000 0.06256187
0.12500000 0.40625000 0.06256172
0.15625000 0.40625000 0.06256172
0.18750000 0.40625000 0.06256187
0.21875000 0.40625000 0.06256172
0.25000000 0.40625000 0.06256172
0.28125000 0.40625000 0.06256189
0.31250000 0.40625000 0.06256172
0.34375000 0.40625000 0.06256189
0.37500000 0.40625000 0.06256172
0.40625000 0.40625000 0.06256189
0.43750000 0.40625000 0.06256172
0.46875000 0.40625000 0.06256172
0.50000000 0.40625000 0.06256172
0.53125000 0.40625000 0.06256172
0.56250000 0.40625000 0.06256172
0.59375000 0.40625000 0.06256194
0.62500000 0.40625000 0.06256172
0.65625000 0.40625000 0.06256172
0.68750000 0.40625000 0.06256172
0.71875000 0.40625000 0.06256200
0.75000000 0.40625000 0.06256172
0.78125000 0.40625000 0.06256204
0.81250000 0.40625000 0.06256172
0.84375000 0.40625000 0.06256172
0.87500000 0.40625000 0.06256172
0.90625000 0.40625000 0.06256172
0.91886608 0.40625000 0.06256219
0.91886608 0.40625000 0.06256172
0.91886608 0.40625000 0.06256227
0.06256190 0.43750000 0.06256172
0.06256190 0.43750000 0.06256172
0.06256190 0.43750000 0.06256172
0.09375000 0.43750000 0.06256172
0.12500000 0.43750000 0.06256172
0.15625000 0.43750000 0.06256172
0.18750000 0.43750000 0.06256172
0.21875000 0.43750000 0.06256172
0.25000000 0.43750000 0.06256172
0.28125000 0.43750000 0.06256172
0.31250000 0.43750000 0.06256172
0.34375000 0.43750000 0.06256172
0.37500000 0.43750000 0.06256172
0.40625000 0.43750000 0.06256172
0.43750000 0.43750000 0.06256172
0.46875000 0.43750000 0.06256172
0.50000000 0.43750000 0.06256172
0.53125000 0.43750000 0.06256194
0.56250000 0.43750000 0.06256172
0.59375000 0.43750000 0.06256172
0.62500000 0.43750000 0.06256172
0.65625000 0.43750000 0.06256172
0.68750000 0.43750000 0.06256172
0.71875000 0.43750000 0.06256172
0.75000000 0.43750000 0.06256172
0.78125000 0.43750000 0.06256172
0.81250000 0.43750000 0.06256172
0.84375000 0.43750000 0.06256172
0.87500000 0.43750000 0.06256172
0.90625000 0.43750000 0.06256172
0.91886608 0.43750000 0.06256172
0.91886608 0.43750000 0.06256172
0.91886608 0.43750000 0.06256227
0.06256194 0.46875000 0.06256172
0.06256194 0.46875000 0.06256172
0.06256194 0.46875000 0.06256172
0.09375000 0.46875000 0.06256172
0.12500000 0.46875000 0.06256172
0.15625000 0.46875000 0.06256172
0.18750000 0.46875000 0.06256172
0.21875000 0.46875000 0.06256172
0.25000000 0.46875000 0.06256172
0.28125000 0.46875000 0.06256172
0.31250000 0.46875000 0.06256172
0.34375000 0.46875000 0.06256172
0.37500000 0.46875000 0.06256172
0.40625000 0.46875000 0.06256172
0.43750000 0.46875000 0.06256172
0.46875000 0.46875000 0.06256191
0.50000000 0.46875000 0.06256172
0.53125000 0.46875000 0.06256172
0.56250000 0.46875000 0.06256172
0.59375000 0.46875000 0.06256172
0.62500000 0.46875000 0.06256172
0.65625000 0.46875000 0.06256172
0.68750000 0.46875000 0.06256172
0.71875000 0.46875000 0.06256172
0.75000000 0.46875000 0.06256172
0.78125000 0.46875000 0.06256172
0.81250000 0.46875000 0.06256172
0.84375000 0.46875000 0.06256172
0.87500000 0.46875000 0.06256172
0.90625000 0.46875000 0.06256172
0.91886608 0.46875000 0.06256172
0.91886608 0.46875000 0.06256172
0.91886608 0.46875000 0.06256172
0.06256172 0.50000000 0.06256172
0.06256172 0.50000000 0.06256172
0.06256172 0.50000000 0.06256172
0.09375000 0.50000000 0.06256172
0.12500000 0.50000000 0.06256172
0.15625000 0.50000000 0.06256172
0.18750000 0.50000000 0.06256172
0.21875000 0.50000000 0.06256172
0.25000000 0.50000000 0.06256172
0.28125000 0.50000000 0.06256172
0.31250000 0.50000000 0.06256172
0.34375000 0.50000000 0.06256172
0.37500000 0.50000000 0.06256172
0.40625000 0.50000000 0.06256172
0.43750000 0.50000000 0.06256172
0.46875000 0.50000000 0.06256172
0.50000000 0.50000000 0.06256172
0.53125000 0.50000000 0.06256194
0.56250000 0.50000000 0.06256172
0.59375000 0.50000000 0.06256172
0.62500000 0.50000000 0.06256172
0.65625000 0.50000000 0.06256172
0.68750000 0.50000000 0.06256200
0.71875000 0.50000000 0.06256200
0.75000000 0.50000000 0.06256172
0.78125000 0.50000000 0.06256204
0.81250000 0.50000000 0.06256172
0.84375000 0.50000000 0.06256172
0.87500000 0.50000000 0.06256172
0.90625000 0.50000000 0.06256172
0.91886608 0.50000000 0.06256219
0.91886608 0.50000000 0.06256172
0.91886608 0.50000000 0.06256172
0.06256197 0.53125000 0.06256194
0.06256197 0.53125000 0.06256194
0.06256197 0.53125000 0.06256194
0.09375000 0.53125000 0.06256194
0.12500000 0.53125000 0.06256194
0.15625000 0.53125000 0.06256172
0.18750000 0.53125000 0.06256172
0.21875000 0.53125000 0.06256172
0.25000000 0.53125000 0.06256172
0.28125000 0.53125000 0.06256172
0.31250000 0.53125000 0.06256172
0.34375000 0.53125000 0.06256194
0.37500000 0.53125000 0.06256172
0.40625000 0.53125000 0.06256194
0.43750000 0.53125000 0.06256172
0.46875000 0.53125000 0.06256172
0.50000000 0.53125000 0.06256172
0.53125000 0.53125000 0.06256194
0.56250000 0.53125000 0.06256197
0.59375000 0.53125000 0.06256172
0.62500000 0.53125000 0.06256172
0.65625000 0.53125000 0.06256172
0.68750000 0.53125000 0.06256172
0.71875000 0.53125000 0.06256200
0.75000000 0.53125000 0.06256172
0.78125000 0.53125000 0.06256172
0.81250000 0.53125000 0.06256172
0.84375000 0.53125000 0.06256172
0.87500000 0.53125000 0.06256213
0.90625000 0.53125000 0.06256172
0.91886608 0.53125000 0.06256172
0.91886608 0.53125000 0.06256172
0.91886608 0.53125000 0.06256227
0.06256198 0.56250000 0.06256172
0.06256198 0.56250000 0.06256172
0.06256198 0.56250000 0.06256172
0.09375000 0.56250000 0.06256172
0.12500000 0.56250000 0.06256172
0.15625000 0.56250000 0.06256172
0.18750000 0.56250000 0.06256172
0.21875000 0.56250000 0.06256172
0.25000000 0.56250000 0.06256172
0.28125000 0.56250000 0.06256172
0.31250000 0.56250000 0.06256172
0.34375000 0.56250000 0.06256172
0.37500000 0.56250000 0.06256172
0.40625000 0.56250000 0.06256172
0.43750000 0.56250000 0.06256194
0.46875000 0.56250000 0.06256172
0.50000000 0.56250000 0.06256172
0.53125000 0.56250000 0.06256172
0.56250000 0.56250000 0.06256172
0.59375000 0.56250000 0.06256172
0.62500000 0.56250000 0.06256172
0.65625000 0.56250000 0.06256172
0.68750000 0.56250000 0.06256172
0.71875000 0.56250000 0.06256172
0.75000000 0.56250000 0.06256172
0.78125000 0.56250000 0.06256208
0.81250000 0.56250000 0.06256172
0.84375000 0.56250000 0.06256172
0.87500000 0.56250000 0.06256213
0.90625000 0.56250000 0.06256172
0.91886608 0.56250000 0.06256172
0.91886608 0.56250000 0.06256172
0.91886608 0.56250000 0.06256172
0.06256195 0.59375000 0.06256172
0.06256195 0.59375000 0.06256172
0.06256195 0.59375000 0.06256172
0.09375000 0.59375000 0.06256172
0.12500000 0.59375000 0.06256172
0.15625000 0.59375000 0.06256172
0.18750000 0.59375000 0.06256172
0.21875000 0.59375000 0.06256172
0.25000000 0.59375000 0.06256172
0.28125000 0.59375000 0.06256172
0.31250000 0.59375000 0.06256172
0.34375000 0.59375000 0.06256172
0.37500000 0.59375000 0.06256172
0.40625000 0.59375000 0.06256172
0.43750000 0.59375000 0.06256172
0.46875000 0.59375000 0.06256172
0.50000000 0.59375000 0.06256172
0.53125000 0.59375000 0.06256172
0.56250000 0.59375000 0.06256172
0.59375000 0.59375000 0.06256172
0.62500000 0.59375000 0.06256172
0.65625000 0.59375000 0.06256172
0.68750000 0.59375000 0.06256172
0.71875000 0.59375000 0.06256172
0.75000000 0.59375000 0.06256172
0.78125000 0.59375000 0.06256172
0.81250000 0.59375000 0.06256208
0.84375000 0.59375000 0.06256208
0.87500000 0.59375000 0.06256213
0.90625000 0.59375000 0.06256172
0.91886608 0.59375000 0.06256172
0.91886608 0.59375000 0.06256172
0.91886608 0.59375000 0.06256227
0.06256189 0.62500000 0.06256172
0.06256189 0.62500000 0.06256172
0.06256189 0.62500000 0.06256172
0.09375000 0.62500000 0.06256172
0.12500000 0.62500000 0.06256172
0.15625000 0.62500000 0.06256172
0.18750000 0.62500000 0.06256172
0.21875000 0.62500000 0.06256172
0.25000000 0.62500000 0.06256172
0.28125000 0.62500000 0.06256172
0.31250000 0.62500000 0.06256172
0.34375000 0.62500000 0.06256172
0.37500000 0.62500000 0.06256172
0.40625000 0.62500000 0.06256172
0.43750000 0.62500000 0.06256172
0.46875000 0.62500000 0.06256172
0.50000000 0.62500000 0.06256197
0.53125000 0.62500000 0.06256172
0.56250000 0.62500000 0.06256172
0.59375000 0.62500000 0.06256172
0.62500000 0.62500000 0.06256172
0.65625000 0.62500000 0.06256172
0.68750000 0.62500000 0.06256172
0.71875000 0.62500000 0.06256204
0.75000000 0.62500000 0.06256172
0.78125000 0.62500000 0.06256172
0.81250000 0.62500000 0.06256172
0.84375000 0.62500000 0.06256172
0.87500000 0.62500000 0.06256172
0.90625000 0.62500000 0.06256172
0.91886608 0.62500000 0.06256172
0.91886608 0.62500000 0.06256219
0.91886608 0.62500000 0.06256172
0.06256201 0.65625000 0.06256172
0.06256201 0.65625000 0.06256172
0.06256201 0.65625000 0.06256172
0.09375000 0.65625000 0.06256172
0.12500000 0.65625000 0.06256172
0.15625000 0.65625000 0.06256200
0.18750000 0.65625000 0.06256172
0.21875000 0.65625000 0.06256172
0.25000000 0.65625000 0.06256172
0.28125000 0.65625000 0.06256200
0.31250000 0.65625000 0.06256172
0.34375000 0.65625000 0.06256172
0.37500000 0.65625000 0.06256172
0.40625000 0.65625000 0.06256172
0.43750000 0.65625000 0.06256200
0.46875000 0.65625000 0.06256172
0.50000000 0.65625000 0.06256172
0.53125000 0.65625000 0.06256172
0.56250000 0.65625000 0.06256172
0.59375000 0.65625000 0.06256172
0.62500000 0.65625000 0.06256172
0.65625000 0.65625000 0.06256172
0.68750000 0.65625000 0.06256172
0.71875000 0.65625000 0.06256172
0.75000000 0.65625000 0.06256172
0.78125000 0.65625000 0.06256204
0.81250000 0.65625000 0.06256172
