src/ffmpeg_scripts/luts/luminance_0p67.cube
TITLE "luminance_0p67"
LUT_3D_SIZE 33
# PQ (EOTF Only)/Rec2020 -> PQ (EOTF Only)/Rec2020, CineEI Shift 0.67, Black Level 0.00% IRE, Input 109% -> Output 109% - Created with LUTCalc v4.01 by Ben Turley October 2020
0.06256172 0.06256172 0.06256172
0.06256172 0.06256172 0.06256172
0.06256172 0.06256172 0.06256172
0.10108571 0.06256172 0.06256172
0.13770263 0.06256179 0.06256172
0.17337467 0.06256172 0.06256172
0.20839738 0.06256180 0.06256180
0.24292083 0.06256181 0.06256172
0.27703711 0.06256172 0.06256172
0.31080887 0.06256172 0.06256172
0.34428163 0.06256172 0.06256172
0.37749002 0.06256185 0.06256172
0.41046135 0.06256172 0.06256187
0.44321770 0.06256184 0.06256189
0.47577730 0.06256185 0.06256172
0.50815549 0.06256172 0.06256172
0.54036535 0.06256189 0.06256194
0.57241816 0.06256172 0.06256194
0.60432378 0.06256194 0.06256194
0.63609086 0.06256198 0.06256172
0.66772710 0.06256172 0.06256172
0.69923936 0.06256204 0.06256200
0.73063381 0.06256172 0.06256172
0.76191604 0.06256172 0.06256172
0.79309112 0.06256172 0.06256172
0.82416366 0.06256172 0.06256208
0.85513791 0.06256204 0.06256172
0.88601775 0.06256208 0.06256172
0.91680680 0.06256218 0.06256172
0.91886608 0.06256172 0.06256172
0.91886608 0.06256208 0.06256172
0.91886608 0.06256172 0.06256172
0.91886608 0.06256219 0.06256227
0.06256172 0.06256172 0.06256172
0.06256172 0.06256172 0.06256172
0.06256172 0.06256172 0.06256172
0.10108571 0.06256172 0.06256172
0.13770263 0.06256179 0.06256172
0.17337467 0.06256172 0.06256172
0.20839738 0.06256180 0.06256180
0.24292083 0.06256181 0.06256172
0.27703711 0.06256172 0.06256172
0.31080887 0.06256172 0.06256172
0.34428163 0.06256172 0.06256172
0.37749002 0.06256185 0.06256172
0.41046135 0.06256172 0.06256187
0.44321770 0.06256184 0.06256189
0.47577730 0.06256185 0.06256172
0.50815549 0.06256172 0.06256172
0.54036535 0.06256189 0.06256194
0.57241816 0.06256172 0.06256194
0.60432378 0.06256194 0.06256194
0.63609086 0.06256198 0.06256172
0.66772710 0.06256172 0.06256172
0.69923936 0.06256204 0.06256200
0.73063381 0.06256172 0.06256172
0.76191604 0.06256172 0.06256172
0.79309112 0.06256172 0.06256172
0.82416366 0.06256172 0.06256208
0.85513791 0.06256204 0.06256172
0.88601775 0.06256208 0.06256172
0.91680680 0.06256218 0.06256172
0.91886608 0.06256172 0.06256172
0.91886608 0.06256208 0.06256172
0.91886608 0.06256172 0.06256172
0.91886608 0.06256219 0.06256227
0.06256172 0.06256172 0.06256172
0.06256172 0.06256172 0.06256172
0.06256172 0.06256172 0.06256172
0.10108571 0.06256172 0.06256172
0.13770263 0.06256179 0.06256172
0.17337467 0.06256172 0.06256172
0.20839738 0.06256180 0.06256180
0.24292083 0.06256181 0.06256172
0.27703711 0.06256172 0.06256172
0.31080887 0.06256172 0.06256172
0.34428163 0.06256172 0.06256172
0.37749002 0.06256185 0.06256172
0.41046135 0.06256172 0.06256187
0.44321770 0.06256184 0.06256189
0.47577730 0.06256185 0.06256172
0.50815549 0.06256172 0.06256172
0.54036535 0.06256189 0.06256194
0.57241816 0.06256172 0.06256194
0.60432378 0.06256194 0.06256194
0.63609086 0.06256198 0.06256172
0.66772710 0.06256172 0.06256172
0.69923936 0.06256204 0.06256200
0.73063381 0.06256172 0.06256172
0.76191604 0.06256172 0.06256172
0.79309112 0.06256172 0.06256172
0.82416366 0.06256172 0.06256208
0.85513791 0.06256204 0.06256172
0.88601775 0.06256208 0.06256172
0.91680680 0.06256218 0.06256172
0.91886608 0.06256172 0.06256172
0.91886608 0.06256208 0.06256172
0.91886608 0.06256172 0.06256172
0.91886608 0.06256219 0.06256227
0.06256178 0.10108571 0.06256172
0.06256178 0.10108571 0.06256172
0.06256178 0.10108571 0.06256172
0.10108571 0.10108571 0.06256172
0.13770263 0.10108571 0.06256172
0.17337467 0.10108571 0.06256172
0.20839738 0.10108571 0.06256172
0.24292083 0.10108571 0.06256172
0.27703711 0.10108571 0.06256172
0.31080887 0.10108571 0.06256184
0.34428163 0.10108571 0.06256172
0.37749002 0.10108571 0.06256172
0.41046135 0.10108571 0.06256172
0.44321770 0.10108571 0.06256172
0.47577730 0.10108571 0.06256189
0.50815549 0.10108571 0.06256172
0.54036535 0.10108571 0.06256194
0.57241816 0.10108571 0.06256172
0.60432378 0.10108571 0.06256172
0.63609086 0.10108571 0.06256172
0.66772710 0.10108571 0.06256197
0.69923936 0.10108571 0.06256172
0.73063381 0.10108571 0.06256200
0.76191604 0.10108571 0.06256172
0.79309112 0.10108571 0.06256172
0.82416366 0.10108571 0.06256172
0.85513791 0.10108571 0.06256172
0.88601775 0.10108571 0.06256172
0.91680680 0.10108571 0.06256172
0.91886608 0.10108571 0.06256172
0.91886608 0.10108571 0.06256227
0.91886608 0.10108571 0.06256172
0.91886608 0.10108571 0.06256235
0.06256180 0.13770263 0.06256172
0.06256180 0.13770263 0.06256172
0.06256180 0.13770263 0.06256172
0.10108571 0.13770263 0.06256172
0.13770263 0.13770263 0.06256172
0.17337467 0.13770263 0.06256172
0.20839738 0.13770263 0.06256182
0.24292083 0.13770263 0.06256182
0.27703711 0.13770263 0.06256172
0.31080887 0.13770263 0.06256184
0.34428163 0.13770263 0.06256172
0.37749002 0.13770263 0.06256185
0.41046135 0.13770263 0.06256172
0.44321770 0.13770263 0.06256172
0.47577730 0.13770263 0.06256189
0.50815549 0.13770263 0.06256172
0.54036535 0.13770263 0.06256172
0.57241816 0.13770263 0.06256194
0.60432378 0.13770263 0.06256172
0.63609086 0.13770263 0.06256172
0.66772710 0.13770263 0.06256172
0.69923936 0.13770263 0.06256172
0.73063381 0.13770263 0.06256172
0.76191604 0.13770263 0.06256204
0.79309112 0.13770263 0.06256172
0.82416366 0.13770263 0.06256172
0.85513791 0.13770263 0.06256208
0.88601775 0.13770263 0.06256172
0.91680680 0.13770263 0.06256213
0.91886608 0.13770263 0.06256172
0.91886608 0.13770263 0.06256172
0.91886608 0.13770263 0.06256172
0.91886608 0.13770263 0.06256172
0.06256172 0.17337467 0.06256172
0.06256172 0.17337467 0.06256172
0.06256172 0.17337467 0.06256172
0.10108571 0.17337467 0.06256172
0.13770263 0.17337467 0.06256172
0.17337467 0.17337467 0.06256172
0.20839738 0.17337467 0.06256181
0.24292083 0.17337467 0.06256182
0.27703711 0.17337467 0.06256184
0.31080887 0.17337467 0.06256184
0.34428163 0.17337467 0.06256172
0.37749002 0.17337467 0.06256172
0.41046135 0.17337467 0.06256172
0.44321770 0.17337467 0.06256172
0.47577730 0.17337467 0.06256172
0.50815549 0.17337467 0.06256172
0.54036535 0.17337467 0.06256172
0.57241816 0.17337467 0.06256172
0.60432378 0.17337467 0.06256172
0.63609086 0.17337467 0.06256172
0.66772710 0.17337467 0.06256197
0.69923936 0.17337467 0.06256200
0.73063381 0.17337467 0.06256172
0.76191604 0.17337467 0.06256172
0.79309112 0.17337467 0.06256172
0.82416366 0.17337467 0.06256172
0.85513791 0.17337467 0.06256208
0.88601775 0.17337467 0.06256172
0.91680680 0.17337467 0.06256213
0.91886608 0.17337467 0.06256172
0.91886608 0.17337467 0.06256172
0.91886608 0.17337467 0.06256172
0.91886608 0.17337467 0.06256227
0.06256178 0.20839738 0.06256172
0.06256178 0.20839738 0.06256172
0.06256178 0.20839738 0.06256172
0.10108571 0.20839738 0.06256172
0.13770263 0.20839738 0.06256172
0.17337467 0.20839738 0.06256172
0.20839738 0.20839738 0.06256172
0.24292083 0.20839738 0.06256182
0.27703711 0.20839738 0.06256172
0.31080887 0.20839738 0.06256184
0.34428163 0.20839738 0.06256172
0.37749002 0.20839738 0.06256172
0.41046135 0.20839738 0.06256172
0.44321770 0.20839738 0.06256172
0.47577730 0.20839738 0.06256191
0.50815549 0.20839738 0.06256191
0.54036535 0.20839738 0.06256172
0.57241816 0.20839738 0.06256194
0.60432378 0.20839738 0.06256172
0.63609086 0.20839738 0.06256172
0.66772710 0.20839738 0.06256172
0.69923936 0.20839738 0.06256172
0.73063381 0.20839738 0.06256200
0.76191604 0.20839738 0.06256172
0.79309112 0.20839738 0.06256172
0.82416366 0.20839738 0.06256172
0.85513791 0.20839738 0.06256208
0.88601775 0.20839738 0.06256172
0.91680680 0.20839738 0.06256172
0.91886608 0.20839738 0.06256172
0.91886608 0.20839738 0.06256219
0.91886608 0.20839738 0.06256172
0.91886608 0.20839738 0.06256172
0.06256184 0.24292083 0.06256172
0.06256184 0.24292083 0.06256172
0.06256184 0.24292083 0.06256172
0.10108571 0.24292083 0.06256172
0.13770263 0.24292083 0.06256172
0.17337467 0.24292083 0.06256172
0.20839738 0.24292083 0.06256172
0.24292083 0.24292083 0.06256172
0.27703711 0.24292083 0.06256172
0.31080887 0.24292083 0.06256172
0.34428163 0.24292083 0.06256185
0.37749002 0.24292083 0.06256172
0.41046135 0.24292083 0.06256172
0.44321770 0.24292083 0.06256189
0.47577730 0.24292083 0.06256189
0.50815549 0.24292083 0.06256172
0.54036535 0.24292083 0.06256172
0.57241816 0.24292083 0.06256194
0.60432378 0.24292083 0.06256194
0.63609086 0.24292083 0.06256172
0.66772710 0.24292083 0.06256172
0.69923936 0.24292083 0.06256172
0.73063381 0.24292083 0.06256172
0.76191604 0.24292083 0.06256172
0.79309112 0.24292083 0.06256172
0.82416366 0.24292083 0.06256172
0.85513791 0.24292083 0.06256172
0.88601775 0.24292083 0.06256172
0.91680680 0.24292083 0.06256172
0.91886608 0.24292083 0.06256172
0.91886608 0.24292083 0.06256172
0.91886608 0.24292083 0.06256172
0.91886608 0.24292083 0.06256172
0.06256184 0.27703711 0.06256172
0.06256184 0.27703711 0.06256172
0.06256184 0.27703711 0.06256172
0.10108571 0.27703711 0.06256184
0.13770263 0.27703711 0.06256172
0.17337467 0.27703711 0.06256172
0.20839738 0.27703711 0.06256172
0.24292083 0.27703711 0.06256172
0.27703711 0.27703711 0.06256172
0.31080887 0.27703711 0.06256172
0.34428163 0.27703711 0.06256185
0.37749002 0.27703711 0.06256172
0.41046135 0.27703711 0.06256172
0.44321770 0.27703711 0.06256172
0.47577730 0.27703711 0.06256172
0.50815549 0.27703711 0.06256172
0.54036535 0.27703711 0.06256191
0.57241816 0.27703711 0.06256172
0.60432378 0.27703711 0.06256172
0.63609086 0.27703711 0.06256172
0.66772710 0.27703711 0.06256172
0.69923936 0.27703711 0.06256172
0.73063381 0.27703711 0.06256172
0.76191604 0.27703711 0.06256172
0.79309112 0.27703711 0.06256172
0.82416366 0.27703711 0.06256172
0.85513791 0.27703711 0.06256172
0.88601775 0.27703711 0.06256172
0.91680680 0.27703711 0.06256172
0.91886608 0.27703711 0.06256172
0.91886608 0.27703711 0.06256172
0.91886608 0.27703711 0.06256172
0.91886608 0.27703711 0.06256172
0.06256186 0.31080887 0.06256172
0.06256186 0.31080887 0.06256172
0.06256186 0.31080887 0.06256172
0.10108571 0.31080887 0.06256172
0.13770263 0.31080887 0.06256172
0.17337467 0.31080887 0.06256172
0.20839738 0.31080887 0.06256172
0.24292083 0.31080887 0.06256172
0.27703711 0.31080887 0.06256172
0.31080887 0.31080887 0.06256172
0.34428163 0.31080887 0.06256172
0.37749002 0.31080887 0.06256187
0.41046135 0.31080887 0.06256172
0.44321770 0.31080887 0.06256189
0.47577730 0.31080887 0.06256172
0.50815549 0.31080887 0.06256172
0.54036535 0.31080887 0.06256191
0.57241816 0.31080887 0.06256194
0.60432378 0.31080887 0.06256194
0.63609086 0.31080887 0.06256197
0.66772710 0.31080887 0.06256172
0.69923936 0.31080887 0.06256172
0.73063381 0.31080887 0.06256172
0.76191604 0.31080887 0.06256204
0.79309112 0.31080887 0.06256204
0.82416366 0.31080887 0.06256208
0.85513791 0.31080887 0.06256172
0.88601775 0.31080887 0.06256172
0.91680680 0.31080887 0.06256213
0.91886608 0.31080887 0.06256172
0.91886608 0.31080887 0.06256219
0.91886608 0.31080887 0.06256172
0.91886608 0.31080887 0.06256172
0.06256188 0.34428163 0.06256172
0.06256188 0.34428163 0.06256172
0.06256188 0.34428163 0.06256172
0.10108571 0.34428163 0.06256172
0.13770263 0.34428163 0.06256172
0.17337467 0.34428163 0.06256172
0.20839738 0.34428163 0.06256172
0.24292083 0.34428163 0.06256172
0.27703711 0.34428163 0.06256172
0.31080887 0.34428163 0.06256172
0.34428163 0.34428163 0.06256172
0.37749002 0.34428163 0.06256172
0.41046135 0.34428163 0.06256172
0.44321770 0.34428163 0.06256189
0.47577730 0.34428163 0.06256172
0.50815549 0.34428163 0.06256172
0.54036535 0.34428163 0.06256172
0.57241816 0.34428163 0.06256172
0.60432378 0.34428163 0.06256172
0.63609086 0.34428163 0.06256172
0.66772710 0.34428163 0.06256172
0.69923936 0.34428163 0.06256172
0.73063381 0.34428163 0.06256172
0.76191604 0.34428163 0.06256172
0.79309112 0.34428163 0.06256172
0.82416366 0.34428163 0.06256208
0.85513791 0.34428163 0.06256172
0.88601775 0.34428163 0.06256172
0.91680680 0.34428163 0.06256172
0.91886608 0.34428163 0.06256172
0.91886608 0.34428163 0.06256172
0.91886608 0.34428163 0.06256172
0.91886608 0.34428163 0.06256172
0.06256186 0.37749002 0.06256172
0.06256186 0.37749002 0.06256172
0.06256186 0.37749002 0.06256172
0.10108571 0.37749002 0.06256172
0.13770263 0.37749002 0.06256172
0.17337467 0.37749002 0.06256172
0.20839738 0.37749002 0.06256172
0.24292083 0.37749002 0.06256172
0.27703711 0.37749002 0.06256172
0.31080887 0.37749002 0.06256172
0.34428163 0.37749002 0.06256172
0.37749002 0.37749002 0.06256189
0.41046135 0.37749002 0.06256172
0.44321770 0.37749002 0.06256172
0.47577730 0.37749002 0.06256172
0.50815549 0.37749002 0.06256172
0.54036535 0.37749002 0.06256172
0.57241816 0.37749002 0.06256172
0.60432378 0.37749002 0.06256172
0.63609086 0.37749002 0.06256172
0.66772710 0.37749002 0.06256172
0.69923936 0.37749002 0.06256172
0.73063381 0.37749002 0.06256200
0.76191604 0.37749002 0.06256172
0.79309112 0.37749002 0.06256172
0.82416366 0.37749002 0.06256172
0.85513791 0.37749002 0.06256172
0.88601775 0.37749002 0.06256172
0.91680680 0.37749002 0.06256172
0.91886608 0.37749002 0.06256172
0.91886608 0.37749002 0.06256219
0.91886608 0.37749002 0.06256172
0.91886608 0.37749002 0.06256172
0.06256190 0.41046135 0.06256187
0.06256190 0.41046135 0.06256187
0.06256190 0.41046135 0.06256187
0.10108571 0.41046135 0.06256172
0.13770263 0.41046135 0.06256172
0.17337467 0.41046135 0.06256189
0.20839738 0.41046135 0.06256189
0.24292083 0.41046135 0.06256172
0.27703711 0.41046135 0.06256172
0.31080887 0.41046135 0.06256189
0.34428163 0.41046135 0.06256172
0.37749002 0.41046135 0.06256172
0.41046135 0.41046135 0.06256189
0.44321770 0.41046135 0.06256172
0.47577730 0.41046135 0.06256172
0.50815549 0.41046135 0.06256172
0.54036535 0.41046135 0.06256194
0.57241816 0.41046135 0.06256172
0.60432378 0.41046135 0.06256194
0.63609086 0.41046135 0.06256172
0.66772710 0.41046135 0.06256172
0.69923936 0.41046135 0.06256172
0.73063381 0.41046135 0.06256200
0.76191604 0.41046135 0.06256172
0.79309112 0.41046135 0.06256172
0.82416366 0.41046135 0.06256208
0.85513791 0.41046135 0.06256172
0.88601775 0.41046135 0.06256213
0.91680680 0.41046135 0.06256213
0.91886608 0.41046135 0.06256172
0.91886608 0.41046135 0.06256219
0.91886608 0.41046135 0.06256172
0.91886608 0.41046135 0.06256172
0.06256190 0.44321770 0.06256172
0.06256190 0.44321770 0.06256172
0.06256190 0.44321770 0.06256172
0.10108571 0.44321770 0.06256189
0.13770263 0.44321770 0.06256172
0.17337467 0.44321770 0.06256172
0.20839738 0.44321770 0.06256189
0.24292083 0.44321770 0.06256172
0.27703711 0.44321770 0.06256172
0.31080887 0.44321770 0.06256172
0.34428163 0.44321770 0.06256189
0.37749002 0.44321770 0.06256172
0.41046135 0.44321770 0.06256172
0.44321770 0.44321770 0.06256191
0.47577730 0.44321770 0.06256172
0.50815549 0.44321770 0.06256172
0.54036535 0.44321770 0.06256172
0.57241816 0.44321770 0.06256172
0.60432378 0.44321770 0.06256197
0.63609086 0.44321770 0.06256172
0.66772710 0.44321770 0.06256172
0.69923936 0.44321770 0.06256172
0.73063381 0.44321770 0.06256172
0.76191604 0.44321770 0.06256172
0.79309112 0.44321770 0.06256172
0.82416366 0.44321770 0.06256172
0.85513791 0.44321770 0.06256172
0.88601775 0.44321770 0.06256172
0.91680680 0.44321770 0.06256213
0.91886608 0.44321770 0.06256172
0.91886608 0.44321770 0.06256172
0.91886608 0.44321770 0.06256172
0.91886608 0.44321770 0.06256172
0.06256190 0.47577730 0.06256172
0.06256190 0.47577730 0.06256172
0.06256190 0.47577730 0.06256172
0.10108571 0.47577730 0.06256172
0.13770263 0.47577730 0.06256172
0.17337467 0.47577730 0.06256172
0.20839738 0.47577730 0.06256172
0.24292083 0.47577730 0.06256172
0.27703711 0.47577730 0.06256172
0.31080887 0.47577730 0.06256172
0.34428163 0.47577730 0.06256194
0.37749002 0.47577730 0.06256191
0.41046135 0.47577730 0.06256172
0.44321770 0.47577730 0.06256191
0.47577730 0.47577730 0.06256172
0.50815549 0.47577730 0.06256172
0.54036535 0.47577730 0.06256194
0.57241816 0.47577730 0.06256197
0.60432378 0.47577730 0.06256197
0.63609086 0.47577730 0.06256172
0.66772710 0.47577730 0.06256172
0.69923936 0.47577730 0.06256172
0.73063381 0.47577730 0.06256200
0.76191604 0.47577730 0.06256172
0.79309112 0.47577730 0.06256204
0.82416366 0.47577730 0.06256172
0.85513791 0.47577730 0.06256172
0.88601775 0.47577730 0.06256172
0.91680680 0.47577730 0.06256172
0.91886608 0.47577730 0.06256172
0.91886608 0.47577730 0.06256172
0.91886608 0.47577730 0.06256172
0.91886608 0.47577730 0.06256227
0.06256196 0.50815549 0.06256172
0.06256196 0.50815549 0.06256172
0.06256196 0.50815549 0.06256172
0.10108571 0.50815549 0.06256172
0.13770263 0.50815549 0.06256172
0.17337467 0.50815549 0.06256172
0.20839738 0.50815549 0.06256172
0.24292083 0.50815549 0.06256172
0.27703711 0.50815549 0.06256172
0.31080887 0.50815549 0.06256172
0.34428163 0.50815549 0.06256172
0.37749002 0.50815549 0.06256172
0.41046135 0.50815549 0.06256172
0.44321770 0.50815549 0.06256172
0.47577730 0.50815549 0.06256172
0.50815549 0.50815549 0.06256172
0.54036535 0.50815549 0.06256172
0.57241816 0.50815549 0.06256172
0.60432378 0.50815549 0.06256172
0.63609086 0.50815549 0.06256172
0.66772710 0.50815549 0.06256172
0.69923936 0.50815549 0.06256172
0.73063381 0.50815549 0.06256200
0.76191604 0.50815549 0.06256172
0.79309112 0.50815549 0.06256172
0.82416366 0.50815549 0.06256172
0.85513791 0.50815549 0.06256172
0.88601775 0.50815549 0.06256172
0.91680680 0.50815549 0.06256172
0.91886608 0.50815549 0.06256172
0.91886608 0.50815549 0.06256172
0.91886608 0.50815549 0.06256172
0.91886608 0.50815549 0.06256227
0.06256172 0.54036535 0.06256172
0.06256172 0.54036535 0.06256172
0.06256172 0.54036535 0.06256172
0.10108571 0.54036535 0.06256172
0.13770263 0.54036535 0.06256172
0.17337467 0.54036535 0.06256172
0.20839738 0.54036535 0.06256172
0.24292083 0.54036535 0.06256172
0.27703711 0.54036535 0.06256172
0.31080887 0.54036535 0.06256172
0.34428163 0.54036535 0.06256172
0.37749002 0.54036535 0.06256172
0.41046135 0.54036535 0.06256172
0.44321770 0.54036535 0.06256172
0.47577730 0.54036535 0.06256194
0.50815549 0.54036535 0.06256194
0.54036535 0.54036535 0.06256172
0.57241816 0.54036535 0.06256172
0.60432378 0.54036535 0.06256172
0.63609086 0.54036535 0.06256172
0.66772710 0.54036535 0.06256172
0.69923936 0.54036535 0.06256172
0.73063381 0.54036535 0.06256200
0.76191604 0.54036535 0.06256172
0.79309112 0.54036535 0.06256172
0.82416366 0.54036535 0.06256172
0.85513791 0.54036535 0.06256172
0.88601775 0.54036535 0.06256172
0.91680680 0.54036535 0.06256172
0.91886608 0.54036535 0.06256172
0.91886608 0.54036535 0.06256172
0.91886608 0.54036535 0.06256172
0.91886608 0.54036535 0.06256172
0.06256198 0.57241816 0.06256172
0.06256198 0.57241816 0.06256172
0.06256198 0.57241816 0.06256172
0.10108571 0.57241816 0.06256172
0.13770263 0.57241816 0.06256172
0.17337467 0.57241816 0.06256172
0.20839738 0.57241816 0.06256172
0.24292083 0.57241816 0.06256172
0.27703711 0.57241816 0.06256194
0.31080887 0.57241816 0.06256172
0.34428163 0.57241816 0.06256194
0.37749002 0.57241816 0.06256194
0.41046135 0.57241816 0.06256172
0.44321770 0.57241816 0.06256194
0.47577730 0.57241816 0.06256172
0.50815549 0.57241816 0.06256172
0.54036535 0.57241816 0.06256197
0.57241816 0.57241816 0.06256172
0.60432378 0.57241816 0.06256172
0.63609086 0.57241816 0.06256172
0.66772710 0.57241816 0.06256172
0.69923936 0.57241816 0.06256200
0.73063381 0.57241816 0.06256172
0.76191604 0.57241816 0.06256172
0.79309112 0.57241816 0.06256172
0.82416366 0.57241816 0.06256172
0.85513791 0.57241816 0.06256172
0.88601775 0.57241816 0.06256213
0.91680680 0.57241816 0.06256213
0.91886608 0.57241816 0.06256172
0.91886608 0.57241816 0.06256172
0.91886608 0.57241816 0.06256227
0.91886608 0.57241816 0.06256227
0.06256200 0.60432378 0.06256172
0.06256200 0.60432378 0.06256172
0.06256200 0.60432378 0.06256172
0.10108571 0.60432378 0.06256172
0.13770263 0.60432378 0.06256172
0.17337467 0.60432378 0.06256172
0.20839738 0.60432378 0.06256172
0.24292083 0.60432378 0.06256172
0.27703711 0.60432378 0.06256172
0.31080887 0.60432378 0.06256172
0.34428163 0.60432378 0.06256172
0.37749002 0.60432378 0.06256197
0.41046135 0.60432378 0.06256172
0.44321770 0.60432378 0.06256172
0.47577730 0.60432378 0.06256172
0.50815549 0.60432378 0.06256172
0.54036535 0.60432378 0.06256172
0.57241816 0.60432378 0.06256172
0.60432378 0.60432378 0.06256172
0.63609086 0.60432378 0.06256172
0.66772710 0.60432378 0.06256172
0.69923936 0.60432378 0.06256172
0.73063381 0.60432378 0.06256172
0.76191604 0.60432378 0.06256172
0.79309112 0.60432378 0.06256172
0.82416366 0.60432378 0.06256172
0.85513791 0.60432378 0.06256172
0.88601775 0.60432378 0.06256213
0.91680680 0.60432378 0.06256172
0.91886608 0.60432378 0.06256172
0.91886608 0.60432378 0.06256172
0.91886608 0.60432378 0.06256172
0.91886608 0.60432378 0.06256227
0.06256201 0.63609086 0.06256172
0.06256201 0.63609086 0.06256172
0.06256201 0.63609086 0.06256172
0.10108571 0.63609086 0.06256172
0.13770263 0.63609086 0.06256172
0.17337467 0.63609086 0.06256172
0.20839738 0.63609086 0.06256172
0.24292083 0.63609086 0.06256172
0.27703711 0.63609086 0.06256172
0.31080887 0.63609086 0.06256172
0.34428163 0.63609086 0.06256172
0.37749002 0.63609086 0.06256197
0.41046135 0.63609086 0.06256172
0.44321770 0.63609086 0.06256172
0.47577730 0.63609086 0.06256172
0.50815549 0.63609086 0.06256172
0.54036535 0.63609086 0.06256172
0.57241816 0.63609086 0.06256172
0.60432378 0.63609086 0.06256200
0.63609086 0.63609086 0.06256172
0.66772710 0.63609086 0.06256172
0.69923936 0.63609086 0.06256172
0.73063381 0.63609086 0.06256172
0.76191604 0.63609086 0.06256172
0.79309112 0.63609086 0.06256172
0.82416366 0.63609086 0.06256172
0.85513791 0.63609086 0.06256208
0.88601775 0.63609086 0.06256172
0.91680680 0.63609086 0.06256219
0.91886608 0.63609086 0.06256172
0.91886608 0.63609086 0.06256172
0.91886608 0.63609086 0.06256172
0.91886608 0.63609086 0.06256235
0.06256198 0.66772710 0.06256200
0.06256198 0.66772710 0.06256200
0.06256198 0.66772710 0.06256200
0.10108571 0.66772710 0.06256172
0.13770263 0.66772710 0.06256172
0.17337467 0.66772710 0.06256172
0.20839738 0.66772710 0.06256200
0.24292083 0.66772710 0.06256172
0.27703711 0.66772710 0.06256200
0.31080887 0.66772710 0.06256172
0.34428163 0.66772710 0.06256200
0.37749002 0.66772710 0.06256200
0.41046135 0.66772710 0.06256172
0.44321770 0.66772710 0.06256200
0.47577730 0.66772710 0.06256172
0.50815549 0.66772710 0.06256172
0.54036535 0.66772710 0.06256200
0.57241816 0.66772710 0.06256172
0.60432378 0.66772710 0.06256200
0.63609086 0.66772710 0.06256172
0.66772710 0.66772710 0.06256172
0.69923936 0.66772710 0.06256172
0.73063381 0.66772710 0.06256172
0.76191604 0.66772710 0.06256172
0.79309112 0.66772710 0.06256172
0.82416366 0.66772710 0.06256172
0.85513791 0.66772710 0.06256172
0.88601775 0.66772710 0.06256213
0.91680680 0.66772710 0.06256172
0.91886608 0.66772710 0.06256172
0.91886608 0.66772710 0.06256219
0.91886608 0.66772710 0.06256227
0.91886608 0.66772710 0.06256172
0.06256194 0.69923936 0.06256172
0.06256194 0.69923936 0.06256172
0.06256194 0.69923936 0.06256172
0.10108571 0.69923936 0.06256172
0.13770263 0.69923936 0.06256200
0.17337467 0.69923936 0.06256200
0.20839738 0.69923936 0.06256172
0.24292083 0.69923936 0.06256172
0.27703711 0.69923936 0.06256200
0.31080887 0.69923936 0.06256172
0.34428163 0.69923936 0.06256200
0.37749002 0.69923936 0.06256172
0.41046135 0.69923936 0.06256172
0.44321770 0.69923936 0.06256200
0.47577730 0.69923936 0.06256200
0.50815549 0.69923936 0.06256172
0.54036535 0.69923936 0.06256172
0.57241816 0.69923936 0.06256200
0.60432378 0.69923936 0.06256172
0.63609086 0.69923936 0.06256172
0.66772710 0.69923936 0.06256172
0.69923936 0.69923936 0.06256172
0.73063381 0.69923936 0.06256172
0.76191604 0.69923936 0.06256172
0.79309112 0.69923936 0.06256208
0.82416366 0.69923936 0.06256172
0.85513791 0.69923936 0.06256172
