src/ffmpeg_scripts/luts/luminance_2p33.cube
TITLE "luminance_2p33"
LUT_3D_SIZE 5
# PQ (EOTF Only)/Rec2020 -> PQ (EOTF Only)/Rec2020, CineEI Shift 2.33, Black Level 0.00% IRE, Input 109% -> Output 109% - Created with LUTCalc v4.01 by Ben Turley October 2020
0.06256172 0.06256172 0.06256172
0.35407936 0.06256172 0.06256172
0.64519973 0.06256194 0.06256172
0.89924418 0.06256204 0.06256172
0.91886608 0.06256249 0.06256257
0.06256187 0.35407936 0.06256172
0.35407936 0.35407936 0.06256172
0.64519973 0.35407936 0.06256197
0.89924418 0.35407936 0.06256213
0.91886608 0.35407936 0.06256172
0.06256197 0.64519973 0.06256172
0.35407936 0.64519973 0.06256172
0.64519973 0.64519973 0.06256172
0.89924418 0.64519973 0.06256172
0.91886608 0.64519973 0.06256172
0.06256200 0.89924418 0.06256172
0.35407936 0.89924418 0.06256172
0.64519973 0.89924418 0.06256213
0.89924418 0.89924418 0.06256219
0.91886608 0.89924418 0.06256245
0.06256255 0.91886608 0.06256172
0.35407936 0.91886608 0.06256245
0.64519973 0.91886608 0.06256172
0.89924418 0.91886608 0.06256245
0.91886608 0.91886608 0.06256172
0.06256172 0.06256194 0.35407936
0.35407936 0.06256191 0.35407936
0.64519973 0.06256197 0.35407936
0.89924418 0.06256213 0.35407936
0.91886608 0.06256241 0.35407936
0.06256187 0.35407936 0.35407936
0.35407936 0.35407936 0.35407936
0.64519973 0.35407936 0.35407936
0.89924418 0.35407936 0.35407936
0.91886608 0.35407936 0.35407936
0.06256203 0.64519973 0.35407936
0.35407936 0.64519973 0.35407936
0.64519973 0.64519973 0.35407936
0.89924418 0.64519973 0.35407936
0.91886608 0.64519973 0.35407936
0.06256204 0.89924418 0.35407936
0.35407936 0.89924418 0.35407936
0.64519973 0.89924418 0.35407936
0.89924418 0.89924418 0.35407936
0.91886608 0.89924418 0.35407936
0.06256252 0.91886608 0.35407936
0.35407936 0.91886608 0.35407936
0.64519973 0.91886608 0.35407936
0.89924418 0.91886608 0.35407936
0.91886608 0.91886608 0.35407936
0.06256200 0.06256208 0.64519973
0.35407936 0.06256172 0.64519973
0.64519973 0.06256172 0.64519973
0.89924418 0.06256219 0.64519973
0.91886608 0.06256263 0.64519973
0.06256172 0.35407936 0.64519973
0.35407936 0.35407936 0.64519973
0.64519973 0.35407936 0.64519973
0.89924418 0.35407936 0.64519973
0.91886608 0.35407936 0.64519973
0.06256172 0.64519973 0.64519973
0.35407936 0.64519973 0.64519973
0.64519973 0.64519973 0.64519973
0.89924418 0.64519973 0.64519973
0.91886608 0.64519973 0.64519973
0.06256230 0.89924418 0.64519973
0.35407936 0.89924418 0.64519973
0.64519973 0.89924418 0.64519973
0.89924418 0.89924418 0.64519973
0.91886608 0.89924418 0.64519973
0.06256172 0.91886608 0.64519973
0.35407936 0.91886608 0.64519973
0.64519973 0.91886608 0.64519973
0.89924418 0.91886608 0.64519973
0.91886608 0.91886608 0.64519973
0.06256172 0.06256241 0.89924418
0.35407936 0.06256172 0.89924418
0.64519973 0.06256172 0.89924418
0.89924418 0.06256172 0.89924418
0.91886608 0.06256245 0.89924418
0.06256172 0.35407936 0.89924418
0.35407936 0.35407936 0.89924418
0.64519973 0.35407936 0.89924418
0.89924418 0.35407936 0.89924418
0.91886608 0.35407936 0.89924418
0.06256172 0.64519973 0.89924418
0.35407936 0.64519973 0.89924418
0.64519973 0.64519973 0.89924418
0.89924418 0.64519973 0.89924418
0.91886608 0.64519973 0.89924418
0.06256172 0.89924418 0.89924418
0.35407936 0.89924418 0.89924418
0.64519973 0.89924418 0.89924418
0.89924418 0.89924418 0.89924418
0.91886608 0.89924418 0.89924418
0.06256257 0.91886608 0.89924418
0.35407936 0.91886608 0.89924418
0.64519973 0.91886608 0.89924418
0.89924418 0.91886608 0.89924418
0.91886608 0.91886608 0.89924418
0.06256172 0.06256289 0.91886608
0.35407936 0.06256301 0.91886608
0.64519973 0.06256301 0.91886608
0.89924418 0.06256289 0.91886608
0.91886608 0.06256289 0.91886608
0.06256257 0.35407936 0.91886608
0.35407936 0.35407936 0.91886608
0.64519973 0.35407936 0.91886608
0.89924418 0.35407936 0.91886608
0.91886608 0.35407936 0.91886608
0.06256172 0.64519973 0.91886608
0.35407936 0.64519973 0.91886608
0.64519973 0.64519973 0.91886608
0.89924418 0.64519973 0.91886608
0.91886608 0.64519973 0.91886608
0.06256172 0.89924418 0.91886608
0.35407936 0.89924418 0.91886608
0.64519973 0.89924418 0.91886608
0.89924418 0.89924418 0.91886608
0.91886608 0.89924418 0.91886608
0.06256172 0.91886608 0.91886608
0.35407936 0.91886608 0.91886608
0.64519973 0.91886608 0.91886608
0.89924418 0.91886608 0.91886608
0.91886608 0.91886608 0.91886608
