src/ffmpeg_scripts/luts/luminance-unclipped_0p67.cube
TITLE "luminance-unclipped_0p67"
LUT_3D_SIZE 5
# PQ (EOTF Only)/Rec2020 -> PQ (EOTF Only)/Rec2020, CineEI Shift 0.67, Black Level -7.25% IRE, Input 109% -> Output 109% - Created with LUTCalc v4.01 by Ben Turley October 2020
0.00047898 0.00047898 0.00047898
0.24902938 0.00047898 0.00047898
0.55419416 0.00047918 0.00047923
0.84707199 0.00047898 0.00047898
0.91886608 0.00047953 0.00047961
0.00047912 0.24902938 0.00047898
0.24902938 0.24902938 0.00047898
0.55419416 0.24902938 0.00047920
0.84707199 0.24902938 0.00047898
0.91886608 0.24902938 0.00047898
0.00047898 0.55419416 0.00047898
0.24902938 0.55419416 0.00047898
0.55419416 0.55419416 0.00047898
0.84707199 0.55419416 0.00047898
0.91886608 0.55419416 0.00047898
0.00047898 0.84707199 0.00047898
0.24902938 0.84707199 0.00047898
0.55419416 0.84707199 0.00047898
0.84707199 0.84707199 0.00047898
0.91886608 0.84707199 0.00047961
0.00047973 0.91886608 0.00047971
0.24902938 0.91886608 0.00047898
0.55419416 0.91886608 0.00047898
0.84707199 0.91886608 0.00047898
0.91886608 0.91886608 0.00047898
0.00047898 0.00047916 0.24902938
0.24902938 0.00047916 0.24902938
0.55419416 0.00047923 0.24902938
0.84707199 0.00047898 0.24902938
0.91886608 0.00047958 0.24902938
0.00047898 0.24902938 0.24902938
0.24902938 0.24902938 0.24902938
0.55419416 0.24902938 0.24902938
0.84707199 0.24902938 0.24902938
0.91886608 0.24902938 0.24902938
0.00047927 0.55419416 0.24902938
0.24902938 0.55419416 0.24902938
0.55419416 0.55419416 0.24902938
0.84707199 0.55419416 0.24902938
0.91886608 0.55419416 0.24902938
0.00047953 0.84707199 0.24902938
0.24902938 0.84707199 0.24902938
0.55419416 0.84707199 0.24902938
0.84707199 0.84707199 0.24902938
0.91886608 0.84707199 0.24902938
0.00047898 0.91886608 0.24902938
0.24902938 0.91886608 0.24902938
0.55419416 0.91886608 0.24902938
0.84707199 0.91886608 0.24902938
0.91886608 0.91886608 0.24902938
0.00047898 0.00047935 0.55419416
0.24902938 0.00047898 0.55419416
0.55419416 0.00047931 0.55419416
0.84707199 0.00047931 0.55419416
0.91886608 0.00047973 0.55419416
0.00047898 0.24902938 0.55419416
0.24902938 0.24902938 0.55419416
0.55419416 0.24902938 0.55419416
0.84707199 0.24902938 0.55419416
0.91886608 0.24902938 0.55419416
0.00047898 0.55419416 0.55419416
0.24902938 0.55419416 0.55419416
0.55419416 0.55419416 0.55419416
0.84707199 0.55419416 0.55419416
0.91886608 0.55419416 0.55419416
0.00047898 0.84707199 0.55419416
0.24902938 0.84707199 0.55419416
0.55419416 0.84707199 0.55419416
0.84707199 0.84707199 0.55419416
0.91886608 0.84707199 0.55419416
0.00047898 0.91886608 0.55419416
0.24902938 0.91886608 0.55419416
0.55419416 0.91886608 0.55419416
0.84707199 0.91886608 0.55419416
0.91886608 0.91886608 0.55419416
0.00047898 0.00047953 0.84707199
0.24902938 0.00047898 0.84707199
0.55419416 0.00047953 0.84707199
0.84707199 0.00047953 0.84707199
0.91886608 0.00047898 0.84707199
0.00047898 0.24902938 0.84707199
0.24902938 0.24902938 0.84707199
0.55419416 0.24902938 0.84707199
0.84707199 0.24902938 0.84707199
0.91886608 0.24902938 0.84707199
0.00047898 0.55419416 0.84707199
0.24902938 0.55419416 0.84707199
0.55419416 0.55419416 0.84707199
0.84707199 0.55419416 0.84707199
0.91886608 0.55419416 0.84707199
0.00047898 0.84707199 0.84707199
0.24902938 0.84707199 0.84707199
0.55419416 0.84707199 0.84707199
0.84707199 0.84707199 0.84707199
0.91886608 0.84707199 0.84707199
0.00047973 0.91886608 0.84707199
0.24902938 0.91886608 0.84707199
0.55419416 0.91886608 0.84707199
0.84707199 0.91886608 0.84707199
0.91886608 0.91886608 0.84707199
0.00047898 0.00047997 0.91886608
0.24902938 0.00047997 0.91886608
0.55419416 0.00048014 0.91886608
0.84707199 0.00047997 0.91886608
0.91886608 0.00047997 0.91886608
0.00047971 0.24902938 0.91886608
0.24902938 0.24902938 0.91886608
0.55419416 0.24902938 0.91886608
0.84707199 0.24902938 0.91886608
0.91886608 0.24902938 0.91886608
0.00047898 0.55419416 0.91886608
0.24902938 0.55419416 0.91886608
0.55419416 0.55419416 0.91886608
0.84707199 0.55419416 0.91886608
0.91886608 0.55419416 0.91886608
0.00047971 0.84707199 0.91886608
0.24902938 0.84707199 0.91886608
0.55419416 0.84707199 0.91886608
0.84707199 0.84707199 0.91886608
0.91886608 0.84707199 0.91886608
0.00047971 0.91886608 0.91886608
0.24902938 0.91886608 0.91886608
0.55419416 0.91886608 0.91886608
0.84707199 0.91886608 0.91886608
0.91886608 0.91886608 0.91886608
