src/ffmpeg_scripts/luts/luminance-unclipped_-2p67.cube
TITLE "luminance-unclipped_-2p67"
LUT_3D_SIZE 9
# PQ (EOTF Only)/Rec2020 -> PQ (EOTF Only)/Rec2020, CineEI Shift -2.67, Black Level -7.25% IRE, Input 109% -> Output 109% - Created with LUTCalc v4.01 by Ben Turley October 2020
0.00047898 0.00047898 0.00047898
0.03245075 0.00047903 0.00047898
0.11827813 0.00047905 0.00047898
0.22119199 0.00047898 0.00047898
0.33686472 0.00047898 0.00047898
0.46321764 0.00047914 0.00047898
0.59896583 0.00047898 0.00047898
0.74321570 0.00047930 0.00047931
0.89530050 0.00047938 0.00047940
0.00047905 0.03245075 0.00047898
0.03245075 0.03245075 0.00047898
0.11827813 0.03245075 0.00047898
0.22119199 0.03245075 0.00047910
0.33686472 0.03245075 0.00047898
0.46321764 0.03245075 0.00047898
0.59896583 0.03245075 0.00047898
0.74321570 0.03245075 0.00047931
0.89530050 0.03245075 0.00047940
0.00047908 0.11827813 0.00047898
0.03245075 0.11827813 0.00047898
0.11827813 0.11827813 0.00047898
0.22119199 0.11827813 0.00047898
0.33686472 0.11827813 0.00047914
0.46321764 0.11827813 0.00047898
0.59896583 0.11827813 0.00047923
0.74321570 0.11827813 0.00047898
0.89530050 0.11827813 0.00047898
0.00047913 0.22119199 0.00047910
0.03245075 0.22119199 0.00047910
0.11827813 0.22119199 0.00047898
0.22119199 0.22119199 0.00047912
0.33686472 0.22119199 0.00047914
0.46321764 0.22119199 0.00047898
0.59896583 0.22119199 0.00047898
0.74321570 0.22119199 0.00047898
0.89530050 0.22119199 0.00047940
0.00047898 0.33686472 0.00047898
0.03245075 0.33686472 0.00047914
0.11827813 0.33686472 0.00047898
0.22119199 0.33686472 0.00047898
0.33686472 0.33686472 0.00047898
0.46321764 0.33686472 0.00047898
0.59896583 0.33686472 0.00047898
0.74321570 0.33686472 0.00047898
0.89530050 0.33686472 0.00047898
0.00047922 0.46321764 0.00047898
0.03245075 0.46321764 0.00047898
0.11827813 0.46321764 0.00047918
0.22119199 0.46321764 0.00047898
0.33686472 0.46321764 0.00047898
0.46321764 0.46321764 0.00047898
0.59896583 0.46321764 0.00047898
0.74321570 0.46321764 0.00047898
0.89530050 0.46321764 0.00047898
0.00047926 0.59896583 0.00047898
0.03245075 0.59896583 0.00047898
0.11827813 0.59896583 0.00047898
0.22119199 0.59896583 0.00047898
0.33686472 0.59896583 0.00047898
0.46321764 0.59896583 0.00047927
0.59896583 0.59896583 0.00047898
0.74321570 0.59896583 0.00047898
0.89530050 0.59896583 0.00047946
0.00047933 0.74321570 0.00047898
0.03245075 0.74321570 0.00047898
0.11827813 0.74321570 0.00047898
0.22119199 0.74321570 0.00047898
0.33686472 0.74321570 0.00047898
0.46321764 0.74321570 0.00047898
0.59896583 0.74321570 0.00047898
0.74321570 0.74321570 0.00047935
0.89530050 0.74321570 0.00047898
0.00047944 0.89530050 0.00047898
0.03245075 0.89530050 0.00047950
0.11827813 0.89530050 0.00047940
0.22119199 0.89530050 0.00047898
0.33686472 0.89530050 0.00047898
0.46321764 0.89530050 0.00047898
0.59896583 0.89530050 0.00047940
0.74321570 0.89530050 0.00047898
0.89530050 0.89530050 0.00047898
0.00047898 0.00047906 0.03245075
0.03245075 0.00047906 0.03245075
0.11827813 0.00047898 0.03245075
0.22119199 0.00047898 0.03245075
0.33686472 0.00047910 0.03245075
0.46321764 0.00047898 0.03245075
0.59896583 0.00047898 0.03245075
0.74321570 0.00047937 0.03245075
0.89530050 0.00047898 0.03245075
0.00047898 0.03245075 0.03245075
0.03245075 0.03245075 0.03245075
0.11827813 0.03245075 0.03245075
0.22119199 0.03245075 0.03245075
0.33686472 0.03245075 0.03245075
0.46321764 0.03245075 0.03245075
0.59896583 0.03245075 0.03245075
0.74321570 0.03245075 0.03245075
0.89530050 0.03245075 0.03245075
0.00047898 0.11827813 0.03245075
0.03245075 0.11827813 0.03245075
0.11827813 0.11827813 0.03245075
0.22119199 0.11827813 0.03245075
0.33686472 0.11827813 0.03245075
0.46321764 0.11827813 0.03245075
0.59896583 0.11827813 0.03245075
0.74321570 0.11827813 0.03245075
0.89530050 0.11827813 0.03245075
0.00047912 0.22119199 0.03245075
0.03245075 0.22119199 0.03245075
0.11827813 0.22119199 0.03245075
0.22119199 0.22119199 0.03245075
0.33686472 0.22119199 0.03245075
0.46321764 0.22119199 0.03245075
0.59896583 0.22119199 0.03245075
0.74321570 0.22119199 0.03245075
0.89530050 0.22119199 0.03245075
0.00047916 0.33686472 0.03245075
0.03245075 0.33686472 0.03245075
0.11827813 0.33686472 0.03245075
0.22119199 0.33686472 0.03245075
0.33686472 0.33686472 0.03245075
0.46321764 0.33686472 0.03245075
0.59896583 0.33686472 0.03245075
0.74321570 0.33686472 0.03245075
0.89530050 0.33686472 0.03245075
0.00047918 0.46321764 0.03245075
0.03245075 0.46321764 0.03245075
0.11827813 0.46321764 0.03245075
0.22119199 0.46321764 0.03245075
0.33686472 0.46321764 0.03245075
0.46321764 0.46321764 0.03245075
0.59896583 0.46321764 0.03245075
0.74321570 0.46321764 0.03245075
0.89530050 0.46321764 0.03245075
0.00047929 0.59896583 0.03245075
0.03245075 0.59896583 0.03245075
0.11827813 0.59896583 0.03245075
0.22119199 0.59896583 0.03245075
0.33686472 0.59896583 0.03245075
0.46321764 0.59896583 0.03245075
0.59896583 0.59896583 0.03245075
0.74321570 0.59896583 0.03245075
0.89530050 0.59896583 0.03245075
0.00047932 0.74321570 0.03245075
0.03245075 0.74321570 0.03245075
0.11827813 0.74321570 0.03245075
0.22119199 0.74321570 0.03245075
0.33686472 0.74321570 0.03245075
0.46321764 0.74321570 0.03245075
0.59896583 0.74321570 0.03245075
0.74321570 0.74321570 0.03245075
0.89530050 0.74321570 0.03245075
0.00047950 0.89530050 0.03245075
0.03245075 0.89530050 0.03245075
0.11827813 0.89530050 0.03245075
0.22119199 0.89530050 0.03245075
0.33686472 0.89530050 0.03245075
0.46321764 0.89530050 0.03245075
0.59896583 0.89530050 0.03245075
0.74321570 0.89530050 0.03245075
0.89530050 0.89530050 0.03245075
0.00047898 0.00047910 0.11827813
0.03245075 0.00047898 0.11827813
0.11827813 0.00047898 0.11827813
0.22119199 0.00047898 0.11827813
0.33686472 0.00047912 0.11827813
0.46321764 0.00047898 0.11827813
0.59896583 0.00047898 0.11827813
0.74321570 0.00047929 0.11827813
0.89530050 0.00047931 0.11827813
0.00047908 0.03245075 0.11827813
0.03245075 0.03245075 0.11827813
0.11827813 0.03245075 0.11827813
0.22119199 0.03245075 0.11827813
0.33686472 0.03245075 0.11827813
0.46321764 0.03245075 0.11827813
0.59896583 0.03245075 0.11827813
0.74321570 0.03245075 0.11827813
0.89530050 0.03245075 0.11827813
0.00047898 0.11827813 0.11827813
0.03245075 0.11827813 0.11827813
0.11827813 0.11827813 0.11827813
0.22119199 0.11827813 0.11827813
0.33686472 0.11827813 0.11827813
0.46321764 0.11827813 0.11827813
0.59896583 0.11827813 0.11827813
0.74321570 0.11827813 0.11827813
0.89530050 0.11827813 0.11827813
0.00047898 0.22119199 0.11827813
0.03245075 0.22119199 0.11827813
0.11827813 0.22119199 0.11827813
0.22119199 0.22119199 0.11827813
0.33686472 0.22119199 0.11827813
0.46321764 0.22119199 0.11827813
0.59896583 0.22119199 0.11827813
0.74321570 0.22119199 0.11827813
0.89530050 0.22119199 0.11827813
0.00047914 0.33686472 0.11827813
0.03245075 0.33686472 0.11827813
0.11827813 0.33686472 0.11827813
0.22119199 0.33686472 0.11827813
0.33686472 0.33686472 0.11827813
0.46321764 0.33686472 0.11827813
0.59896583 0.33686472 0.11827813
0.74321570 0.33686472 0.11827813
0.89530050 0.33686472 0.11827813
0.00047923 0.46321764 0.11827813
0.03245075 0.46321764 0.11827813
0.11827813 0.46321764 0.11827813
0.22119199 0.46321764 0.11827813
0.33686472 0.46321764 0.11827813
0.46321764 0.46321764 0.11827813
0.59896583 0.46321764 0.11827813
0.74321570 0.46321764 0.11827813
0.89530050 0.46321764 0.11827813
0.00047898 0.59896583 0.11827813
0.03245075 0.59896583 0.11827813
0.11827813 0.59896583 0.11827813
0.22119199 0.59896583 0.11827813
0.33686472 0.59896583 0.11827813
0.46321764 0.59896583 0.11827813
0.59896583 0.59896583 0.11827813
0.74321570 0.59896583 0.11827813
0.89530050 0.59896583 0.11827813
0.00047935 0.74321570 0.11827813
0.03245075 0.74321570 0.11827813
0.11827813 0.74321570 0.11827813
0.22119199 0.74321570 0.11827813
0.33686472 0.74321570 0.11827813
0.46321764 0.74321570 0.11827813
0.59896583 0.74321570 0.11827813
0.74321570 0.74321570 0.11827813
0.89530050 0.74321570 0.11827813
0.00047942 0.89530050 0.11827813
0.03245075 0.89530050 0.11827813
0.11827813 0.89530050 0.11827813
0.22119199 0.89530050 0.11827813
0.33686472 0.89530050 0.11827813
0.46321764 0.89530050 0.11827813
0.59896583 0.89530050 0.11827813
0.74321570 0.89530050 0.11827813
0.89530050 0.89530050 0.11827813
0.00047898 0.00047916 0.22119199
0.03245075 0.00047898 0.22119199
0.11827813 0.00047914 0.22119199
0.22119199 0.00047914 0.22119199
0.33686472 0.00047916 0.22119199
0.46321764 0.00047921 0.22119199
0.59896583 0.00047898 0.22119199
0.74321570 0.00047923 0.22119199
0.89530050 0.00047938 0.22119199
0.00047898 0.03245075 0.22119199
0.03245075 0.03245075 0.22119199
0.11827813 0.03245075 0.22119199
0.22119199 0.03245075 0.22119199
0.33686472 0.03245075 0.22119199
0.46321764 0.03245075 0.22119199
0.59896583 0.03245075 0.22119199
0.74321570 0.03245075 0.22119199
0.89530050 0.03245075 0.22119199
0.00047898 0.11827813 0.22119199
0.03245075 0.11827813 0.22119199
0.11827813 0.11827813 0.22119199
0.22119199 0.11827813 0.22119199
0.33686472 0.11827813 0.22119199
0.46321764 0.11827813 0.22119199
0.59896583 0.11827813 0.22119199
0.74321570 0.11827813 0.22119199
0.89530050 0.11827813 0.22119199
0.00047898 0.22119199 0.22119199
0.03245075 0.22119199 0.22119199
0.11827813 0.22119199 0.22119199
0.22119199 0.22119199 0.22119199
0.33686472 0.22119199 0.22119199
0.46321764 0.22119199 0.22119199
0.59896583 0.22119199 0.22119199
0.74321570 0.22119199 0.22119199
0.89530050 0.22119199 0.22119199
0.00047915 0.33686472 0.22119199
0.03245075 0.33686472 0.22119199
0.11827813 0.33686472 0.22119199
0.22119199 0.33686472 0.22119199
0.33686472 0.33686472 0.22119199
0.46321764 0.33686472 0.22119199
0.59896583 0.33686472 0.22119199
0.74321570 0.33686472 0.22119199
0.89530050 0.33686472 0.22119199
0.00047898 0.46321764 0.22119199
0.03245075 0.46321764 0.22119199
0.11827813 0.46321764 0.22119199
0.22119199 0.46321764 0.22119199
0.33686472 0.46321764 0.22119199
0.46321764 0.46321764 0.22119199
0.59896583 0.46321764 0.22119199
0.74321570 0.46321764 0.22119199
0.89530050 0.46321764 0.22119199
0.00047931 0.59896583 0.22119199
0.03245075 0.59896583 0.22119199
0.11827813 0.59896583 0.22119199
0.22119199 0.59896583 0.22119199
0.33686472 0.59896583 0.22119199
0.46321764 0.59896583 0.22119199
0.59896583 0.59896583 0.22119199
0.74321570 0.59896583 0.22119199
0.89530050 0.59896583 0.22119199
0.00047931 0.74321570 0.22119199
0.03245075 0.74321570 0.22119199
0.11827813 0.74321570 0.22119199
0.22119199 0.74321570 0.22119199
0.33686472 0.74321570 0.22119199
0.46321764 0.74321570 0.22119199
0.59896583 0.74321570 0.22119199
0.74321570 0.74321570 0.22119199
0.89530050 0.74321570 0.22119199
0.00047943 0.89530050 0.22119199
0.03245075 0.89530050 0.22119199
0.11827813 0.89530050 0.22119199
0.22119199 0.89530050 0.22119199
0.33686472 0.89530050 0.22119199
0.46321764 0.89530050 0.22119199
0.59896583 0.89530050 0.22119199
0.74321570 0.89530050 0.22119199
0.89530050 0.89530050 0.22119199
0.00047898 0.00047920 0.33686472
0.03245075 0.00047920 0.33686472
0.11827813 0.00047898 0.33686472
0.22119199 0.00047920 0.33686472
0.33686472 0.00047920 0.33686472
0.46321764 0.00047898 0.33686472
0.59896583 0.00047898 0.33686472
0.74321570 0.00047931 0.33686472
0.89530050 0.00047935 0.33686472
0.00047898 0.03245075 0.33686472
0.03245075 0.03245075 0.33686472
0.11827813 0.03245075 0.33686472
0.22119199 0.03245075 0.33686472
0.33686472 0.03245075 0.33686472
0.46321764 0.03245075 0.33686472
0.59896583 0.03245075 0.33686472
0.74321570 0.03245075 0.33686472
0.89530050 0.03245075 0.33686472
0.00047898 0.11827813 0.33686472
0.03245075 0.11827813 0.33686472
0.11827813 0.11827813 0.33686472
0.22119199 0.11827813 0.33686472
0.33686472 0.11827813 0.33686472
0.46321764 0.11827813 0.33686472
0.59896583 0.11827813 0.33686472
0.74321570 0.11827813 0.33686472
0.89530050 0.11827813 0.33686472
0.00047898 0.22119199 0.33686472
0.03245075 0.22119199 0.33686472
0.11827813 0.22119199 0.33686472
0.22119199 0.22119199 0.33686472
0.33686472 0.22119199 0.33686472
0.46321764 0.22119199 0.33686472
0.59896583 0.22119199 0.33686472
0.74321570 0.22119199 0.33686472
0.89530050 0.22119199 0.33686472
0.00047898 0.33686472 0.33686472
0.03245075 0.33686472 0.33686472
0.11827813 0.33686472 0.33686472
0.22119199 0.33686472 0.33686472
0.33686472 0.33686472 0.33686472
0.46321764 0.33686472 0.33686472
0.59896583 0.33686472 0.33686472
0.74321570 0.33686472 0.33686472
0.89530050 0.33686472 0.33686472
0.00047924 0.46321764 0.33686472
0.03245075 0.46321764 0.33686472
0.11827813 0.46321764 0.33686472
0.22119199 0.46321764 0.33686472
0.33686472 0.46321764 0.33686472
0.46321764 0.46321764 0.33686472
0.59896583 0.46321764 0.33686472
0.74321570 0.46321764 0.33686472
0.89530050 0.46321764 0.33686472
0.00047928 0.59896583 0.33686472
0.03245075 0.59896583 0.33686472
0.11827813 0.59896583 0.33686472
0.22119199 0.59896583 0.33686472
0.33686472 0.59896583 0.33686472
0.46321764 0.59896583 0.33686472
0.59896583 0.59896583 0.33686472
0.74321570 0.59896583 0.33686472
0.89530050 0.59896583 0.33686472
0.00047935 0.74321570 0.33686472
0.03245075 0.74321570 0.33686472
0.11827813 0.74321570 0.33686472
0.22119199 0.74321570 0.33686472
0.33686472 0.74321570 0.33686472
0.46321764 0.74321570 0.33686472
0.59896583 0.74321570 0.33686472
0.74321570 0.74321570 0.33686472
0.89530050 0.74321570 0.33686472
0.00047898 0.89530050 0.33686472
0.03245075 0.89530050 0.33686472
0.11827813 0.89530050 0.33686472
0.22119199 0.89530050 0.33686472
0.33686472 0.89530050 0.33686472
0.46321764 0.89530050 0.33686472
0.59896583 0.89530050 0.33686472
0.74321570 0.89530050 0.33686472
0.89530050 0.89530050 0.33686472
0.00047920 0.00047931 0.46321764
0.03245075 0.00047927 0.46321764
0.11827813 0.00047931 0.46321764
0.22119199 0.00047927 0.46321764
0.33686472 0.00047931 0.46321764
0.46321764 0.00047927 0.46321764
0.59896583 0.00047927 0.46321764
0.74321570 0.00047933 0.46321764
0.89530050 0.00047898 0.46321764
0.00047898 0.03245075 0.46321764
0.03245075 0.03245075 0.46321764
0.11827813 0.03245075 0.46321764
0.22119199 0.03245075 0.46321764
0.33686472 0.03245075 0.46321764
0.46321764 0.03245075 0.46321764
0.59896583 0.03245075 0.46321764
0.74321570 0.03245075 0.46321764
0.89530050 0.03245075 0.46321764
0.00047920 0.11827813 0.46321764
0.03245075 0.11827813 0.46321764
0.11827813 0.11827813 0.46321764
0.22119199 0.11827813 0.46321764
0.33686472 0.11827813 0.46321764
0.46321764 0.11827813 0.46321764
0.59896583 0.11827813 0.46321764
0.74321570 0.11827813 0.46321764
0.89530050 0.11827813 0.46321764
0.00047898 0.22119199 0.46321764
0.03245075 0.22119199 0.46321764
0.11827813 0.22119199 0.46321764
0.22119199 0.22119199 0.46321764
0.33686472 0.22119199 0.46321764
0.46321764 0.22119199 0.46321764
0.59896583 0.22119199 0.46321764
0.74321570 0.22119199 0.46321764
0.89530050 0.22119199 0.46321764
0.00047898 0.33686472 0.46321764
0.03245075 0.33686472 0.46321764
0.11827813 0.33686472 0.46321764
0.22119199 0.33686472 0.46321764
0.33686472 0.33686472 0.46321764
0.46321764 0.33686472 0.46321764
0.59896583 0.33686472 0.46321764
0.74321570 0.33686472 0.46321764
0.89530050 0.33686472 0.46321764
0.00047923 0.46321764 0.46321764
0.03245075 0.46321764 0.46321764
0.11827813 0.46321764 0.46321764
0.22119199 0.46321764 0.46321764
0.33686472 0.46321764 0.46321764
0.46321764 0.46321764 0.46321764
0.59896583 0.46321764 0.46321764
0.74321570 0.46321764 0.46321764
0.89530050 0.46321764 0.46321764
0.00047932 0.59896583 0.46321764
0.03245075 0.59896583 0.46321764
0.11827813 0.59896583 0.46321764
0.22119199 0.59896583 0.46321764
0.33686472 0.59896583 0.46321764
0.46321764 0.59896583 0.46321764
0.59896583 0.59896583 0.46321764
0.74321570 0.59896583 0.46321764
0.89530050 0.59896583 0.46321764
0.00047923 0.74321570 0.46321764
0.03245075 0.74321570 0.46321764
0.11827813 0.74321570 0.46321764
0.22119199 0.74321570 0.46321764
0.33686472 0.74321570 0.46321764
0.46321764 0.74321570 0.46321764
0.59896583 0.74321570 0.46321764
0.74321570 0.74321570 0.46321764
0.89530050 0.74321570 0.46321764
0.00047949 0.89530050 0.46321764
0.03245075 0.89530050 0.46321764
0.11827813 0.89530050 0.46321764
0.22119199 0.89530050 0.46321764
0.33686472 0.89530050 0.46321764
0.46321764 0.89530050 0.46321764
0.59896583 0.89530050 0.46321764
0.74321570 0.89530050 0.46321764
0.89530050 0.89530050 0.46321764
0.00047898 0.00047931 0.59896583
0.03245075 0.00047931 0.59896583
0.11827813 0.00047898 0.59896583
0.22119199 0.00047931 0.59896583
0.33686472 0.00047931 0.59896583
0.46321764 0.00047898 0.59896583
0.59896583 0.00047935 0.59896583
0.74321570 0.00047898 0.59896583
0.89530050 0.00047898 0.59896583
0.00047898 0.03245075 0.59896583
0.03245075 0.03245075 0.59896583
0.11827813 0.03245075 0.59896583
0.22119199 0.03245075 0.59896583
0.33686472 0.03245075 0.59896583
0.46321764 0.03245075 0.59896583
0.59896583 0.03245075 0.59896583
0.74321570 0.03245075 0.59896583
0.89530050 0.03245075 0.59896583
0.00047898 0.11827813 0.59896583
0.03245075 0.11827813 0.59896583
0.11827813 0.11827813 0.59896583
0.22119199 0.11827813 0.59896583
0.33686472 0.11827813 0.59896583
0.46321764 0.11827813 0.59896583
0.59896583 0.11827813 0.59896583
0.74321570 0.11827813 0.59896583
0.89530050 0.11827813 0.59896583
0.00047898 0.22119199 0.59896583
0.03245075 0.22119199 0.59896583
0.11827813 0.22119199 0.59896583
0.22119199 0.22119199 0.59896583
0.33686472 0.22119199 0.59896583
0.46321764 0.22119199 0.59896583
0.59896583 0.22119199 0.59896583
0.74321570 0.22119199 0.59896583
0.89530050 0.22119199 0.59896583
0.00047898 0.33686472 0.59896583
0.03245075 0.33686472 0.59896583
0.11827813 0.33686472 0.59896583
0.22119199 0.33686472 0.59896583
0.33686472 0.33686472 0.59896583
0.46321764 0.33686472 0.59896583
0.59896583 0.33686472 0.59896583
0.74321570 0.33686472 0.59896583
0.89530050 0.33686472 0.59896583
0.00047898 0.46321764 0.59896583
0.03245075 0.46321764 0.59896583
0.11827813 0.46321764 0.59896583
0.22119199 0.46321764 0.59896583
0.33686472 0.46321764 0.59896583
0.46321764 0.46321764 0.59896583
0.59896583 0.46321764 0.59896583
0.74321570 0.46321764 0.59896583
0.89530050 0.46321764 0.59896583
0.00047898 0.59896583 0.59896583
0.03245075 0.59896583 0.59896583
0.11827813 0.59896583 0.59896583
0.22119199 0.59896583 0.59896583
0.33686472 0.59896583 0.59896583
0.46321764 0.59896583 0.59896583
0.59896583 0.59896583 0.59896583
0.74321570 0.59896583 0.59896583
0.89530050 0.59896583 0.59896583
0.00047931 0.74321570 0.59896583
0.03245075 0.74321570 0.59896583
0.11827813 0.74321570 0.59896583
0.22119199 0.74321570 0.59896583
0.33686472 0.74321570 0.59896583
0.46321764 0.74321570 0.59896583
0.59896583 0.74321570 0.59896583
0.74321570 0.74321570 0.59896583
0.89530050 0.74321570 0.59896583
0.00047944 0.89530050 0.59896583
0.03245075 0.89530050 0.59896583
0.11827813 0.89530050 0.59896583
0.22119199 0.89530050 0.59896583
0.33686472 0.89530050 0.59896583
0.46321764 0.89530050 0.59896583
0.59896583 0.89530050 0.59896583
0.74321570 0.89530050 0.59896583
0.89530050 0.89530050 0.59896583
0.00047898 0.00047950 0.74321570
0.03245075 0.00047946 0.74321570
0.11827813 0.00047946 0.74321570
0.22119199 0.00047946 0.74321570
0.33686472 0.00047898 0.74321570
0.46321764 0.00047940 0.74321570
0.59896583 0.00047946 0.74321570
0.74321570 0.00047950 0.74321570
0.89530050 0.00047958 0.74321570
0.00047935 0.03245075 0.74321570
0.03245075 0.03245075 0.74321570
0.11827813 0.03245075 0.74321570
0.22119199 0.03245075 0.74321570
0.33686472 0.03245075 0.74321570
0.46321764 0.03245075 0.74321570
0.59896583 0.03245075 0.74321570
0.74321570 0.03245075 0.74321570
0.89530050 0.03245075 0.74321570
0.00047898 0.11827813 0.74321570
0.03245075 0.11827813 0.74321570
0.11827813 0.11827813 0.74321570
0.22119199 0.11827813 0.74321570
0.33686472 0.11827813 0.74321570
0.46321764 0.11827813 0.74321570
0.59896583 0.11827813 0.74321570
0.74321570 0.11827813 0.74321570
0.89530050 0.11827813 0.74321570
0.00047898 0.22119199 0.74321570
0.03245075 0.22119199 0.74321570
0.11827813 0.22119199 0.74321570
0.22119199 0.22119199 0.74321570
0.33686472 0.22119199 0.74321570
0.46321764 0.22119199 0.74321570
0.59896583 0.22119199 0.74321570
0.74321570 0.22119199 0.74321570
0.89530050 0.22119199 0.74321570
0.00047898 0.33686472 0.74321570
0.03245075 0.33686472 0.74321570
0.11827813 0.33686472 0.74321570
0.22119199 0.33686472 0.74321570
0.33686472 0.33686472 0.74321570
0.46321764 0.33686472 0.74321570
0.59896583 0.33686472 0.74321570
0.74321570 0.33686472 0.74321570
0.89530050 0.33686472 0.74321570
0.00047898 0.46321764 0.74321570
0.03245075 0.46321764 0.74321570
0.11827813 0.46321764 0.74321570
0.22119199 0.46321764 0.74321570
0.33686472 0.46321764 0.74321570
0.46321764 0.46321764 0.74321570
0.59896583 0.46321764 0.74321570
0.74321570 0.46321764 0.74321570
0.89530050 0.46321764 0.74321570
0.00047898 0.59896583 0.74321570
0.03245075 0.59896583 0.74321570
0.11827813 0.59896583 0.74321570
0.22119199 0.59896583 0.74321570
0.33686472 0.59896583 0.74321570
0.46321764 0.59896583 0.74321570
0.59896583 0.59896583 0.74321570
0.74321570 0.59896583 0.74321570
0.89530050 0.59896583 0.74321570
0.00047898 0.74321570 0.74321570
0.03245075 0.74321570 0.74321570
0.11827813 0.74321570 0.74321570
0.22119199 0.74321570 0.74321570
0.33686472 0.74321570 0.74321570
0.46321764 0.74321570 0.74321570
0.59896583 0.74321570 0.74321570
0.74321570 0.74321570 0.74321570
0.89530050 0.74321570 0.74321570
0.00047950 0.89530050 0.74321570
0.03245075 0.89530050 0.74321570
0.11827813 0.89530050 0.74321570
0.22119199 0.89530050 0.74321570
0.33686472 0.89530050 0.74321570
0.46321764 0.89530050 0.74321570
0.59896583 0.89530050 0.74321570
0.74321570 0.89530050 0.74321570
0.89530050 0.89530050 0.74321570
0.00047946 0.00047961 0.89530050
0.03245075 0.00047953 0.89530050
0.11827813 0.00047961 0.89530050
0.22119199 0.00047953 0.89530050
0.33686472 0.00047967 0.89530050
0.46321764 0.00047953 0.89530050
0.59896583 0.00047953 0.89530050
0.74321570 0.00047953 0.89530050
0.89530050 0.00047961 0.89530050
0.00047898 0.03245075 0.89530050
0.03245075 0.03245075 0.89530050
0.11827813 0.03245075 0.89530050
0.22119199 0.03245075 0.89530050
0.33686472 0.03245075 0.89530050
0.46321764 0.03245075 0.89530050
0.59896583 0.03245075 0.89530050
0.74321570 0.03245075 0.89530050
0.89530050 0.03245075 0.89530050
0.00047898 0.11827813 0.89530050
0.03245075 0.11827813 0.89530050
0.11827813 0.11827813 0.89530050
0.22119199 0.11827813 0.89530050
0.33686472 0.11827813 0.89530050
0.46321764 0.11827813 0.89530050
0.59896583 0.11827813 0.89530050
0.74321570 0.11827813 0.89530050
0.89530050 0.11827813 0.89530050
0.00047898 0.22119199 0.89530050
0.03245075 0.22119199 0.89530050
0.11827813 0.22119199 0.89530050
0.22119199 0.22119199 0.89530050
0.33686472 0.22119199 0.89530050
0.46321764 0.22119199 0.89530050
0.59896583 0.22119199 0.89530050
0.74321570 0.22119199 0.89530050
0.89530050 0.22119199 0.89530050
0.00047898 0.33686472 0.89530050
0.03245075 0.33686472 0.89530050
0.11827813 0.33686472 0.89530050
0.22119199 0.33686472 0.89530050
0.33686472 0.33686472 0.89530050
0.46321764 0.33686472 0.89530050
0.59896583 0.33686472 0.89530050
0.74321570 0.33686472 0.89530050
0.89530050 0.33686472 0.89530050
0.00047898 0.46321764 0.89530050
0.03245075 0.46321764 0.89530050
0.11827813 0.46321764 0.89530050
0.22119199 0.46321764 0.89530050
0.33686472 0.46321764 0.89530050
0.46321764 0.46321764 0.89530050
0.59896583 0.46321764 0.89530050
0.74321570 0.46321764 0.89530050
0.89530050 0.46321764 0.89530050
0.00047898 0.59896583 0.89530050
0.03245075 0.59896583 0.89530050
0.11827813 0.59896583 0.89530050
0.22119199 0.59896583 0.89530050
0.33686472 0.59896583 0.89530050
0.46321764 0.59896583 0.89530050
0.59896583 0.59896583 0.89530050
0.74321570 0.59896583 0.89530050
0.89530050 0.59896583 0.89530050
0.00047946 0.74321570 0.89530050
0.03245075 0.74321570 0.89530050
0.11827813 0.74321570 0.89530050
0.22119199 0.74321570 0.89530050
0.33686472 0.74321570 0.89530050
0.46321764 0.74321570 0.89530050
0.59896583 0.74321570 0.89530050
0.74321570 0.74321570 0.89530050
0.89530050 0.74321570 0.89530050
0.00047946 0.89530050 0.89530050
0.03245075 0.89530050 0.89530050
0.11827813 0.89530050 0.89530050
0.22119199 0.89530050 0.89530050
0.33686472 0.89530050 0.89530050
0.46321764 0.89530050 0.89530050
0.59896583 0.89530050 0.89530050
0.74321570 0.89530050 0.89530050
0.89530050 0.89530050 0.89530050
