src/ffmpeg_scripts/luts/luminance-unclipped_-2p67.cube
TITLE "luminance-unclipped_-2p67"
LUT_3D_SIZE 33
# PQ (EOTF Only)/Rec2020 -> PQ (EOTF Only)/Rec2020, CineEI Shift -2.67, Black Level -7.25% IRE, Input 109% -> Output 109% - Created with LUTCalc v4.01 by Ben Turley October 2020
0.00047898 0.00047898 0.00047898
0.00047898 0.00047898 0.00047898
0.00047898 0.00047898 0.00047898
0.01495618 0.00047898 0.00047898
0.03245075 0.00047903 0.00047898
0.05184842 0.00047898 0.00047898
0.07275465 0.00047898 0.00047898
0.09494697 0.00047906 0.00047906
0.11827813 0.00047905 0.00047898
0.14264175 0.00047898 0.00047898
0.16795646 0.00047909 0.00047898
0.19415754 0.00047910 0.00047909
0.22119199 0.00047898 0.00047898
0.24901539 0.00047898 0.00047910
0.27758984 0.00047898 0.00047898
0.30688253 0.00047898 0.00047912
0.33686472 0.00047898 0.00047898
0.36751096 0.00047898 0.00047898
0.39879852 0.00047898 0.00047916
0.43070692 0.00047915 0.00047898
0.46321764 0.00047914 0.00047898
0.49631377 0.00047898 0.00047898
0.52997983 0.00047898 0.00047898
0.56420157 0.00047898 0.00047898
0.59896583 0.00047898 0.00047898
0.63426038 0.00047898 0.00047898
0.67007384 0.00047928 0.00047898
0.70639560 0.00047898 0.00047898
0.74321570 0.00047930 0.00047931
0.78052480 0.00047929 0.00047898
0.81831409 0.00047932 0.00047898
0.85657527 0.00047927 0.00047898
0.89530050 0.00047938 0.00047940
0.00047898 0.00047898 0.00047898
0.00047898 0.00047898 0.00047898
0.00047898 0.00047898 0.00047898
0.01495618 0.00047898 0.00047898
0.03245075 0.00047903 0.00047898
0.05184842 0.00047898 0.00047898
0.07275465 0.00047898 0.00047898
0.09494697 0.00047906 0.00047906
0.11827813 0.00047905 0.00047898
0.14264175 0.00047898 0.00047898
0.16795646 0.00047909 0.00047898
0.19415754 0.00047910 0.00047909
0.22119199 0.00047898 0.00047898
0.24901539 0.00047898 0.00047910
0.27758984 0.00047898 0.00047898
0.30688253 0.00047898 0.00047912
0.33686472 0.00047898 0.00047898
0.36751096 0.00047898 0.00047898
0.39879852 0.00047898 0.00047916
0.43070692 0.00047915 0.00047898
0.46321764 0.00047914 0.00047898
0.49631377 0.00047898 0.00047898
0.52997983 0.00047898 0.00047898
0.56420157 0.00047898 0.00047898
0.59896583 0.00047898 0.00047898
0.63426038 0.00047898 0.00047898
0.67007384 0.00047928 0.00047898
0.70639560 0.00047898 0.00047898
0.74321570 0.00047930 0.00047931
0.78052480 0.00047929 0.00047898
0.81831409 0.00047932 0.00047898
0.85657527 0.00047927 0.00047898
0.89530050 0.00047938 0.00047940
0.00047898 0.00047898 0.00047898
0.00047898 0.00047898 0.00047898
0.00047898 0.00047898 0.00047898
0.01495618 0.00047898 0.00047898
0.03245075 0.00047903 0.00047898
0.05184842 0.00047898 0.00047898
0.07275465 0.00047898 0.00047898
0.09494697 0.00047906 0.00047906
0.11827813 0.00047905 0.00047898
0.14264175 0.00047898 0.00047898
0.16795646 0.00047909 0.00047898
0.19415754 0.00047910 0.00047909
0.22119199 0.00047898 0.00047898
0.24901539 0.00047898 0.00047910
0.27758984 0.00047898 0.00047898
0.30688253 0.00047898 0.00047912
0.33686472 0.00047898 0.00047898
0.36751096 0.00047898 0.00047898
0.39879852 0.00047898 0.00047916
0.43070692 0.00047915 0.00047898
0.46321764 0.00047914 0.00047898
0.49631377 0.00047898 0.00047898
0.52997983 0.00047898 0.00047898
0.56420157 0.00047898 0.00047898
0.59896583 0.00047898 0.00047898
0.63426038 0.00047898 0.00047898
0.67007384 0.00047928 0.00047898
0.70639560 0.00047898 0.00047898
0.74321570 0.00047930 0.00047931
0.78052480 0.00047929 0.00047898
0.81831409 0.00047932 0.00047898
0.85657527 0.00047927 0.00047898
0.89530050 0.00047938 0.00047940
0.00047903 0.01495618 0.00047898
0.00047903 0.01495618 0.00047898
0.00047903 0.01495618 0.00047898
0.01495618 0.01495618 0.00047898
0.03245075 0.01495618 0.00047898
0.05184842 0.01495618 0.00047898
0.07275465 0.01495618 0.00047898
0.09494697 0.01495618 0.00047898
0.11827813 0.01495618 0.00047898
0.14264175 0.01495618 0.00047898
0.16795646 0.01495618 0.00047898
0.19415754 0.01495618 0.00047898
0.22119199 0.01495618 0.00047898
0.24901539 0.01495618 0.00047912
0.27758984 0.01495618 0.00047898
0.30688253 0.01495618 0.00047898
0.33686472 0.01495618 0.00047914
0.36751096 0.01495618 0.00047898
0.39879852 0.01495618 0.00047898
0.43070692 0.01495618 0.00047898
0.46321764 0.01495618 0.00047918
0.49631377 0.01495618 0.00047898
0.52997983 0.01495618 0.00047898
0.56420157 0.01495618 0.00047923
0.59896583 0.01495618 0.00047898
0.63426038 0.01495618 0.00047898
0.67007384 0.01495618 0.00047898
0.70639560 0.01495618 0.00047898
0.74321570 0.01495618 0.00047898
0.78052480 0.01495618 0.00047898
0.81831409 0.01495618 0.00047935
0.85657527 0.01495618 0.00047935
0.89530050 0.01495618 0.00047898
0.00047905 0.03245075 0.00047898
0.00047905 0.03245075 0.00047898
0.00047905 0.03245075 0.00047898
0.01495618 0.03245075 0.00047898
0.03245075 0.03245075 0.00047898
0.05184842 0.03245075 0.00047898
0.07275465 0.03245075 0.00047906
0.09494697 0.03245075 0.00047906
0.11827813 0.03245075 0.00047898
0.14264175 0.03245075 0.00047898
0.16795646 0.03245075 0.00047898
0.19415754 0.03245075 0.00047909
0.22119199 0.03245075 0.00047910
0.24901539 0.03245075 0.00047898
0.27758984 0.03245075 0.00047912
0.30688253 0.03245075 0.00047898
0.33686472 0.03245075 0.00047898
0.36751096 0.03245075 0.00047898
0.39879852 0.03245075 0.00047898
0.43070692 0.03245075 0.00047898
0.46321764 0.03245075 0.00047898
0.49631377 0.03245075 0.00047898
0.52997983 0.03245075 0.00047898
0.56420157 0.03245075 0.00047898
0.59896583 0.03245075 0.00047898
0.63426038 0.03245075 0.00047898
0.67007384 0.03245075 0.00047898
0.70639560 0.03245075 0.00047931
0.74321570 0.03245075 0.00047931
0.78052480 0.03245075 0.00047898
0.81831409 0.03245075 0.00047935
0.85657527 0.03245075 0.00047898
0.89530050 0.03245075 0.00047940
0.00047903 0.05184842 0.00047904
0.00047903 0.05184842 0.00047904
0.00047903 0.05184842 0.00047904
0.01495618 0.05184842 0.00047898
0.03245075 0.05184842 0.00047898
0.05184842 0.05184842 0.00047898
0.07275465 0.05184842 0.00047906
0.09494697 0.05184842 0.00047898
0.11827813 0.05184842 0.00047898
0.14264175 0.05184842 0.00047908
0.16795646 0.05184842 0.00047898
0.19415754 0.05184842 0.00047898
0.22119199 0.05184842 0.00047898
0.24901539 0.05184842 0.00047898
0.27758984 0.05184842 0.00047912
0.30688253 0.05184842 0.00047898
0.33686472 0.05184842 0.00047898
0.36751096 0.05184842 0.00047898
0.39879852 0.05184842 0.00047898
0.43070692 0.05184842 0.00047898
0.46321764 0.05184842 0.00047898
0.49631377 0.05184842 0.00047898
0.52997983 0.05184842 0.00047898
0.56420157 0.05184842 0.00047898
0.59896583 0.05184842 0.00047923
0.63426038 0.05184842 0.00047898
0.67007384 0.05184842 0.00047927
0.70639560 0.05184842 0.00047898
0.74321570 0.05184842 0.00047898
0.78052480 0.05184842 0.00047898
0.81831409 0.05184842 0.00047898
0.85657527 0.05184842 0.00047898
0.89530050 0.05184842 0.00047940
0.00047906 0.07275465 0.00047898
0.00047906 0.07275465 0.00047898
0.00047906 0.07275465 0.00047898
0.01495618 0.07275465 0.00047898
0.03245075 0.07275465 0.00047898
0.05184842 0.07275465 0.00047898
0.07275465 0.07275465 0.00047898
0.09494697 0.07275465 0.00047907
0.11827813 0.07275465 0.00047898
0.14264175 0.07275465 0.00047908
0.16795646 0.07275465 0.00047898
0.19415754 0.07275465 0.00047898
0.22119199 0.07275465 0.00047898
0.24901539 0.07275465 0.00047910
0.27758984 0.07275465 0.00047912
0.30688253 0.07275465 0.00047898
0.33686472 0.07275465 0.00047898
0.36751096 0.07275465 0.00047914
0.39879852 0.07275465 0.00047898
0.43070692 0.07275465 0.00047898
0.46321764 0.07275465 0.00047898
0.49631377 0.07275465 0.00047898
0.52997983 0.07275465 0.00047920
0.56420157 0.07275465 0.00047898
0.59896583 0.07275465 0.00047898
0.63426038 0.07275465 0.00047898
0.67007384 0.07275465 0.00047898
0.70639560 0.07275465 0.00047931
0.74321570 0.07275465 0.00047931
0.78052480 0.07275465 0.00047898
0.81831409 0.07275465 0.00047935
0.85657527 0.07275465 0.00047898
0.89530050 0.07275465 0.00047898
0.00047906 0.09494697 0.00047898
0.00047906 0.09494697 0.00047898
0.00047906 0.09494697 0.00047898
0.01495618 0.09494697 0.00047898
0.03245075 0.09494697 0.00047898
0.05184842 0.09494697 0.00047898
0.07275465 0.09494697 0.00047898
0.09494697 0.09494697 0.00047898
0.11827813 0.09494697 0.00047898
0.14264175 0.09494697 0.00047898
0.16795646 0.09494697 0.00047898
0.19415754 0.09494697 0.00047898
0.22119199 0.09494697 0.00047898
0.24901539 0.09494697 0.00047898
0.27758984 0.09494697 0.00047912
0.30688253 0.09494697 0.00047898
0.33686472 0.09494697 0.00047898
0.36751096 0.09494697 0.00047898
0.39879852 0.09494697 0.00047916
0.43070692 0.09494697 0.00047898
0.46321764 0.09494697 0.00047898
0.49631377 0.09494697 0.00047898
0.52997983 0.09494697 0.00047898
0.56420157 0.09494697 0.00047920
0.59896583 0.09494697 0.00047898
0.63426038 0.09494697 0.00047898
0.67007384 0.09494697 0.00047898
0.70639560 0.09494697 0.00047898
0.74321570 0.09494697 0.00047898
0.78052480 0.09494697 0.00047898
0.81831409 0.09494697 0.00047898
0.85657527 0.09494697 0.00047898
0.89530050 0.09494697 0.00047898
0.00047908 0.11827813 0.00047898
0.00047908 0.11827813 0.00047898
0.00047908 0.11827813 0.00047898
0.01495618 0.11827813 0.00047898
0.03245075 0.11827813 0.00047898
0.05184842 0.11827813 0.00047898
0.07275465 0.11827813 0.00047898
0.09494697 0.11827813 0.00047898
0.11827813 0.11827813 0.00047898
0.14264175 0.11827813 0.00047898
0.16795646 0.11827813 0.00047898
0.19415754 0.11827813 0.00047898
0.22119199 0.11827813 0.00047898
0.24901539 0.11827813 0.00047910
0.27758984 0.11827813 0.00047912
0.30688253 0.11827813 0.00047912
0.33686472 0.11827813 0.00047914
0.36751096 0.11827813 0.00047898
0.39879852 0.11827813 0.00047898
0.43070692 0.11827813 0.00047898
0.46321764 0.11827813 0.00047898
0.49631377 0.11827813 0.00047898
0.52997983 0.11827813 0.00047898
0.56420157 0.11827813 0.00047920
0.59896583 0.11827813 0.00047923
0.63426038 0.11827813 0.00047923
0.67007384 0.11827813 0.00047898
0.70639560 0.11827813 0.00047898
0.74321570 0.11827813 0.00047898
0.78052480 0.11827813 0.00047898
0.81831409 0.11827813 0.00047898
0.85657527 0.11827813 0.00047898
0.89530050 0.11827813 0.00047898
0.00047909 0.14264175 0.00047898
0.00047909 0.14264175 0.00047898
0.00047909 0.14264175 0.00047898
0.01495618 0.14264175 0.00047898
0.03245075 0.14264175 0.00047898
0.05184842 0.14264175 0.00047898
0.07275465 0.14264175 0.00047898
0.09494697 0.14264175 0.00047898
0.11827813 0.14264175 0.00047898
0.14264175 0.14264175 0.00047898
0.16795646 0.14264175 0.00047898
0.19415754 0.14264175 0.00047898
0.22119199 0.14264175 0.00047912
0.24901539 0.14264175 0.00047912
0.27758984 0.14264175 0.00047898
0.30688253 0.14264175 0.00047898
0.33686472 0.14264175 0.00047916
0.36751096 0.14264175 0.00047898
0.39879852 0.14264175 0.00047916
0.43070692 0.14264175 0.00047898
0.46321764 0.14264175 0.00047898
0.49631377 0.14264175 0.00047898
0.52997983 0.14264175 0.00047898
0.56420157 0.14264175 0.00047920
0.59896583 0.14264175 0.00047923
0.63426038 0.14264175 0.00047898
0.67007384 0.14264175 0.00047898
0.70639560 0.14264175 0.00047927
0.74321570 0.14264175 0.00047931
0.78052480 0.14264175 0.00047898
0.81831409 0.14264175 0.00047898
0.85657527 0.14264175 0.00047935
0.89530050 0.14264175 0.00047898
0.00047911 0.16795646 0.00047898
0.00047911 0.16795646 0.00047898
0.00047911 0.16795646 0.00047898
0.01495618 0.16795646 0.00047898
0.03245075 0.16795646 0.00047898
0.05184842 0.16795646 0.00047898
0.07275465 0.16795646 0.00047898
0.09494697 0.16795646 0.00047898
0.11827813 0.16795646 0.00047898
0.14264175 0.16795646 0.00047898
0.16795646 0.16795646 0.00047898
0.19415754 0.16795646 0.00047898
0.22119199 0.16795646 0.00047898
0.24901539 0.16795646 0.00047898
0.27758984 0.16795646 0.00047898
0.30688253 0.16795646 0.00047898
0.33686472 0.16795646 0.00047898
0.36751096 0.16795646 0.00047916
0.39879852 0.16795646 0.00047898
0.43070692 0.16795646 0.00047898
0.46321764 0.16795646 0.00047898
0.49631377 0.16795646 0.00047898
0.52997983 0.16795646 0.00047920
0.56420157 0.16795646 0.00047898
0.59896583 0.16795646 0.00047898
0.63426038 0.16795646 0.00047923
0.67007384 0.16795646 0.00047898
0.70639560 0.16795646 0.00047898
0.74321570 0.16795646 0.00047898
0.78052480 0.16795646 0.00047898
0.81831409 0.16795646 0.00047898
0.85657527 0.16795646 0.00047898
0.89530050 0.16795646 0.00047940
0.00047913 0.19415754 0.00047898
0.00047913 0.19415754 0.00047898
0.00047913 0.19415754 0.00047898
0.01495618 0.19415754 0.00047898
0.03245075 0.19415754 0.00047898
0.05184842 0.19415754 0.00047898
0.07275465 0.19415754 0.00047898
0.09494697 0.19415754 0.00047898
0.11827813 0.19415754 0.00047898
0.14264175 0.19415754 0.00047898
0.16795646 0.19415754 0.00047898
0.19415754 0.19415754 0.00047910
0.22119199 0.19415754 0.00047898
0.24901539 0.19415754 0.00047898
0.27758984 0.19415754 0.00047912
0.30688253 0.19415754 0.00047898
0.33686472 0.19415754 0.00047898
0.36751096 0.19415754 0.00047898
0.39879852 0.19415754 0.00047916
0.43070692 0.19415754 0.00047898
0.46321764 0.19415754 0.00047918
0.49631377 0.19415754 0.00047898
0.52997983 0.19415754 0.00047898
0.56420157 0.19415754 0.00047920
0.59896583 0.19415754 0.00047898
0.63426038 0.19415754 0.00047923
0.67007384 0.19415754 0.00047898
0.70639560 0.19415754 0.00047927
0.74321570 0.19415754 0.00047931
0.78052480 0.19415754 0.00047898
0.81831409 0.19415754 0.00047898
0.85657527 0.19415754 0.00047935
0.89530050 0.19415754 0.00047898
0.00047913 0.22119199 0.00047910
0.00047913 0.22119199 0.00047910
0.00047913 0.22119199 0.00047910
0.01495618 0.22119199 0.00047910
0.03245075 0.22119199 0.00047910
0.05184842 0.22119199 0.00047912
0.07275465 0.22119199 0.00047912
0.09494697 0.22119199 0.00047898
0.11827813 0.22119199 0.00047898
0.14264175 0.22119199 0.00047910
0.16795646 0.22119199 0.00047898
0.19415754 0.22119199 0.00047898
0.22119199 0.22119199 0.00047912
0.24901539 0.22119199 0.00047898
0.27758984 0.22119199 0.00047898
0.30688253 0.22119199 0.00047898
0.33686472 0.22119199 0.00047914
0.36751096 0.22119199 0.00047898
0.39879852 0.22119199 0.00047898
0.43070692 0.22119199 0.00047898
0.46321764 0.22119199 0.00047898
0.49631377 0.22119199 0.00047898
0.52997983 0.22119199 0.00047898
0.56420157 0.22119199 0.00047898
0.59896583 0.22119199 0.00047898
0.63426038 0.22119199 0.00047898
0.67007384 0.22119199 0.00047898
0.70639560 0.22119199 0.00047898
0.74321570 0.22119199 0.00047898
0.78052480 0.22119199 0.00047898
0.81831409 0.22119199 0.00047898
0.85657527 0.22119199 0.00047898
0.89530050 0.22119199 0.00047940
0.00047907 0.24901539 0.00047898
0.00047907 0.24901539 0.00047898
0.00047907 0.24901539 0.00047898
0.01495618 0.24901539 0.00047912
0.03245075 0.24901539 0.00047898
0.05184842 0.24901539 0.00047898
0.07275465 0.24901539 0.00047898
0.09494697 0.24901539 0.00047898
0.11827813 0.24901539 0.00047898
0.14264175 0.24901539 0.00047898
0.16795646 0.24901539 0.00047912
0.19415754 0.24901539 0.00047898
0.22119199 0.24901539 0.00047898
0.24901539 0.24901539 0.00047914
0.27758984 0.24901539 0.00047898
0.30688253 0.24901539 0.00047898
0.33686472 0.24901539 0.00047898
0.36751096 0.24901539 0.00047898
0.39879852 0.24901539 0.00047916
0.43070692 0.24901539 0.00047918
0.46321764 0.24901539 0.00047898
0.49631377 0.24901539 0.00047898
0.52997983 0.24901539 0.00047898
0.56420157 0.24901539 0.00047920
0.59896583 0.24901539 0.00047898
0.63426038 0.24901539 0.00047898
0.67007384 0.24901539 0.00047898
0.70639560 0.24901539 0.00047898
0.74321570 0.24901539 0.00047898
0.78052480 0.24901539 0.00047898
0.81831409 0.24901539 0.00047898
0.85657527 0.24901539 0.00047898
0.89530050 0.24901539 0.00047940
0.00047911 0.27758984 0.00047898
0.00047911 0.27758984 0.00047898
0.00047911 0.27758984 0.00047898
0.01495618 0.27758984 0.00047898
0.03245075 0.27758984 0.00047898
0.05184842 0.27758984 0.00047898
0.07275465 0.27758984 0.00047898
0.09494697 0.27758984 0.00047912
0.11827813 0.27758984 0.00047898
0.14264175 0.27758984 0.00047898
0.16795646 0.27758984 0.00047912
0.19415754 0.27758984 0.00047898
0.22119199 0.27758984 0.00047898
0.24901539 0.27758984 0.00047898
0.27758984 0.27758984 0.00047898
0.30688253 0.27758984 0.00047914
0.33686472 0.27758984 0.00047898
0.36751096 0.27758984 0.00047916
0.39879852 0.27758984 0.00047898
0.43070692 0.27758984 0.00047898
0.46321764 0.27758984 0.00047898
0.49631377 0.27758984 0.00047898
0.52997983 0.27758984 0.00047898
0.56420157 0.27758984 0.00047898
0.59896583 0.27758984 0.00047898
0.63426038 0.27758984 0.00047898
0.67007384 0.27758984 0.00047898
0.70639560 0.27758984 0.00047898
0.74321570 0.27758984 0.00047931
0.78052480 0.27758984 0.00047898
0.81831409 0.27758984 0.00047898
0.85657527 0.27758984 0.00047935
0.89530050 0.27758984 0.00047898
0.00047916 0.30688253 0.00047898
0.00047916 0.30688253 0.00047898
0.00047916 0.30688253 0.00047898
0.01495618 0.30688253 0.00047898
0.03245075 0.30688253 0.00047898
0.05184842 0.30688253 0.00047898
0.07275465 0.30688253 0.00047898
0.09494697 0.30688253 0.00047898
0.11827813 0.30688253 0.00047898
0.14264175 0.30688253 0.00047898
0.16795646 0.30688253 0.00047898
0.19415754 0.30688253 0.00047898
0.22119199 0.30688253 0.00047898
0.24901539 0.30688253 0.00047898
0.27758984 0.30688253 0.00047898
0.30688253 0.30688253 0.00047898
0.33686472 0.30688253 0.00047898
0.36751096 0.30688253 0.00047898
0.39879852 0.30688253 0.00047898
0.43070692 0.30688253 0.00047898
0.46321764 0.30688253 0.00047898
0.49631377 0.30688253 0.00047898
0.52997983 0.30688253 0.00047923
0.56420157 0.30688253 0.00047898
0.59896583 0.30688253 0.00047898
0.63426038 0.30688253 0.00047898
0.67007384 0.30688253 0.00047898
0.70639560 0.30688253 0.00047898
0.74321570 0.30688253 0.00047898
0.78052480 0.30688253 0.00047898
0.81831409 0.30688253 0.00047898
0.85657527 0.30688253 0.00047898
0.89530050 0.30688253 0.00047940
0.00047898 0.33686472 0.00047898
0.00047898 0.33686472 0.00047898
0.00047898 0.33686472 0.00047898
0.01495618 0.33686472 0.00047898
0.03245075 0.33686472 0.00047914
0.05184842 0.33686472 0.00047898
0.07275465 0.33686472 0.00047898
0.09494697 0.33686472 0.00047898
0.11827813 0.33686472 0.00047898
0.14264175 0.33686472 0.00047898
0.16795646 0.33686472 0.00047898
0.19415754 0.33686472 0.00047898
0.22119199 0.33686472 0.00047898
0.24901539 0.33686472 0.00047898
0.27758984 0.33686472 0.00047898
0.30688253 0.33686472 0.00047916
0.33686472 0.33686472 0.00047898
0.36751096 0.33686472 0.00047916
0.39879852 0.33686472 0.00047898
0.43070692 0.33686472 0.00047918
0.46321764 0.33686472 0.00047898
0.49631377 0.33686472 0.00047898
0.52997983 0.33686472 0.00047898
0.56420157 0.33686472 0.00047898
0.59896583 0.33686472 0.00047898
0.63426038 0.33686472 0.00047923
0.67007384 0.33686472 0.00047898
0.70639560 0.33686472 0.00047898
0.74321570 0.33686472 0.00047898
0.78052480 0.33686472 0.00047898
0.81831409 0.33686472 0.00047898
0.85657527 0.33686472 0.00047898
0.89530050 0.33686472 0.00047898
0.00047918 0.36751096 0.00047898
0.00047918 0.36751096 0.00047898
0.00047918 0.36751096 0.00047898
0.01495618 0.36751096 0.00047898
0.03245075 0.36751096 0.00047898
0.05184842 0.36751096 0.00047898
0.07275465 0.36751096 0.00047898
0.09494697 0.36751096 0.00047916
0.11827813 0.36751096 0.00047898
0.14264175 0.36751096 0.00047916
0.16795646 0.36751096 0.00047916
0.19415754 0.36751096 0.00047898
0.22119199 0.36751096 0.00047898
0.24901539 0.36751096 0.00047898
0.27758984 0.36751096 0.00047898
0.30688253 0.36751096 0.00047898
0.33686472 0.36751096 0.00047916
0.36751096 0.36751096 0.00047918
0.39879852 0.36751096 0.00047898
0.43070692 0.36751096 0.00047898
0.46321764 0.36751096 0.00047898
0.49631377 0.36751096 0.00047898
0.52997983 0.36751096 0.00047898
0.56420157 0.36751096 0.00047898
0.59896583 0.36751096 0.00047923
0.63426038 0.36751096 0.00047898
0.67007384 0.36751096 0.00047898
0.70639560 0.36751096 0.00047927
0.74321570 0.36751096 0.00047898
0.78052480 0.36751096 0.00047898
0.81831409 0.36751096 0.00047898
0.85657527 0.36751096 0.00047898
0.89530050 0.36751096 0.00047898
0.00047916 0.39879852 0.00047898
0.00047916 0.39879852 0.00047898
0.00047916 0.39879852 0.00047898
0.01495618 0.39879852 0.00047898
0.03245075 0.39879852 0.00047898
0.05184842 0.39879852 0.00047898
0.07275465 0.39879852 0.00047898
0.09494697 0.39879852 0.00047898
0.11827813 0.39879852 0.00047898
0.14264175 0.39879852 0.00047898
0.16795646 0.39879852 0.00047898
0.19415754 0.39879852 0.00047898
0.22119199 0.39879852 0.00047898
0.24901539 0.39879852 0.00047898
0.27758984 0.39879852 0.00047898
0.30688253 0.39879852 0.00047898
0.33686472 0.39879852 0.00047898
0.36751096 0.39879852 0.00047898
0.39879852 0.39879852 0.00047918
0.43070692 0.39879852 0.00047918
0.46321764 0.39879852 0.00047898
0.49631377 0.39879852 0.00047898
0.52997983 0.39879852 0.00047898
0.56420157 0.39879852 0.00047898
0.59896583 0.39879852 0.00047898
0.63426038 0.39879852 0.00047898
0.67007384 0.39879852 0.00047898
0.70639560 0.39879852 0.00047927
0.74321570 0.39879852 0.00047898
0.78052480 0.39879852 0.00047898
0.81831409 0.39879852 0.00047898
0.85657527 0.39879852 0.00047898
0.89530050 0.39879852 0.00047940
0.00047921 0.43070692 0.00047898
0.00047921 0.43070692 0.00047898
0.00047921 0.43070692 0.00047898
0.01495618 0.43070692 0.00047898
0.03245075 0.43070692 0.00047898
0.05184842 0.43070692 0.00047898
0.07275465 0.43070692 0.00047898
0.09494697 0.43070692 0.00047898
0.11827813 0.43070692 0.00047898
0.14264175 0.43070692 0.00047898
0.16795646 0.43070692 0.00047898
0.19415754 0.43070692 0.00047918
0.22119199 0.43070692 0.00047898
0.24901539 0.43070692 0.00047898
0.27758984 0.43070692 0.00047898
0.30688253 0.43070692 0.00047918
0.33686472 0.43070692 0.00047918
0.36751096 0.43070692 0.00047898
0.39879852 0.43070692 0.00047898
0.43070692 0.43070692 0.00047898
0.46321764 0.43070692 0.00047898
0.49631377 0.43070692 0.00047898
0.52997983 0.43070692 0.00047898
0.56420157 0.43070692 0.00047898
0.59896583 0.43070692 0.00047898
0.63426038 0.43070692 0.00047898
0.67007384 0.43070692 0.00047931
0.70639560 0.43070692 0.00047898
0.74321570 0.43070692 0.00047931
0.78052480 0.43070692 0.00047898
0.81831409 0.43070692 0.00047898
0.85657527 0.43070692 0.00047935
0.89530050 0.43070692 0.00047898
0.00047922 0.46321764 0.00047898
0.00047922 0.46321764 0.00047898
0.00047922 0.46321764 0.00047898
0.01495618 0.46321764 0.00047898
0.03245075 0.46321764 0.00047898
0.05184842 0.46321764 0.00047898
0.07275465 0.46321764 0.00047898
0.09494697 0.46321764 0.00047898
0.11827813 0.46321764 0.00047918
0.14264175 0.46321764 0.00047898
0.16795646 0.46321764 0.00047918
0.19415754 0.46321764 0.00047898
0.22119199 0.46321764 0.00047898
0.24901539 0.46321764 0.00047898
0.27758984 0.46321764 0.00047898
0.30688253 0.46321764 0.00047898
0.33686472 0.46321764 0.00047898
0.36751096 0.46321764 0.00047898
0.39879852 0.46321764 0.00047898
0.43070692 0.46321764 0.00047898
0.46321764 0.46321764 0.00047898
0.49631377 0.46321764 0.00047898
0.52997983 0.46321764 0.00047923
0.56420157 0.46321764 0.00047923
0.59896583 0.46321764 0.00047898
0.63426038 0.46321764 0.00047898
0.67007384 0.46321764 0.00047898
0.70639560 0.46321764 0.00047898
0.74321570 0.46321764 0.00047898
0.78052480 0.46321764 0.00047898
0.81831409 0.46321764 0.00047935
0.85657527 0.46321764 0.00047935
0.89530050 0.46321764 0.00047898
0.00047920 0.49631377 0.00047898
0.00047920 0.49631377 0.00047898
0.00047920 0.49631377 0.00047898
0.01495618 0.49631377 0.00047898
0.03245075 0.49631377 0.00047898
0.05184842 0.49631377 0.00047898
0.07275465 0.49631377 0.00047898
0.09494697 0.49631377 0.00047898
0.11827813 0.49631377 0.00047898
0.14264175 0.49631377 0.00047898
0.16795646 0.49631377 0.00047898
0.19415754 0.49631377 0.00047898
0.22119199 0.49631377 0.00047898
0.24901539 0.49631377 0.00047898
0.27758984 0.49631377 0.00047898
0.30688253 0.49631377 0.00047898
0.33686472 0.49631377 0.00047898
0.36751096 0.49631377 0.00047920
0.39879852 0.49631377 0.00047898
0.43070692 0.49631377 0.00047898
0.46321764 0.49631377 0.00047920
0.49631377 0.49631377 0.00047898
0.52997983 0.49631377 0.00047898
0.56420157 0.49631377 0.00047898
0.59896583 0.49631377 0.00047898
0.63426038 0.49631377 0.00047898
0.67007384 0.49631377 0.00047898
