src/ffmpeg_scripts/luts/luminance-unclipped_-3p67.cube
TITLE "luminance-unclipped_-3p67"
LUT_3D_SIZE 5
# PQ (EOTF Only)/Rec2020 -> PQ (EOTF Only)/Rec2020, CineEI Shift -3.67, Black Level -7.25% IRE, Input 109% -> Output 109% - Created with LUTCalc v4.01 by Ben Turley October 2020
0.00047898 0.00047898 0.00047898
0.09124733 0.00047898 0.00047898
0.28159788 0.00047910 0.00047898
0.52757629 0.00047916 0.00047898
0.82071820 0.00047937 0.00047940
0.00047907 0.09124733 0.00047898
0.09124733 0.09124733 0.00047898
0.28159788 0.09124733 0.00047912
0.52757629 0.09124733 0.00047920
0.82071820 0.09124733 0.00047898
0.00047912 0.28159788 0.00047898
0.09124733 0.28159788 0.00047898
0.28159788 0.28159788 0.00047898
0.52757629 0.28159788 0.00047898
0.82071820 0.28159788 0.00047898
0.00047914 0.52757629 0.00047898
0.09124733 0.52757629 0.00047898
0.28159788 0.52757629 0.00047920
0.52757629 0.52757629 0.00047923
0.82071820 0.52757629 0.00047935
0.00047939 0.82071820 0.00047898
0.09124733 0.82071820 0.00047935
0.28159788 0.82071820 0.00047898
0.52757629 0.82071820 0.00047935
0.82071820 0.82071820 0.00047898
0.00047898 0.00047910 0.09124733
0.09124733 0.00047909 0.09124733
0.28159788 0.00047912 0.09124733
0.52757629 0.00047920 0.09124733
0.82071820 0.00047933 0.09124733
0.00047907 0.09124733 0.09124733
0.09124733 0.09124733 0.09124733
0.28159788 0.09124733 0.09124733
0.52757629 0.09124733 0.09124733
0.82071820 0.09124733 0.09124733
0.00047915 0.28159788 0.09124733
0.09124733 0.28159788 0.09124733
0.28159788 0.28159788 0.09124733
0.52757629 0.28159788 0.09124733
0.82071820 0.28159788 0.09124733
0.00047916 0.52757629 0.09124733
0.09124733 0.52757629 0.09124733
0.28159788 0.52757629 0.09124733
0.52757629 0.52757629 0.09124733
0.82071820 0.52757629 0.09124733
0.00047938 0.82071820 0.09124733
0.09124733 0.82071820 0.09124733
0.28159788 0.82071820 0.09124733
0.52757629 0.82071820 0.09124733
0.82071820 0.82071820 0.09124733
0.00047914 0.00047918 0.28159788
0.09124733 0.00047898 0.28159788
0.28159788 0.00047898 0.28159788
0.52757629 0.00047923 0.28159788
0.82071820 0.00047943 0.28159788
0.00047898 0.09124733 0.28159788
0.09124733 0.09124733 0.28159788
0.28159788 0.09124733 0.28159788
0.52757629 0.09124733 0.28159788
0.82071820 0.09124733 0.28159788
0.00047898 0.28159788 0.28159788
0.09124733 0.28159788 0.28159788
0.28159788 0.28159788 0.28159788
0.52757629 0.28159788 0.28159788
0.82071820 0.28159788 0.28159788
0.00047928 0.52757629 0.28159788
0.09124733 0.52757629 0.28159788
0.28159788 0.52757629 0.28159788
0.52757629 0.52757629 0.28159788
0.82071820 0.52757629 0.28159788
0.00047898 0.82071820 0.28159788
0.09124733 0.82071820 0.28159788
0.28159788 0.82071820 0.28159788
0.52757629 0.82071820 0.28159788
0.82071820 0.82071820 0.28159788
0.00047898 0.00047933 0.52757629
0.09124733 0.00047898 0.52757629
0.28159788 0.00047898 0.52757629
0.52757629 0.00047898 0.52757629
0.82071820 0.00047935 0.52757629
0.00047898 0.09124733 0.52757629
0.09124733 0.09124733 0.52757629
0.28159788 0.09124733 0.52757629
0.52757629 0.09124733 0.52757629
0.82071820 0.09124733 0.52757629
0.00047898 0.28159788 0.52757629
0.09124733 0.28159788 0.52757629
0.28159788 0.28159788 0.52757629
0.52757629 0.28159788 0.52757629
0.82071820 0.28159788 0.52757629
0.00047898 0.52757629 0.52757629
0.09124733 0.52757629 0.52757629
0.28159788 0.52757629 0.52757629
0.52757629 0.52757629 0.52757629
0.82071820 0.52757629 0.52757629
0.00047940 0.82071820 0.52757629
0.09124733 0.82071820 0.52757629
0.28159788 0.82071820 0.52757629
0.52757629 0.82071820 0.52757629
0.82071820 0.82071820 0.52757629
0.00047898 0.00047953 0.82071820
0.09124733 0.00047958 0.82071820
0.28159788 0.00047958 0.82071820
0.52757629 0.00047953 0.82071820
0.82071820 0.00047953 0.82071820
0.00047940 0.09124733 0.82071820
0.09124733 0.09124733 0.82071820
0.28159788 0.09124733 0.82071820
0.52757629 0.09124733 0.82071820
0.82071820 0.09124733 0.82071820
0.00047898 0.28159788 0.82071820
0.09124733 0.28159788 0.82071820
0.28159788 0.28159788 0.82071820
0.52757629 0.28159788 0.82071820
0.82071820 0.28159788 0.82071820
0.00047898 0.52757629 0.82071820
0.09124733 0.52757629 0.82071820
0.28159788 0.52757629 0.82071820
0.52757629 0.52757629 0.82071820
0.82071820 0.52757629 0.82071820
0.00047898 0.82071820 0.82071820
0.09124733 0.82071820 0.82071820
0.28159788 0.82071820 0.82071820
0.52757629 0.82071820 0.82071820
0.82071820 0.82071820 0.82071820
