src/ffmpeg_scripts/luts/luminance_2p33.cube
TITLE "luminance_2p33"
LUT_3D_SIZE 9
# PQ (EOTF Only)/Rec2020 -> PQ (EOTF Only)/Rec2020, CineEI Shift 2.33, Black Level 0.00% IRE, Input 109% -> Output 109% - Created with LUTCalc v4.01 by Ben Turley October 2020
0.06256172 0.06256172 0.06256172
0.17798991 0.06256172 0.06256172
0.35407936 0.06256172 0.06256172
0.50611082 0.06256172 0.06256172
0.64519973 0.06256194 0.06256172
0.77551239 0.06256172 0.06256172
0.89924418 0.06256204 0.06256172
0.91886608 0.06256172 0.06256172
0.91886608 0.06256249 0.06256257
0.06256182 0.17798991 0.06256172
0.17798991 0.17798991 0.06256172
0.35407936 0.17798991 0.06256172
0.50611082 0.17798991 0.06256191
0.64519973 0.17798991 0.06256172
0.77551239 0.17798991 0.06256172
0.89924418 0.17798991 0.06256213
0.91886608 0.17798991 0.06256235
0.91886608 0.17798991 0.06256245
0.06256187 0.35407936 0.06256172
0.17798991 0.35407936 0.06256172
0.35407936 0.35407936 0.06256172
0.50611082 0.35407936 0.06256172
0.64519973 0.35407936 0.06256197
0.77551239 0.35407936 0.06256172
0.89924418 0.35407936 0.06256213
0.91886608 0.35407936 0.06256172
0.91886608 0.35407936 0.06256172
0.06256195 0.50611082 0.06256191
0.17798991 0.50611082 0.06256172
0.35407936 0.50611082 0.06256172
0.50611082 0.50611082 0.06256194
0.64519973 0.50611082 0.06256197
0.77551239 0.50611082 0.06256204
0.89924418 0.50611082 0.06256172
0.91886608 0.50611082 0.06256172
0.91886608 0.50611082 0.06256245
0.06256197 0.64519973 0.06256172
0.17798991 0.64519973 0.06256197
0.35407936 0.64519973 0.06256172
0.50611082 0.64519973 0.06256172
0.64519973 0.64519973 0.06256172
0.77551239 0.64519973 0.06256172
0.89924418 0.64519973 0.06256172
0.91886608 0.64519973 0.06256172
0.91886608 0.64519973 0.06256172
0.06256206 0.77551239 0.06256204
0.17798991 0.77551239 0.06256172
0.35407936 0.77551239 0.06256204
0.50611082 0.77551239 0.06256172
0.64519973 0.77551239 0.06256208
0.77551239 0.77551239 0.06256208
0.89924418 0.77551239 0.06256172
0.91886608 0.77551239 0.06256172
0.91886608 0.77551239 0.06256172
0.06256200 0.89924418 0.06256172
0.17798991 0.89924418 0.06256172
0.35407936 0.89924418 0.06256172
0.50611082 0.89924418 0.06256172
0.64519973 0.89924418 0.06256213
0.77551239 0.89924418 0.06256172
0.89924418 0.89924418 0.06256219
0.91886608 0.89924418 0.06256172
0.91886608 0.89924418 0.06256245
0.06256232 0.91886608 0.06256172
0.17798991 0.91886608 0.06256172
0.35407936 0.91886608 0.06256172
0.50611082 0.91886608 0.06256172
0.64519973 0.91886608 0.06256172
0.77551239 0.91886608 0.06256172
0.89924418 0.91886608 0.06256172
0.91886608 0.91886608 0.06256172
0.91886608 0.91886608 0.06256172
0.06256255 0.91886608 0.06256172
0.17798991 0.91886608 0.06256257
0.35407936 0.91886608 0.06256245
0.50611082 0.91886608 0.06256172
0.64519973 0.91886608 0.06256172
0.77551239 0.91886608 0.06256172
0.89924418 0.91886608 0.06256245
0.91886608 0.91886608 0.06256172
0.91886608 0.91886608 0.06256172
0.06256172 0.06256182 0.17798991
0.17798991 0.06256184 0.17798991
0.35407936 0.06256172 0.17798991
0.50611082 0.06256191 0.17798991
0.64519973 0.06256202 0.17798991
0.77551239 0.06256172 0.17798991
0.89924418 0.06256211 0.17798991
0.91886608 0.06256225 0.17798991
0.91886608 0.06256172 0.17798991
0.06256181 0.17798991 0.17798991
0.17798991 0.17798991 0.17798991
0.35407936 0.17798991 0.17798991
0.50611082 0.17798991 0.17798991
0.64519973 0.17798991 0.17798991
0.77551239 0.17798991 0.17798991
0.89924418 0.17798991 0.17798991
0.91886608 0.17798991 0.17798991
0.91886608 0.17798991 0.17798991
0.06256185 0.35407936 0.17798991
0.17798991 0.35407936 0.17798991
0.35407936 0.35407936 0.17798991
0.50611082 0.35407936 0.17798991
0.64519973 0.35407936 0.17798991
0.77551239 0.35407936 0.17798991
0.89924418 0.35407936 0.17798991
0.91886608 0.35407936 0.17798991
0.91886608 0.35407936 0.17798991
0.06256194 0.50611082 0.17798991
0.17798991 0.50611082 0.17798991
0.35407936 0.50611082 0.17798991
0.50611082 0.50611082 0.17798991
0.64519973 0.50611082 0.17798991
0.77551239 0.50611082 0.17798991
0.89924418 0.50611082 0.17798991
0.91886608 0.50611082 0.17798991
0.91886608 0.50611082 0.17798991
0.06256193 0.64519973 0.17798991
0.17798991 0.64519973 0.17798991
0.35407936 0.64519973 0.17798991
0.50611082 0.64519973 0.17798991
0.64519973 0.64519973 0.17798991
0.77551239 0.64519973 0.17798991
0.89924418 0.64519973 0.17798991
0.91886608 0.64519973 0.17798991
0.91886608 0.64519973 0.17798991
0.06256212 0.77551239 0.17798991
0.17798991 0.77551239 0.17798991
0.35407936 0.77551239 0.17798991
0.50611082 0.77551239 0.17798991
0.64519973 0.77551239 0.17798991
0.77551239 0.77551239 0.17798991
0.89924418 0.77551239 0.17798991
0.91886608 0.77551239 0.17798991
0.91886608 0.77551239 0.17798991
0.06256223 0.89924418 0.17798991
0.17798991 0.89924418 0.17798991
0.35407936 0.89924418 0.17798991
0.50611082 0.89924418 0.17798991
0.64519973 0.89924418 0.17798991
0.77551239 0.89924418 0.17798991
0.89924418 0.89924418 0.17798991
0.91886608 0.89924418 0.17798991
0.91886608 0.89924418 0.17798991
0.06256172 0.91886608 0.17798991
0.17798991 0.91886608 0.17798991
0.35407936 0.91886608 0.17798991
0.50611082 0.91886608 0.17798991
0.64519973 0.91886608 0.17798991
0.77551239 0.91886608 0.17798991
0.89924418 0.91886608 0.17798991
0.91886608 0.91886608 0.17798991
0.91886608 0.91886608 0.17798991
0.06256267 0.91886608 0.17798991
0.17798991 0.91886608 0.17798991
0.35407936 0.91886608 0.17798991
0.50611082 0.91886608 0.17798991
0.64519973 0.91886608 0.17798991
0.77551239 0.91886608 0.17798991
0.89924418 0.91886608 0.17798991
0.91886608 0.91886608 0.17798991
0.91886608 0.91886608 0.17798991
0.06256172 0.06256194 0.35407936
0.17798991 0.06256172 0.35407936
0.35407936 0.06256191 0.35407936
0.50611082 0.06256172 0.35407936
0.64519973 0.06256197 0.35407936
0.77551239 0.06256172 0.35407936
0.89924418 0.06256213 0.35407936
0.91886608 0.06256172 0.35407936
0.91886608 0.06256241 0.35407936
0.06256172 0.17798991 0.35407936
0.17798991 0.17798991 0.35407936
0.35407936 0.17798991 0.35407936
0.50611082 0.17798991 0.35407936
0.64519973 0.17798991 0.35407936
0.77551239 0.17798991 0.35407936
0.89924418 0.17798991 0.35407936
0.91886608 0.17798991 0.35407936
0.91886608 0.17798991 0.35407936
0.06256187 0.35407936 0.35407936
0.17798991 0.35407936 0.35407936
0.35407936 0.35407936 0.35407936
0.50611082 0.35407936 0.35407936
0.64519973 0.35407936 0.35407936
0.77551239 0.35407936 0.35407936
0.89924418 0.35407936 0.35407936
0.91886608 0.35407936 0.35407936
0.91886608 0.35407936 0.35407936
0.06256195 0.50611082 0.35407936
0.17798991 0.50611082 0.35407936
0.35407936 0.50611082 0.35407936
0.50611082 0.50611082 0.35407936
0.64519973 0.50611082 0.35407936
0.77551239 0.50611082 0.35407936
0.89924418 0.50611082 0.35407936
0.91886608 0.50611082 0.35407936
0.91886608 0.50611082 0.35407936
0.06256203 0.64519973 0.35407936
0.17798991 0.64519973 0.35407936
0.35407936 0.64519973 0.35407936
0.50611082 0.64519973 0.35407936
0.64519973 0.64519973 0.35407936
0.77551239 0.64519973 0.35407936
0.89924418 0.64519973 0.35407936
0.91886608 0.64519973 0.35407936
0.91886608 0.64519973 0.35407936
0.06256208 0.77551239 0.35407936
0.17798991 0.77551239 0.35407936
0.35407936 0.77551239 0.35407936
0.50611082 0.77551239 0.35407936
0.64519973 0.77551239 0.35407936
0.77551239 0.77551239 0.35407936
0.89924418 0.77551239 0.35407936
0.91886608 0.77551239 0.35407936
0.91886608 0.77551239 0.35407936
0.06256204 0.89924418 0.35407936
0.17798991 0.89924418 0.35407936
0.35407936 0.89924418 0.35407936
0.50611082 0.89924418 0.35407936
0.64519973 0.89924418 0.35407936
0.77551239 0.89924418 0.35407936
0.89924418 0.89924418 0.35407936
0.91886608 0.89924418 0.35407936
0.91886608 0.89924418 0.35407936
0.06256237 0.91886608 0.35407936
0.17798991 0.91886608 0.35407936
0.35407936 0.91886608 0.35407936
0.50611082 0.91886608 0.35407936
0.64519973 0.91886608 0.35407936
0.77551239 0.91886608 0.35407936
0.89924418 0.91886608 0.35407936
0.91886608 0.91886608 0.35407936
0.91886608 0.91886608 0.35407936
0.06256252 0.91886608 0.35407936
0.17798991 0.91886608 0.35407936
0.35407936 0.91886608 0.35407936
0.50611082 0.91886608 0.35407936
0.64519973 0.91886608 0.35407936
0.77551239 0.91886608 0.35407936
0.89924418 0.91886608 0.35407936
0.91886608 0.91886608 0.35407936
0.91886608 0.91886608 0.35407936
0.06256172 0.06256197 0.50611082
0.17798991 0.06256197 0.50611082
0.35407936 0.06256197 0.50611082
0.50611082 0.06256202 0.50611082
0.64519973 0.06256200 0.50611082
0.77551239 0.06256204 0.50611082
0.89924418 0.06256204 0.50611082
0.91886608 0.06256227 0.50611082
0.91886608 0.06256249 0.50611082
0.06256172 0.17798991 0.50611082
0.17798991 0.17798991 0.50611082
0.35407936 0.17798991 0.50611082
0.50611082 0.17798991 0.50611082
0.64519973 0.17798991 0.50611082
0.77551239 0.17798991 0.50611082
0.89924418 0.17798991 0.50611082
0.91886608 0.17798991 0.50611082
0.91886608 0.17798991 0.50611082
0.06256172 0.35407936 0.50611082
0.17798991 0.35407936 0.50611082
0.35407936 0.35407936 0.50611082
0.50611082 0.35407936 0.50611082
0.64519973 0.35407936 0.50611082
0.77551239 0.35407936 0.50611082
0.89924418 0.35407936 0.50611082
0.91886608 0.35407936 0.50611082
0.91886608 0.35407936 0.50611082
0.06256194 0.50611082 0.50611082
0.17798991 0.50611082 0.50611082
0.35407936 0.50611082 0.50611082
0.50611082 0.50611082 0.50611082
0.64519973 0.50611082 0.50611082
0.77551239 0.50611082 0.50611082
0.89924418 0.50611082 0.50611082
0.91886608 0.50611082 0.50611082
0.91886608 0.50611082 0.50611082
0.06256194 0.64519973 0.50611082
0.17798991 0.64519973 0.50611082
0.35407936 0.64519973 0.50611082
0.50611082 0.64519973 0.50611082
0.64519973 0.64519973 0.50611082
0.77551239 0.64519973 0.50611082
0.89924418 0.64519973 0.50611082
0.91886608 0.64519973 0.50611082
0.91886608 0.64519973 0.50611082
0.06256205 0.77551239 0.50611082
0.17798991 0.77551239 0.50611082
0.35407936 0.77551239 0.50611082
0.50611082 0.77551239 0.50611082
0.64519973 0.77551239 0.50611082
0.77551239 0.77551239 0.50611082
0.89924418 0.77551239 0.50611082
0.91886608 0.77551239 0.50611082
0.91886608 0.77551239 0.50611082
0.06256222 0.89924418 0.50611082
0.17798991 0.89924418 0.50611082
0.35407936 0.89924418 0.50611082
0.50611082 0.89924418 0.50611082
0.64519973 0.89924418 0.50611082
0.77551239 0.89924418 0.50611082
0.89924418 0.89924418 0.50611082
0.91886608 0.89924418 0.50611082
0.91886608 0.89924418 0.50611082
0.06256230 0.91886608 0.50611082
0.17798991 0.91886608 0.50611082
0.35407936 0.91886608 0.50611082
0.50611082 0.91886608 0.50611082
0.64519973 0.91886608 0.50611082
0.77551239 0.91886608 0.50611082
0.89924418 0.91886608 0.50611082
0.91886608 0.91886608 0.50611082
0.91886608 0.91886608 0.50611082
0.06256253 0.91886608 0.50611082
0.17798991 0.91886608 0.50611082
0.35407936 0.91886608 0.50611082
0.50611082 0.91886608 0.50611082
0.64519973 0.91886608 0.50611082
0.77551239 0.91886608 0.50611082
0.89924418 0.91886608 0.50611082
0.91886608 0.91886608 0.50611082
0.91886608 0.91886608 0.50611082
0.06256200 0.06256208 0.64519973
0.17798991 0.06256213 0.64519973
0.35407936 0.06256172 0.64519973
0.50611082 0.06256172 0.64519973
0.64519973 0.06256172 0.64519973
0.77551239 0.06256172 0.64519973
0.89924418 0.06256219 0.64519973
0.91886608 0.06256231 0.64519973
0.91886608 0.06256263 0.64519973
0.06256172 0.17798991 0.64519973
0.17798991 0.17798991 0.64519973
0.35407936 0.17798991 0.64519973
0.50611082 0.17798991 0.64519973
0.64519973 0.17798991 0.64519973
0.77551239 0.17798991 0.64519973
0.89924418 0.17798991 0.64519973
0.91886608 0.17798991 0.64519973
0.91886608 0.17798991 0.64519973
0.06256172 0.35407936 0.64519973
0.17798991 0.35407936 0.64519973
0.35407936 0.35407936 0.64519973
0.50611082 0.35407936 0.64519973
0.64519973 0.35407936 0.64519973
0.77551239 0.35407936 0.64519973
0.89924418 0.35407936 0.64519973
0.91886608 0.35407936 0.64519973
0.91886608 0.35407936 0.64519973
0.06256172 0.50611082 0.64519973
0.17798991 0.50611082 0.64519973
0.35407936 0.50611082 0.64519973
0.50611082 0.50611082 0.64519973
0.64519973 0.50611082 0.64519973
0.77551239 0.50611082 0.64519973
0.89924418 0.50611082 0.64519973
0.91886608 0.50611082 0.64519973
0.91886608 0.50611082 0.64519973
0.06256172 0.64519973 0.64519973
0.17798991 0.64519973 0.64519973
0.35407936 0.64519973 0.64519973
0.50611082 0.64519973 0.64519973
0.64519973 0.64519973 0.64519973
0.77551239 0.64519973 0.64519973
0.89924418 0.64519973 0.64519973
0.91886608 0.64519973 0.64519973
0.91886608 0.64519973 0.64519973
0.06256208 0.77551239 0.64519973
0.17798991 0.77551239 0.64519973
0.35407936 0.77551239 0.64519973
0.50611082 0.77551239 0.64519973
0.64519973 0.77551239 0.64519973
0.77551239 0.77551239 0.64519973
0.89924418 0.77551239 0.64519973
0.91886608 0.77551239 0.64519973
0.91886608 0.77551239 0.64519973
0.06256230 0.89924418 0.64519973
0.17798991 0.89924418 0.64519973
0.35407936 0.89924418 0.64519973
0.50611082 0.89924418 0.64519973
0.64519973 0.89924418 0.64519973
0.77551239 0.89924418 0.64519973
0.89924418 0.89924418 0.64519973
0.91886608 0.89924418 0.64519973
0.91886608 0.89924418 0.64519973
0.06256237 0.91886608 0.64519973
0.17798991 0.91886608 0.64519973
0.35407936 0.91886608 0.64519973
0.50611082 0.91886608 0.64519973
0.64519973 0.91886608 0.64519973
0.77551239 0.91886608 0.64519973
0.89924418 0.91886608 0.64519973
0.91886608 0.91886608 0.64519973
0.91886608 0.91886608 0.64519973
0.06256172 0.91886608 0.64519973
0.17798991 0.91886608 0.64519973
0.35407936 0.91886608 0.64519973
0.50611082 0.91886608 0.64519973
0.64519973 0.91886608 0.64519973
0.77551239 0.91886608 0.64519973
0.89924418 0.91886608 0.64519973
0.91886608 0.91886608 0.64519973
0.91886608 0.91886608 0.64519973
0.06256172 0.06256219 0.77551239
0.17798991 0.06256219 0.77551239
0.35407936 0.06256219 0.77551239
0.50611082 0.06256227 0.77551239
0.64519973 0.06256227 0.77551239
0.77551239 0.06256219 0.77551239
0.89924418 0.06256172 0.77551239
0.91886608 0.06256227 0.77551239
0.91886608 0.06256172 0.77551239
0.06256172 0.17798991 0.77551239
0.17798991 0.17798991 0.77551239
0.35407936 0.17798991 0.77551239
0.50611082 0.17798991 0.77551239
0.64519973 0.17798991 0.77551239
0.77551239 0.17798991 0.77551239
0.89924418 0.17798991 0.77551239
0.91886608 0.17798991 0.77551239
0.91886608 0.17798991 0.77551239
0.06256172 0.35407936 0.77551239
0.17798991 0.35407936 0.77551239
0.35407936 0.35407936 0.77551239
0.50611082 0.35407936 0.77551239
0.64519973 0.35407936 0.77551239
0.77551239 0.35407936 0.77551239
0.89924418 0.35407936 0.77551239
0.91886608 0.35407936 0.77551239
0.91886608 0.35407936 0.77551239
0.06256213 0.50611082 0.77551239
0.17798991 0.50611082 0.77551239
0.35407936 0.50611082 0.77551239
0.50611082 0.50611082 0.77551239
0.64519973 0.50611082 0.77551239
0.77551239 0.50611082 0.77551239
0.89924418 0.50611082 0.77551239
0.91886608 0.50611082 0.77551239
0.91886608 0.50611082 0.77551239
0.06256172 0.64519973 0.77551239
0.17798991 0.64519973 0.77551239
0.35407936 0.64519973 0.77551239
0.50611082 0.64519973 0.77551239
0.64519973 0.64519973 0.77551239
0.77551239 0.64519973 0.77551239
0.89924418 0.64519973 0.77551239
0.91886608 0.64519973 0.77551239
0.91886608 0.64519973 0.77551239
0.06256208 0.77551239 0.77551239
0.17798991 0.77551239 0.77551239
0.35407936 0.77551239 0.77551239
0.50611082 0.77551239 0.77551239
0.64519973 0.77551239 0.77551239
0.77551239 0.77551239 0.77551239
0.89924418 0.77551239 0.77551239
0.91886608 0.77551239 0.77551239
0.91886608 0.77551239 0.77551239
0.06256222 0.89924418 0.77551239
0.17798991 0.89924418 0.77551239
0.35407936 0.89924418 0.77551239
0.50611082 0.89924418 0.77551239
0.64519973 0.89924418 0.77551239
0.77551239 0.89924418 0.77551239
0.89924418 0.89924418 0.77551239
0.91886608 0.89924418 0.77551239
0.91886608 0.89924418 0.77551239
0.06256223 0.91886608 0.77551239
0.17798991 0.91886608 0.77551239
0.35407936 0.91886608 0.77551239
0.50611082 0.91886608 0.77551239
0.64519973 0.91886608 0.77551239
0.77551239 0.91886608 0.77551239
0.89924418 0.91886608 0.77551239
0.91886608 0.91886608 0.77551239
0.91886608 0.91886608 0.77551239
0.06256266 0.91886608 0.77551239
0.17798991 0.91886608 0.77551239
0.35407936 0.91886608 0.77551239
0.50611082 0.91886608 0.77551239
0.64519973 0.91886608 0.77551239
0.77551239 0.91886608 0.77551239
0.89924418 0.91886608 0.77551239
0.91886608 0.91886608 0.77551239
0.91886608 0.91886608 0.77551239
0.06256172 0.06256241 0.89924418
0.17798991 0.06256172 0.89924418
0.35407936 0.06256172 0.89924418
0.50611082 0.06256235 0.89924418
0.64519973 0.06256172 0.89924418
0.77551239 0.06256227 0.89924418
0.89924418 0.06256172 0.89924418
0.91886608 0.06256172 0.89924418
0.91886608 0.06256245 0.89924418
0.06256172 0.17798991 0.89924418
0.17798991 0.17798991 0.89924418
0.35407936 0.17798991 0.89924418
0.50611082 0.17798991 0.89924418
0.64519973 0.17798991 0.89924418
0.77551239 0.17798991 0.89924418
0.89924418 0.17798991 0.89924418
0.91886608 0.17798991 0.89924418
0.91886608 0.17798991 0.89924418
0.06256172 0.35407936 0.89924418
0.17798991 0.35407936 0.89924418
0.35407936 0.35407936 0.89924418
0.50611082 0.35407936 0.89924418
0.64519973 0.35407936 0.89924418
0.77551239 0.35407936 0.89924418
0.89924418 0.35407936 0.89924418
0.91886608 0.35407936 0.89924418
0.91886608 0.35407936 0.89924418
0.06256172 0.50611082 0.89924418
0.17798991 0.50611082 0.89924418
0.35407936 0.50611082 0.89924418
0.50611082 0.50611082 0.89924418
0.64519973 0.50611082 0.89924418
0.77551239 0.50611082 0.89924418
0.89924418 0.50611082 0.89924418
0.91886608 0.50611082 0.89924418
0.91886608 0.50611082 0.89924418
0.06256172 0.64519973 0.89924418
0.17798991 0.64519973 0.89924418
0.35407936 0.64519973 0.89924418
0.50611082 0.64519973 0.89924418
0.64519973 0.64519973 0.89924418
0.77551239 0.64519973 0.89924418
0.89924418 0.64519973 0.89924418
0.91886608 0.64519973 0.89924418
0.91886608 0.64519973 0.89924418
0.06256172 0.77551239 0.89924418
0.17798991 0.77551239 0.89924418
0.35407936 0.77551239 0.89924418
0.50611082 0.77551239 0.89924418
0.64519973 0.77551239 0.89924418
0.77551239 0.77551239 0.89924418
0.89924418 0.77551239 0.89924418
0.91886608 0.77551239 0.89924418
0.91886608 0.77551239 0.89924418
0.06256172 0.89924418 0.89924418
0.17798991 0.89924418 0.89924418
0.35407936 0.89924418 0.89924418
0.50611082 0.89924418 0.89924418
0.64519973 0.89924418 0.89924418
0.77551239 0.89924418 0.89924418
0.89924418 0.89924418 0.89924418
0.91886608 0.89924418 0.89924418
0.91886608 0.89924418 0.89924418
0.06256219 0.91886608 0.89924418
0.17798991 0.91886608 0.89924418
0.35407936 0.91886608 0.89924418
0.50611082 0.91886608 0.89924418
0.64519973 0.91886608 0.89924418
0.77551239 0.91886608 0.89924418
0.89924418 0.91886608 0.89924418
0.91886608 0.91886608 0.89924418
0.91886608 0.91886608 0.89924418
0.06256257 0.91886608 0.89924418
0.17798991 0.91886608 0.89924418
0.35407936 0.91886608 0.89924418
0.50611082 0.91886608 0.89924418
0.64519973 0.91886608 0.89924418
0.77551239 0.91886608 0.89924418
0.89924418 0.91886608 0.89924418
0.91886608 0.91886608 0.89924418
0.91886608 0.91886608 0.89924418
0.06256172 0.06256245 0.91886608
0.17798991 0.06256257 0.91886608
0.35407936 0.06256257 0.91886608
0.50611082 0.06256257 0.91886608
0.64519973 0.06256172 0.91886608
0.77551239 0.06256172 0.91886608
0.89924418 0.06256257 0.91886608
0.91886608 0.06256245 0.91886608
0.91886608 0.06256281 0.91886608
0.06256172 0.17798991 0.91886608
0.17798991 0.17798991 0.91886608
0.35407936 0.17798991 0.91886608
0.50611082 0.17798991 0.91886608
0.64519973 0.17798991 0.91886608
0.77551239 0.17798991 0.91886608
0.89924418 0.17798991 0.91886608
0.91886608 0.17798991 0.91886608
0.91886608 0.17798991 0.91886608
0.06256172 0.35407936 0.91886608
0.17798991 0.35407936 0.91886608
0.35407936 0.35407936 0.91886608
0.50611082 0.35407936 0.91886608
0.64519973 0.35407936 0.91886608
0.77551239 0.35407936 0.91886608
0.89924418 0.35407936 0.91886608
0.91886608 0.35407936 0.91886608
0.91886608 0.35407936 0.91886608
0.06256172 0.50611082 0.91886608
0.17798991 0.50611082 0.91886608
0.35407936 0.50611082 0.91886608
0.50611082 0.50611082 0.91886608
0.64519973 0.50611082 0.91886608
0.77551239 0.50611082 0.91886608
0.89924418 0.50611082 0.91886608
0.91886608 0.50611082 0.91886608
0.91886608 0.50611082 0.91886608
0.06256172 0.64519973 0.91886608
0.17798991 0.64519973 0.91886608
0.35407936 0.64519973 0.91886608
0.50611082 0.64519973 0.91886608
0.64519973 0.64519973 0.91886608
0.77551239 0.64519973 0.91886608
0.89924418 0.64519973 0.91886608
0.91886608 0.64519973 0.91886608
0.91886608 0.64519973 0.91886608
0.06256235 0.77551239 0.91886608
0.17798991 0.77551239 0.91886608
0.35407936 0.77551239 0.91886608
0.50611082 0.77551239 0.91886608
0.64519973 0.77551239 0.91886608
0.77551239 0.77551239 0.91886608
0.89924418 0.77551239 0.91886608
0.91886608 0.77551239 0.91886608
0.91886608 0.77551239 0.91886608
0.06256172 0.89924418 0.91886608
0.17798991 0.89924418 0.91886608
0.35407936 0.89924418 0.91886608
0.50611082 0.89924418 0.91886608
0.64519973 0.89924418 0.91886608
0.77551239 0.89924418 0.91886608
0.89924418 0.89924418 0.91886608
0.91886608 0.89924418 0.91886608
0.91886608 0.89924418 0.91886608
0.06256172 0.91886608 0.91886608
0.17798991 0.91886608 0.91886608
0.35407936 0.91886608 0.91886608
0.50611082 0.91886608 0.91886608
0.64519973 0.91886608 0.91886608
0.77551239 0.91886608 0.91886608
0.89924418 0.91886608 0.91886608
0.91886608 0.91886608 0.91886608
0.91886608 0.91886608 0.91886608
0.06256261 0.91886608 0.91886608
0.17798991 0.91886608 0.91886608
0.35407936 0.91886608 0.91886608
0.50611082 0.91886608 0.91886608
0.64519973 0.91886608 0.91886608
0.77551239 0.91886608 0.91886608
0.89924418 0.91886608 0.91886608
0.91886608 0.91886608 0.91886608
0.91886608 0.91886608 0.91886608
0.06256172 0.06256289 0.91886608
0.17798991 0.06256172 0.91886608
0.35407936 0.06256301 0.91886608
0.50611082 0.06256289 0.91886608
0.64519973 0.06256301 0.91886608
0.77551239 0.06256272 0.91886608
0.89924418 0.06256289 0.91886608
0.91886608 0.06256289 0.91886608
0.91886608 0.06256289 0.91886608
0.06256257 0.17798991 0.91886608
0.17798991 0.17798991 0.91886608
0.35407936 0.17798991 0.91886608
0.50611082 0.17798991 0.91886608
0.64519973 0.17798991 0.91886608
0.77551239 0.17798991 0.91886608
0.89924418 0.17798991 0.91886608
0.91886608 0.17798991 0.91886608
0.91886608 0.17798991 0.91886608
0.06256257 0.35407936 0.91886608
0.17798991 0.35407936 0.91886608
0.35407936 0.35407936 0.91886608
0.50611082 0.35407936 0.91886608
0.64519973 0.35407936 0.91886608
0.77551239 0.35407936 0.91886608
0.89924418 0.35407936 0.91886608
0.91886608 0.35407936 0.91886608
0.91886608 0.35407936 0.91886608
0.06256272 0.50611082 0.91886608
0.17798991 0.50611082 0.91886608
0.35407936 0.50611082 0.91886608
0.50611082 0.50611082 0.91886608
0.64519973 0.50611082 0.91886608
0.77551239 0.50611082 0.91886608
0.89924418 0.50611082 0.91886608
0.91886608 0.50611082 0.91886608
0.91886608 0.50611082 0.91886608
0.06256172 0.64519973 0.91886608
0.17798991 0.64519973 0.91886608
0.35407936 0.64519973 0.91886608
0.50611082 0.64519973 0.91886608
0.64519973 0.64519973 0.91886608
0.77551239 0.64519973 0.91886608
0.89924418 0.64519973 0.91886608
0.91886608 0.64519973 0.91886608
0.91886608 0.64519973 0.91886608
0.06256172 0.77551239 0.91886608
0.17798991 0.77551239 0.91886608
0.35407936 0.77551239 0.91886608
0.50611082 0.77551239 0.91886608
0.64519973 0.77551239 0.91886608
0.77551239 0.77551239 0.91886608
0.89924418 0.77551239 0.91886608
0.91886608 0.77551239 0.91886608
0.91886608 0.77551239 0.91886608
0.06256172 0.89924418 0.91886608
0.17798991 0.89924418 0.91886608
0.35407936 0.89924418 0.91886608
0.50611082 0.89924418 0.91886608
0.64519973 0.89924418 0.91886608
0.77551239 0.89924418 0.91886608
0.89924418 0.89924418 0.91886608
0.91886608 0.89924418 0.91886608
0.91886608 0.89924418 0.91886608
0.06256172 0.91886608 0.91886608
0.17798991 0.91886608 0.91886608
0.35407936 0.91886608 0.91886608
0.50611082 0.91886608 0.91886608
0.64519973 0.91886608 0.91886608
0.77551239 0.91886608 0.91886608
0.89924418 0.91886608 0.91886608
0.91886608 0.91886608 0.91886608
0.91886608 0.91886608 0.91886608
0.06256172 0.91886608 0.91886608
0.17798991 0.91886608 0.91886608
0.35407936 0.91886608 0.91886608
0.50611082 0.91886608 0.91886608
0.64519973 0.91886608 0.91886608
0.77551239 0.91886608 0.91886608
0.89924418 0.91886608 0.91886608
0.91886608 0.91886608 0.91886608
0.91886608 0.91886608 0.91886608
