src/ffmpeg_scripts/luts/luminance_-3p00.cube
TITLE "luminance_-3p00"
LUT_3D_SIZE 9
# PQ (EOTF Only)/Rec2020 -> PQ (EOTF Only)/Rec2020, CineEI Shift -3.00, Black Level 0.00% IRE, Input 109% -> Output 109% - Created with LUTCalc v4.01 by Ben Turley October 2020
0.06256172 0.06256172 0.06256172
0.08726722 0.06256175 0.06256172
0.15593102 0.06256172 0.06256172
0.24020710 0.06256172 0.06256172
0.33642376 0.06256187 0.06256172
0.44279985 0.06256188 0.06256172
0.55822764 0.06256192 0.06256172
0.68193325 0.06256172 0.06256172
0.81333722 0.06256209 0.06256208
0.06256177 0.08726722 0.06256172
0.08726722 0.08726722 0.06256172
0.15593102 0.08726722 0.06256172
0.24020710 0.08726722 0.06256172
0.33642376 0.08726722 0.06256172
0.44279985 0.08726722 0.06256172
0.55822764 0.08726722 0.06256172
0.68193325 0.08726722 0.06256200
0.81333722 0.08726722 0.06256172
0.06256172 0.15593102 0.06256172
0.08726722 0.15593102 0.06256172
0.15593102 0.15593102 0.06256172
0.24020710 0.15593102 0.06256172
0.33642376 0.15593102 0.06256172
0.44279985 0.15593102 0.06256172
0.55822764 0.15593102 0.06256172
0.68193325 0.15593102 0.06256172
0.81333722 0.15593102 0.06256172
0.06256183 0.24020710 0.06256182
0.08726722 0.24020710 0.06256172
0.15593102 0.24020710 0.06256172
0.24020710 0.24020710 0.06256184
0.33642376 0.24020710 0.06256172
0.44279985 0.24020710 0.06256172
0.55822764 0.24020710 0.06256172
0.68193325 0.24020710 0.06256200
0.81333722 0.24020710 0.06256172
0.06256172 0.33642376 0.06256172
0.08726722 0.33642376 0.06256172
0.15593102 0.33642376 0.06256172
0.24020710 0.33642376 0.06256172
0.33642376 0.33642376 0.06256172
0.44279985 0.33642376 0.06256172
0.55822764 0.33642376 0.06256172
0.68193325 0.33642376 0.06256172
0.81333722 0.33642376 0.06256172
0.06256184 0.44279985 0.06256172
0.08726722 0.44279985 0.06256172
0.15593102 0.44279985 0.06256172
0.24020710 0.44279985 0.06256172
0.33642376 0.44279985 0.06256189
0.44279985 0.44279985 0.06256172
0.55822764 0.44279985 0.06256172
0.68193325 0.44279985 0.06256172
0.81333722 0.44279985 0.06256172
0.06256195 0.55822764 0.06256172
0.08726722 0.55822764 0.06256172
0.15593102 0.55822764 0.06256172
0.24020710 0.55822764 0.06256172
0.33642376 0.55822764 0.06256172
0.44279985 0.55822764 0.06256194
0.55822764 0.55822764 0.06256172
0.68193325 0.55822764 0.06256200
0.81333722 0.55822764 0.06256208
0.06256208 0.68193325 0.06256172
0.08726722 0.68193325 0.06256172
0.15593102 0.68193325 0.06256172
0.24020710 0.68193325 0.06256172
0.33642376 0.68193325 0.06256172
0.44279985 0.68193325 0.06256172
0.55822764 0.68193325 0.06256172
0.68193325 0.68193325 0.06256172
0.81333722 0.68193325 0.06256172
0.06256213 0.81333722 0.06256172
0.08726722 0.81333722 0.06256172
0.15593102 0.81333722 0.06256172
0.24020710 0.81333722 0.06256172
0.33642376 0.81333722 0.06256172
0.44279985 0.81333722 0.06256172
0.55822764 0.81333722 0.06256172
0.68193325 0.81333722 0.06256172
0.81333722 0.81333722 0.06256172
0.06256172 0.06256179 0.08726722
0.08726722 0.06256178 0.08726722
0.15593102 0.06256172 0.08726722
0.24020710 0.06256172 0.08726722
0.33642376 0.06256187 0.08726722
0.44279985 0.06256172 0.08726722
0.55822764 0.06256189 0.08726722
0.68193325 0.06256195 0.08726722
0.81333722 0.06256204 0.08726722
0.06256177 0.08726722 0.08726722
0.08726722 0.08726722 0.08726722
0.15593102 0.08726722 0.08726722
0.24020710 0.08726722 0.08726722
0.33642376 0.08726722 0.08726722
0.44279985 0.08726722 0.08726722
0.55822764 0.08726722 0.08726722
0.68193325 0.08726722 0.08726722
0.81333722 0.08726722 0.08726722
0.06256180 0.15593102 0.08726722
0.08726722 0.15593102 0.08726722
0.15593102 0.15593102 0.08726722
0.24020710 0.15593102 0.08726722
0.33642376 0.15593102 0.08726722
0.44279985 0.15593102 0.08726722
0.55822764 0.15593102 0.08726722
0.68193325 0.15593102 0.08726722
0.81333722 0.15593102 0.08726722
0.06256183 0.24020710 0.08726722
0.08726722 0.24020710 0.08726722
0.15593102 0.24020710 0.08726722
0.24020710 0.24020710 0.08726722
0.33642376 0.24020710 0.08726722
0.44279985 0.24020710 0.08726722
0.55822764 0.24020710 0.08726722
0.68193325 0.24020710 0.08726722
0.81333722 0.24020710 0.08726722
0.06256187 0.33642376 0.08726722
0.08726722 0.33642376 0.08726722
0.15593102 0.33642376 0.08726722
0.24020710 0.33642376 0.08726722
0.33642376 0.33642376 0.08726722
0.44279985 0.33642376 0.08726722
0.55822764 0.33642376 0.08726722
0.68193325 0.33642376 0.08726722
0.81333722 0.33642376 0.08726722
0.06256190 0.44279985 0.08726722
0.08726722 0.44279985 0.08726722
0.15593102 0.44279985 0.08726722
0.24020710 0.44279985 0.08726722
0.33642376 0.44279985 0.08726722
0.44279985 0.44279985 0.08726722
0.55822764 0.44279985 0.08726722
0.68193325 0.44279985 0.08726722
0.81333722 0.44279985 0.08726722
0.06256196 0.55822764 0.08726722
0.08726722 0.55822764 0.08726722
0.15593102 0.55822764 0.08726722
0.24020710 0.55822764 0.08726722
0.33642376 0.55822764 0.08726722
0.44279985 0.55822764 0.08726722
0.55822764 0.55822764 0.08726722
0.68193325 0.55822764 0.08726722
0.81333722 0.55822764 0.08726722
0.06256205 0.68193325 0.08726722
0.08726722 0.68193325 0.08726722
0.15593102 0.68193325 0.08726722
0.24020710 0.68193325 0.08726722
0.33642376 0.68193325 0.08726722
0.44279985 0.68193325 0.08726722
0.55822764 0.68193325 0.08726722
0.68193325 0.68193325 0.08726722
0.81333722 0.68193325 0.08726722
0.06256212 0.81333722 0.08726722
0.08726722 0.81333722 0.08726722
0.15593102 0.81333722 0.08726722
0.24020710 0.81333722 0.08726722
0.33642376 0.81333722 0.08726722
0.44279985 0.81333722 0.08726722
0.55822764 0.81333722 0.08726722
0.68193325 0.81333722 0.08726722
0.81333722 0.81333722 0.08726722
0.06256172 0.06256172 0.15593102
0.08726722 0.06256172 0.15593102
0.15593102 0.06256181 0.15593102
0.24020710 0.06256172 0.15593102
0.33642376 0.06256185 0.15593102
0.44279985 0.06256188 0.15593102
0.55822764 0.06256189 0.15593102
0.68193325 0.06256172 0.15593102
0.81333722 0.06256209 0.15593102
0.06256172 0.08726722 0.15593102
0.08726722 0.08726722 0.15593102
0.15593102 0.08726722 0.15593102
0.24020710 0.08726722 0.15593102
0.33642376 0.08726722 0.15593102
0.44279985 0.08726722 0.15593102
0.55822764 0.08726722 0.15593102
0.68193325 0.08726722 0.15593102
0.81333722 0.08726722 0.15593102
0.06256172 0.15593102 0.15593102
0.08726722 0.15593102 0.15593102
0.15593102 0.15593102 0.15593102
0.24020710 0.15593102 0.15593102
0.33642376 0.15593102 0.15593102
0.44279985 0.15593102 0.15593102
0.55822764 0.15593102 0.15593102
0.68193325 0.15593102 0.15593102
0.81333722 0.15593102 0.15593102
0.06256184 0.24020710 0.15593102
0.08726722 0.24020710 0.15593102
0.15593102 0.24020710 0.15593102
0.24020710 0.24020710 0.15593102
0.33642376 0.24020710 0.15593102
0.44279985 0.24020710 0.15593102
0.55822764 0.24020710 0.15593102
0.68193325 0.24020710 0.15593102
0.81333722 0.24020710 0.15593102
0.06256186 0.33642376 0.15593102
0.08726722 0.33642376 0.15593102
0.15593102 0.33642376 0.15593102
0.24020710 0.33642376 0.15593102
0.33642376 0.33642376 0.15593102
0.44279985 0.33642376 0.15593102
0.55822764 0.33642376 0.15593102
0.68193325 0.33642376 0.15593102
0.81333722 0.33642376 0.15593102
0.06256192 0.44279985 0.15593102
0.08726722 0.44279985 0.15593102
0.15593102 0.44279985 0.15593102
0.24020710 0.44279985 0.15593102
0.33642376 0.44279985 0.15593102
0.44279985 0.44279985 0.15593102
0.55822764 0.44279985 0.15593102
0.68193325 0.44279985 0.15593102
0.81333722 0.44279985 0.15593102
0.06256195 0.55822764 0.15593102
0.08726722 0.55822764 0.15593102
0.15593102 0.55822764 0.15593102
0.24020710 0.55822764 0.15593102
0.33642376 0.55822764 0.15593102
0.44279985 0.55822764 0.15593102
0.55822764 0.55822764 0.15593102
0.68193325 0.55822764 0.15593102
0.81333722 0.55822764 0.15593102
0.06256209 0.68193325 0.15593102
0.08726722 0.68193325 0.15593102
0.15593102 0.68193325 0.15593102
0.24020710 0.68193325 0.15593102
0.33642376 0.68193325 0.15593102
0.44279985 0.68193325 0.15593102
0.55822764 0.68193325 0.15593102
0.68193325 0.68193325 0.15593102
0.81333722 0.68193325 0.15593102
0.06256212 0.81333722 0.15593102
0.08726722 0.81333722 0.15593102
0.15593102 0.81333722 0.15593102
0.24020710 0.81333722 0.15593102
0.33642376 0.81333722 0.15593102
0.44279985 0.81333722 0.15593102
0.55822764 0.81333722 0.15593102
0.68193325 0.81333722 0.15593102
0.81333722 0.81333722 0.15593102
0.06256172 0.06256185 0.24020710
0.08726722 0.06256172 0.24020710
0.15593102 0.06256172 0.24020710
0.24020710 0.06256187 0.24020710
0.33642376 0.06256172 0.24020710
0.44279985 0.06256191 0.24020710
0.55822764 0.06256189 0.24020710
0.68193325 0.06256172 0.24020710
0.81333722 0.06256207 0.24020710
0.06256172 0.08726722 0.24020710
0.08726722 0.08726722 0.24020710
0.15593102 0.08726722 0.24020710
0.24020710 0.08726722 0.24020710
0.33642376 0.08726722 0.24020710
0.44279985 0.08726722 0.24020710
0.55822764 0.08726722 0.24020710
0.68193325 0.08726722 0.24020710
0.81333722 0.08726722 0.24020710
0.06256172 0.15593102 0.24020710
0.08726722 0.15593102 0.24020710
0.15593102 0.15593102 0.24020710
0.24020710 0.15593102 0.24020710
0.33642376 0.15593102 0.24020710
0.44279985 0.15593102 0.24020710
0.55822764 0.15593102 0.24020710
0.68193325 0.15593102 0.24020710
0.81333722 0.15593102 0.24020710
0.06256184 0.24020710 0.24020710
0.08726722 0.24020710 0.24020710
0.15593102 0.24020710 0.24020710
0.24020710 0.24020710 0.24020710
0.33642376 0.24020710 0.24020710
0.44279985 0.24020710 0.24020710
0.55822764 0.24020710 0.24020710
0.68193325 0.24020710 0.24020710
0.81333722 0.24020710 0.24020710
0.06256186 0.33642376 0.24020710
0.08726722 0.33642376 0.24020710
0.15593102 0.33642376 0.24020710
0.24020710 0.33642376 0.24020710
0.33642376 0.33642376 0.24020710
0.44279985 0.33642376 0.24020710
0.55822764 0.33642376 0.24020710
0.68193325 0.33642376 0.24020710
0.81333722 0.33642376 0.24020710
0.06256189 0.44279985 0.24020710
0.08726722 0.44279985 0.24020710
0.15593102 0.44279985 0.24020710
0.24020710 0.44279985 0.24020710
0.33642376 0.44279985 0.24020710
0.44279985 0.44279985 0.24020710
0.55822764 0.44279985 0.24020710
0.68193325 0.44279985 0.24020710
0.81333722 0.44279985 0.24020710
0.06256195 0.55822764 0.24020710
0.08726722 0.55822764 0.24020710
0.15593102 0.55822764 0.24020710
0.24020710 0.55822764 0.24020710
0.33642376 0.55822764 0.24020710
0.44279985 0.55822764 0.24020710
0.55822764 0.55822764 0.24020710
0.68193325 0.55822764 0.24020710
0.81333722 0.55822764 0.24020710
0.06256206 0.68193325 0.24020710
0.08726722 0.68193325 0.24020710
0.15593102 0.68193325 0.24020710
0.24020710 0.68193325 0.24020710
0.33642376 0.68193325 0.24020710
0.44279985 0.68193325 0.24020710
0.55822764 0.68193325 0.24020710
0.68193325 0.68193325 0.24020710
0.81333722 0.68193325 0.24020710
0.06256212 0.81333722 0.24020710
0.08726722 0.81333722 0.24020710
0.15593102 0.81333722 0.24020710
0.24020710 0.81333722 0.24020710
0.33642376 0.81333722 0.24020710
0.44279985 0.81333722 0.24020710
0.55822764 0.81333722 0.24020710
0.68193325 0.81333722 0.24020710
0.81333722 0.81333722 0.24020710
0.06256172 0.06256172 0.33642376
0.08726722 0.06256189 0.33642376
0.15593102 0.06256189 0.33642376
0.24020710 0.06256172 0.33642376
0.33642376 0.06256191 0.33642376
0.44279985 0.06256172 0.33642376
0.55822764 0.06256194 0.33642376
0.68193325 0.06256198 0.33642376
0.81333722 0.06256213 0.33642376
0.06256172 0.08726722 0.33642376
0.08726722 0.08726722 0.33642376
0.15593102 0.08726722 0.33642376
0.24020710 0.08726722 0.33642376
0.33642376 0.08726722 0.33642376
0.44279985 0.08726722 0.33642376
0.55822764 0.08726722 0.33642376
0.68193325 0.08726722 0.33642376
0.81333722 0.08726722 0.33642376
0.06256172 0.15593102 0.33642376
0.08726722 0.15593102 0.33642376
0.15593102 0.15593102 0.33642376
0.24020710 0.15593102 0.33642376
0.33642376 0.15593102 0.33642376
0.44279985 0.15593102 0.33642376
0.55822764 0.15593102 0.33642376
0.68193325 0.15593102 0.33642376
0.81333722 0.15593102 0.33642376
0.06256172 0.24020710 0.33642376
0.08726722 0.24020710 0.33642376
0.15593102 0.24020710 0.33642376
0.24020710 0.24020710 0.33642376
0.33642376 0.24020710 0.33642376
0.44279985 0.24020710 0.33642376
0.55822764 0.24020710 0.33642376
0.68193325 0.24020710 0.33642376
0.81333722 0.24020710 0.33642376
0.06256172 0.33642376 0.33642376
0.08726722 0.33642376 0.33642376
0.15593102 0.33642376 0.33642376
0.24020710 0.33642376 0.33642376
0.33642376 0.33642376 0.33642376
0.44279985 0.33642376 0.33642376
0.55822764 0.33642376 0.33642376
0.68193325 0.33642376 0.33642376
0.81333722 0.33642376 0.33642376
0.06256192 0.44279985 0.33642376
0.08726722 0.44279985 0.33642376
0.15593102 0.44279985 0.33642376
0.24020710 0.44279985 0.33642376
0.33642376 0.44279985 0.33642376
0.44279985 0.44279985 0.33642376
0.55822764 0.44279985 0.33642376
0.68193325 0.44279985 0.33642376
0.81333722 0.44279985 0.33642376
0.06256201 0.55822764 0.33642376
0.08726722 0.55822764 0.33642376
0.15593102 0.55822764 0.33642376
0.24020710 0.55822764 0.33642376
0.33642376 0.55822764 0.33642376
0.44279985 0.55822764 0.33642376
0.55822764 0.55822764 0.33642376
0.68193325 0.55822764 0.33642376
0.81333722 0.55822764 0.33642376
0.06256207 0.68193325 0.33642376
0.08726722 0.68193325 0.33642376
0.15593102 0.68193325 0.33642376
0.24020710 0.68193325 0.33642376
0.33642376 0.68193325 0.33642376
0.44279985 0.68193325 0.33642376
0.55822764 0.68193325 0.33642376
0.68193325 0.68193325 0.33642376
0.81333722 0.68193325 0.33642376
0.06256213 0.81333722 0.33642376
0.08726722 0.81333722 0.33642376
0.15593102 0.81333722 0.33642376
0.24020710 0.81333722 0.33642376
0.33642376 0.81333722 0.33642376
0.44279985 0.81333722 0.33642376
0.55822764 0.81333722 0.33642376
0.68193325 0.81333722 0.33642376
0.81333722 0.81333722 0.33642376
0.06256172 0.06256194 0.44279985
0.08726722 0.06256194 0.44279985
0.15593102 0.06256197 0.44279985
0.24020710 0.06256194 0.44279985
0.33642376 0.06256197 0.44279985
0.44279985 0.06256198 0.44279985
0.55822764 0.06256172 0.44279985
0.68193325 0.06256197 0.44279985
0.81333722 0.06256172 0.44279985
0.06256172 0.08726722 0.44279985
0.08726722 0.08726722 0.44279985
0.15593102 0.08726722 0.44279985
0.24020710 0.08726722 0.44279985
0.33642376 0.08726722 0.44279985
0.44279985 0.08726722 0.44279985
0.55822764 0.08726722 0.44279985
0.68193325 0.08726722 0.44279985
0.81333722 0.08726722 0.44279985
0.06256191 0.15593102 0.44279985
0.08726722 0.15593102 0.44279985
0.15593102 0.15593102 0.44279985
0.24020710 0.15593102 0.44279985
0.33642376 0.15593102 0.44279985
0.44279985 0.15593102 0.44279985
0.55822764 0.15593102 0.44279985
0.68193325 0.15593102 0.44279985
0.81333722 0.15593102 0.44279985
0.06256172 0.24020710 0.44279985
0.08726722 0.24020710 0.44279985
0.15593102 0.24020710 0.44279985
0.24020710 0.24020710 0.44279985
0.33642376 0.24020710 0.44279985
0.44279985 0.24020710 0.44279985
0.55822764 0.24020710 0.44279985
0.68193325 0.24020710 0.44279985
0.81333722 0.24020710 0.44279985
0.06256172 0.33642376 0.44279985
0.08726722 0.33642376 0.44279985
0.15593102 0.33642376 0.44279985
0.24020710 0.33642376 0.44279985
0.33642376 0.33642376 0.44279985
0.44279985 0.33642376 0.44279985
0.55822764 0.33642376 0.44279985
0.68193325 0.33642376 0.44279985
0.81333722 0.33642376 0.44279985
0.06256191 0.44279985 0.44279985
0.08726722 0.44279985 0.44279985
0.15593102 0.44279985 0.44279985
0.24020710 0.44279985 0.44279985
0.33642376 0.44279985 0.44279985
0.44279985 0.44279985 0.44279985
0.55822764 0.44279985 0.44279985
0.68193325 0.44279985 0.44279985
0.81333722 0.44279985 0.44279985
0.06256198 0.55822764 0.44279985
0.08726722 0.55822764 0.44279985
0.15593102 0.55822764 0.44279985
0.24020710 0.55822764 0.44279985
0.33642376 0.55822764 0.44279985
0.44279985 0.55822764 0.44279985
0.55822764 0.55822764 0.44279985
0.68193325 0.55822764 0.44279985
0.81333722 0.55822764 0.44279985
0.06256206 0.68193325 0.44279985
0.08726722 0.68193325 0.44279985
0.15593102 0.68193325 0.44279985
0.24020710 0.68193325 0.44279985
0.33642376 0.68193325 0.44279985
0.44279985 0.68193325 0.44279985
0.55822764 0.68193325 0.44279985
0.68193325 0.68193325 0.44279985
0.81333722 0.68193325 0.44279985
0.06256220 0.81333722 0.44279985
0.08726722 0.81333722 0.44279985
0.15593102 0.81333722 0.44279985
0.24020710 0.81333722 0.44279985
0.33642376 0.81333722 0.44279985
0.44279985 0.81333722 0.44279985
0.55822764 0.81333722 0.44279985
0.68193325 0.81333722 0.44279985
0.81333722 0.81333722 0.44279985
0.06256172 0.06256172 0.55822764
0.08726722 0.06256172 0.55822764
0.15593102 0.06256172 0.55822764
0.24020710 0.06256200 0.55822764
0.33642376 0.06256172 0.55822764
0.44279985 0.06256172 0.55822764
0.55822764 0.06256172 0.55822764
0.68193325 0.06256172 0.55822764
0.81333722 0.06256172 0.55822764
0.06256172 0.08726722 0.55822764
0.08726722 0.08726722 0.55822764
0.15593102 0.08726722 0.55822764
0.24020710 0.08726722 0.55822764
0.33642376 0.08726722 0.55822764
0.44279985 0.08726722 0.55822764
0.55822764 0.08726722 0.55822764
0.68193325 0.08726722 0.55822764
0.81333722 0.08726722 0.55822764
0.06256172 0.15593102 0.55822764
0.08726722 0.15593102 0.55822764
0.15593102 0.15593102 0.55822764
0.24020710 0.15593102 0.55822764
0.33642376 0.15593102 0.55822764
0.44279985 0.15593102 0.55822764
0.55822764 0.15593102 0.55822764
0.68193325 0.15593102 0.55822764
0.81333722 0.15593102 0.55822764
0.06256172 0.24020710 0.55822764
0.08726722 0.24020710 0.55822764
0.15593102 0.24020710 0.55822764
0.24020710 0.24020710 0.55822764
0.33642376 0.24020710 0.55822764
0.44279985 0.24020710 0.55822764
0.55822764 0.24020710 0.55822764
0.68193325 0.24020710 0.55822764
0.81333722 0.24020710 0.55822764
0.06256172 0.33642376 0.55822764
0.08726722 0.33642376 0.55822764
0.15593102 0.33642376 0.55822764
0.24020710 0.33642376 0.55822764
0.33642376 0.33642376 0.55822764
0.44279985 0.33642376 0.55822764
0.55822764 0.33642376 0.55822764
0.68193325 0.33642376 0.55822764
0.81333722 0.33642376 0.55822764
0.06256172 0.44279985 0.55822764
0.08726722 0.44279985 0.55822764
0.15593102 0.44279985 0.55822764
0.24020710 0.44279985 0.55822764
0.33642376 0.44279985 0.55822764
0.44279985 0.44279985 0.55822764
0.55822764 0.44279985 0.55822764
0.68193325 0.44279985 0.55822764
0.81333722 0.44279985 0.55822764
0.06256172 0.55822764 0.55822764
0.08726722 0.55822764 0.55822764
0.15593102 0.55822764 0.55822764
0.24020710 0.55822764 0.55822764
0.33642376 0.55822764 0.55822764
0.44279985 0.55822764 0.55822764
0.55822764 0.55822764 0.55822764
0.68193325 0.55822764 0.55822764
0.81333722 0.55822764 0.55822764
0.06256204 0.68193325 0.55822764
0.08726722 0.68193325 0.55822764
0.15593102 0.68193325 0.55822764
0.24020710 0.68193325 0.55822764
0.33642376 0.68193325 0.55822764
0.44279985 0.68193325 0.55822764
0.55822764 0.68193325 0.55822764
0.68193325 0.68193325 0.55822764
0.81333722 0.68193325 0.55822764
0.06256215 0.81333722 0.55822764
0.08726722 0.81333722 0.55822764
0.15593102 0.81333722 0.55822764
0.24020710 0.81333722 0.55822764
0.33642376 0.81333722 0.55822764
0.44279985 0.81333722 0.55822764
0.55822764 0.81333722 0.55822764
0.68193325 0.81333722 0.55822764
0.81333722 0.81333722 0.55822764
0.06256172 0.06256213 0.68193325
0.08726722 0.06256208 0.68193325
0.15593102 0.06256208 0.68193325
0.24020710 0.06256213 0.68193325
0.33642376 0.06256172 0.68193325
0.44279985 0.06256172 0.68193325
0.55822764 0.06256208 0.68193325
0.68193325 0.06256213 0.68193325
0.81333722 0.06256213 0.68193325
0.06256172 0.08726722 0.68193325
0.08726722 0.08726722 0.68193325
0.15593102 0.08726722 0.68193325
0.24020710 0.08726722 0.68193325
0.33642376 0.08726722 0.68193325
0.44279985 0.08726722 0.68193325
0.55822764 0.08726722 0.68193325
0.68193325 0.08726722 0.68193325
0.81333722 0.08726722 0.68193325
0.06256172 0.15593102 0.68193325
0.08726722 0.15593102 0.68193325
0.15593102 0.15593102 0.68193325
0.24020710 0.15593102 0.68193325
0.33642376 0.15593102 0.68193325
0.44279985 0.15593102 0.68193325
0.55822764 0.15593102 0.68193325
0.68193325 0.15593102 0.68193325
0.81333722 0.15593102 0.68193325
0.06256172 0.24020710 0.68193325
0.08726722 0.24020710 0.68193325
0.15593102 0.24020710 0.68193325
0.24020710 0.24020710 0.68193325
0.33642376 0.24020710 0.68193325
0.44279985 0.24020710 0.68193325
0.55822764 0.24020710 0.68193325
0.68193325 0.24020710 0.68193325
0.81333722 0.24020710 0.68193325
0.06256172 0.33642376 0.68193325
0.08726722 0.33642376 0.68193325
0.15593102 0.33642376 0.68193325
0.24020710 0.33642376 0.68193325
0.33642376 0.33642376 0.68193325
0.44279985 0.33642376 0.68193325
0.55822764 0.33642376 0.68193325
0.68193325 0.33642376 0.68193325
0.81333722 0.33642376 0.68193325
0.06256172 0.44279985 0.68193325
0.08726722 0.44279985 0.68193325
0.15593102 0.44279985 0.68193325
0.24020710 0.44279985 0.68193325
0.33642376 0.44279985 0.68193325
0.44279985 0.44279985 0.68193325
0.55822764 0.44279985 0.68193325
0.68193325 0.44279985 0.68193325
0.81333722 0.44279985 0.68193325
0.06256172 0.55822764 0.68193325
0.08726722 0.55822764 0.68193325
0.15593102 0.55822764 0.68193325
0.24020710 0.55822764 0.68193325
0.33642376 0.55822764 0.68193325
0.44279985 0.55822764 0.68193325
0.55822764 0.55822764 0.68193325
0.68193325 0.55822764 0.68193325
0.81333722 0.55822764 0.68193325
0.06256172 0.68193325 0.68193325
0.08726722 0.68193325 0.68193325
0.15593102 0.68193325 0.68193325
0.24020710 0.68193325 0.68193325
0.33642376 0.68193325 0.68193325
0.44279985 0.68193325 0.68193325
0.55822764 0.68193325 0.68193325
0.68193325 0.68193325 0.68193325
0.81333722 0.68193325 0.68193325
0.06256221 0.81333722 0.68193325
0.08726722 0.81333722 0.68193325
0.15593102 0.81333722 0.68193325
0.24020710 0.81333722 0.68193325
0.33642376 0.81333722 0.68193325
0.44279985 0.81333722 0.68193325
0.55822764 0.81333722 0.68193325
0.68193325 0.81333722 0.68193325
0.81333722 0.81333722 0.68193325
0.06256172 0.06256172 0.81333722
0.08726722 0.06256172 0.81333722
0.15593102 0.06256227 0.81333722
0.24020710 0.06256219 0.81333722
0.33642376 0.06256219 0.81333722
0.44279985 0.06256219 0.81333722
0.55822764 0.06256219 0.81333722
0.68193325 0.06256219 0.81333722
0.81333722 0.06256219 0.81333722
0.06256172 0.08726722 0.81333722
0.08726722 0.08726722 0.81333722
0.15593102 0.08726722 0.81333722
0.24020710 0.08726722 0.81333722
0.33642376 0.08726722 0.81333722
0.44279985 0.08726722 0.81333722
0.55822764 0.08726722 0.81333722
0.68193325 0.08726722 0.81333722
0.81333722 0.08726722 0.81333722
0.06256172 0.15593102 0.81333722
0.08726722 0.15593102 0.81333722
0.15593102 0.15593102 0.81333722
0.24020710 0.15593102 0.81333722
0.33642376 0.15593102 0.81333722
0.44279985 0.15593102 0.81333722
0.55822764 0.15593102 0.81333722
0.68193325 0.15593102 0.81333722
0.81333722 0.15593102 0.81333722
0.06256213 0.24020710 0.81333722
0.08726722 0.24020710 0.81333722
0.15593102 0.24020710 0.81333722
0.24020710 0.24020710 0.81333722
0.33642376 0.24020710 0.81333722
0.44279985 0.24020710 0.81333722
0.55822764 0.24020710 0.81333722
0.68193325 0.24020710 0.81333722
0.81333722 0.24020710 0.81333722
0.06256172 0.33642376 0.81333722
0.08726722 0.33642376 0.81333722
0.15593102 0.33642376 0.81333722
0.24020710 0.33642376 0.81333722
0.33642376 0.33642376 0.81333722
0.44279985 0.33642376 0.81333722
0.55822764 0.33642376 0.81333722
0.68193325 0.33642376 0.81333722
0.81333722 0.33642376 0.81333722
0.06256172 0.44279985 0.81333722
0.08726722 0.44279985 0.81333722
0.15593102 0.44279985 0.81333722
0.24020710 0.44279985 0.81333722
0.33642376 0.44279985 0.81333722
0.44279985 0.44279985 0.81333722
0.55822764 0.44279985 0.81333722
0.68193325 0.44279985 0.81333722
0.81333722 0.44279985 0.81333722
0.06256172 0.55822764 0.81333722
0.08726722 0.55822764 0.81333722
0.15593102 0.55822764 0.81333722
0.24020710 0.55822764 0.81333722
0.33642376 0.55822764 0.81333722
0.44279985 0.55822764 0.81333722
0.55822764 0.55822764 0.81333722
0.68193325 0.55822764 0.81333722
0.81333722 0.55822764 0.81333722
0.06256172 0.68193325 0.81333722
0.08726722 0.68193325 0.81333722
0.15593102 0.68193325 0.81333722
0.24020710 0.68193325 0.81333722
0.33642376 0.68193325 0.81333722
0.44279985 0.68193325 0.81333722
0.55822764 0.68193325 0.81333722
0.68193325 0.68193325 0.81333722
0.81333722 0.68193325 0.81333722
0.06256213 0.81333722 0.81333722
0.08726722 0.81333722 0.81333722
0.15593102 0.81333722 0.81333722
0.24020710 0.81333722 0.81333722
0.33642376 0.81333722 0.81333722
0.44279985 0.81333722 0.81333722
0.55822764 0.81333722 0.81333722
0.68193325 0.81333722 0.81333722
0.81333722 0.81333722 0.81333722
