src/ffmpeg_scripts/luts/luminance-unclipped_-0p33.cube
TITLE "luminance-unclipped_-0p33"
LUT_3D_SIZE 9
# PQ (EOTF Only)/Rec2020 -> PQ (EOTF Only)/Rec2020, CineEI Shift -0.33, Black Level -7.25% IRE, Input 109% -> Output 109% - Created with LUTCalc v4.01 by Ben Turley October 2020
0.00047898 0.00047898 0.00047898
0.06624797 0.00047905 0.00047898
0.20300363 0.00047898 0.00047898
0.34280599 0.00047898 0.00047914
0.48454478 0.00047916 0.00047920
0.62774096 0.00047898 0.00047898
0.77211855 0.00047898 0.00047898
0.91749583 0.00047945 0.00047898
0.91886608 0.00047946 0.00047953
0.00047906 0.06624797 0.00047898
0.06624797 0.06624797 0.00047898
0.20300363 0.06624797 0.00047898
0.34280599 0.06624797 0.00047898
0.48454478 0.06624797 0.00047898
0.62774096 0.06624797 0.00047898
0.77211855 0.06624797 0.00047898
0.91749583 0.06624797 0.00047940
0.91886608 0.06624797 0.00047898
0.00047911 0.20300363 0.00047898
0.06624797 0.20300363 0.00047898
0.20300363 0.20300363 0.00047898
0.34280599 0.20300363 0.00047898
0.48454478 0.20300363 0.00047918
0.62774096 0.20300363 0.00047898
0.77211855 0.20300363 0.00047898
0.91749583 0.20300363 0.00047898
0.91886608 0.20300363 0.00047898
0.00047917 0.34280599 0.00047914
0.06624797 0.34280599 0.00047898
0.20300363 0.34280599 0.00047898
0.34280599 0.34280599 0.00047916
0.48454478 0.34280599 0.00047920
0.62774096 0.34280599 0.00047898
0.77211855 0.34280599 0.00047898
0.91749583 0.34280599 0.00047940
0.91886608 0.34280599 0.00047898
0.00047898 0.48454478 0.00047898
0.06624797 0.48454478 0.00047898
0.20300363 0.48454478 0.00047898
0.34280599 0.48454478 0.00047898
0.48454478 0.48454478 0.00047898
0.62774096 0.48454478 0.00047898
0.77211855 0.48454478 0.00047898
0.91749583 0.48454478 0.00047898
0.91886608 0.48454478 0.00047898
0.00047924 0.62774096 0.00047927
0.06624797 0.62774096 0.00047898
0.20300363 0.62774096 0.00047927
0.34280599 0.62774096 0.00047898
0.48454478 0.62774096 0.00047927
0.62774096 0.62774096 0.00047898
0.77211855 0.62774096 0.00047898
0.91749583 0.62774096 0.00047898
0.91886608 0.62774096 0.00047898
0.00047898 0.77211855 0.00047898
0.06624797 0.77211855 0.00047898
0.20300363 0.77211855 0.00047898
0.34280599 0.77211855 0.00047935
0.48454478 0.77211855 0.00047898
0.62774096 0.77211855 0.00047935
0.77211855 0.77211855 0.00047898
0.91749583 0.77211855 0.00047898
0.91886608 0.77211855 0.00047953
0.00047943 0.91749583 0.00047898
0.06624797 0.91749583 0.00047898
0.20300363 0.91749583 0.00047898
0.34280599 0.91749583 0.00047898
0.48454478 0.91749583 0.00047898
0.62774096 0.91749583 0.00047898
0.77211855 0.91749583 0.00047898
0.91749583 0.91749583 0.00047898
0.91886608 0.91749583 0.00047898
0.00047963 0.91886608 0.00047961
0.06624797 0.91886608 0.00047961
0.20300363 0.91886608 0.00047898
0.34280599 0.91886608 0.00047898
0.48454478 0.91886608 0.00047898
0.62774096 0.91886608 0.00047898
0.77211855 0.91886608 0.00047898
0.91749583 0.91886608 0.00047961
0.91886608 0.91886608 0.00047898
0.00047898 0.00047908 0.06624797
0.06624797 0.00047907 0.06624797
0.20300363 0.00047898 0.06624797
0.34280599 0.00047898 0.06624797
0.48454478 0.00047919 0.06624797
0.62774096 0.00047898 0.06624797
0.77211855 0.00047898 0.06624797
0.91749583 0.00047945 0.06624797
0.91886608 0.00047950 0.06624797
0.00047907 0.06624797 0.06624797
0.06624797 0.06624797 0.06624797
0.20300363 0.06624797 0.06624797
0.34280599 0.06624797 0.06624797
0.48454478 0.06624797 0.06624797
0.62774096 0.06624797 0.06624797
0.77211855 0.06624797 0.06624797
0.91749583 0.06624797 0.06624797
0.91886608 0.06624797 0.06624797
0.00047911 0.20300363 0.06624797
0.06624797 0.20300363 0.06624797
0.20300363 0.20300363 0.06624797
0.34280599 0.20300363 0.06624797
0.48454478 0.20300363 0.06624797
0.62774096 0.20300363 0.06624797
0.77211855 0.20300363 0.06624797
0.91749583 0.20300363 0.06624797
0.91886608 0.20300363 0.06624797
0.00047913 0.34280599 0.06624797
0.06624797 0.34280599 0.06624797
0.20300363 0.34280599 0.06624797
0.34280599 0.34280599 0.06624797
0.48454478 0.34280599 0.06624797
0.62774096 0.34280599 0.06624797
0.77211855 0.34280599 0.06624797
0.91749583 0.34280599 0.06624797
0.91886608 0.34280599 0.06624797
0.00047898 0.48454478 0.06624797
0.06624797 0.48454478 0.06624797
0.20300363 0.48454478 0.06624797
0.34280599 0.48454478 0.06624797
0.48454478 0.48454478 0.06624797
0.62774096 0.48454478 0.06624797
0.77211855 0.48454478 0.06624797
0.91749583 0.48454478 0.06624797
0.91886608 0.48454478 0.06624797
0.00047931 0.62774096 0.06624797
0.06624797 0.62774096 0.06624797
0.20300363 0.62774096 0.06624797
0.34280599 0.62774096 0.06624797
0.48454478 0.62774096 0.06624797
0.62774096 0.62774096 0.06624797
0.77211855 0.62774096 0.06624797
0.91749583 0.62774096 0.06624797
0.91886608 0.62774096 0.06624797
0.00047898 0.77211855 0.06624797
0.06624797 0.77211855 0.06624797
0.20300363 0.77211855 0.06624797
0.34280599 0.77211855 0.06624797
0.48454478 0.77211855 0.06624797
0.62774096 0.77211855 0.06624797
0.77211855 0.77211855 0.06624797
0.91749583 0.77211855 0.06624797
0.91886608 0.77211855 0.06624797
0.00047946 0.91749583 0.06624797
0.06624797 0.91749583 0.06624797
0.20300363 0.91749583 0.06624797
0.34280599 0.91749583 0.06624797
0.48454478 0.91749583 0.06624797
0.62774096 0.91749583 0.06624797
0.77211855 0.91749583 0.06624797
0.91749583 0.91749583 0.06624797
0.91886608 0.91749583 0.06624797
0.00047944 0.91886608 0.06624797
0.06624797 0.91886608 0.06624797
0.20300363 0.91886608 0.06624797
0.34280599 0.91886608 0.06624797
0.48454478 0.91886608 0.06624797
0.62774096 0.91886608 0.06624797
0.77211855 0.91886608 0.06624797
0.91749583 0.91886608 0.06624797
0.91886608 0.91886608 0.06624797
0.00047898 0.00047914 0.20300363
0.06624797 0.00047914 0.20300363
0.20300363 0.00047914 0.20300363
0.34280599 0.00047898 0.20300363
0.48454478 0.00047920 0.20300363
0.62774096 0.00047928 0.20300363
0.77211855 0.00047898 0.20300363
0.91749583 0.00047947 0.20300363
0.91886608 0.00047950 0.20300363
0.00047898 0.06624797 0.20300363
0.06624797 0.06624797 0.20300363
0.20300363 0.06624797 0.20300363
0.34280599 0.06624797 0.20300363
0.48454478 0.06624797 0.20300363
0.62774096 0.06624797 0.20300363
0.77211855 0.06624797 0.20300363
0.91749583 0.06624797 0.20300363
0.91886608 0.06624797 0.20300363
0.00047898 0.20300363 0.20300363
0.06624797 0.20300363 0.20300363
0.20300363 0.20300363 0.20300363
0.34280599 0.20300363 0.20300363
0.48454478 0.20300363 0.20300363
0.62774096 0.20300363 0.20300363
0.77211855 0.20300363 0.20300363
0.91749583 0.20300363 0.20300363
0.91886608 0.20300363 0.20300363
0.00047898 0.34280599 0.20300363
0.06624797 0.34280599 0.20300363
0.20300363 0.34280599 0.20300363
0.34280599 0.34280599 0.20300363
0.48454478 0.34280599 0.20300363
0.62774096 0.34280599 0.20300363
0.77211855 0.34280599 0.20300363
0.91749583 0.34280599 0.20300363
0.91886608 0.34280599 0.20300363
0.00047924 0.48454478 0.20300363
0.06624797 0.48454478 0.20300363
0.20300363 0.48454478 0.20300363
0.34280599 0.48454478 0.20300363
0.48454478 0.48454478 0.20300363
0.62774096 0.48454478 0.20300363
0.77211855 0.48454478 0.20300363
0.91749583 0.48454478 0.20300363
0.91886608 0.48454478 0.20300363
0.00047931 0.62774096 0.20300363
0.06624797 0.62774096 0.20300363
0.20300363 0.62774096 0.20300363
0.34280599 0.62774096 0.20300363
0.48454478 0.62774096 0.20300363
0.62774096 0.62774096 0.20300363
0.77211855 0.62774096 0.20300363
0.91749583 0.62774096 0.20300363
0.91886608 0.62774096 0.20300363
0.00047946 0.77211855 0.20300363
0.06624797 0.77211855 0.20300363
0.20300363 0.77211855 0.20300363
0.34280599 0.77211855 0.20300363
0.48454478 0.77211855 0.20300363
0.62774096 0.77211855 0.20300363
0.77211855 0.77211855 0.20300363
0.91749583 0.77211855 0.20300363
0.91886608 0.77211855 0.20300363
0.00047927 0.91749583 0.20300363
0.06624797 0.91749583 0.20300363
0.20300363 0.91749583 0.20300363
0.34280599 0.91749583 0.20300363
0.48454478 0.91749583 0.20300363
0.62774096 0.91749583 0.20300363
0.77211855 0.91749583 0.20300363
0.91749583 0.91749583 0.20300363
0.91886608 0.91749583 0.20300363
0.00047898 0.91886608 0.20300363
0.06624797 0.91886608 0.20300363
0.20300363 0.91886608 0.20300363
0.34280599 0.91886608 0.20300363
0.48454478 0.91886608 0.20300363
0.62774096 0.91886608 0.20300363
0.77211855 0.91886608 0.20300363
0.91749583 0.91886608 0.20300363
0.91886608 0.91886608 0.20300363
0.00047898 0.00047920 0.34280599
0.06624797 0.00047920 0.34280599
0.20300363 0.00047920 0.34280599
0.34280599 0.00047898 0.34280599
0.48454478 0.00047898 0.34280599
0.62774096 0.00047927 0.34280599
0.77211855 0.00047898 0.34280599
0.91749583 0.00047898 0.34280599
0.91886608 0.00047940 0.34280599
0.00047898 0.06624797 0.34280599
0.06624797 0.06624797 0.34280599
0.20300363 0.06624797 0.34280599
0.34280599 0.06624797 0.34280599
0.48454478 0.06624797 0.34280599
0.62774096 0.06624797 0.34280599
0.77211855 0.06624797 0.34280599
0.91749583 0.06624797 0.34280599
0.91886608 0.06624797 0.34280599
0.00047898 0.20300363 0.34280599
0.06624797 0.20300363 0.34280599
0.20300363 0.20300363 0.34280599
0.34280599 0.20300363 0.34280599
0.48454478 0.20300363 0.34280599
0.62774096 0.20300363 0.34280599
0.77211855 0.20300363 0.34280599
0.91749583 0.20300363 0.34280599
0.91886608 0.20300363 0.34280599
0.00047916 0.34280599 0.34280599
0.06624797 0.34280599 0.34280599
0.20300363 0.34280599 0.34280599
0.34280599 0.34280599 0.34280599
0.48454478 0.34280599 0.34280599
0.62774096 0.34280599 0.34280599
0.77211855 0.34280599 0.34280599
0.91749583 0.34280599 0.34280599
0.91886608 0.34280599 0.34280599
0.00047898 0.48454478 0.34280599
0.06624797 0.48454478 0.34280599
0.20300363 0.48454478 0.34280599
0.34280599 0.48454478 0.34280599
0.48454478 0.48454478 0.34280599
0.62774096 0.48454478 0.34280599
0.77211855 0.48454478 0.34280599
0.91749583 0.48454478 0.34280599
0.91886608 0.48454478 0.34280599
0.00047927 0.62774096 0.34280599
0.06624797 0.62774096 0.34280599
0.20300363 0.62774096 0.34280599
0.34280599 0.62774096 0.34280599
0.48454478 0.62774096 0.34280599
0.62774096 0.62774096 0.34280599
0.77211855 0.62774096 0.34280599
0.91749583 0.62774096 0.34280599
0.91886608 0.62774096 0.34280599
0.00047943 0.77211855 0.34280599
0.06624797 0.77211855 0.34280599
0.20300363 0.77211855 0.34280599
0.34280599 0.77211855 0.34280599
0.48454478 0.77211855 0.34280599
0.62774096 0.77211855 0.34280599
0.77211855 0.77211855 0.34280599
0.91749583 0.77211855 0.34280599
0.91886608 0.77211855 0.34280599
0.00047898 0.91749583 0.34280599
0.06624797 0.91749583 0.34280599
0.20300363 0.91749583 0.34280599
0.34280599 0.91749583 0.34280599
0.48454478 0.91749583 0.34280599
0.62774096 0.91749583 0.34280599
0.77211855 0.91749583 0.34280599
0.91749583 0.91749583 0.34280599
0.91886608 0.91749583 0.34280599
0.00047960 0.91886608 0.34280599
0.06624797 0.91886608 0.34280599
0.20300363 0.91886608 0.34280599
0.34280599 0.91886608 0.34280599
0.48454478 0.91886608 0.34280599
0.62774096 0.91886608 0.34280599
0.77211855 0.91886608 0.34280599
0.91749583 0.91886608 0.34280599
0.91886608 0.91886608 0.34280599
0.00047898 0.00047931 0.48454478
0.06624797 0.00047898 0.48454478
0.20300363 0.00047898 0.48454478
0.34280599 0.00047927 0.48454478
0.48454478 0.00047927 0.48454478
0.62774096 0.00047898 0.48454478
0.77211855 0.00047927 0.48454478
0.91749583 0.00047931 0.48454478
0.91886608 0.00047963 0.48454478
0.00047920 0.06624797 0.48454478
0.06624797 0.06624797 0.48454478
0.20300363 0.06624797 0.48454478
0.34280599 0.06624797 0.48454478
0.48454478 0.06624797 0.48454478
0.62774096 0.06624797 0.48454478
0.77211855 0.06624797 0.48454478
0.91749583 0.06624797 0.48454478
0.91886608 0.06624797 0.48454478
0.00047898 0.20300363 0.48454478
0.06624797 0.20300363 0.48454478
0.20300363 0.20300363 0.48454478
0.34280599 0.20300363 0.48454478
0.48454478 0.20300363 0.48454478
0.62774096 0.20300363 0.48454478
0.77211855 0.20300363 0.48454478
0.91749583 0.20300363 0.48454478
0.91886608 0.20300363 0.48454478
0.00047898 0.34280599 0.48454478
0.06624797 0.34280599 0.48454478
0.20300363 0.34280599 0.48454478
0.34280599 0.34280599 0.48454478
0.48454478 0.34280599 0.48454478
0.62774096 0.34280599 0.48454478
0.77211855 0.34280599 0.48454478
0.91749583 0.34280599 0.48454478
0.91886608 0.34280599 0.48454478
0.00047898 0.48454478 0.48454478
0.06624797 0.48454478 0.48454478
0.20300363 0.48454478 0.48454478
0.34280599 0.48454478 0.48454478
0.48454478 0.48454478 0.48454478
0.62774096 0.48454478 0.48454478
0.77211855 0.48454478 0.48454478
0.91749583 0.48454478 0.48454478
0.91886608 0.48454478 0.48454478
0.00047898 0.62774096 0.48454478
0.06624797 0.62774096 0.48454478
0.20300363 0.62774096 0.48454478
0.34280599 0.62774096 0.48454478
0.48454478 0.62774096 0.48454478
0.62774096 0.62774096 0.48454478
0.77211855 0.62774096 0.48454478
0.91749583 0.62774096 0.48454478
0.91886608 0.62774096 0.48454478
0.00047898 0.77211855 0.48454478
0.06624797 0.77211855 0.48454478
0.20300363 0.77211855 0.48454478
0.34280599 0.77211855 0.48454478
0.48454478 0.77211855 0.48454478
0.62774096 0.77211855 0.48454478
0.77211855 0.77211855 0.48454478
0.91749583 0.77211855 0.48454478
0.91886608 0.77211855 0.48454478
0.00047952 0.91749583 0.48454478
0.06624797 0.91749583 0.48454478
0.20300363 0.91749583 0.48454478
0.34280599 0.91749583 0.48454478
0.48454478 0.91749583 0.48454478
0.62774096 0.91749583 0.48454478
0.77211855 0.91749583 0.48454478
0.91749583 0.91749583 0.48454478
0.91886608 0.91749583 0.48454478
0.00047898 0.91886608 0.48454478
0.06624797 0.91886608 0.48454478
0.20300363 0.91886608 0.48454478
0.34280599 0.91886608 0.48454478
0.48454478 0.91886608 0.48454478
0.62774096 0.91886608 0.48454478
0.77211855 0.91886608 0.48454478
0.91749583 0.91886608 0.48454478
0.91886608 0.91886608 0.48454478
0.00047927 0.00047935 0.62774096
0.06624797 0.00047940 0.62774096
0.20300363 0.00047935 0.62774096
0.34280599 0.00047940 0.62774096
0.48454478 0.00047940 0.62774096
0.62774096 0.00047935 0.62774096
0.77211855 0.00047940 0.62774096
0.91749583 0.00047935 0.62774096
0.91886608 0.00047898 0.62774096
0.00047898 0.06624797 0.62774096
0.06624797 0.06624797 0.62774096
0.20300363 0.06624797 0.62774096
0.34280599 0.06624797 0.62774096
0.48454478 0.06624797 0.62774096
0.62774096 0.06624797 0.62774096
0.77211855 0.06624797 0.62774096
0.91749583 0.06624797 0.62774096
0.91886608 0.06624797 0.62774096
0.00047927 0.20300363 0.62774096
0.06624797 0.20300363 0.62774096
0.20300363 0.20300363 0.62774096
0.34280599 0.20300363 0.62774096
0.48454478 0.20300363 0.62774096
0.62774096 0.20300363 0.62774096
0.77211855 0.20300363 0.62774096
0.91749583 0.20300363 0.62774096
0.91886608 0.20300363 0.62774096
0.00047898 0.34280599 0.62774096
0.06624797 0.34280599 0.62774096
0.20300363 0.34280599 0.62774096
0.34280599 0.34280599 0.62774096
0.48454478 0.34280599 0.62774096
0.62774096 0.34280599 0.62774096
0.77211855 0.34280599 0.62774096
0.91749583 0.34280599 0.62774096
0.91886608 0.34280599 0.62774096
0.00047898 0.48454478 0.62774096
0.06624797 0.48454478 0.62774096
0.20300363 0.48454478 0.62774096
0.34280599 0.48454478 0.62774096
0.48454478 0.48454478 0.62774096
0.62774096 0.48454478 0.62774096
0.77211855 0.48454478 0.62774096
0.91749583 0.48454478 0.62774096
0.91886608 0.48454478 0.62774096
0.00047898 0.62774096 0.62774096
0.06624797 0.62774096 0.62774096
0.20300363 0.62774096 0.62774096
0.34280599 0.62774096 0.62774096
0.48454478 0.62774096 0.62774096
0.62774096 0.62774096 0.62774096
0.77211855 0.62774096 0.62774096
0.91749583 0.62774096 0.62774096
0.91886608 0.62774096 0.62774096
0.00047935 0.77211855 0.62774096
0.06624797 0.77211855 0.62774096
0.20300363 0.77211855 0.62774096
0.34280599 0.77211855 0.62774096
0.48454478 0.77211855 0.62774096
0.62774096 0.77211855 0.62774096
0.77211855 0.77211855 0.62774096
0.91749583 0.77211855 0.62774096
0.91886608 0.77211855 0.62774096
0.00047898 0.91749583 0.62774096
0.06624797 0.91749583 0.62774096
0.20300363 0.91749583 0.62774096
0.34280599 0.91749583 0.62774096
0.48454478 0.91749583 0.62774096
0.62774096 0.91749583 0.62774096
0.77211855 0.91749583 0.62774096
0.91749583 0.91749583 0.62774096
0.91886608 0.91749583 0.62774096
0.00047969 0.91886608 0.62774096
0.06624797 0.91886608 0.62774096
0.20300363 0.91886608 0.62774096
0.34280599 0.91886608 0.62774096
0.48454478 0.91886608 0.62774096
0.62774096 0.91886608 0.62774096
0.77211855 0.91886608 0.62774096
0.91749583 0.91886608 0.62774096
0.91886608 0.91886608 0.62774096
0.00047898 0.00047946 0.77211855
0.06624797 0.00047946 0.77211855
0.20300363 0.00047898 0.77211855
0.34280599 0.00047946 0.77211855
0.48454478 0.00047946 0.77211855
0.62774096 0.00047946 0.77211855
0.77211855 0.00047946 0.77211855
0.91749583 0.00047898 0.77211855
0.91886608 0.00047898 0.77211855
0.00047898 0.06624797 0.77211855
0.06624797 0.06624797 0.77211855
0.20300363 0.06624797 0.77211855
0.34280599 0.06624797 0.77211855
0.48454478 0.06624797 0.77211855
0.62774096 0.06624797 0.77211855
0.77211855 0.06624797 0.77211855
0.91749583 0.06624797 0.77211855
0.91886608 0.06624797 0.77211855
0.00047898 0.20300363 0.77211855
0.06624797 0.20300363 0.77211855
0.20300363 0.20300363 0.77211855
0.34280599 0.20300363 0.77211855
0.48454478 0.20300363 0.77211855
0.62774096 0.20300363 0.77211855
0.77211855 0.20300363 0.77211855
0.91749583 0.20300363 0.77211855
0.91886608 0.20300363 0.77211855
0.00047898 0.34280599 0.77211855
0.06624797 0.34280599 0.77211855
0.20300363 0.34280599 0.77211855
0.34280599 0.34280599 0.77211855
0.48454478 0.34280599 0.77211855
0.62774096 0.34280599 0.77211855
0.77211855 0.34280599 0.77211855
0.91749583 0.34280599 0.77211855
0.91886608 0.34280599 0.77211855
0.00047898 0.48454478 0.77211855
0.06624797 0.48454478 0.77211855
0.20300363 0.48454478 0.77211855
0.34280599 0.48454478 0.77211855
0.48454478 0.48454478 0.77211855
0.62774096 0.48454478 0.77211855
0.77211855 0.48454478 0.77211855
0.91749583 0.48454478 0.77211855
0.91886608 0.48454478 0.77211855
0.00047898 0.62774096 0.77211855
0.06624797 0.62774096 0.77211855
0.20300363 0.62774096 0.77211855
0.34280599 0.62774096 0.77211855
0.48454478 0.62774096 0.77211855
0.62774096 0.62774096 0.77211855
0.77211855 0.62774096 0.77211855
0.91749583 0.62774096 0.77211855
0.91886608 0.62774096 0.77211855
0.00047898 0.77211855 0.77211855
0.06624797 0.77211855 0.77211855
0.20300363 0.77211855 0.77211855
0.34280599 0.77211855 0.77211855
0.48454478 0.77211855 0.77211855
0.62774096 0.77211855 0.77211855
0.77211855 0.77211855 0.77211855
0.91749583 0.77211855 0.77211855
0.91886608 0.77211855 0.77211855
0.00047898 0.91749583 0.77211855
0.06624797 0.91749583 0.77211855
0.20300363 0.91749583 0.77211855
0.34280599 0.91749583 0.77211855
0.48454478 0.91749583 0.77211855
0.62774096 0.91749583 0.77211855
0.77211855 0.91749583 0.77211855
0.91749583 0.91749583 0.77211855
0.91886608 0.91749583 0.77211855
0.00047963 0.91886608 0.77211855
0.06624797 0.91886608 0.77211855
0.20300363 0.91886608 0.77211855
0.34280599 0.91886608 0.77211855
0.48454478 0.91886608 0.77211855
0.62774096 0.91886608 0.77211855
0.77211855 0.91886608 0.77211855
0.91749583 0.91886608 0.77211855
0.91886608 0.91886608 0.77211855
0.00047898 0.00047971 0.91749583
0.06624797 0.00047971 0.91749583
0.20300363 0.00047898 0.91749583
0.34280599 0.00047971 0.91749583
0.48454478 0.00047898 0.91749583
0.62774096 0.00047961 0.91749583
0.77211855 0.00047961 0.91749583
0.91749583 0.00047971 0.91749583
0.91886608 0.00047961 0.91749583
0.00047898 0.06624797 0.91749583
0.06624797 0.06624797 0.91749583
0.20300363 0.06624797 0.91749583
0.34280599 0.06624797 0.91749583
0.48454478 0.06624797 0.91749583
0.62774096 0.06624797 0.91749583
0.77211855 0.06624797 0.91749583
0.91749583 0.06624797 0.91749583
0.91886608 0.06624797 0.91749583
0.00047898 0.20300363 0.91749583
0.06624797 0.20300363 0.91749583
0.20300363 0.20300363 0.91749583
0.34280599 0.20300363 0.91749583
0.48454478 0.20300363 0.91749583
0.62774096 0.20300363 0.91749583
0.77211855 0.20300363 0.91749583
0.91749583 0.20300363 0.91749583
0.91886608 0.20300363 0.91749583
0.00047898 0.34280599 0.91749583
0.06624797 0.34280599 0.91749583
0.20300363 0.34280599 0.91749583
0.34280599 0.34280599 0.91749583
0.48454478 0.34280599 0.91749583
0.62774096 0.34280599 0.91749583
0.77211855 0.34280599 0.91749583
0.91749583 0.34280599 0.91749583
0.91886608 0.34280599 0.91749583
0.00047898 0.48454478 0.91749583
0.06624797 0.48454478 0.91749583
0.20300363 0.48454478 0.91749583
0.34280599 0.48454478 0.91749583
0.48454478 0.48454478 0.91749583
0.62774096 0.48454478 0.91749583
0.77211855 0.48454478 0.91749583
0.91749583 0.48454478 0.91749583
0.91886608 0.48454478 0.91749583
0.00047946 0.62774096 0.91749583
0.06624797 0.62774096 0.91749583
0.20300363 0.62774096 0.91749583
0.34280599 0.62774096 0.91749583
0.48454478 0.62774096 0.91749583
0.62774096 0.62774096 0.91749583
0.77211855 0.62774096 0.91749583
0.91749583 0.62774096 0.91749583
0.91886608 0.62774096 0.91749583
0.00047898 0.77211855 0.91749583
0.06624797 0.77211855 0.91749583
0.20300363 0.77211855 0.91749583
0.34280599 0.77211855 0.91749583
0.48454478 0.77211855 0.91749583
0.62774096 0.77211855 0.91749583
0.77211855 0.77211855 0.91749583
0.91749583 0.77211855 0.91749583
0.91886608 0.77211855 0.91749583
0.00047898 0.91749583 0.91749583
0.06624797 0.91749583 0.91749583
0.20300363 0.91749583 0.91749583
0.34280599 0.91749583 0.91749583
0.48454478 0.91749583 0.91749583
0.62774096 0.91749583 0.91749583
0.77211855 0.91749583 0.91749583
0.91749583 0.91749583 0.91749583
0.91886608 0.91749583 0.91749583
0.00047975 0.91886608 0.91749583
0.06624797 0.91886608 0.91749583
0.20300363 0.91886608 0.91749583
0.34280599 0.91886608 0.91749583
0.48454478 0.91886608 0.91749583
0.62774096 0.91886608 0.91749583
0.77211855 0.91886608 0.91749583
0.91749583 0.91886608 0.91749583
0.91886608 0.91886608 0.91749583
0.00047898 0.00047983 0.91886608
0.06624797 0.00047898 0.91886608
0.20300363 0.00047983 0.91886608
0.34280599 0.00047983 0.91886608
0.48454478 0.00047997 0.91886608
0.62774096 0.00047983 0.91886608
0.77211855 0.00047983 0.91886608
0.91749583 0.00047983 0.91886608
0.91886608 0.00047983 0.91886608
0.00047961 0.06624797 0.91886608
0.06624797 0.06624797 0.91886608
0.20300363 0.06624797 0.91886608
0.34280599 0.06624797 0.91886608
0.48454478 0.06624797 0.91886608
0.62774096 0.06624797 0.91886608
0.77211855 0.06624797 0.91886608
0.91749583 0.06624797 0.91886608
0.91886608 0.06624797 0.91886608
0.00047961 0.20300363 0.91886608
0.06624797 0.20300363 0.91886608
0.20300363 0.20300363 0.91886608
0.34280599 0.20300363 0.91886608
0.48454478 0.20300363 0.91886608
0.62774096 0.20300363 0.91886608
0.77211855 0.20300363 0.91886608
0.91749583 0.20300363 0.91886608
0.91886608 0.20300363 0.91886608
0.00047961 0.34280599 0.91886608
0.06624797 0.34280599 0.91886608
0.20300363 0.34280599 0.91886608
0.34280599 0.34280599 0.91886608
0.48454478 0.34280599 0.91886608
0.62774096 0.34280599 0.91886608
0.77211855 0.34280599 0.91886608
0.91749583 0.34280599 0.91886608
0.91886608 0.34280599 0.91886608
0.00047898 0.48454478 0.91886608
0.06624797 0.48454478 0.91886608
0.20300363 0.48454478 0.91886608
0.34280599 0.48454478 0.91886608
0.48454478 0.48454478 0.91886608
0.62774096 0.48454478 0.91886608
0.77211855 0.48454478 0.91886608
0.91749583 0.48454478 0.91886608
0.91886608 0.48454478 0.91886608
0.00047898 0.62774096 0.91886608
0.06624797 0.62774096 0.91886608
0.20300363 0.62774096 0.91886608
0.34280599 0.62774096 0.91886608
0.48454478 0.62774096 0.91886608
0.62774096 0.62774096 0.91886608
0.77211855 0.62774096 0.91886608
0.91749583 0.62774096 0.91886608
0.91886608 0.62774096 0.91886608
0.00047961 0.77211855 0.91886608
0.06624797 0.77211855 0.91886608
0.20300363 0.77211855 0.91886608
0.34280599 0.77211855 0.91886608
0.48454478 0.77211855 0.91886608
0.62774096 0.77211855 0.91886608
0.77211855 0.77211855 0.91886608
0.91749583 0.77211855 0.91886608
0.91886608 0.77211855 0.91886608
0.00047961 0.91749583 0.91886608
0.06624797 0.91749583 0.91886608
0.20300363 0.91749583 0.91886608
0.34280599 0.91749583 0.91886608
0.48454478 0.91749583 0.91886608
0.62774096 0.91749583 0.91886608
0.77211855 0.91749583 0.91886608
0.91749583 0.91749583 0.91886608
0.91886608 0.91749583 0.91886608
0.00047961 0.91886608 0.91886608
0.06624797 0.91886608 0.91886608
0.20300363 0.91886608 0.91886608
0.34280599 0.91886608 0.91886608
0.48454478 0.91886608 0.91886608
0.62774096 0.91886608 0.91886608
0.77211855 0.91886608 0.91886608
0.91749583 0.91886608 0.91886608
0.91886608 0.91886608 0.91886608
