src/ffmpeg_scripts/luts/luminance-unclipped_3p33.cube
TITLE "luminance-unclipped_3p33"
LUT_3D_SIZE 5
# PQ (EOTF Only)/Rec2020 -> PQ (EOTF Only)/Rec2020, CineEI Shift 3.33, Black Level -7.25% IRE, Input 109% -> Output 109% - Created with LUTCalc v4.01 by Ben Turley October 2020
0.00047898 0.00047898 0.00047898
0.39878905 0.00047912 0.00047898
0.75038939 0.00047898 0.00047898
0.91886608 0.00047898 0.00047898
0.91886608 0.00047991 0.00047997
0.00047917 0.39878905 0.00047898
0.39878905 0.39878905 0.00047898
0.75038939 0.39878905 0.00047931
0.91886608 0.39878905 0.00047953
0.91886608 0.39878905 0.00047898
0.00047898 0.75038939 0.00047898
0.39878905 0.75038939 0.00047898
0.75038939 0.75038939 0.00047898
0.91886608 0.75038939 0.00047898
0.91886608 0.75038939 0.00047898
0.00047961 0.91886608 0.00047898
0.39878905 0.91886608 0.00047898
0.75038939 0.91886608 0.00047898
0.91886608 0.91886608 0.00047898
0.91886608 0.91886608 0.00048014
0.00048008 0.91886608 0.00047898
0.39878905 0.91886608 0.00047997
0.75038939 0.91886608 0.00047898
0.91886608 0.91886608 0.00047997
0.91886608 0.91886608 0.00047898
0.00047898 0.00047923 0.39878905
0.39878905 0.00047898 0.39878905
0.75038939 0.00047927 0.39878905
0.91886608 0.00047898 0.39878905
0.91886608 0.00047971 0.39878905
0.00047898 0.39878905 0.39878905
0.39878905 0.39878905 0.39878905
0.75038939 0.39878905 0.39878905
0.91886608 0.39878905 0.39878905
0.91886608 0.39878905 0.39878905
0.00047931 0.75038939 0.39878905
0.39878905 0.75038939 0.39878905
0.75038939 0.75038939 0.39878905
0.91886608 0.75038939 0.39878905
0.91886608 0.75038939 0.39878905
0.00047898 0.91886608 0.39878905
0.39878905 0.91886608 0.39878905
0.75038939 0.91886608 0.39878905
0.91886608 0.91886608 0.39878905
0.91886608 0.91886608 0.39878905
0.00048002 0.91886608 0.39878905
0.39878905 0.91886608 0.39878905
0.75038939 0.91886608 0.39878905
0.91886608 0.91886608 0.39878905
0.91886608 0.91886608 0.39878905
0.00047898 0.00047946 0.75038939
0.39878905 0.00047898 0.75038939
0.75038939 0.00047946 0.75038939
0.91886608 0.00047898 0.75038939
0.91886608 0.00047983 0.75038939
0.00047898 0.39878905 0.75038939
0.39878905 0.39878905 0.75038939
0.75038939 0.39878905 0.75038939
0.91886608 0.39878905 0.75038939
0.91886608 0.39878905 0.75038939
0.00047898 0.75038939 0.75038939
0.39878905 0.75038939 0.75038939
0.75038939 0.75038939 0.75038939
0.91886608 0.75038939 0.75038939
0.91886608 0.75038939 0.75038939
0.00047964 0.91886608 0.75038939
0.39878905 0.91886608 0.75038939
0.75038939 0.91886608 0.75038939
0.91886608 0.91886608 0.75038939
0.91886608 0.91886608 0.75038939
0.00047898 0.91886608 0.75038939
0.39878905 0.91886608 0.75038939
0.75038939 0.91886608 0.75038939
0.91886608 0.91886608 0.75038939
0.91886608 0.91886608 0.75038939
0.00047898 0.00047971 0.91886608
0.39878905 0.00047898 0.91886608
0.75038939 0.00047971 0.91886608
0.91886608 0.00047983 0.91886608
0.91886608 0.00047898 0.91886608
0.00047898 0.39878905 0.91886608
0.39878905 0.39878905 0.91886608
0.75038939 0.39878905 0.91886608
0.91886608 0.39878905 0.91886608
0.91886608 0.39878905 0.91886608
0.00047898 0.75038939 0.91886608
0.39878905 0.75038939 0.91886608
0.75038939 0.75038939 0.91886608
0.91886608 0.75038939 0.91886608
0.91886608 0.75038939 0.91886608
0.00047898 0.91886608 0.91886608
0.39878905 0.91886608 0.91886608
0.75038939 0.91886608 0.91886608
0.91886608 0.91886608 0.91886608
0.91886608 0.91886608 0.91886608
0.00048006 0.91886608 0.91886608
0.39878905 0.91886608 0.91886608
0.75038939 0.91886608 0.91886608
0.91886608 0.91886608 0.91886608
0.91886608 0.91886608 0.91886608
0.00048014 0.00048059 0.91886608
0.39878905 0.00048059 0.91886608
0.75038939 0.00048076 0.91886608
0.91886608 0.00048034 0.91886608
0.91886608 0.00048059 0.91886608
0.00047898 0.39878905 0.91886608
0.39878905 0.39878905 0.91886608
0.75038939 0.39878905 0.91886608
0.91886608 0.39878905 0.91886608
0.91886608 0.39878905 0.91886608
0.00047898 0.75038939 0.91886608
0.39878905 0.75038939 0.91886608
0.75038939 0.75038939 0.91886608
0.91886608 0.75038939 0.91886608
0.91886608 0.75038939 0.91886608
0.00047898 0.91886608 0.91886608
0.39878905 0.91886608 0.91886608
0.75038939 0.91886608 0.91886608
0.91886608 0.91886608 0.91886608
0.91886608 0.91886608 0.91886608
0.00048014 0.91886608 0.91886608
0.39878905 0.91886608 0.91886608
0.75038939 0.91886608 0.91886608
0.91886608 0.91886608 0.91886608
0.91886608 0.91886608 0.91886608
