src/ffmpeg_scripts/luts/luminance_3p33.cube
TITLE "luminance_3p33"
LUT_3D_SIZE 33
# PQ (EOTF Only)/Rec2020 -> PQ (EOTF Only)/Rec2020, CineEI Shift 3.33, Black Level 0.00% IRE, Input 109% -> Output 109% - Created with LUTCalc v4.01 by Ben Turley October 2020
0.06256172 0.06256172 0.06256172
0.06256172 0.06256172 0.06256172
0.06256172 0.06256172 0.06256172
0.14571100 0.06256172 0.06256172
0.20853033 0.06256181 0.06256172
0.26377733 0.06256172 0.06256172
0.31435119 0.06256172 0.06256172
0.36159106 0.06256185 0.06256185
0.40626550 0.06256184 0.06256172
0.44887054 0.06256172 0.06256172
0.48975128 0.06256191 0.06256172
0.52916076 0.06256193 0.06256191
0.56729187 0.06256172 0.06256172
0.60429615 0.06256172 0.06256194
0.64029553 0.06256172 0.06256172
0.67539007 0.06256172 0.06256197
0.70966321 0.06256172 0.06256172
0.74318552 0.06256172 0.06256172
0.77601738 0.06256172 0.06256204
0.80821097 0.06256202 0.06256172
0.83981183 0.06256200 0.06256172
0.87085997 0.06256172 0.06256172
0.90139082 0.06256172 0.06256172
0.91886608 0.06256172 0.06256172
0.91886608 0.06256172 0.06256172
0.91886608 0.06256172 0.06256172
0.91886608 0.06256229 0.06256172
0.91886608 0.06256172 0.06256172
0.91886608 0.06256233 0.06256235
0.91886608 0.06256231 0.06256172
0.91886608 0.06256238 0.06256172
0.91886608 0.06256227 0.06256172
0.91886608 0.06256252 0.06256257
0.06256172 0.06256172 0.06256172
0.06256172 0.06256172 0.06256172
0.06256172 0.06256172 0.06256172
0.14571100 0.06256172 0.06256172
0.20853033 0.06256181 0.06256172
0.26377733 0.06256172 0.06256172
0.31435119 0.06256172 0.06256172
0.36159106 0.06256185 0.06256185
0.40626550 0.06256184 0.06256172
0.44887054 0.06256172 0.06256172
0.48975128 0.06256191 0.06256172
0.52916076 0.06256193 0.06256191
0.56729187 0.06256172 0.06256172
0.60429615 0.06256172 0.06256194
0.64029553 0.06256172 0.06256172
0.67539007 0.06256172 0.06256197
0.70966321 0.06256172 0.06256172
0.74318552 0.06256172 0.06256172
0.77601738 0.06256172 0.06256204
0.80821097 0.06256202 0.06256172
0.83981183 0.06256200 0.06256172
0.87085997 0.06256172 0.06256172
0.90139082 0.06256172 0.06256172
0.91886608 0.06256172 0.06256172
0.91886608 0.06256172 0.06256172
0.91886608 0.06256172 0.06256172
0.91886608 0.06256229 0.06256172
0.91886608 0.06256172 0.06256172
0.91886608 0.06256233 0.06256235
0.91886608 0.06256231 0.06256172
0.91886608 0.06256238 0.06256172
0.91886608 0.06256227 0.06256172
0.91886608 0.06256252 0.06256257
0.06256172 0.06256172 0.06256172
0.06256172 0.06256172 0.06256172
0.06256172 0.06256172 0.06256172
0.14571100 0.06256172 0.06256172
0.20853033 0.06256181 0.06256172
0.26377733 0.06256172 0.06256172
0.31435119 0.06256172 0.06256172
0.36159106 0.06256185 0.06256185
0.40626550 0.06256184 0.06256172
0.44887054 0.06256172 0.06256172
0.48975128 0.06256191 0.06256172
0.52916076 0.06256193 0.06256191
0.56729187 0.06256172 0.06256172
0.60429615 0.06256172 0.06256194
0.64029553 0.06256172 0.06256172
0.67539007 0.06256172 0.06256197
0.70966321 0.06256172 0.06256172
0.74318552 0.06256172 0.06256172
0.77601738 0.06256172 0.06256204
0.80821097 0.06256202 0.06256172
0.83981183 0.06256200 0.06256172
0.87085997 0.06256172 0.06256172
0.90139082 0.06256172 0.06256172
0.91886608 0.06256172 0.06256172
0.91886608 0.06256172 0.06256172
0.91886608 0.06256172 0.06256172
0.91886608 0.06256229 0.06256172
0.91886608 0.06256172 0.06256172
0.91886608 0.06256233 0.06256235
0.91886608 0.06256231 0.06256172
0.91886608 0.06256238 0.06256172
0.91886608 0.06256227 0.06256172
0.91886608 0.06256252 0.06256257
0.06256180 0.14571100 0.06256172
0.06256180 0.14571100 0.06256172
0.06256180 0.14571100 0.06256172
0.14571100 0.14571100 0.06256172
0.20853033 0.14571100 0.06256172
0.26377733 0.14571100 0.06256172
0.31435119 0.14571100 0.06256172
0.36159106 0.14571100 0.06256172
0.40626550 0.14571100 0.06256172
0.44887054 0.14571100 0.06256172
0.48975128 0.14571100 0.06256172
0.52916076 0.14571100 0.06256172
0.56729187 0.14571100 0.06256172
0.60429615 0.14571100 0.06256197
0.64029553 0.14571100 0.06256172
0.67539007 0.14571100 0.06256172
0.70966321 0.14571100 0.06256200
0.74318552 0.14571100 0.06256172
0.77601738 0.14571100 0.06256172
0.80821097 0.14571100 0.06256172
0.83981183 0.14571100 0.06256208
0.87085997 0.14571100 0.06256172
0.90139082 0.14571100 0.06256172
0.91886608 0.14571100 0.06256219
0.91886608 0.14571100 0.06256172
0.91886608 0.14571100 0.06256172
0.91886608 0.14571100 0.06256172
0.91886608 0.14571100 0.06256172
0.91886608 0.14571100 0.06256172
0.91886608 0.14571100 0.06256172
0.91886608 0.14571100 0.06256245
0.91886608 0.14571100 0.06256245
0.91886608 0.14571100 0.06256172
0.06256183 0.20853033 0.06256172
0.06256183 0.20853033 0.06256172
0.06256183 0.20853033 0.06256172
0.14571100 0.20853033 0.06256172
0.20853033 0.20853033 0.06256172
0.26377733 0.20853033 0.06256172
0.31435119 0.20853033 0.06256185
0.36159106 0.20853033 0.06256185
0.40626550 0.20853033 0.06256172
0.44887054 0.20853033 0.06256172
0.48975128 0.20853033 0.06256172
0.52916076 0.20853033 0.06256191
0.56729187 0.20853033 0.06256194
0.60429615 0.20853033 0.06256172
0.64029553 0.20853033 0.06256197
0.67539007 0.20853033 0.06256172
0.70966321 0.20853033 0.06256172
0.74318552 0.20853033 0.06256172
0.77601738 0.20853033 0.06256172
0.80821097 0.20853033 0.06256172
0.83981183 0.20853033 0.06256172
0.87085997 0.20853033 0.06256172
0.90139082 0.20853033 0.06256172
0.91886608 0.20853033 0.06256172
0.91886608 0.20853033 0.06256172
0.91886608 0.20853033 0.06256172
0.91886608 0.20853033 0.06256172
0.91886608 0.20853033 0.06256235
0.91886608 0.20853033 0.06256235
0.91886608 0.20853033 0.06256172
0.91886608 0.20853033 0.06256245
0.91886608 0.20853033 0.06256172
0.91886608 0.20853033 0.06256257
0.06256180 0.26377733 0.06256182
0.06256180 0.26377733 0.06256182
0.06256180 0.26377733 0.06256182
0.14571100 0.26377733 0.06256172
0.20853033 0.26377733 0.06256172
0.26377733 0.26377733 0.06256172
0.31435119 0.26377733 0.06256185
0.36159106 0.26377733 0.06256172
0.40626550 0.26377733 0.06256172
0.44887054 0.26377733 0.06256189
0.48975128 0.26377733 0.06256172
0.52916076 0.26377733 0.06256172
0.56729187 0.26377733 0.06256172
0.60429615 0.26377733 0.06256172
0.64029553 0.26377733 0.06256197
0.67539007 0.26377733 0.06256172
0.70966321 0.26377733 0.06256172
0.74318552 0.26377733 0.06256172
0.77601738 0.26377733 0.06256172
0.80821097 0.26377733 0.06256172
0.83981183 0.26377733 0.06256172
0.87085997 0.26377733 0.06256172
0.90139082 0.26377733 0.06256172
0.91886608 0.26377733 0.06256172
0.91886608 0.26377733 0.06256219
0.91886608 0.26377733 0.06256172
0.91886608 0.26377733 0.06256227
0.91886608 0.26377733 0.06256172
0.91886608 0.26377733 0.06256172
0.91886608 0.26377733 0.06256172
0.91886608 0.26377733 0.06256172
0.91886608 0.26377733 0.06256172
0.91886608 0.26377733 0.06256257
0.06256185 0.31435119 0.06256172
0.06256185 0.31435119 0.06256172
0.06256185 0.31435119 0.06256172
0.14571100 0.31435119 0.06256172
0.20853033 0.31435119 0.06256172
0.26377733 0.31435119 0.06256172
0.31435119 0.31435119 0.06256172
0.36159106 0.31435119 0.06256187
0.40626550 0.31435119 0.06256172
0.44887054 0.31435119 0.06256189
0.48975128 0.31435119 0.06256172
0.52916076 0.31435119 0.06256172
0.56729187 0.31435119 0.06256172
0.60429615 0.31435119 0.06256194
0.64029553 0.31435119 0.06256197
0.67539007 0.31435119 0.06256172
0.70966321 0.31435119 0.06256172
0.74318552 0.31435119 0.06256200
0.77601738 0.31435119 0.06256172
0.80821097 0.31435119 0.06256172
0.83981183 0.31435119 0.06256172
0.87085997 0.31435119 0.06256172
0.90139082 0.31435119 0.06256213
0.91886608 0.31435119 0.06256172
0.91886608 0.31435119 0.06256172
0.91886608 0.31435119 0.06256172
0.91886608 0.31435119 0.06256172
0.91886608 0.31435119 0.06256235
0.91886608 0.31435119 0.06256235
0.91886608 0.31435119 0.06256172
0.91886608 0.31435119 0.06256245
0.91886608 0.31435119 0.06256172
0.91886608 0.31435119 0.06256172
0.06256186 0.36159106 0.06256172
0.06256186 0.36159106 0.06256172
0.06256186 0.36159106 0.06256172
0.14571100 0.36159106 0.06256172
0.20853033 0.36159106 0.06256172
0.26377733 0.36159106 0.06256172
0.31435119 0.36159106 0.06256172
0.36159106 0.36159106 0.06256172
0.40626550 0.36159106 0.06256172
0.44887054 0.36159106 0.06256172
0.48975128 0.36159106 0.06256172
0.52916076 0.36159106 0.06256172
0.56729187 0.36159106 0.06256172
0.60429615 0.36159106 0.06256172
0.64029553 0.36159106 0.06256197
0.67539007 0.36159106 0.06256172
0.70966321 0.36159106 0.06256172
0.74318552 0.36159106 0.06256172
0.77601738 0.36159106 0.06256204
0.80821097 0.36159106 0.06256172
0.83981183 0.36159106 0.06256172
0.87085997 0.36159106 0.06256172
0.90139082 0.36159106 0.06256172
0.91886608 0.36159106 0.06256213
0.91886608 0.36159106 0.06256172
0.91886608 0.36159106 0.06256172
0.91886608 0.36159106 0.06256172
0.91886608 0.36159106 0.06256172
0.91886608 0.36159106 0.06256172
0.91886608 0.36159106 0.06256172
0.91886608 0.36159106 0.06256172
0.91886608 0.36159106 0.06256172
0.91886608 0.36159106 0.06256172
0.06256189 0.40626550 0.06256172
0.06256189 0.40626550 0.06256172
0.06256189 0.40626550 0.06256172
0.14571100 0.40626550 0.06256172
0.20853033 0.40626550 0.06256172
0.26377733 0.40626550 0.06256172
0.31435119 0.40626550 0.06256172
0.36159106 0.40626550 0.06256172
0.40626550 0.40626550 0.06256172
0.44887054 0.40626550 0.06256172
0.48975128 0.40626550 0.06256172
0.52916076 0.40626550 0.06256172
0.56729187 0.40626550 0.06256172
0.60429615 0.40626550 0.06256194
0.64029553 0.40626550 0.06256197
0.67539007 0.40626550 0.06256197
0.70966321 0.40626550 0.06256200
0.74318552 0.40626550 0.06256172
0.77601738 0.40626550 0.06256172
0.80821097 0.40626550 0.06256172
0.83981183 0.40626550 0.06256172
0.87085997 0.40626550 0.06256172
0.90139082 0.40626550 0.06256172
0.91886608 0.40626550 0.06256213
0.91886608 0.40626550 0.06256219
0.91886608 0.40626550 0.06256219
0.91886608 0.40626550 0.06256172
0.91886608 0.40626550 0.06256172
0.91886608 0.40626550 0.06256172
0.91886608 0.40626550 0.06256172
0.91886608 0.40626550 0.06256172
0.91886608 0.40626550 0.06256172
0.91886608 0.40626550 0.06256172
0.06256190 0.44887054 0.06256172
0.06256190 0.44887054 0.06256172
0.06256190 0.44887054 0.06256172
0.14571100 0.44887054 0.06256172
0.20853033 0.44887054 0.06256172
0.26377733 0.44887054 0.06256172
0.31435119 0.44887054 0.06256172
0.36159106 0.44887054 0.06256172
0.40626550 0.44887054 0.06256172
0.44887054 0.44887054 0.06256172
0.48975128 0.44887054 0.06256172
0.52916076 0.44887054 0.06256172
0.56729187 0.44887054 0.06256197
0.60429615 0.44887054 0.06256197
0.64029553 0.44887054 0.06256172
0.67539007 0.44887054 0.06256172
0.70966321 0.44887054 0.06256204
0.74318552 0.44887054 0.06256172
0.77601738 0.44887054 0.06256204
0.80821097 0.44887054 0.06256172
0.83981183 0.44887054 0.06256172
0.87085997 0.44887054 0.06256172
0.90139082 0.44887054 0.06256172
0.91886608 0.44887054 0.06256213
0.91886608 0.44887054 0.06256219
0.91886608 0.44887054 0.06256172
0.91886608 0.44887054 0.06256172
0.91886608 0.44887054 0.06256227
0.91886608 0.44887054 0.06256235
0.91886608 0.44887054 0.06256172
0.91886608 0.44887054 0.06256172
0.91886608 0.44887054 0.06256245
0.91886608 0.44887054 0.06256172
0.06256194 0.48975128 0.06256172
0.06256194 0.48975128 0.06256172
0.06256194 0.48975128 0.06256172
0.14571100 0.48975128 0.06256172
0.20853033 0.48975128 0.06256172
0.26377733 0.48975128 0.06256172
0.31435119 0.48975128 0.06256172
0.36159106 0.48975128 0.06256172
0.40626550 0.48975128 0.06256172
0.44887054 0.48975128 0.06256172
0.48975128 0.48975128 0.06256172
0.52916076 0.48975128 0.06256172
0.56729187 0.48975128 0.06256172
0.60429615 0.48975128 0.06256172
0.64029553 0.48975128 0.06256172
0.67539007 0.48975128 0.06256172
0.70966321 0.48975128 0.06256172
0.74318552 0.48975128 0.06256204
0.77601738 0.48975128 0.06256172
0.80821097 0.48975128 0.06256172
0.83981183 0.48975128 0.06256172
0.87085997 0.48975128 0.06256172
0.90139082 0.48975128 0.06256213
0.91886608 0.48975128 0.06256172
0.91886608 0.48975128 0.06256172
0.91886608 0.48975128 0.06256219
0.91886608 0.48975128 0.06256172
0.91886608 0.48975128 0.06256172
0.91886608 0.48975128 0.06256172
0.91886608 0.48975128 0.06256172
0.91886608 0.48975128 0.06256172
0.91886608 0.48975128 0.06256172
0.91886608 0.48975128 0.06256257
0.06256199 0.52916076 0.06256172
0.06256199 0.52916076 0.06256172
0.06256199 0.52916076 0.06256172
0.14571100 0.52916076 0.06256172
0.20853033 0.52916076 0.06256172
0.26377733 0.52916076 0.06256172
0.31435119 0.52916076 0.06256172
0.36159106 0.52916076 0.06256172
0.40626550 0.52916076 0.06256172
0.44887054 0.52916076 0.06256172
0.48975128 0.52916076 0.06256172
0.52916076 0.52916076 0.06256194
0.56729187 0.52916076 0.06256172
0.60429615 0.52916076 0.06256172
0.64029553 0.52916076 0.06256197
0.67539007 0.52916076 0.06256172
0.70966321 0.52916076 0.06256172
0.74318552 0.52916076 0.06256172
0.77601738 0.52916076 0.06256204
0.80821097 0.52916076 0.06256172
0.83981183 0.52916076 0.06256208
0.87085997 0.52916076 0.06256172
0.90139082 0.52916076 0.06256172
0.91886608 0.52916076 0.06256213
0.91886608 0.52916076 0.06256172
0.91886608 0.52916076 0.06256219
0.91886608 0.52916076 0.06256172
0.91886608 0.52916076 0.06256227
0.91886608 0.52916076 0.06256235
0.91886608 0.52916076 0.06256172
0.91886608 0.52916076 0.06256172
0.91886608 0.52916076 0.06256245
0.91886608 0.52916076 0.06256172
0.06256198 0.56729187 0.06256194
0.06256198 0.56729187 0.06256194
0.06256198 0.56729187 0.06256194
0.14571100 0.56729187 0.06256194
0.20853033 0.56729187 0.06256194
0.26377733 0.56729187 0.06256197
0.31435119 0.56729187 0.06256197
0.36159106 0.56729187 0.06256172
0.40626550 0.56729187 0.06256172
0.44887054 0.56729187 0.06256194
0.48975128 0.56729187 0.06256172
0.52916076 0.56729187 0.06256172
0.56729187 0.56729187 0.06256197
0.60429615 0.56729187 0.06256172
0.64029553 0.56729187 0.06256172
0.67539007 0.56729187 0.06256172
0.70966321 0.56729187 0.06256200
0.74318552 0.56729187 0.06256172
0.77601738 0.56729187 0.06256172
0.80821097 0.56729187 0.06256172
0.83981183 0.56729187 0.06256172
0.87085997 0.56729187 0.06256172
0.90139082 0.56729187 0.06256172
0.91886608 0.56729187 0.06256172
0.91886608 0.56729187 0.06256172
0.91886608 0.56729187 0.06256172
0.91886608 0.56729187 0.06256172
0.91886608 0.56729187 0.06256172
0.91886608 0.56729187 0.06256172
0.91886608 0.56729187 0.06256172
0.91886608 0.56729187 0.06256172
0.91886608 0.56729187 0.06256172
0.91886608 0.56729187 0.06256257
0.06256187 0.60429615 0.06256172
0.06256187 0.60429615 0.06256172
0.06256187 0.60429615 0.06256172
0.14571100 0.60429615 0.06256197
0.20853033 0.60429615 0.06256172
0.26377733 0.60429615 0.06256172
0.31435119 0.60429615 0.06256172
0.36159106 0.60429615 0.06256172
0.40626550 0.60429615 0.06256172
0.44887054 0.60429615 0.06256172
0.48975128 0.60429615 0.06256197
0.52916076 0.60429615 0.06256172
0.56729187 0.60429615 0.06256172
0.60429615 0.60429615 0.06256200
0.64029553 0.60429615 0.06256172
0.67539007 0.60429615 0.06256172
0.70966321 0.60429615 0.06256172
0.74318552 0.60429615 0.06256172
0.77601738 0.60429615 0.06256204
0.80821097 0.60429615 0.06256208
0.83981183 0.60429615 0.06256172
0.87085997 0.60429615 0.06256172
0.90139082 0.60429615 0.06256172
0.91886608 0.60429615 0.06256213
0.91886608 0.60429615 0.06256172
0.91886608 0.60429615 0.06256172
0.91886608 0.60429615 0.06256172
0.91886608 0.60429615 0.06256172
0.91886608 0.60429615 0.06256172
0.91886608 0.60429615 0.06256172
0.91886608 0.60429615 0.06256172
0.91886608 0.60429615 0.06256172
0.91886608 0.60429615 0.06256257
0.06256195 0.64029553 0.06256172
0.06256195 0.64029553 0.06256172
0.06256195 0.64029553 0.06256172
0.14571100 0.64029553 0.06256172
0.20853033 0.64029553 0.06256172
0.26377733 0.64029553 0.06256172
0.31435119 0.64029553 0.06256172
0.36159106 0.64029553 0.06256197
0.40626550 0.64029553 0.06256172
0.44887054 0.64029553 0.06256172
0.48975128 0.64029553 0.06256197
0.52916076 0.64029553 0.06256172
0.56729187 0.64029553 0.06256172
0.60429615 0.64029553 0.06256172
0.64029553 0.64029553 0.06256172
0.67539007 0.64029553 0.06256200
0.70966321 0.64029553 0.06256172
0.74318552 0.64029553 0.06256204
0.77601738 0.64029553 0.06256172
0.80821097 0.64029553 0.06256172
0.83981183 0.64029553 0.06256172
0.87085997 0.64029553 0.06256172
0.90139082 0.64029553 0.06256172
0.91886608 0.64029553 0.06256172
0.91886608 0.64029553 0.06256172
0.91886608 0.64029553 0.06256172
0.91886608 0.64029553 0.06256172
0.91886608 0.64029553 0.06256172
0.91886608 0.64029553 0.06256235
0.91886608 0.64029553 0.06256172
0.91886608 0.64029553 0.06256172
0.91886608 0.64029553 0.06256245
0.91886608 0.64029553 0.06256172
0.06256204 0.67539007 0.06256172
0.06256204 0.67539007 0.06256172
0.06256204 0.67539007 0.06256172
0.14571100 0.67539007 0.06256172
0.20853033 0.67539007 0.06256172
0.26377733 0.67539007 0.06256172
0.31435119 0.67539007 0.06256172
0.36159106 0.67539007 0.06256172
0.40626550 0.67539007 0.06256172
0.44887054 0.67539007 0.06256172
0.48975128 0.67539007 0.06256172
0.52916076 0.67539007 0.06256172
0.56729187 0.67539007 0.06256172
0.60429615 0.67539007 0.06256172
0.64029553 0.67539007 0.06256172
0.67539007 0.67539007 0.06256172
0.70966321 0.67539007 0.06256172
0.74318552 0.67539007 0.06256172
0.77601738 0.67539007 0.06256172
0.80821097 0.67539007 0.06256172
0.83981183 0.67539007 0.06256172
0.87085997 0.67539007 0.06256172
0.90139082 0.67539007 0.06256219
0.91886608 0.67539007 0.06256172
0.91886608 0.67539007 0.06256172
0.91886608 0.67539007 0.06256172
0.91886608 0.67539007 0.06256172
0.91886608 0.67539007 0.06256172
0.91886608 0.67539007 0.06256172
0.91886608 0.67539007 0.06256172
0.91886608 0.67539007 0.06256172
0.91886608 0.67539007 0.06256172
0.91886608 0.67539007 0.06256257
0.06256172 0.70966321 0.06256172
0.06256172 0.70966321 0.06256172
0.06256172 0.70966321 0.06256172
0.14571100 0.70966321 0.06256172
0.20853033 0.70966321 0.06256200
0.26377733 0.70966321 0.06256172
0.31435119 0.70966321 0.06256172
0.36159106 0.70966321 0.06256172
0.40626550 0.70966321 0.06256172
0.44887054 0.70966321 0.06256172
0.48975128 0.70966321 0.06256172
0.52916076 0.70966321 0.06256172
0.56729187 0.70966321 0.06256172
0.60429615 0.70966321 0.06256172
0.64029553 0.70966321 0.06256172
0.67539007 0.70966321 0.06256204
0.70966321 0.70966321 0.06256172
0.74318552 0.70966321 0.06256204
0.77601738 0.70966321 0.06256172
0.80821097 0.70966321 0.06256208
0.83981183 0.70966321 0.06256172
0.87085997 0.70966321 0.06256172
0.90139082 0.70966321 0.06256172
0.91886608 0.70966321 0.06256172
0.91886608 0.70966321 0.06256172
0.91886608 0.70966321 0.06256219
0.91886608 0.70966321 0.06256172
0.91886608 0.70966321 0.06256172
0.91886608 0.70966321 0.06256172
0.91886608 0.70966321 0.06256172
0.91886608 0.70966321 0.06256172
0.91886608 0.70966321 0.06256172
0.91886608 0.70966321 0.06256172
0.06256208 0.74318552 0.06256172
0.06256208 0.74318552 0.06256172
0.06256208 0.74318552 0.06256172
0.14571100 0.74318552 0.06256172
0.20853033 0.74318552 0.06256172
0.26377733 0.74318552 0.06256172
0.31435119 0.74318552 0.06256172
0.36159106 0.74318552 0.06256204
0.40626550 0.74318552 0.06256172
0.44887054 0.74318552 0.06256204
0.48975128 0.74318552 0.06256204
0.52916076 0.74318552 0.06256172
0.56729187 0.74318552 0.06256172
0.60429615 0.74318552 0.06256172
0.64029553 0.74318552 0.06256172
0.67539007 0.74318552 0.06256172
0.70966321 0.74318552 0.06256204
0.74318552 0.74318552 0.06256208
0.77601738 0.74318552 0.06256172
0.80821097 0.74318552 0.06256172
0.83981183 0.74318552 0.06256172
0.87085997 0.74318552 0.06256172
0.90139082 0.74318552 0.06256172
0.91886608 0.74318552 0.06256172
0.91886608 0.74318552 0.06256219
0.91886608 0.74318552 0.06256172
0.91886608 0.74318552 0.06256172
0.91886608 0.74318552 0.06256227
0.91886608 0.74318552 0.06256172
0.91886608 0.74318552 0.06256172
0.91886608 0.74318552 0.06256172
0.91886608 0.74318552 0.06256172
0.91886608 0.74318552 0.06256172
0.06256204 0.77601738 0.06256172
0.06256204 0.77601738 0.06256172
0.06256204 0.77601738 0.06256172
0.14571100 0.77601738 0.06256172
0.20853033 0.77601738 0.06256172
0.26377733 0.77601738 0.06256172
0.31435119 0.77601738 0.06256172
0.36159106 0.77601738 0.06256172
0.40626550 0.77601738 0.06256172
0.44887054 0.77601738 0.06256172
0.48975128 0.77601738 0.06256172
0.52916076 0.77601738 0.06256172
0.56729187 0.77601738 0.06256172
0.60429615 0.77601738 0.06256172
0.64029553 0.77601738 0.06256172
0.67539007 0.77601738 0.06256172
0.70966321 0.77601738 0.06256172
0.74318552 0.77601738 0.06256172
0.77601738 0.77601738 0.06256208
0.80821097 0.77601738 0.06256208
0.83981183 0.77601738 0.06256172
0.87085997 0.77601738 0.06256172
0.90139082 0.77601738 0.06256172
0.91886608 0.77601738 0.06256172
0.91886608 0.77601738 0.06256172
0.91886608 0.77601738 0.06256172
0.91886608 0.77601738 0.06256172
0.91886608 0.77601738 0.06256227
0.91886608 0.77601738 0.06256172
0.91886608 0.77601738 0.06256172
0.91886608 0.77601738 0.06256172
0.91886608 0.77601738 0.06256172
0.91886608 0.77601738 0.06256257
0.06256214 0.80821097 0.06256172
0.06256214 0.80821097 0.06256172
0.06256214 0.80821097 0.06256172
0.14571100 0.80821097 0.06256172
0.20853033 0.80821097 0.06256172
0.26377733 0.80821097 0.06256172
0.31435119 0.80821097 0.06256172
0.36159106 0.80821097 0.06256172
0.40626550 0.80821097 0.06256172
0.44887054 0.80821097 0.06256172
0.48975128 0.80821097 0.06256172
0.52916076 0.80821097 0.06256208
0.56729187 0.80821097 0.06256172
0.60429615 0.80821097 0.06256172
0.64029553 0.80821097 0.06256172
0.67539007 0.80821097 0.06256208
0.70966321 0.80821097 0.06256208
0.74318552 0.80821097 0.06256172
0.77601738 0.80821097 0.06256172
0.80821097 0.80821097 0.06256172
0.83981183 0.80821097 0.06256172
0.87085997 0.80821097 0.06256172
0.90139082 0.80821097 0.06256172
0.91886608 0.80821097 0.06256172
0.91886608 0.80821097 0.06256172
0.91886608 0.80821097 0.06256172
0.91886608 0.80821097 0.06256235
0.91886608 0.80821097 0.06256172
0.91886608 0.80821097 0.06256235
0.91886608 0.80821097 0.06256172
0.91886608 0.80821097 0.06256172
0.91886608 0.80821097 0.06256245
0.91886608 0.80821097 0.06256172
0.06256217 0.83981183 0.06256172
0.06256217 0.83981183 0.06256172
0.06256217 0.83981183 0.06256172
0.14571100 0.83981183 0.06256172
0.20853033 0.83981183 0.06256172
0.26377733 0.83981183 0.06256172
0.31435119 0.83981183 0.06256172
0.36159106 0.83981183 0.06256172
0.40626550 0.83981183 0.06256208
0.44887054 0.83981183 0.06256172
0.48975128 0.83981183 0.06256208
0.52916076 0.83981183 0.06256172
0.56729187 0.83981183 0.06256172
0.60429615 0.83981183 0.06256172
0.64029553 0.83981183 0.06256172
0.67539007 0.83981183 0.06256172
0.70966321 0.83981183 0.06256172
0.74318552 0.83981183 0.06256172
0.77601738 0.83981183 0.06256172
0.80821097 0.83981183 0.06256172
0.83981183 0.83981183 0.06256172
0.87085997 0.83981183 0.06256172
0.90139082 0.83981183 0.06256219
0.91886608 0.83981183 0.06256219
0.91886608 0.83981183 0.06256172
0.91886608 0.83981183 0.06256172
0.91886608 0.83981183 0.06256172
0.91886608 0.83981183 0.06256172
0.91886608 0.83981183 0.06256172
0.91886608 0.83981183 0.06256172
0.91886608 0.83981183 0.06256245
0.91886608 0.83981183 0.06256245
0.91886608 0.83981183 0.06256172
0.06256212 0.87085997 0.06256172
0.06256212 0.87085997 0.06256172
0.06256212 0.87085997 0.06256172
0.14571100 0.87085997 0.06256172
0.20853033 0.87085997 0.06256172
0.26377733 0.87085997 0.06256172
0.31435119 0.87085997 0.06256172
0.36159106 0.87085997 0.06256172
0.40626550 0.87085997 0.06256172
0.44887054 0.87085997 0.06256172
0.48975128 0.87085997 0.06256172
0.52916076 0.87085997 0.06256172
0.56729187 0.87085997 0.06256172
0.60429615 0.87085997 0.06256172
0.64029553 0.87085997 0.06256172
0.67539007 0.87085997 0.06256172
0.70966321 0.87085997 0.06256172
0.74318552 0.87085997 0.06256213
0.77601738 0.87085997 0.06256172
0.80821097 0.87085997 0.06256172
0.83981183 0.87085997 0.06256213
0.87085997 0.87085997 0.06256172
0.90139082 0.87085997 0.06256172
0.91886608 0.87085997 0.06256172
0.91886608 0.87085997 0.06256172
0.91886608 0.87085997 0.06256172
0.91886608 0.87085997 0.06256172
