src/ffmpeg_scripts/luts/luminance_-2p67.cube
TITLE "luminance_-2p67"
LUT_3D_SIZE 33
# PQ (EOTF Only)/Rec2020 -> PQ (EOTF Only)/Rec2020, CineEI Shift -2.67, Black Level 0.00% IRE, Input 109% -> Output 109% - Created with LUTCalc v4.01 by Ben Turley October 2020
0.06256172 0.06256172 0.06256172
0.06256172 0.06256172 0.06256172
0.06256172 0.06256172 0.06256172
0.07505417 0.06256172 0.06256172
0.09015032 0.06256176 0.06256172
0.10688867 0.06256172 0.06256172
0.12492876 0.06256172 0.06256172
0.14407862 0.06256178 0.06256179
0.16421120 0.06256178 0.06256172
0.18523469 0.06256172 0.06256172
0.20707888 0.06256181 0.06256172
0.22968793 0.06256182 0.06256181
0.25301609 0.06256172 0.06256172
0.27702504 0.06256172 0.06256182
0.30168208 0.06256172 0.06256172
0.32695889 0.06256172 0.06256184
0.35283068 0.06256172 0.06256172
0.37927548 0.06256172 0.06256172
0.40627367 0.06256172 0.06256187
0.43380759 0.06256186 0.06256172
0.46186125 0.06256185 0.06256172
0.49042007 0.06256172 0.06256172
0.51947068 0.06256172 0.06256172
0.54900079 0.06256172 0.06256172
0.57899905 0.06256172 0.06256172
0.60945489 0.06256172 0.06256172
0.64035852 0.06256198 0.06256172
0.67170075 0.06256172 0.06256172
0.70347300 0.06256199 0.06256200
0.73566720 0.06256198 0.06256172
0.76827577 0.06256201 0.06256172
0.80129154 0.06256197 0.06256172
0.83470774 0.06256206 0.06256208
0.06256172 0.06256172 0.06256172
0.06256172 0.06256172 0.06256172
0.06256172 0.06256172 0.06256172
0.07505417 0.06256172 0.06256172
0.09015032 0.06256176 0.06256172
0.10688867 0.06256172 0.06256172
0.12492876 0.06256172 0.06256172
0.14407862 0.06256178 0.06256179
0.16421120 0.06256178 0.06256172
0.18523469 0.06256172 0.06256172
0.20707888 0.06256181 0.06256172
0.22968793 0.06256182 0.06256181
0.25301609 0.06256172 0.06256172
0.27702504 0.06256172 0.06256182
0.30168208 0.06256172 0.06256172
0.32695889 0.06256172 0.06256184
0.35283068 0.06256172 0.06256172
0.37927548 0.06256172 0.06256172
0.40627367 0.06256172 0.06256187
0.43380759 0.06256186 0.06256172
0.46186125 0.06256185 0.06256172
0.49042007 0.06256172 0.06256172
0.51947068 0.06256172 0.06256172
0.54900079 0.06256172 0.06256172
0.57899905 0.06256172 0.06256172
0.60945489 0.06256172 0.06256172
0.64035852 0.06256198 0.06256172
0.67170075 0.06256172 0.06256172
0.70347300 0.06256199 0.06256200
0.73566720 0.06256198 0.06256172
0.76827577 0.06256201 0.06256172
0.80129154 0.06256197 0.06256172
0.83470774 0.06256206 0.06256208
0.06256172 0.06256172 0.06256172
0.06256172 0.06256172 0.06256172
0.06256172 0.06256172 0.06256172
0.07505417 0.06256172 0.06256172
0.09015032 0.06256176 0.06256172
0.10688867 0.06256172 0.06256172
0.12492876 0.06256172 0.06256172
0.14407862 0.06256178 0.06256179
0.16421120 0.06256178 0.06256172
0.18523469 0.06256172 0.06256172
0.20707888 0.06256181 0.06256172
0.22968793 0.06256182 0.06256181
0.25301609 0.06256172 0.06256172
0.27702504 0.06256172 0.06256182
0.30168208 0.06256172 0.06256172
0.32695889 0.06256172 0.06256184
0.35283068 0.06256172 0.06256172
0.37927548 0.06256172 0.06256172
0.40627367 0.06256172 0.06256187
0.43380759 0.06256186 0.06256172
0.46186125 0.06256185 0.06256172
0.49042007 0.06256172 0.06256172
0.51947068 0.06256172 0.06256172
0.54900079 0.06256172 0.06256172
0.57899905 0.06256172 0.06256172
0.60945489 0.06256172 0.06256172
0.64035852 0.06256198 0.06256172
0.67170075 0.06256172 0.06256172
0.70347300 0.06256199 0.06256200
0.73566720 0.06256198 0.06256172
0.76827577 0.06256201 0.06256172
0.80129154 0.06256197 0.06256172
0.83470774 0.06256206 0.06256208
0.06256176 0.07505417 0.06256172
0.06256176 0.07505417 0.06256172
0.06256176 0.07505417 0.06256172
0.07505417 0.07505417 0.06256172
0.09015032 0.07505417 0.06256172
0.10688867 0.07505417 0.06256172
0.12492876 0.07505417 0.06256172
0.14407862 0.07505417 0.06256172
0.16421120 0.07505417 0.06256172
0.18523469 0.07505417 0.06256172
0.20707888 0.07505417 0.06256172
0.22968793 0.07505417 0.06256172
0.25301609 0.07505417 0.06256172
0.27702504 0.07505417 0.06256184
0.30168208 0.07505417 0.06256172
0.32695889 0.07505417 0.06256172
0.35283068 0.07505417 0.06256185
0.37927548 0.07505417 0.06256172
0.40627367 0.07505417 0.06256172
0.43380759 0.07505417 0.06256172
0.46186125 0.07505417 0.06256189
0.49042007 0.07505417 0.06256172
0.51947068 0.07505417 0.06256172
0.54900079 0.07505417 0.06256194
0.57899905 0.07505417 0.06256172
0.60945489 0.07505417 0.06256172
0.64035852 0.07505417 0.06256172
0.67170075 0.07505417 0.06256172
0.70347300 0.07505417 0.06256172
0.73566720 0.07505417 0.06256172
0.76827577 0.07505417 0.06256204
0.80129154 0.07505417 0.06256204
0.83470774 0.07505417 0.06256172
0.06256177 0.09015032 0.06256172
0.06256177 0.09015032 0.06256172
0.06256177 0.09015032 0.06256172
0.07505417 0.09015032 0.06256172
0.09015032 0.09015032 0.06256172
0.10688867 0.09015032 0.06256172
0.12492876 0.09015032 0.06256179
0.14407862 0.09015032 0.06256179
0.16421120 0.09015032 0.06256172
0.18523469 0.09015032 0.06256172
0.20707888 0.09015032 0.06256172
0.22968793 0.09015032 0.06256181
0.25301609 0.09015032 0.06256182
0.27702504 0.09015032 0.06256172
0.30168208 0.09015032 0.06256184
0.32695889 0.09015032 0.06256172
0.35283068 0.09015032 0.06256172
0.37927548 0.09015032 0.06256172
0.40627367 0.09015032 0.06256172
0.43380759 0.09015032 0.06256172
0.46186125 0.09015032 0.06256172
0.49042007 0.09015032 0.06256172
0.51947068 0.09015032 0.06256172
0.54900079 0.09015032 0.06256172
0.57899905 0.09015032 0.06256172
0.60945489 0.09015032 0.06256172
0.64035852 0.09015032 0.06256172
0.67170075 0.09015032 0.06256200
0.70347300 0.09015032 0.06256200
0.73566720 0.09015032 0.06256172
0.76827577 0.09015032 0.06256204
0.80129154 0.09015032 0.06256172
0.83470774 0.09015032 0.06256208
0.06256176 0.10688867 0.06256177
0.06256176 0.10688867 0.06256177
0.06256176 0.10688867 0.06256177
0.07505417 0.10688867 0.06256172
0.09015032 0.10688867 0.06256172
0.10688867 0.10688867 0.06256172
0.12492876 0.10688867 0.06256179
0.14407862 0.10688867 0.06256172
0.16421120 0.10688867 0.06256172
0.18523469 0.10688867 0.06256180
0.20707888 0.10688867 0.06256172
0.22968793 0.10688867 0.06256172
0.25301609 0.10688867 0.06256172
0.27702504 0.10688867 0.06256172
0.30168208 0.10688867 0.06256184
0.32695889 0.10688867 0.06256172
0.35283068 0.10688867 0.06256172
0.37927548 0.10688867 0.06256172
0.40627367 0.10688867 0.06256172
0.43380759 0.10688867 0.06256172
0.46186125 0.10688867 0.06256172
0.49042007 0.10688867 0.06256172
0.51947068 0.10688867 0.06256172
0.54900079 0.10688867 0.06256172
0.57899905 0.10688867 0.06256194
0.60945489 0.10688867 0.06256172
0.64035852 0.10688867 0.06256197
0.67170075 0.10688867 0.06256172
0.70347300 0.10688867 0.06256172
0.73566720 0.10688867 0.06256172
0.76827577 0.10688867 0.06256172
0.80129154 0.10688867 0.06256172
0.83470774 0.10688867 0.06256208
0.06256179 0.12492876 0.06256172
0.06256179 0.12492876 0.06256172
0.06256179 0.12492876 0.06256172
0.07505417 0.12492876 0.06256172
0.09015032 0.12492876 0.06256172
0.10688867 0.12492876 0.06256172
0.12492876 0.12492876 0.06256172
0.14407862 0.12492876 0.06256179
0.16421120 0.12492876 0.06256172
0.18523469 0.12492876 0.06256180
0.20707888 0.12492876 0.06256172
0.22968793 0.12492876 0.06256172
0.25301609 0.12492876 0.06256172
0.27702504 0.12492876 0.06256182
0.30168208 0.12492876 0.06256184
0.32695889 0.12492876 0.06256172
0.35283068 0.12492876 0.06256172
0.37927548 0.12492876 0.06256185
0.40627367 0.12492876 0.06256172
0.43380759 0.12492876 0.06256172
0.46186125 0.12492876 0.06256172
0.49042007 0.12492876 0.06256172
0.51947068 0.12492876 0.06256191
0.54900079 0.12492876 0.06256172
0.57899905 0.12492876 0.06256172
0.60945489 0.12492876 0.06256172
0.64035852 0.12492876 0.06256172
0.67170075 0.12492876 0.06256200
0.70347300 0.12492876 0.06256200
0.73566720 0.12492876 0.06256172
0.76827577 0.12492876 0.06256204
0.80129154 0.12492876 0.06256172
0.83470774 0.12492876 0.06256172
0.06256179 0.14407862 0.06256172
0.06256179 0.14407862 0.06256172
0.06256179 0.14407862 0.06256172
0.07505417 0.14407862 0.06256172
0.09015032 0.14407862 0.06256172
0.10688867 0.14407862 0.06256172
0.12492876 0.14407862 0.06256172
0.14407862 0.14407862 0.06256172
0.16421120 0.14407862 0.06256172
0.18523469 0.14407862 0.06256172
0.20707888 0.14407862 0.06256172
0.22968793 0.14407862 0.06256172
0.25301609 0.14407862 0.06256172
0.27702504 0.14407862 0.06256172
0.30168208 0.14407862 0.06256184
0.32695889 0.14407862 0.06256172
0.35283068 0.14407862 0.06256172
0.37927548 0.14407862 0.06256172
0.40627367 0.14407862 0.06256187
0.43380759 0.14407862 0.06256172
0.46186125 0.14407862 0.06256172
0.49042007 0.14407862 0.06256172
0.51947068 0.14407862 0.06256172
0.54900079 0.14407862 0.06256191
0.57899905 0.14407862 0.06256172
0.60945489 0.14407862 0.06256172
0.64035852 0.14407862 0.06256172
0.67170075 0.14407862 0.06256172
0.70347300 0.14407862 0.06256172
0.73566720 0.14407862 0.06256172
0.76827577 0.14407862 0.06256172
0.80129154 0.14407862 0.06256172
0.83470774 0.14407862 0.06256172
0.06256180 0.16421120 0.06256172
0.06256180 0.16421120 0.06256172
0.06256180 0.16421120 0.06256172
0.07505417 0.16421120 0.06256172
0.09015032 0.16421120 0.06256172
0.10688867 0.16421120 0.06256172
0.12492876 0.16421120 0.06256172
0.14407862 0.16421120 0.06256172
0.16421120 0.16421120 0.06256172
0.18523469 0.16421120 0.06256172
0.20707888 0.16421120 0.06256172
0.22968793 0.16421120 0.06256172
0.25301609 0.16421120 0.06256172
0.27702504 0.16421120 0.06256182
0.30168208 0.16421120 0.06256184
0.32695889 0.16421120 0.06256184
0.35283068 0.16421120 0.06256185
0.37927548 0.16421120 0.06256172
0.40627367 0.16421120 0.06256172
0.43380759 0.16421120 0.06256172
0.46186125 0.16421120 0.06256172
0.49042007 0.16421120 0.06256172
0.51947068 0.16421120 0.06256172
0.54900079 0.16421120 0.06256191
0.57899905 0.16421120 0.06256194
0.60945489 0.16421120 0.06256194
0.64035852 0.16421120 0.06256172
0.67170075 0.16421120 0.06256172
0.70347300 0.16421120 0.06256172
0.73566720 0.16421120 0.06256172
0.76827577 0.16421120 0.06256172
0.80129154 0.16421120 0.06256172
0.83470774 0.16421120 0.06256172
0.06256181 0.18523469 0.06256172
0.06256181 0.18523469 0.06256172
0.06256181 0.18523469 0.06256172
0.07505417 0.18523469 0.06256172
0.09015032 0.18523469 0.06256172
0.10688867 0.18523469 0.06256172
0.12492876 0.18523469 0.06256172
0.14407862 0.18523469 0.06256172
0.16421120 0.18523469 0.06256172
0.18523469 0.18523469 0.06256172
0.20707888 0.18523469 0.06256172
0.22968793 0.18523469 0.06256172
0.25301609 0.18523469 0.06256184
0.27702504 0.18523469 0.06256184
0.30168208 0.18523469 0.06256172
0.32695889 0.18523469 0.06256172
0.35283068 0.18523469 0.06256187
0.37927548 0.18523469 0.06256172
0.40627367 0.18523469 0.06256187
0.43380759 0.18523469 0.06256172
0.46186125 0.18523469 0.06256172
0.49042007 0.18523469 0.06256172
0.51947068 0.18523469 0.06256172
0.54900079 0.18523469 0.06256191
0.57899905 0.18523469 0.06256194
0.60945489 0.18523469 0.06256172
0.64035852 0.18523469 0.06256172
0.67170075 0.18523469 0.06256197
0.70347300 0.18523469 0.06256200
0.73566720 0.18523469 0.06256172
0.76827577 0.18523469 0.06256172
0.80129154 0.18523469 0.06256204
0.83470774 0.18523469 0.06256172
0.06256183 0.20707888 0.06256172
0.06256183 0.20707888 0.06256172
0.06256183 0.20707888 0.06256172
0.07505417 0.20707888 0.06256172
0.09015032 0.20707888 0.06256172
0.10688867 0.20707888 0.06256172
0.12492876 0.20707888 0.06256172
0.14407862 0.20707888 0.06256172
0.16421120 0.20707888 0.06256172
0.18523469 0.20707888 0.06256172
0.20707888 0.20707888 0.06256172
0.22968793 0.20707888 0.06256172
0.25301609 0.20707888 0.06256172
0.27702504 0.20707888 0.06256172
0.30168208 0.20707888 0.06256172
0.32695889 0.20707888 0.06256172
0.35283068 0.20707888 0.06256172
0.37927548 0.20707888 0.06256187
0.40627367 0.20707888 0.06256172
0.43380759 0.20707888 0.06256172
0.46186125 0.20707888 0.06256172
0.49042007 0.20707888 0.06256172
0.51947068 0.20707888 0.06256191
0.54900079 0.20707888 0.06256172
0.57899905 0.20707888 0.06256172
0.60945489 0.20707888 0.06256194
0.64035852 0.20707888 0.06256172
0.67170075 0.20707888 0.06256172
0.70347300 0.20707888 0.06256172
0.73566720 0.20707888 0.06256172
0.76827577 0.20707888 0.06256172
0.80129154 0.20707888 0.06256172
0.83470774 0.20707888 0.06256208
0.06256185 0.22968793 0.06256172
0.06256185 0.22968793 0.06256172
0.06256185 0.22968793 0.06256172
0.07505417 0.22968793 0.06256172
0.09015032 0.22968793 0.06256172
0.10688867 0.22968793 0.06256172
0.12492876 0.22968793 0.06256172
0.14407862 0.22968793 0.06256172
0.16421120 0.22968793 0.06256172
0.18523469 0.22968793 0.06256172
0.20707888 0.22968793 0.06256172
0.22968793 0.22968793 0.06256182
0.25301609 0.22968793 0.06256172
0.27702504 0.22968793 0.06256172
0.30168208 0.22968793 0.06256184
0.32695889 0.22968793 0.06256172
0.35283068 0.22968793 0.06256172
0.37927548 0.22968793 0.06256172
0.40627367 0.22968793 0.06256187
0.43380759 0.22968793 0.06256172
0.46186125 0.22968793 0.06256189
0.49042007 0.22968793 0.06256172
0.51947068 0.22968793 0.06256172
0.54900079 0.22968793 0.06256191
0.57899905 0.22968793 0.06256172
0.60945489 0.22968793 0.06256194
0.64035852 0.22968793 0.06256172
0.67170075 0.22968793 0.06256197
0.70347300 0.22968793 0.06256200
0.73566720 0.22968793 0.06256172
0.76827577 0.22968793 0.06256172
0.80129154 0.22968793 0.06256204
0.83470774 0.22968793 0.06256172
0.06256184 0.25301609 0.06256182
0.06256184 0.25301609 0.06256182
0.06256184 0.25301609 0.06256182
0.07505417 0.25301609 0.06256182
0.09015032 0.25301609 0.06256182
0.10688867 0.25301609 0.06256184
0.12492876 0.25301609 0.06256184
0.14407862 0.25301609 0.06256172
0.16421120 0.25301609 0.06256172
0.18523469 0.25301609 0.06256182
0.20707888 0.25301609 0.06256172
0.22968793 0.25301609 0.06256172
0.25301609 0.25301609 0.06256184
0.27702504 0.25301609 0.06256172
0.30168208 0.25301609 0.06256172
0.32695889 0.25301609 0.06256172
0.35283068 0.25301609 0.06256185
0.37927548 0.25301609 0.06256172
0.40627367 0.25301609 0.06256172
0.43380759 0.25301609 0.06256172
0.46186125 0.25301609 0.06256172
0.49042007 0.25301609 0.06256172
0.51947068 0.25301609 0.06256172
0.54900079 0.25301609 0.06256172
0.57899905 0.25301609 0.06256172
0.60945489 0.25301609 0.06256172
0.64035852 0.25301609 0.06256172
0.67170075 0.25301609 0.06256172
0.70347300 0.25301609 0.06256172
0.73566720 0.25301609 0.06256172
0.76827577 0.25301609 0.06256172
0.80129154 0.25301609 0.06256172
0.83470774 0.25301609 0.06256208
0.06256179 0.27702504 0.06256172
0.06256179 0.27702504 0.06256172
0.06256179 0.27702504 0.06256172
0.07505417 0.27702504 0.06256184
0.09015032 0.27702504 0.06256172
0.10688867 0.27702504 0.06256172
0.12492876 0.27702504 0.06256172
0.14407862 0.27702504 0.06256172
0.16421120 0.27702504 0.06256172
0.18523469 0.27702504 0.06256172
0.20707888 0.27702504 0.06256184
0.22968793 0.27702504 0.06256172
0.25301609 0.27702504 0.06256172
0.27702504 0.27702504 0.06256185
0.30168208 0.27702504 0.06256172
0.32695889 0.27702504 0.06256172
0.35283068 0.27702504 0.06256172
0.37927548 0.27702504 0.06256172
0.40627367 0.27702504 0.06256187
0.43380759 0.27702504 0.06256189
0.46186125 0.27702504 0.06256172
0.49042007 0.27702504 0.06256172
0.51947068 0.27702504 0.06256172
0.54900079 0.27702504 0.06256191
0.57899905 0.27702504 0.06256172
0.60945489 0.27702504 0.06256172
0.64035852 0.27702504 0.06256172
0.67170075 0.27702504 0.06256172
0.70347300 0.27702504 0.06256172
0.73566720 0.27702504 0.06256172
0.76827577 0.27702504 0.06256172
0.80129154 0.27702504 0.06256172
0.83470774 0.27702504 0.06256208
0.06256183 0.30168208 0.06256172
0.06256183 0.30168208 0.06256172
0.06256183 0.30168208 0.06256172
0.07505417 0.30168208 0.06256172
0.09015032 0.30168208 0.06256172
0.10688867 0.30168208 0.06256172
0.12492876 0.30168208 0.06256172
0.14407862 0.30168208 0.06256184
0.16421120 0.30168208 0.06256172
0.18523469 0.30168208 0.06256172
0.20707888 0.30168208 0.06256184
0.22968793 0.30168208 0.06256172
0.25301609 0.30168208 0.06256172
0.27702504 0.30168208 0.06256172
0.30168208 0.30168208 0.06256172
0.32695889 0.30168208 0.06256185
0.35283068 0.30168208 0.06256172
0.37927548 0.30168208 0.06256187
0.40627367 0.30168208 0.06256172
0.43380759 0.30168208 0.06256172
0.46186125 0.30168208 0.06256172
0.49042007 0.30168208 0.06256172
0.51947068 0.30168208 0.06256172
0.54900079 0.30168208 0.06256172
0.57899905 0.30168208 0.06256172
0.60945489 0.30168208 0.06256172
0.64035852 0.30168208 0.06256172
0.67170075 0.30168208 0.06256172
0.70347300 0.30168208 0.06256200
0.73566720 0.30168208 0.06256172
0.76827577 0.30168208 0.06256172
0.80129154 0.30168208 0.06256204
0.83470774 0.30168208 0.06256172
0.06256187 0.32695889 0.06256172
0.06256187 0.32695889 0.06256172
0.06256187 0.32695889 0.06256172
0.07505417 0.32695889 0.06256172
0.09015032 0.32695889 0.06256172
0.10688867 0.32695889 0.06256172
0.12492876 0.32695889 0.06256172
0.14407862 0.32695889 0.06256172
0.16421120 0.32695889 0.06256172
0.18523469 0.32695889 0.06256172
0.20707888 0.32695889 0.06256172
0.22968793 0.32695889 0.06256172
0.25301609 0.32695889 0.06256172
0.27702504 0.32695889 0.06256172
0.30168208 0.32695889 0.06256172
0.32695889 0.32695889 0.06256172
0.35283068 0.32695889 0.06256172
0.37927548 0.32695889 0.06256172
0.40627367 0.32695889 0.06256172
0.43380759 0.32695889 0.06256172
0.46186125 0.32695889 0.06256172
0.49042007 0.32695889 0.06256172
0.51947068 0.32695889 0.06256194
0.54900079 0.32695889 0.06256172
0.57899905 0.32695889 0.06256172
0.60945489 0.32695889 0.06256172
0.64035852 0.32695889 0.06256172
0.67170075 0.32695889 0.06256172
0.70347300 0.32695889 0.06256172
0.73566720 0.32695889 0.06256172
0.76827577 0.32695889 0.06256172
0.80129154 0.32695889 0.06256172
0.83470774 0.32695889 0.06256208
0.06256172 0.35283068 0.06256172
0.06256172 0.35283068 0.06256172
0.06256172 0.35283068 0.06256172
0.07505417 0.35283068 0.06256172
0.09015032 0.35283068 0.06256185
0.10688867 0.35283068 0.06256172
0.12492876 0.35283068 0.06256172
0.14407862 0.35283068 0.06256172
0.16421120 0.35283068 0.06256172
0.18523469 0.35283068 0.06256172
0.20707888 0.35283068 0.06256172
0.22968793 0.35283068 0.06256172
0.25301609 0.35283068 0.06256172
0.27702504 0.35283068 0.06256172
0.30168208 0.35283068 0.06256172
0.32695889 0.35283068 0.06256187
0.35283068 0.35283068 0.06256172
0.37927548 0.35283068 0.06256187
0.40627367 0.35283068 0.06256172
0.43380759 0.35283068 0.06256189
0.46186125 0.35283068 0.06256172
0.49042007 0.35283068 0.06256172
0.51947068 0.35283068 0.06256172
0.54900079 0.35283068 0.06256172
0.57899905 0.35283068 0.06256172
0.60945489 0.35283068 0.06256194
0.64035852 0.35283068 0.06256172
0.67170075 0.35283068 0.06256172
0.70347300 0.35283068 0.06256172
0.73566720 0.35283068 0.06256172
0.76827577 0.35283068 0.06256172
0.80129154 0.35283068 0.06256172
0.83470774 0.35283068 0.06256172
0.06256189 0.37927548 0.06256172
0.06256189 0.37927548 0.06256172
0.06256189 0.37927548 0.06256172
0.07505417 0.37927548 0.06256172
0.09015032 0.37927548 0.06256172
0.10688867 0.37927548 0.06256172
0.12492876 0.37927548 0.06256172
0.14407862 0.37927548 0.06256187
0.16421120 0.37927548 0.06256172
0.18523469 0.37927548 0.06256187
0.20707888 0.37927548 0.06256187
0.22968793 0.37927548 0.06256172
0.25301609 0.37927548 0.06256172
0.27702504 0.37927548 0.06256172
0.30168208 0.37927548 0.06256172
0.32695889 0.37927548 0.06256172
0.35283068 0.37927548 0.06256187
0.37927548 0.37927548 0.06256189
0.40627367 0.37927548 0.06256172
0.43380759 0.37927548 0.06256172
0.46186125 0.37927548 0.06256172
0.49042007 0.37927548 0.06256172
0.51947068 0.37927548 0.06256172
0.54900079 0.37927548 0.06256172
0.57899905 0.37927548 0.06256194
0.60945489 0.37927548 0.06256172
0.64035852 0.37927548 0.06256172
0.67170075 0.37927548 0.06256197
0.70347300 0.37927548 0.06256172
0.73566720 0.37927548 0.06256172
0.76827577 0.37927548 0.06256172
0.80129154 0.37927548 0.06256172
0.83470774 0.37927548 0.06256172
0.06256187 0.40627367 0.06256172
0.06256187 0.40627367 0.06256172
0.06256187 0.40627367 0.06256172
0.07505417 0.40627367 0.06256172
0.09015032 0.40627367 0.06256172
0.10688867 0.40627367 0.06256172
0.12492876 0.40627367 0.06256172
0.14407862 0.40627367 0.06256172
0.16421120 0.40627367 0.06256172
0.18523469 0.40627367 0.06256172
0.20707888 0.40627367 0.06256172
0.22968793 0.40627367 0.06256172
0.25301609 0.40627367 0.06256172
0.27702504 0.40627367 0.06256172
0.30168208 0.40627367 0.06256172
0.32695889 0.40627367 0.06256172
0.35283068 0.40627367 0.06256172
0.37927548 0.40627367 0.06256172
0.40627367 0.40627367 0.06256189
0.43380759 0.40627367 0.06256189
0.46186125 0.40627367 0.06256172
0.49042007 0.40627367 0.06256172
0.51947068 0.40627367 0.06256172
0.54900079 0.40627367 0.06256172
0.57899905 0.40627367 0.06256172
0.60945489 0.40627367 0.06256172
0.64035852 0.40627367 0.06256172
0.67170075 0.40627367 0.06256197
0.70347300 0.40627367 0.06256172
0.73566720 0.40627367 0.06256172
0.76827577 0.40627367 0.06256172
0.80129154 0.40627367 0.06256172
0.83470774 0.40627367 0.06256208
0.06256191 0.43380759 0.06256172
0.06256191 0.43380759 0.06256172
0.06256191 0.43380759 0.06256172
0.07505417 0.43380759 0.06256172
0.09015032 0.43380759 0.06256172
0.10688867 0.43380759 0.06256172
0.12492876 0.43380759 0.06256172
0.14407862 0.43380759 0.06256172
0.16421120 0.43380759 0.06256172
0.18523469 0.43380759 0.06256172
0.20707888 0.43380759 0.06256172
0.22968793 0.43380759 0.06256189
0.25301609 0.43380759 0.06256172
0.27702504 0.43380759 0.06256172
0.30168208 0.43380759 0.06256172
0.32695889 0.43380759 0.06256189
0.35283068 0.43380759 0.06256189
0.37927548 0.43380759 0.06256172
0.40627367 0.43380759 0.06256172
0.43380759 0.43380759 0.06256172
0.46186125 0.43380759 0.06256172
0.49042007 0.43380759 0.06256172
0.51947068 0.43380759 0.06256172
0.54900079 0.43380759 0.06256172
0.57899905 0.43380759 0.06256172
0.60945489 0.43380759 0.06256172
0.64035852 0.43380759 0.06256200
0.67170075 0.43380759 0.06256172
0.70347300 0.43380759 0.06256200
0.73566720 0.43380759 0.06256172
0.76827577 0.43380759 0.06256172
0.80129154 0.43380759 0.06256204
0.83470774 0.43380759 0.06256172
0.06256193 0.46186125 0.06256172
0.06256193 0.46186125 0.06256172
0.06256193 0.46186125 0.06256172
0.07505417 0.46186125 0.06256172
0.09015032 0.46186125 0.06256172
0.10688867 0.46186125 0.06256172
0.12492876 0.46186125 0.06256172
0.14407862 0.46186125 0.06256172
0.16421120 0.46186125 0.06256189
0.18523469 0.46186125 0.06256172
0.20707888 0.46186125 0.06256189
0.22968793 0.46186125 0.06256172
0.25301609 0.46186125 0.06256172
0.27702504 0.46186125 0.06256172
0.30168208 0.46186125 0.06256172
0.32695889 0.46186125 0.06256172
0.35283068 0.46186125 0.06256172
0.37927548 0.46186125 0.06256172
0.40627367 0.46186125 0.06256172
0.43380759 0.46186125 0.06256172
0.46186125 0.46186125 0.06256172
0.49042007 0.46186125 0.06256172
0.51947068 0.46186125 0.06256194
0.54900079 0.46186125 0.06256194
0.57899905 0.46186125 0.06256172
0.60945489 0.46186125 0.06256172
0.64035852 0.46186125 0.06256172
0.67170075 0.46186125 0.06256172
0.70347300 0.46186125 0.06256172
0.73566720 0.46186125 0.06256172
0.76827577 0.46186125 0.06256204
0.80129154 0.46186125 0.06256204
0.83470774 0.46186125 0.06256172
0.06256191 0.49042007 0.06256172
0.06256191 0.49042007 0.06256172
0.06256191 0.49042007 0.06256172
0.07505417 0.49042007 0.06256172
0.09015032 0.49042007 0.06256172
0.10688867 0.49042007 0.06256172
0.12492876 0.49042007 0.06256172
0.14407862 0.49042007 0.06256172
0.16421120 0.49042007 0.06256172
0.18523469 0.49042007 0.06256172
0.20707888 0.49042007 0.06256172
0.22968793 0.49042007 0.06256172
0.25301609 0.49042007 0.06256172
0.27702504 0.49042007 0.06256172
0.30168208 0.49042007 0.06256172
0.32695889 0.49042007 0.06256172
0.35283068 0.49042007 0.06256172
0.37927548 0.49042007 0.06256191
0.40627367 0.49042007 0.06256172
0.43380759 0.49042007 0.06256172
0.46186125 0.49042007 0.06256191
0.49042007 0.49042007 0.06256172
0.51947068 0.49042007 0.06256172
0.54900079 0.49042007 0.06256172
0.57899905 0.49042007 0.06256172
0.60945489 0.49042007 0.06256172
0.64035852 0.49042007 0.06256172
