src/ffmpeg_scripts/luts/luminance-unclipped_-3p33.cube
TITLE "luminance-unclipped_-3p33"
LUT_3D_SIZE 5
# PQ (EOTF Only)/Rec2020 -> PQ (EOTF Only)/Rec2020, CineEI Shift -3.33, Black Level -7.25% IRE, Input 109% -> Output 109% - Created with LUTCalc v4.01 by Ben Turley October 2020
0.00047898 0.00047898 0.00047898
0.09967767 0.00047898 0.00047898
0.29942330 0.00047910 0.00047914
0.55108700 0.00047898 0.00047898
0.84566501 0.00047931 0.00047935
0.00047907 0.09967767 0.00047898
0.09967767 0.09967767 0.00047898
0.29942330 0.09967767 0.00047912
0.55108700 0.09967767 0.00047898
0.84566501 0.09967767 0.00047898
0.00047898 0.29942330 0.00047898
0.09967767 0.29942330 0.00047898
0.29942330 0.29942330 0.00047898
0.55108700 0.29942330 0.00047898
0.84566501 0.29942330 0.00047898
0.00047898 0.55108700 0.00047898
0.09967767 0.55108700 0.00047898
0.29942330 0.55108700 0.00047898
0.55108700 0.55108700 0.00047898
0.84566501 0.55108700 0.00047935
0.00047941 0.84566501 0.00047940
0.09967767 0.84566501 0.00047898
0.29942330 0.84566501 0.00047898
0.55108700 0.84566501 0.00047898
0.84566501 0.84566501 0.00047898
0.00047898 0.00047909 0.09967767
0.09967767 0.00047909 0.09967767
0.29942330 0.00047914 0.09967767
0.55108700 0.00047898 0.09967767
0.84566501 0.00047933 0.09967767
0.00047898 0.09967767 0.09967767
0.09967767 0.09967767 0.09967767
0.29942330 0.09967767 0.09967767
0.55108700 0.09967767 0.09967767
0.84566501 0.09967767 0.09967767
0.00047916 0.29942330 0.09967767
0.09967767 0.29942330 0.09967767
0.29942330 0.29942330 0.09967767
0.55108700 0.29942330 0.09967767
0.84566501 0.29942330 0.09967767
0.00047931 0.55108700 0.09967767
0.09967767 0.55108700 0.09967767
0.29942330 0.55108700 0.09967767
0.55108700 0.55108700 0.09967767
0.84566501 0.55108700 0.09967767
0.00047898 0.84566501 0.09967767
0.09967767 0.84566501 0.09967767
0.29942330 0.84566501 0.09967767
0.55108700 0.84566501 0.09967767
0.84566501 0.84566501 0.09967767
0.00047898 0.00047920 0.29942330
0.09967767 0.00047898 0.29942330
0.29942330 0.00047918 0.29942330
0.55108700 0.00047918 0.29942330
0.84566501 0.00047941 0.29942330
0.00047898 0.09967767 0.29942330
0.09967767 0.09967767 0.29942330
0.29942330 0.09967767 0.29942330
0.55108700 0.09967767 0.29942330
0.84566501 0.09967767 0.29942330
0.00047898 0.29942330 0.29942330
0.09967767 0.29942330 0.29942330
0.29942330 0.29942330 0.29942330
0.55108700 0.29942330 0.29942330
0.84566501 0.29942330 0.29942330
0.00047898 0.55108700 0.29942330
0.09967767 0.55108700 0.29942330
0.29942330 0.55108700 0.29942330
0.55108700 0.55108700 0.29942330
0.84566501 0.55108700 0.29942330
0.00047898 0.84566501 0.29942330
0.09967767 0.84566501 0.29942330
0.29942330 0.84566501 0.29942330
0.55108700 0.84566501 0.29942330
0.84566501 0.84566501 0.29942330
0.00047898 0.00047931 0.55108700
0.09967767 0.00047898 0.55108700
0.29942330 0.00047931 0.55108700
0.55108700 0.00047931 0.55108700
0.84566501 0.00047898 0.55108700
0.00047898 0.09967767 0.55108700
0.09967767 0.09967767 0.55108700
0.29942330 0.09967767 0.55108700
0.55108700 0.09967767 0.55108700
0.84566501 0.09967767 0.55108700
0.00047898 0.29942330 0.55108700
0.09967767 0.29942330 0.55108700
0.29942330 0.29942330 0.55108700
0.55108700 0.29942330 0.55108700
0.84566501 0.29942330 0.55108700
0.00047898 0.55108700 0.55108700
0.09967767 0.55108700 0.55108700
0.29942330 0.55108700 0.55108700
0.55108700 0.55108700 0.55108700
0.84566501 0.55108700 0.55108700
0.00047941 0.84566501 0.55108700
0.09967767 0.84566501 0.55108700
0.29942330 0.84566501 0.55108700
0.55108700 0.84566501 0.55108700
0.84566501 0.84566501 0.55108700
0.00047898 0.00047953 0.84566501
0.09967767 0.00047953 0.84566501
0.29942330 0.00047961 0.84566501
0.55108700 0.00047953 0.84566501
0.84566501 0.00047953 0.84566501
0.00047940 0.09967767 0.84566501
0.09967767 0.09967767 0.84566501
0.29942330 0.09967767 0.84566501
0.55108700 0.09967767 0.84566501
0.84566501 0.09967767 0.84566501
0.00047898 0.29942330 0.84566501
0.09967767 0.29942330 0.84566501
0.29942330 0.29942330 0.84566501
0.55108700 0.29942330 0.84566501
0.84566501 0.29942330 0.84566501
0.00047940 0.55108700 0.84566501
0.09967767 0.55108700 0.84566501
0.29942330 0.55108700 0.84566501
0.55108700 0.55108700 0.84566501
0.84566501 0.55108700 0.84566501
0.00047940 0.84566501 0.84566501
0.09967767 0.84566501 0.84566501
0.29942330 0.84566501 0.84566501
0.55108700 0.84566501 0.84566501
0.84566501 0.84566501 0.84566501
