src/ffmpeg_scripts/luts/luminance_1p33.cube
TITLE "luminance_1p33"
LUT_3D_SIZE 33
# PQ (EOTF Only)/Rec2020 -> PQ (EOTF Only)/Rec2020, CineEI Shift 1.33, Black Level 0.00% IRE, Input 109% -> Output 109% - Created with LUTCalc v4.01 by Ben Turley October 2020
0.06256172 0.06256172 0.06256172
0.06256172 0.06256172 0.06256172
0.06256172 0.06256172 0.06256172
0.10979366 0.06256172 0.06256177
0.15229481 0.06256172 0.06256172
0.19263571 0.06256172 0.06256172
0.23153262 0.06256172 0.06256172
0.26934073 0.06256172 0.06256182
0.30627433 0.06256172 0.06256172
0.34247726 0.06256172 0.06256187
0.37805285 0.06256188 0.06256172
0.41307902 0.06256184 0.06256172
0.44761664 0.06256172 0.06256172
0.48171457 0.06256172 0.06256172
0.51541288 0.06256172 0.06256172
0.54874508 0.06256190 0.06256191
0.58173955 0.06256191 0.06256172
0.61442068 0.06256197 0.06256172
0.64680961 0.06256199 0.06256197
0.67892490 0.06256203 0.06256172
0.71078289 0.06256172 0.06256172
0.74239816 0.06256172 0.06256172
0.77378373 0.06256172 0.06256172
0.80495135 0.06256172 0.06256172
0.83591164 0.06256200 0.06256172
0.86667425 0.06256172 0.06256208
0.89724802 0.06256172 0.06256172
0.91886608 0.06256215 0.06256172
0.91886608 0.06256172 0.06256172
0.91886608 0.06256172 0.06256172
0.91886608 0.06256227 0.06256227
0.91886608 0.06256227 0.06256172
0.91886608 0.06256238 0.06256245
0.06256172 0.06256172 0.06256172
0.06256172 0.06256172 0.06256172
0.06256172 0.06256172 0.06256172
0.10979366 0.06256172 0.06256177
0.15229481 0.06256172 0.06256172
0.19263571 0.06256172 0.06256172
0.23153262 0.06256172 0.06256172
0.26934073 0.06256172 0.06256182
0.30627433 0.06256172 0.06256172
0.34247726 0.06256172 0.06256187
0.37805285 0.06256188 0.06256172
0.41307902 0.06256184 0.06256172
0.44761664 0.06256172 0.06256172
0.48171457 0.06256172 0.06256172
0.51541288 0.06256172 0.06256172
0.54874508 0.06256190 0.06256191
0.58173955 0.06256191 0.06256172
0.61442068 0.06256197 0.06256172
0.64680961 0.06256199 0.06256197
0.67892490 0.06256203 0.06256172
0.71078289 0.06256172 0.06256172
0.74239816 0.06256172 0.06256172
0.77378373 0.06256172 0.06256172
0.80495135 0.06256172 0.06256172
0.83591164 0.06256200 0.06256172
0.86667425 0.06256172 0.06256208
0.89724802 0.06256172 0.06256172
0.91886608 0.06256215 0.06256172
0.91886608 0.06256172 0.06256172
0.91886608 0.06256172 0.06256172
0.91886608 0.06256227 0.06256227
0.91886608 0.06256227 0.06256172
0.91886608 0.06256238 0.06256245
0.06256172 0.06256172 0.06256172
0.06256172 0.06256172 0.06256172
0.06256172 0.06256172 0.06256172
0.10979366 0.06256172 0.06256177
0.15229481 0.06256172 0.06256172
0.19263571 0.06256172 0.06256172
0.23153262 0.06256172 0.06256172
0.26934073 0.06256172 0.06256182
0.30627433 0.06256172 0.06256172
0.34247726 0.06256172 0.06256187
0.37805285 0.06256188 0.06256172
0.41307902 0.06256184 0.06256172
0.44761664 0.06256172 0.06256172
0.48171457 0.06256172 0.06256172
0.51541288 0.06256172 0.06256172
0.54874508 0.06256190 0.06256191
0.58173955 0.06256191 0.06256172
0.61442068 0.06256197 0.06256172
0.64680961 0.06256199 0.06256197
0.67892490 0.06256203 0.06256172
0.71078289 0.06256172 0.06256172
0.74239816 0.06256172 0.06256172
0.77378373 0.06256172 0.06256172
0.80495135 0.06256172 0.06256172
0.83591164 0.06256200 0.06256172
0.86667425 0.06256172 0.06256208
0.89724802 0.06256172 0.06256172
0.91886608 0.06256215 0.06256172
0.91886608 0.06256172 0.06256172
0.91886608 0.06256172 0.06256172
0.91886608 0.06256227 0.06256227
0.91886608 0.06256227 0.06256172
0.91886608 0.06256238 0.06256245
0.06256179 0.10979366 0.06256172
0.06256179 0.10979366 0.06256172
0.06256179 0.10979366 0.06256172
0.10979366 0.10979366 0.06256172
0.15229481 0.10979366 0.06256172
0.19263571 0.10979366 0.06256172
0.23153262 0.10979366 0.06256172
0.26934073 0.10979366 0.06256172
0.30627433 0.10979366 0.06256172
0.34247726 0.10979366 0.06256172
0.37805285 0.10979366 0.06256172
0.41307902 0.10979366 0.06256172
0.44761664 0.10979366 0.06256172
0.48171457 0.10979366 0.06256172
0.51541288 0.10979366 0.06256172
0.54874508 0.10979366 0.06256191
0.58173955 0.10979366 0.06256172
0.61442068 0.10979366 0.06256172
0.64680961 0.10979366 0.06256172
0.67892490 0.10979366 0.06256172
0.71078289 0.10979366 0.06256172
0.74239816 0.10979366 0.06256172
0.77378373 0.10979366 0.06256172
0.80495135 0.10979366 0.06256204
0.83591164 0.10979366 0.06256208
0.86667425 0.10979366 0.06256172
0.89724802 0.10979366 0.06256172
0.91886608 0.10979366 0.06256213
0.91886608 0.10979366 0.06256172
0.91886608 0.10979366 0.06256219
0.91886608 0.10979366 0.06256227
0.91886608 0.10979366 0.06256172
0.91886608 0.10979366 0.06256172
0.06256181 0.15229481 0.06256172
0.06256181 0.15229481 0.06256172
0.06256181 0.15229481 0.06256172
0.10979366 0.15229481 0.06256172
0.15229481 0.15229481 0.06256172
0.19263571 0.15229481 0.06256172
0.23153262 0.15229481 0.06256181
0.26934073 0.15229481 0.06256182
0.30627433 0.15229481 0.06256172
0.34247726 0.15229481 0.06256185
0.37805285 0.15229481 0.06256172
0.41307902 0.15229481 0.06256187
0.44761664 0.15229481 0.06256189
0.48171457 0.15229481 0.06256189
0.51541288 0.15229481 0.06256172
0.54874508 0.15229481 0.06256172
0.58173955 0.15229481 0.06256172
0.61442068 0.15229481 0.06256194
0.64680961 0.15229481 0.06256172
0.67892490 0.15229481 0.06256172
0.71078289 0.15229481 0.06256172
0.74239816 0.15229481 0.06256172
0.77378373 0.15229481 0.06256172
0.80495135 0.15229481 0.06256204
0.83591164 0.15229481 0.06256208
0.86667425 0.15229481 0.06256208
0.89724802 0.15229481 0.06256172
0.91886608 0.15229481 0.06256219
0.91886608 0.15229481 0.06256227
0.91886608 0.15229481 0.06256172
0.91886608 0.15229481 0.06256227
0.91886608 0.15229481 0.06256172
0.91886608 0.15229481 0.06256235
0.06256179 0.19263571 0.06256172
0.06256179 0.19263571 0.06256172
0.06256179 0.19263571 0.06256172
0.10979366 0.19263571 0.06256172
0.15229481 0.19263571 0.06256181
0.19263571 0.19263571 0.06256172
0.23153262 0.19263571 0.06256182
0.26934073 0.19263571 0.06256172
0.30627433 0.19263571 0.06256172
0.34247726 0.19263571 0.06256185
0.37805285 0.19263571 0.06256172
0.41307902 0.19263571 0.06256172
0.44761664 0.19263571 0.06256172
0.48171457 0.19263571 0.06256189
0.51541288 0.19263571 0.06256191
0.54874508 0.19263571 0.06256172
0.58173955 0.19263571 0.06256172
0.61442068 0.19263571 0.06256194
0.64680961 0.19263571 0.06256172
0.67892490 0.19263571 0.06256172
0.71078289 0.19263571 0.06256172
0.74239816 0.19263571 0.06256172
0.77378373 0.19263571 0.06256172
0.80495135 0.19263571 0.06256172
0.83591164 0.19263571 0.06256172
0.86667425 0.19263571 0.06256172
0.89724802 0.19263571 0.06256172
0.91886608 0.19263571 0.06256172
0.91886608 0.19263571 0.06256219
0.91886608 0.19263571 0.06256172
0.91886608 0.19263571 0.06256172
0.91886608 0.19263571 0.06256172
0.91886608 0.19263571 0.06256245
0.06256183 0.23153262 0.06256172
0.06256183 0.23153262 0.06256172
0.06256183 0.23153262 0.06256172
0.10979366 0.23153262 0.06256172
0.15229481 0.23153262 0.06256172
0.19263571 0.23153262 0.06256172
0.23153262 0.23153262 0.06256172
0.26934073 0.23153262 0.06256172
0.30627433 0.23153262 0.06256172
0.34247726 0.23153262 0.06256172
0.37805285 0.23153262 0.06256172
0.41307902 0.23153262 0.06256172
0.44761664 0.23153262 0.06256172
0.48171457 0.23153262 0.06256172
0.51541288 0.23153262 0.06256172
0.54874508 0.23153262 0.06256191
0.58173955 0.23153262 0.06256172
0.61442068 0.23153262 0.06256172
0.64680961 0.23153262 0.06256172
0.67892490 0.23153262 0.06256172
0.71078289 0.23153262 0.06256172
0.74239816 0.23153262 0.06256172
0.77378373 0.23153262 0.06256208
0.80495135 0.23153262 0.06256172
0.83591164 0.23153262 0.06256172
0.86667425 0.23153262 0.06256172
0.89724802 0.23153262 0.06256172
0.91886608 0.23153262 0.06256213
0.91886608 0.23153262 0.06256172
0.91886608 0.23153262 0.06256172
0.91886608 0.23153262 0.06256172
0.91886608 0.23153262 0.06256172
0.91886608 0.23153262 0.06256172
0.06256183 0.26934073 0.06256172
0.06256183 0.26934073 0.06256172
0.06256183 0.26934073 0.06256172
0.10979366 0.26934073 0.06256172
0.15229481 0.26934073 0.06256172
0.19263571 0.26934073 0.06256172
0.23153262 0.26934073 0.06256172
0.26934073 0.26934073 0.06256172
0.30627433 0.26934073 0.06256172
0.34247726 0.26934073 0.06256172
0.37805285 0.26934073 0.06256187
0.41307902 0.26934073 0.06256172
0.44761664 0.26934073 0.06256172
0.48171457 0.26934073 0.06256172
0.51541288 0.26934073 0.06256191
0.54874508 0.26934073 0.06256172
0.58173955 0.26934073 0.06256172
0.61442068 0.26934073 0.06256172
0.64680961 0.26934073 0.06256197
0.67892490 0.26934073 0.06256172
0.71078289 0.26934073 0.06256172
0.74239816 0.26934073 0.06256172
0.77378373 0.26934073 0.06256204
0.80495135 0.26934073 0.06256204
0.83591164 0.26934073 0.06256208
0.86667425 0.26934073 0.06256208
0.89724802 0.26934073 0.06256172
0.91886608 0.26934073 0.06256172
0.91886608 0.26934073 0.06256172
0.91886608 0.26934073 0.06256172
0.91886608 0.26934073 0.06256172
0.91886608 0.26934073 0.06256172
0.91886608 0.26934073 0.06256172
0.06256185 0.30627433 0.06256172
0.06256185 0.30627433 0.06256172
0.06256185 0.30627433 0.06256172
0.10979366 0.30627433 0.06256184
0.15229481 0.30627433 0.06256172
0.19263571 0.30627433 0.06256172
0.23153262 0.30627433 0.06256172
0.26934073 0.30627433 0.06256172
0.30627433 0.30627433 0.06256172
0.34247726 0.30627433 0.06256172
0.37805285 0.30627433 0.06256172
0.41307902 0.30627433 0.06256172
0.44761664 0.30627433 0.06256172
0.48171457 0.30627433 0.06256189
0.51541288 0.30627433 0.06256172
0.54874508 0.30627433 0.06256191
0.58173955 0.30627433 0.06256194
0.61442068 0.30627433 0.06256197
0.64680961 0.30627433 0.06256172
0.67892490 0.30627433 0.06256172
0.71078289 0.30627433 0.06256172
0.74239816 0.30627433 0.06256172
0.77378373 0.30627433 0.06256172
0.80495135 0.30627433 0.06256172
0.83591164 0.30627433 0.06256208
0.86667425 0.30627433 0.06256213
0.89724802 0.30627433 0.06256172
0.91886608 0.30627433 0.06256172
0.91886608 0.30627433 0.06256172
0.91886608 0.30627433 0.06256172
0.91886608 0.30627433 0.06256172
0.91886608 0.30627433 0.06256172
0.91886608 0.30627433 0.06256172
0.06256189 0.34247726 0.06256172
0.06256189 0.34247726 0.06256172
0.06256189 0.34247726 0.06256172
0.10979366 0.34247726 0.06256172
0.15229481 0.34247726 0.06256172
0.19263571 0.34247726 0.06256172
0.23153262 0.34247726 0.06256172
0.26934073 0.34247726 0.06256172
0.30627433 0.34247726 0.06256172
0.34247726 0.34247726 0.06256172
0.37805285 0.34247726 0.06256172
0.41307902 0.34247726 0.06256189
0.44761664 0.34247726 0.06256189
0.48171457 0.34247726 0.06256172
0.51541288 0.34247726 0.06256172
0.54874508 0.34247726 0.06256172
0.58173955 0.34247726 0.06256172
0.61442068 0.34247726 0.06256172
0.64680961 0.34247726 0.06256172
0.67892490 0.34247726 0.06256172
0.71078289 0.34247726 0.06256172
0.74239816 0.34247726 0.06256172
0.77378373 0.34247726 0.06256172
0.80495135 0.34247726 0.06256204
0.83591164 0.34247726 0.06256208
0.86667425 0.34247726 0.06256172
0.89724802 0.34247726 0.06256172
0.91886608 0.34247726 0.06256172
0.91886608 0.34247726 0.06256219
0.91886608 0.34247726 0.06256172
0.91886608 0.34247726 0.06256172
0.91886608 0.34247726 0.06256172
0.91886608 0.34247726 0.06256172
0.06256192 0.37805285 0.06256172
0.06256192 0.37805285 0.06256172
0.06256192 0.37805285 0.06256172
0.10979366 0.37805285 0.06256172
0.15229481 0.37805285 0.06256172
0.19263571 0.37805285 0.06256172
0.23153262 0.37805285 0.06256172
0.26934073 0.37805285 0.06256172
0.30627433 0.37805285 0.06256172
0.34247726 0.37805285 0.06256172
0.37805285 0.37805285 0.06256172
0.41307902 0.37805285 0.06256172
0.44761664 0.37805285 0.06256172
0.48171457 0.37805285 0.06256172
0.51541288 0.37805285 0.06256172
0.54874508 0.37805285 0.06256172
0.58173955 0.37805285 0.06256172
0.61442068 0.37805285 0.06256172
0.64680961 0.37805285 0.06256172
0.67892490 0.37805285 0.06256172
0.71078289 0.37805285 0.06256172
0.74239816 0.37805285 0.06256172
0.77378373 0.37805285 0.06256204
0.80495135 0.37805285 0.06256204
0.83591164 0.37805285 0.06256172
0.86667425 0.37805285 0.06256172
0.89724802 0.37805285 0.06256172
0.91886608 0.37805285 0.06256213
0.91886608 0.37805285 0.06256172
0.91886608 0.37805285 0.06256172
0.91886608 0.37805285 0.06256172
0.91886608 0.37805285 0.06256172
0.91886608 0.37805285 0.06256172
0.06256193 0.41307902 0.06256172
0.06256193 0.41307902 0.06256172
0.06256193 0.41307902 0.06256172
0.10979366 0.41307902 0.06256172
0.15229481 0.41307902 0.06256172
0.19263571 0.41307902 0.06256189
0.23153262 0.41307902 0.06256172
0.26934073 0.41307902 0.06256172
0.30627433 0.41307902 0.06256172
0.34247726 0.41307902 0.06256172
0.37805285 0.41307902 0.06256172
0.41307902 0.41307902 0.06256172
0.44761664 0.41307902 0.06256172
0.48171457 0.41307902 0.06256172
0.51541288 0.41307902 0.06256194
0.54874508 0.41307902 0.06256194
0.58173955 0.41307902 0.06256172
0.61442068 0.41307902 0.06256172
0.64680961 0.41307902 0.06256197
0.67892490 0.41307902 0.06256172
0.71078289 0.41307902 0.06256200
0.74239816 0.41307902 0.06256172
0.77378373 0.41307902 0.06256172
0.80495135 0.41307902 0.06256172
0.83591164 0.41307902 0.06256172
0.86667425 0.41307902 0.06256208
0.89724802 0.41307902 0.06256172
0.91886608 0.41307902 0.06256172
0.91886608 0.41307902 0.06256172
0.91886608 0.41307902 0.06256172
0.91886608 0.41307902 0.06256172
0.91886608 0.41307902 0.06256227
0.91886608 0.41307902 0.06256172
0.06256192 0.44761664 0.06256189
0.06256192 0.44761664 0.06256189
0.06256192 0.44761664 0.06256189
0.10979366 0.44761664 0.06256189
0.15229481 0.44761664 0.06256172
0.19263571 0.44761664 0.06256172
0.23153262 0.44761664 0.06256189
0.26934073 0.44761664 0.06256172
0.30627433 0.44761664 0.06256172
0.34247726 0.44761664 0.06256189
0.37805285 0.44761664 0.06256172
0.41307902 0.44761664 0.06256172
0.44761664 0.44761664 0.06256191
0.48171457 0.44761664 0.06256172
0.51541288 0.44761664 0.06256172
0.54874508 0.44761664 0.06256172
0.58173955 0.44761664 0.06256194
0.61442068 0.44761664 0.06256172
0.64680961 0.44761664 0.06256172
0.67892490 0.44761664 0.06256172
0.71078289 0.44761664 0.06256200
0.74239816 0.44761664 0.06256172
0.77378373 0.44761664 0.06256204
0.80495135 0.44761664 0.06256172
0.83591164 0.44761664 0.06256172
0.86667425 0.44761664 0.06256172
0.89724802 0.44761664 0.06256172
0.91886608 0.44761664 0.06256172
0.91886608 0.44761664 0.06256172
0.91886608 0.44761664 0.06256172
0.91886608 0.44761664 0.06256227
0.91886608 0.44761664 0.06256172
0.91886608 0.44761664 0.06256235
0.06256186 0.48171457 0.06256172
0.06256186 0.48171457 0.06256172
0.06256186 0.48171457 0.06256172
0.10979366 0.48171457 0.06256172
0.15229481 0.48171457 0.06256172
0.19263571 0.48171457 0.06256172
0.23153262 0.48171457 0.06256191
0.26934073 0.48171457 0.06256172
0.30627433 0.48171457 0.06256172
0.34247726 0.48171457 0.06256172
0.37805285 0.48171457 0.06256191
0.41307902 0.48171457 0.06256172
0.44761664 0.48171457 0.06256172
0.48171457 0.48171457 0.06256172
0.51541288 0.48171457 0.06256172
0.54874508 0.48171457 0.06256172
0.58173955 0.48171457 0.06256172
0.61442068 0.48171457 0.06256172
0.64680961 0.48171457 0.06256197
0.67892490 0.48171457 0.06256172
0.71078289 0.48171457 0.06256172
0.74239816 0.48171457 0.06256172
0.77378373 0.48171457 0.06256172
0.80495135 0.48171457 0.06256172
0.83591164 0.48171457 0.06256172
0.86667425 0.48171457 0.06256208
0.89724802 0.48171457 0.06256213
0.91886608 0.48171457 0.06256172
0.91886608 0.48171457 0.06256172
0.91886608 0.48171457 0.06256172
0.91886608 0.48171457 0.06256227
0.91886608 0.48171457 0.06256172
0.91886608 0.48171457 0.06256172
0.06256190 0.51541288 0.06256172
0.06256190 0.51541288 0.06256172
0.06256190 0.51541288 0.06256172
0.10979366 0.51541288 0.06256172
0.15229481 0.51541288 0.06256172
0.19263571 0.51541288 0.06256172
0.23153262 0.51541288 0.06256191
0.26934073 0.51541288 0.06256172
0.30627433 0.51541288 0.06256172
0.34247726 0.51541288 0.06256191
0.37805285 0.51541288 0.06256191
0.41307902 0.51541288 0.06256172
0.44761664 0.51541288 0.06256172
0.48171457 0.51541288 0.06256194
0.51541288 0.51541288 0.06256172
0.54874508 0.51541288 0.06256172
0.58173955 0.51541288 0.06256172
0.61442068 0.51541288 0.06256172
0.64680961 0.51541288 0.06256172
0.67892490 0.51541288 0.06256172
0.71078289 0.51541288 0.06256172
0.74239816 0.51541288 0.06256172
0.77378373 0.51541288 0.06256172
0.80495135 0.51541288 0.06256172
0.83591164 0.51541288 0.06256172
0.86667425 0.51541288 0.06256172
0.89724802 0.51541288 0.06256172
0.91886608 0.51541288 0.06256172
0.91886608 0.51541288 0.06256219
0.91886608 0.51541288 0.06256172
0.91886608 0.51541288 0.06256172
0.91886608 0.51541288 0.06256172
0.91886608 0.51541288 0.06256172
0.06256200 0.54874508 0.06256172
0.06256200 0.54874508 0.06256172
0.06256200 0.54874508 0.06256172
0.10979366 0.54874508 0.06256172
0.15229481 0.54874508 0.06256172
0.19263571 0.54874508 0.06256194
0.23153262 0.54874508 0.06256172
0.26934073 0.54874508 0.06256172
0.30627433 0.54874508 0.06256172
0.34247726 0.54874508 0.06256172
0.37805285 0.54874508 0.06256172
0.41307902 0.54874508 0.06256172
0.44761664 0.54874508 0.06256172
0.48171457 0.54874508 0.06256172
0.51541288 0.54874508 0.06256172
0.54874508 0.54874508 0.06256172
0.58173955 0.54874508 0.06256172
0.61442068 0.54874508 0.06256172
0.64680961 0.54874508 0.06256172
0.67892490 0.54874508 0.06256172
0.71078289 0.54874508 0.06256172
0.74239816 0.54874508 0.06256172
0.77378373 0.54874508 0.06256172
0.80495135 0.54874508 0.06256172
0.83591164 0.54874508 0.06256172
0.86667425 0.54874508 0.06256172
0.89724802 0.54874508 0.06256172
0.91886608 0.54874508 0.06256172
0.91886608 0.54874508 0.06256219
0.91886608 0.54874508 0.06256172
0.91886608 0.54874508 0.06256172
0.91886608 0.54874508 0.06256172
0.91886608 0.54874508 0.06256235
0.06256194 0.58173955 0.06256172
0.06256194 0.58173955 0.06256172
0.06256194 0.58173955 0.06256172
0.10979366 0.58173955 0.06256172
0.15229481 0.58173955 0.06256194
0.19263571 0.58173955 0.06256194
0.23153262 0.58173955 0.06256172
0.26934073 0.58173955 0.06256172
0.30627433 0.58173955 0.06256172
0.34247726 0.58173955 0.06256172
0.37805285 0.58173955 0.06256172
0.41307902 0.58173955 0.06256172
0.44761664 0.58173955 0.06256172
0.48171457 0.58173955 0.06256172
0.51541288 0.58173955 0.06256172
0.54874508 0.58173955 0.06256172
0.58173955 0.58173955 0.06256172
0.61442068 0.58173955 0.06256197
0.64680961 0.58173955 0.06256172
0.67892490 0.58173955 0.06256172
0.71078289 0.58173955 0.06256172
0.74239816 0.58173955 0.06256172
0.77378373 0.58173955 0.06256204
0.80495135 0.58173955 0.06256172
0.83591164 0.58173955 0.06256172
0.86667425 0.58173955 0.06256172
0.89724802 0.58173955 0.06256172
0.91886608 0.58173955 0.06256172
0.91886608 0.58173955 0.06256172
0.91886608 0.58173955 0.06256172
0.91886608 0.58173955 0.06256172
0.91886608 0.58173955 0.06256172
0.91886608 0.58173955 0.06256172
0.06256200 0.61442068 0.06256172
0.06256200 0.61442068 0.06256172
0.06256200 0.61442068 0.06256172
0.10979366 0.61442068 0.06256197
0.15229481 0.61442068 0.06256172
0.19263571 0.61442068 0.06256172
0.23153262 0.61442068 0.06256172
0.26934073 0.61442068 0.06256172
0.30627433 0.61442068 0.06256172
0.34247726 0.61442068 0.06256172
0.37805285 0.61442068 0.06256197
0.41307902 0.61442068 0.06256197
0.44761664 0.61442068 0.06256172
0.48171457 0.61442068 0.06256197
0.51541288 0.61442068 0.06256172
0.54874508 0.61442068 0.06256197
0.58173955 0.61442068 0.06256200
0.61442068 0.61442068 0.06256172
0.64680961 0.61442068 0.06256172
0.67892490 0.61442068 0.06256172
0.71078289 0.61442068 0.06256172
0.74239816 0.61442068 0.06256172
0.77378373 0.61442068 0.06256172
0.80495135 0.61442068 0.06256172
0.83591164 0.61442068 0.06256172
0.86667425 0.61442068 0.06256172
0.89724802 0.61442068 0.06256213
0.91886608 0.61442068 0.06256172
0.91886608 0.61442068 0.06256172
0.91886608 0.61442068 0.06256172
0.91886608 0.61442068 0.06256172
0.91886608 0.61442068 0.06256172
0.91886608 0.61442068 0.06256172
0.06256205 0.64680961 0.06256172
0.06256205 0.64680961 0.06256172
0.06256205 0.64680961 0.06256172
0.10979366 0.64680961 0.06256172
0.15229481 0.64680961 0.06256172
0.19263571 0.64680961 0.06256172
0.23153262 0.64680961 0.06256172
0.26934073 0.64680961 0.06256172
0.30627433 0.64680961 0.06256172
0.34247726 0.64680961 0.06256172
0.37805285 0.64680961 0.06256172
0.41307902 0.64680961 0.06256172
0.44761664 0.64680961 0.06256172
0.48171457 0.64680961 0.06256172
0.51541288 0.64680961 0.06256172
0.54874508 0.64680961 0.06256172
0.58173955 0.64680961 0.06256172
0.61442068 0.64680961 0.06256172
0.64680961 0.64680961 0.06256172
0.67892490 0.64680961 0.06256200
0.71078289 0.64680961 0.06256172
0.74239816 0.64680961 0.06256172
0.77378373 0.64680961 0.06256204
0.80495135 0.64680961 0.06256172
0.83591164 0.64680961 0.06256172
0.86667425 0.64680961 0.06256172
0.89724802 0.64680961 0.06256172
0.91886608 0.64680961 0.06256172
0.91886608 0.64680961 0.06256172
0.91886608 0.64680961 0.06256172
0.91886608 0.64680961 0.06256172
0.91886608 0.64680961 0.06256227
0.91886608 0.64680961 0.06256235
0.06256204 0.67892490 0.06256172
0.06256204 0.67892490 0.06256172
0.06256204 0.67892490 0.06256172
0.10979366 0.67892490 0.06256172
0.15229481 0.67892490 0.06256172
0.19263571 0.67892490 0.06256172
0.23153262 0.67892490 0.06256172
0.26934073 0.67892490 0.06256172
0.30627433 0.67892490 0.06256172
0.34247726 0.67892490 0.06256172
0.37805285 0.67892490 0.06256172
0.41307902 0.67892490 0.06256200
0.44761664 0.67892490 0.06256172
0.48171457 0.67892490 0.06256172
0.51541288 0.67892490 0.06256172
0.54874508 0.67892490 0.06256172
0.58173955 0.67892490 0.06256172
0.61442068 0.67892490 0.06256172
0.64680961 0.67892490 0.06256204
0.67892490 0.67892490 0.06256172
0.71078289 0.67892490 0.06256172
0.74239816 0.67892490 0.06256172
0.77378373 0.67892490 0.06256208
0.80495135 0.67892490 0.06256172
0.83591164 0.67892490 0.06256172
0.86667425 0.67892490 0.06256172
0.89724802 0.67892490 0.06256172
0.91886608 0.67892490 0.06256213
0.91886608 0.67892490 0.06256219
0.91886608 0.67892490 0.06256172
0.91886608 0.67892490 0.06256172
0.91886608 0.67892490 0.06256172
0.91886608 0.67892490 0.06256172
0.06256202 0.71078289 0.06256200
0.06256202 0.71078289 0.06256200
0.06256202 0.71078289 0.06256200
0.10979366 0.71078289 0.06256200
0.15229481 0.71078289 0.06256172
0.19263571 0.71078289 0.06256204
0.23153262 0.71078289 0.06256172
0.26934073 0.71078289 0.06256172
0.30627433 0.71078289 0.06256200
0.34247726 0.71078289 0.06256172
0.37805285 0.71078289 0.06256200
0.41307902 0.71078289 0.06256172
0.44761664 0.71078289 0.06256172
0.48171457 0.71078289 0.06256200
0.51541288 0.71078289 0.06256172
0.54874508 0.71078289 0.06256172
0.58173955 0.71078289 0.06256204
0.61442068 0.71078289 0.06256172
0.64680961 0.71078289 0.06256172
0.67892490 0.71078289 0.06256172
0.71078289 0.71078289 0.06256204
0.74239816 0.71078289 0.06256172
0.77378373 0.71078289 0.06256172
0.80495135 0.71078289 0.06256208
0.83591164 0.71078289 0.06256172
0.86667425 0.71078289 0.06256172
0.89724802 0.71078289 0.06256172
0.91886608 0.71078289 0.06256172
0.91886608 0.71078289 0.06256172
0.91886608 0.71078289 0.06256172
0.91886608 0.71078289 0.06256172
0.91886608 0.71078289 0.06256172
0.91886608 0.71078289 0.06256172
0.06256211 0.74239816 0.06256172
0.06256211 0.74239816 0.06256172
0.06256211 0.74239816 0.06256172
0.10979366 0.74239816 0.06256172
0.15229481 0.74239816 0.06256172
0.19263571 0.74239816 0.06256204
0.23153262 0.74239816 0.06256172
0.26934073 0.74239816 0.06256172
0.30627433 0.74239816 0.06256172
0.34247726 0.74239816 0.06256172
0.37805285 0.74239816 0.06256172
0.41307902 0.74239816 0.06256172
0.44761664 0.74239816 0.06256172
0.48171457 0.74239816 0.06256172
0.51541288 0.74239816 0.06256172
0.54874508 0.74239816 0.06256172
0.58173955 0.74239816 0.06256172
0.61442068 0.74239816 0.06256172
0.64680961 0.74239816 0.06256172
0.67892490 0.74239816 0.06256172
0.71078289 0.74239816 0.06256172
0.74239816 0.74239816 0.06256172
0.77378373 0.74239816 0.06256172
0.80495135 0.74239816 0.06256208
0.83591164 0.74239816 0.06256172
0.86667425 0.74239816 0.06256172
0.89724802 0.74239816 0.06256172
