src/ffmpeg_scripts/luts/luminance_-3p33.cube
TITLE "luminance_-3p33"
LUT_3D_SIZE 5
# PQ (EOTF Only)/Rec2020 -> PQ (EOTF Only)/Rec2020, CineEI Shift -3.33, Black Level 0.00% IRE, Input 109% -> Output 109% - Created with LUTCalc v4.01 by Ben Turley October 2020
0.06256172 0.06256172 0.06256172
0.14816077 0.06256172 0.06256172
0.32052228 0.06256182 0.06256185
0.53768417 0.06256172 0.06256172
0.79187703 0.06256200 0.06256204
0.06256179 0.14816077 0.06256172
0.14816077 0.14816077 0.06256172
0.32052228 0.14816077 0.06256184
0.53768417 0.14816077 0.06256172
0.79187703 0.14816077 0.06256172
0.06256172 0.32052228 0.06256172
0.14816077 0.32052228 0.06256172
0.32052228 0.32052228 0.06256172
0.53768417 0.32052228 0.06256172
0.79187703 0.32052228 0.06256172
0.06256172 0.53768417 0.06256172
0.14816077 0.53768417 0.06256172
0.32052228 0.53768417 0.06256172
0.53768417 0.53768417 0.06256172
0.79187703 0.53768417 0.06256204
0.06256209 0.79187703 0.06256208
0.14816077 0.79187703 0.06256172
0.32052228 0.79187703 0.06256172
0.53768417 0.79187703 0.06256172
0.79187703 0.79187703 0.06256172
0.06256172 0.06256181 0.14816077
0.14816077 0.06256181 0.14816077
0.32052228 0.06256185 0.14816077
0.53768417 0.06256172 0.14816077
0.79187703 0.06256202 0.14816077
0.06256172 0.14816077 0.14816077
0.14816077 0.14816077 0.14816077
0.32052228 0.14816077 0.14816077
0.53768417 0.14816077 0.14816077
0.79187703 0.14816077 0.14816077
0.06256187 0.32052228 0.14816077
0.14816077 0.32052228 0.14816077
0.32052228 0.32052228 0.14816077
0.53768417 0.32052228 0.14816077
0.79187703 0.32052228 0.14816077
0.06256200 0.53768417 0.14816077
0.14816077 0.53768417 0.14816077
0.32052228 0.53768417 0.14816077
0.53768417 0.53768417 0.14816077
0.79187703 0.53768417 0.14816077
0.06256172 0.79187703 0.14816077
0.14816077 0.79187703 0.14816077
0.32052228 0.79187703 0.14816077
0.53768417 0.79187703 0.14816077
0.79187703 0.79187703 0.14816077
0.06256172 0.06256191 0.32052228
0.14816077 0.06256172 0.32052228
0.32052228 0.06256189 0.32052228
0.53768417 0.06256189 0.32052228
0.79187703 0.06256209 0.32052228
0.06256172 0.14816077 0.32052228
0.14816077 0.14816077 0.32052228
0.32052228 0.14816077 0.32052228
0.53768417 0.14816077 0.32052228
0.79187703 0.14816077 0.32052228
0.06256172 0.32052228 0.32052228
0.14816077 0.32052228 0.32052228
0.32052228 0.32052228 0.32052228
0.53768417 0.32052228 0.32052228
0.79187703 0.32052228 0.32052228
0.06256172 0.53768417 0.32052228
0.14816077 0.53768417 0.32052228
0.32052228 0.53768417 0.32052228
0.53768417 0.53768417 0.32052228
0.79187703 0.53768417 0.32052228
0.06256172 0.79187703 0.32052228
0.14816077 0.79187703 0.32052228
0.32052228 0.79187703 0.32052228
0.53768417 0.79187703 0.32052228
0.79187703 0.79187703 0.32052228
0.06256172 0.06256200 0.53768417
0.14816077 0.06256172 0.53768417
0.32052228 0.06256200 0.53768417
0.53768417 0.06256200 0.53768417
0.79187703 0.06256172 0.53768417
0.06256172 0.14816077 0.53768417
0.14816077 0.14816077 0.53768417
0.32052228 0.14816077 0.53768417
0.53768417 0.14816077 0.53768417
0.79187703 0.14816077 0.53768417
0.06256172 0.32052228 0.53768417
0.14816077 0.32052228 0.53768417
0.32052228 0.32052228 0.53768417
0.53768417 0.32052228 0.53768417
0.79187703 0.32052228 0.53768417
0.06256172 0.53768417 0.53768417
0.14816077 0.53768417 0.53768417
0.32052228 0.53768417 0.53768417
0.53768417 0.53768417 0.53768417
0.79187703 0.53768417 0.53768417
0.06256209 0.79187703 0.53768417
0.14816077 0.79187703 0.53768417
0.32052228 0.79187703 0.53768417
0.53768417 0.79187703 0.53768417
0.79187703 0.79187703 0.53768417
0.06256172 0.06256219 0.79187703
0.14816077 0.06256219 0.79187703
0.32052228 0.06256227 0.79187703
0.53768417 0.06256219 0.79187703
0.79187703 0.06256219 0.79187703
0.06256208 0.14816077 0.79187703
0.14816077 0.14816077 0.79187703
0.32052228 0.14816077 0.79187703
0.53768417 0.14816077 0.79187703
0.79187703 0.14816077 0.79187703
0.06256172 0.32052228 0.79187703
0.14816077 0.32052228 0.79187703
0.32052228 0.32052228 0.79187703
0.53768417 0.32052228 0.79187703
0.79187703 0.32052228 0.79187703
0.06256208 0.53768417 0.79187703
0.14816077 0.53768417 0.79187703
0.32052228 0.53768417 0.79187703
0.53768417 0.53768417 0.79187703
0.79187703 0.53768417 0.79187703
0.06256208 0.79187703 0.79187703
0.14816077 0.79187703 0.79187703
0.32052228 0.79187703 0.79187703
0.53768417 0.79187703 0.79187703
0.79187703 0.79187703 0.79187703
