src/ffmpeg_scripts/luts/luminance_-1p33.cube
TITLE "luminance_-1p33"
LUT_3D_SIZE 33
# PQ (EOTF Only)/Rec2020 -> PQ (EOTF Only)/Rec2020, CineEI Shift -1.33, Black Level 0.00% IRE, Input 109% -> Output 109% - Created with LUTCalc v4.01 by Ben Turley October 2020
0.06256172 0.06256172 0.06256172
0.06256172 0.06256172 0.06256172
0.06256172 0.06256172 0.06256172
0.08256736 0.06256172 0.06256172
0.10469315 0.06256177 0.06256172
0.12800366 0.06256172 0.06256172
0.15220077 0.06256178 0.06256172
0.17712248 0.06256179 0.06256179
0.20266443 0.06256172 0.06256172
0.22875278 0.06256180 0.06256172
0.25533212 0.06256172 0.06256172
0.28235902 0.06256181 0.06256172
0.30979843 0.06256172 0.06256172
0.33762132 0.06256172 0.06256185
0.36580323 0.06256172 0.06256172
0.39432320 0.06256172 0.06256172
0.42316302 0.06256189 0.06256189
0.45230675 0.06256172 0.06256189
0.48174023 0.06256172 0.06256172
0.51145086 0.06256191 0.06256172
0.54142727 0.06256172 0.06256172
0.57165920 0.06256172 0.06256194
0.60213730 0.06256195 0.06256172
0.63285302 0.06256172 0.06256172
0.66379852 0.06256172 0.06256172
0.69496655 0.06256172 0.06256172
0.72635042 0.06256172 0.06256172
0.75794388 0.06256172 0.06256172
0.78974116 0.06256172 0.06256172
0.82173682 0.06256200 0.06256172
0.85392579 0.06256172 0.06256172
0.88630330 0.06256172 0.06256172
0.91886487 0.06256204 0.06256213
0.06256172 0.06256172 0.06256172
0.06256172 0.06256172 0.06256172
0.06256172 0.06256172 0.06256172
0.08256736 0.06256172 0.06256172
0.10469315 0.06256177 0.06256172
0.12800366 0.06256172 0.06256172
0.15220077 0.06256178 0.06256172
0.17712248 0.06256179 0.06256179
0.20266443 0.06256172 0.06256172
0.22875278 0.06256180 0.06256172
0.25533212 0.06256172 0.06256172
0.28235902 0.06256181 0.06256172
0.30979843 0.06256172 0.06256172
0.33762132 0.06256172 0.06256185
0.36580323 0.06256172 0.06256172
0.39432320 0.06256172 0.06256172
0.42316302 0.06256189 0.06256189
0.45230675 0.06256172 0.06256189
0.48174023 0.06256172 0.06256172
0.51145086 0.06256191 0.06256172
0.54142727 0.06256172 0.06256172
0.57165920 0.06256172 0.06256194
0.60213730 0.06256195 0.06256172
0.63285302 0.06256172 0.06256172
0.66379852 0.06256172 0.06256172
0.69496655 0.06256172 0.06256172
0.72635042 0.06256172 0.06256172
0.75794388 0.06256172 0.06256172
0.78974116 0.06256172 0.06256172
0.82173682 0.06256200 0.06256172
0.85392579 0.06256172 0.06256172
0.88630330 0.06256172 0.06256172
0.91886487 0.06256204 0.06256213
0.06256172 0.06256172 0.06256172
0.06256172 0.06256172 0.06256172
0.06256172 0.06256172 0.06256172
0.08256736 0.06256172 0.06256172
0.10469315 0.06256177 0.06256172
0.12800366 0.06256172 0.06256172
0.15220077 0.06256178 0.06256172
0.17712248 0.06256179 0.06256179
0.20266443 0.06256172 0.06256172
0.22875278 0.06256180 0.06256172
0.25533212 0.06256172 0.06256172
0.28235902 0.06256181 0.06256172
0.30979843 0.06256172 0.06256172
0.33762132 0.06256172 0.06256185
0.36580323 0.06256172 0.06256172
0.39432320 0.06256172 0.06256172
0.42316302 0.06256189 0.06256189
0.45230675 0.06256172 0.06256189
0.48174023 0.06256172 0.06256172
0.51145086 0.06256191 0.06256172
0.54142727 0.06256172 0.06256172
0.57165920 0.06256172 0.06256194
0.60213730 0.06256195 0.06256172
0.63285302 0.06256172 0.06256172
0.66379852 0.06256172 0.06256172
0.69496655 0.06256172 0.06256172
0.72635042 0.06256172 0.06256172
0.75794388 0.06256172 0.06256172
0.78974116 0.06256172 0.06256172
0.82173682 0.06256200 0.06256172
0.85392579 0.06256172 0.06256172
0.88630330 0.06256172 0.06256172
0.91886487 0.06256204 0.06256213
0.06256176 0.08256736 0.06256172
0.06256176 0.08256736 0.06256172
0.06256176 0.08256736 0.06256172
0.08256736 0.08256736 0.06256172
0.10469315 0.08256736 0.06256172
0.12800366 0.08256736 0.06256172
0.15220077 0.08256736 0.06256172
0.17712248 0.08256736 0.06256172
0.20266443 0.08256736 0.06256172
0.22875278 0.08256736 0.06256181
0.25533212 0.08256736 0.06256182
0.28235902 0.08256736 0.06256172
0.30979843 0.08256736 0.06256172
0.33762132 0.08256736 0.06256172
0.36580323 0.08256736 0.06256185
0.39432320 0.08256736 0.06256172
0.42316302 0.08256736 0.06256187
0.45230675 0.08256736 0.06256172
0.48174023 0.08256736 0.06256172
0.51145086 0.08256736 0.06256172
0.54142727 0.08256736 0.06256191
0.57165920 0.08256736 0.06256172
0.60213730 0.08256736 0.06256194
0.63285302 0.08256736 0.06256172
0.66379852 0.08256736 0.06256172
0.69496655 0.08256736 0.06256200
0.72635042 0.08256736 0.06256172
0.75794388 0.08256736 0.06256172
0.78974116 0.08256736 0.06256172
0.82173682 0.08256736 0.06256172
0.85392579 0.08256736 0.06256213
0.88630330 0.08256736 0.06256172
0.91886487 0.08256736 0.06256213
0.06256178 0.10469315 0.06256172
0.06256178 0.10469315 0.06256172
0.06256178 0.10469315 0.06256172
0.08256736 0.10469315 0.06256172
0.10469315 0.10469315 0.06256172
0.12800366 0.10469315 0.06256172
0.15220077 0.10469315 0.06256179
0.17712248 0.10469315 0.06256180
0.20266443 0.10469315 0.06256172
0.22875278 0.10469315 0.06256181
0.25533212 0.10469315 0.06256172
0.28235902 0.10469315 0.06256182
0.30979843 0.10469315 0.06256172
0.33762132 0.10469315 0.06256172
0.36580323 0.10469315 0.06256185
0.39432320 0.10469315 0.06256172
0.42316302 0.10469315 0.06256172
0.45230675 0.10469315 0.06256189
0.48174023 0.10469315 0.06256172
0.51145086 0.10469315 0.06256172
0.54142727 0.10469315 0.06256172
0.57165920 0.10469315 0.06256172
0.60213730 0.10469315 0.06256172
0.63285302 0.10469315 0.06256172
0.66379852 0.10469315 0.06256197
0.69496655 0.10469315 0.06256172
0.72635042 0.10469315 0.06256200
0.75794388 0.10469315 0.06256204
0.78974116 0.10469315 0.06256204
0.82173682 0.10469315 0.06256172
0.85392579 0.10469315 0.06256172
0.88630330 0.10469315 0.06256172
0.91886487 0.10469315 0.06256213
0.06256172 0.12800366 0.06256172
0.06256172 0.12800366 0.06256172
0.06256172 0.12800366 0.06256172
0.08256736 0.12800366 0.06256172
0.10469315 0.12800366 0.06256172
0.12800366 0.12800366 0.06256172
0.15220077 0.12800366 0.06256179
0.17712248 0.12800366 0.06256180
0.20266443 0.12800366 0.06256172
0.22875278 0.12800366 0.06256172
0.25533212 0.12800366 0.06256172
0.28235902 0.12800366 0.06256172
0.30979843 0.12800366 0.06256172
0.33762132 0.12800366 0.06256172
0.36580323 0.12800366 0.06256172
0.39432320 0.12800366 0.06256172
0.42316302 0.12800366 0.06256172
0.45230675 0.12800366 0.06256172
0.48174023 0.12800366 0.06256172
0.51145086 0.12800366 0.06256172
0.54142727 0.12800366 0.06256191
0.57165920 0.12800366 0.06256172
0.60213730 0.12800366 0.06256172
0.63285302 0.12800366 0.06256172
0.66379852 0.12800366 0.06256172
0.69496655 0.12800366 0.06256200
0.72635042 0.12800366 0.06256200
0.75794388 0.12800366 0.06256172
0.78974116 0.12800366 0.06256208
0.82173682 0.12800366 0.06256172
0.85392579 0.12800366 0.06256172
0.88630330 0.12800366 0.06256172
0.91886487 0.12800366 0.06256213
0.06256172 0.15220077 0.06256172
0.06256172 0.15220077 0.06256172
0.06256172 0.15220077 0.06256172
0.08256736 0.15220077 0.06256172
0.10469315 0.15220077 0.06256172
0.12800366 0.15220077 0.06256172
0.15220077 0.15220077 0.06256172
0.17712248 0.15220077 0.06256180
0.20266443 0.15220077 0.06256172
0.22875278 0.15220077 0.06256172
0.25533212 0.15220077 0.06256172
0.28235902 0.15220077 0.06256172
0.30979843 0.15220077 0.06256172
0.33762132 0.15220077 0.06256172
0.36580323 0.15220077 0.06256172
0.39432320 0.15220077 0.06256172
0.42316302 0.15220077 0.06256172
0.45230675 0.15220077 0.06256172
0.48174023 0.15220077 0.06256172
0.51145086 0.15220077 0.06256172
0.54142727 0.15220077 0.06256172
0.57165920 0.15220077 0.06256172
0.60213730 0.15220077 0.06256194
0.63285302 0.15220077 0.06256197
0.66379852 0.15220077 0.06256172
0.69496655 0.15220077 0.06256172
0.72635042 0.15220077 0.06256200
0.75794388 0.15220077 0.06256172
0.78974116 0.15220077 0.06256172
0.82173682 0.15220077 0.06256172
0.85392579 0.15220077 0.06256208
0.88630330 0.15220077 0.06256172
0.91886487 0.15220077 0.06256172
0.06256181 0.17712248 0.06256172
0.06256181 0.17712248 0.06256172
0.06256181 0.17712248 0.06256172
0.08256736 0.17712248 0.06256172
0.10469315 0.17712248 0.06256172
0.12800366 0.17712248 0.06256172
0.15220077 0.17712248 0.06256172
0.17712248 0.17712248 0.06256181
0.20266443 0.17712248 0.06256172
0.22875278 0.17712248 0.06256172
0.25533212 0.17712248 0.06256182
0.28235902 0.17712248 0.06256184
0.30979843 0.17712248 0.06256172
0.33762132 0.17712248 0.06256172
0.36580323 0.17712248 0.06256185
0.39432320 0.17712248 0.06256172
0.42316302 0.17712248 0.06256172
0.45230675 0.17712248 0.06256172
0.48174023 0.17712248 0.06256189
0.51145086 0.17712248 0.06256172
0.54142727 0.17712248 0.06256172
0.57165920 0.17712248 0.06256172
0.60213730 0.17712248 0.06256172
0.63285302 0.17712248 0.06256172
0.66379852 0.17712248 0.06256172
0.69496655 0.17712248 0.06256200
0.72635042 0.17712248 0.06256172
0.75794388 0.17712248 0.06256172
0.78974116 0.17712248 0.06256172
0.82173682 0.17712248 0.06256172
0.85392579 0.17712248 0.06256208
0.88630330 0.17712248 0.06256172
0.91886487 0.17712248 0.06256172
0.06256181 0.20266443 0.06256172
0.06256181 0.20266443 0.06256172
0.06256181 0.20266443 0.06256172
0.08256736 0.20266443 0.06256181
0.10469315 0.20266443 0.06256172
0.12800366 0.20266443 0.06256172
0.15220077 0.20266443 0.06256172
0.17712248 0.20266443 0.06256172
0.20266443 0.20266443 0.06256172
0.22875278 0.20266443 0.06256172
0.25533212 0.20266443 0.06256182
0.28235902 0.20266443 0.06256172
0.30979843 0.20266443 0.06256172
0.33762132 0.20266443 0.06256185
0.36580323 0.20266443 0.06256172
0.39432320 0.20266443 0.06256187
0.42316302 0.20266443 0.06256187
0.45230675 0.20266443 0.06256172
0.48174023 0.20266443 0.06256172
0.51145086 0.20266443 0.06256172
0.54142727 0.20266443 0.06256172
0.57165920 0.20266443 0.06256172
0.60213730 0.20266443 0.06256172
0.63285302 0.20266443 0.06256172
0.66379852 0.20266443 0.06256172
0.69496655 0.20266443 0.06256172
0.72635042 0.20266443 0.06256172
0.75794388 0.20266443 0.06256172
0.78974116 0.20266443 0.06256204
0.82173682 0.20266443 0.06256172
0.85392579 0.20266443 0.06256172
0.88630330 0.20266443 0.06256172
0.91886487 0.20266443 0.06256172
0.06256183 0.22875278 0.06256172
0.06256183 0.22875278 0.06256172
0.06256183 0.22875278 0.06256172
0.08256736 0.22875278 0.06256172
0.10469315 0.22875278 0.06256172
0.12800366 0.22875278 0.06256172
0.15220077 0.22875278 0.06256172
0.17712248 0.22875278 0.06256172
0.20266443 0.22875278 0.06256182
0.22875278 0.22875278 0.06256172
0.25533212 0.22875278 0.06256184
0.28235902 0.22875278 0.06256172
0.30979843 0.22875278 0.06256184
0.33762132 0.22875278 0.06256185
0.36580323 0.22875278 0.06256172
0.39432320 0.22875278 0.06256172
0.42316302 0.22875278 0.06256187
0.45230675 0.22875278 0.06256189
0.48174023 0.22875278 0.06256172
0.51145086 0.22875278 0.06256172
0.54142727 0.22875278 0.06256191
0.57165920 0.22875278 0.06256172
0.60213730 0.22875278 0.06256172
0.63285302 0.22875278 0.06256197
0.66379852 0.22875278 0.06256197
0.69496655 0.22875278 0.06256172
0.72635042 0.22875278 0.06256172
0.75794388 0.22875278 0.06256172
0.78974116 0.22875278 0.06256204
0.82173682 0.22875278 0.06256172
0.85392579 0.22875278 0.06256172
0.88630330 0.22875278 0.06256172
0.91886487 0.22875278 0.06256172
0.06256184 0.25533212 0.06256172
0.06256184 0.25533212 0.06256172
0.06256184 0.25533212 0.06256172
0.08256736 0.25533212 0.06256172
0.10469315 0.25533212 0.06256172
0.12800366 0.25533212 0.06256172
0.15220077 0.25533212 0.06256172
0.17712248 0.25533212 0.06256172
0.20266443 0.25533212 0.06256172
0.22875278 0.25533212 0.06256172
0.25533212 0.25533212 0.06256172
0.28235902 0.25533212 0.06256172
0.30979843 0.25533212 0.06256172
0.33762132 0.25533212 0.06256172
0.36580323 0.25533212 0.06256172
0.39432320 0.25533212 0.06256172
0.42316302 0.25533212 0.06256172
0.45230675 0.25533212 0.06256189
0.48174023 0.25533212 0.06256172
0.51145086 0.25533212 0.06256172
0.54142727 0.25533212 0.06256172
0.57165920 0.25533212 0.06256172
0.60213730 0.25533212 0.06256172
0.63285302 0.25533212 0.06256172
0.66379852 0.25533212 0.06256172
0.69496655 0.25533212 0.06256172
0.72635042 0.25533212 0.06256172
0.75794388 0.25533212 0.06256172
0.78974116 0.25533212 0.06256172
0.82173682 0.25533212 0.06256172
0.85392579 0.25533212 0.06256172
0.88630330 0.25533212 0.06256172
0.91886487 0.25533212 0.06256213
0.06256183 0.28235902 0.06256172
0.06256183 0.28235902 0.06256172
0.06256183 0.28235902 0.06256172
0.08256736 0.28235902 0.06256172
0.10469315 0.28235902 0.06256172
0.12800366 0.28235902 0.06256172
0.15220077 0.28235902 0.06256172
0.17712248 0.28235902 0.06256172
0.20266443 0.28235902 0.06256172
0.22875278 0.28235902 0.06256172
0.25533212 0.28235902 0.06256172
0.28235902 0.28235902 0.06256185
0.30979843 0.28235902 0.06256172
0.33762132 0.28235902 0.06256172
0.36580323 0.28235902 0.06256172
0.39432320 0.28235902 0.06256172
0.42316302 0.28235902 0.06256172
0.45230675 0.28235902 0.06256172
0.48174023 0.28235902 0.06256189
0.51145086 0.28235902 0.06256172
0.54142727 0.28235902 0.06256172
0.57165920 0.28235902 0.06256172
0.60213730 0.28235902 0.06256172
0.63285302 0.28235902 0.06256172
0.66379852 0.28235902 0.06256172
0.69496655 0.28235902 0.06256172
0.72635042 0.28235902 0.06256172
0.75794388 0.28235902 0.06256172
0.78974116 0.28235902 0.06256172
0.82173682 0.28235902 0.06256172
0.85392579 0.28235902 0.06256208
0.88630330 0.28235902 0.06256172
0.91886487 0.28235902 0.06256172
0.06256186 0.30979843 0.06256172
0.06256186 0.30979843 0.06256172
0.06256186 0.30979843 0.06256172
0.08256736 0.30979843 0.06256185
0.10469315 0.30979843 0.06256185
0.12800366 0.30979843 0.06256185
0.15220077 0.30979843 0.06256172
0.17712248 0.30979843 0.06256185
0.20266443 0.30979843 0.06256185
0.22875278 0.30979843 0.06256185
0.25533212 0.30979843 0.06256172
0.28235902 0.30979843 0.06256172
0.30979843 0.30979843 0.06256172
0.33762132 0.30979843 0.06256172
0.36580323 0.30979843 0.06256187
0.39432320 0.30979843 0.06256172
0.42316302 0.30979843 0.06256172
0.45230675 0.30979843 0.06256189
0.48174023 0.30979843 0.06256172
0.51145086 0.30979843 0.06256172
0.54142727 0.30979843 0.06256172
0.57165920 0.30979843 0.06256172
0.60213730 0.30979843 0.06256194
0.63285302 0.30979843 0.06256172
0.66379852 0.30979843 0.06256172
0.69496655 0.30979843 0.06256172
0.72635042 0.30979843 0.06256172
0.75794388 0.30979843 0.06256172
0.78974116 0.30979843 0.06256208
0.82173682 0.30979843 0.06256172
0.85392579 0.30979843 0.06256208
0.88630330 0.30979843 0.06256172
0.91886487 0.30979843 0.06256172
0.06256186 0.33762132 0.06256172
0.06256186 0.33762132 0.06256172
0.06256186 0.33762132 0.06256172
0.08256736 0.33762132 0.06256172
0.10469315 0.33762132 0.06256172
0.12800366 0.33762132 0.06256172
0.15220077 0.33762132 0.06256185
0.17712248 0.33762132 0.06256172
0.20266443 0.33762132 0.06256172
0.22875278 0.33762132 0.06256172
0.25533212 0.33762132 0.06256185
0.28235902 0.33762132 0.06256172
0.30979843 0.33762132 0.06256172
0.33762132 0.33762132 0.06256172
0.36580323 0.33762132 0.06256172
0.39432320 0.33762132 0.06256172
0.42316302 0.33762132 0.06256189
0.45230675 0.33762132 0.06256172
0.48174023 0.33762132 0.06256172
0.51145086 0.33762132 0.06256172
0.54142727 0.33762132 0.06256172
0.57165920 0.33762132 0.06256172
0.60213730 0.33762132 0.06256172
0.63285302 0.33762132 0.06256172
0.66379852 0.33762132 0.06256172
0.69496655 0.33762132 0.06256172
0.72635042 0.33762132 0.06256200
0.75794388 0.33762132 0.06256172
0.78974116 0.33762132 0.06256204
0.82173682 0.33762132 0.06256172
0.85392579 0.33762132 0.06256213
0.88630330 0.33762132 0.06256172
0.91886487 0.33762132 0.06256172
0.06256172 0.36580323 0.06256172
0.06256172 0.36580323 0.06256172
0.06256172 0.36580323 0.06256172
0.08256736 0.36580323 0.06256172
0.10469315 0.36580323 0.06256172
0.12800366 0.36580323 0.06256172
0.15220077 0.36580323 0.06256172
0.17712248 0.36580323 0.06256172
0.20266443 0.36580323 0.06256187
0.22875278 0.36580323 0.06256172
0.25533212 0.36580323 0.06256187
0.28235902 0.36580323 0.06256187
0.30979843 0.36580323 0.06256172
0.33762132 0.36580323 0.06256189
0.36580323 0.36580323 0.06256172
0.39432320 0.36580323 0.06256172
0.42316302 0.36580323 0.06256172
0.45230675 0.36580323 0.06256191
0.48174023 0.36580323 0.06256172
0.51145086 0.36580323 0.06256191
0.54142727 0.36580323 0.06256172
0.57165920 0.36580323 0.06256172
0.60213730 0.36580323 0.06256172
0.63285302 0.36580323 0.06256172
0.66379852 0.36580323 0.06256197
0.69496655 0.36580323 0.06256172
0.72635042 0.36580323 0.06256172
0.75794388 0.36580323 0.06256172
0.78974116 0.36580323 0.06256172
0.82173682 0.36580323 0.06256172
0.85392579 0.36580323 0.06256208
0.88630330 0.36580323 0.06256172
0.91886487 0.36580323 0.06256213
0.06256188 0.39432320 0.06256172
0.06256188 0.39432320 0.06256172
0.06256188 0.39432320 0.06256172
0.08256736 0.39432320 0.06256172
0.10469315 0.39432320 0.06256172
0.12800366 0.39432320 0.06256172
0.15220077 0.39432320 0.06256172
0.17712248 0.39432320 0.06256172
0.20266443 0.39432320 0.06256172
0.22875278 0.39432320 0.06256172
0.25533212 0.39432320 0.06256172
0.28235902 0.39432320 0.06256172
0.30979843 0.39432320 0.06256172
0.33762132 0.39432320 0.06256172
0.36580323 0.39432320 0.06256172
0.39432320 0.39432320 0.06256189
0.42316302 0.39432320 0.06256172
0.45230675 0.39432320 0.06256172
0.48174023 0.39432320 0.06256172
0.51145086 0.39432320 0.06256172
0.54142727 0.39432320 0.06256172
0.57165920 0.39432320 0.06256172
0.60213730 0.39432320 0.06256194
0.63285302 0.39432320 0.06256172
0.66379852 0.39432320 0.06256172
0.69496655 0.39432320 0.06256200
0.72635042 0.39432320 0.06256172
0.75794388 0.39432320 0.06256172
0.78974116 0.39432320 0.06256172
0.82173682 0.39432320 0.06256172
0.85392579 0.39432320 0.06256172
0.88630330 0.39432320 0.06256172
0.91886487 0.39432320 0.06256213
0.06256172 0.42316302 0.06256172
0.06256172 0.42316302 0.06256172
0.06256172 0.42316302 0.06256172
0.08256736 0.42316302 0.06256172
0.10469315 0.42316302 0.06256172
0.12800366 0.42316302 0.06256189
0.15220077 0.42316302 0.06256172
0.17712248 0.42316302 0.06256172
0.20266443 0.42316302 0.06256189
0.22875278 0.42316302 0.06256172
0.25533212 0.42316302 0.06256172
0.28235902 0.42316302 0.06256172
0.30979843 0.42316302 0.06256172
0.33762132 0.42316302 0.06256172
0.36580323 0.42316302 0.06256172
0.39432320 0.42316302 0.06256172
0.42316302 0.42316302 0.06256172
0.45230675 0.42316302 0.06256191
0.48174023 0.42316302 0.06256172
0.51145086 0.42316302 0.06256172
0.54142727 0.42316302 0.06256172
0.57165920 0.42316302 0.06256172
0.60213730 0.42316302 0.06256194
0.63285302 0.42316302 0.06256172
0.66379852 0.42316302 0.06256172
0.69496655 0.42316302 0.06256172
0.72635042 0.42316302 0.06256172
0.75794388 0.42316302 0.06256172
0.78974116 0.42316302 0.06256172
0.82173682 0.42316302 0.06256172
0.85392579 0.42316302 0.06256172
0.88630330 0.42316302 0.06256172
0.91886487 0.42316302 0.06256172
0.06256192 0.45230675 0.06256172
0.06256192 0.45230675 0.06256172
0.06256192 0.45230675 0.06256172
0.08256736 0.45230675 0.06256172
0.10469315 0.45230675 0.06256172
0.12800366 0.45230675 0.06256172
0.15220077 0.45230675 0.06256172
0.17712248 0.45230675 0.06256172
0.20266443 0.45230675 0.06256189
0.22875278 0.45230675 0.06256172
0.25533212 0.45230675 0.06256189
0.28235902 0.45230675 0.06256189
0.30979843 0.45230675 0.06256172
0.33762132 0.45230675 0.06256189
0.36580323 0.45230675 0.06256172
0.39432320 0.45230675 0.06256172
0.42316302 0.45230675 0.06256172
0.45230675 0.45230675 0.06256172
0.48174023 0.45230675 0.06256172
0.51145086 0.45230675 0.06256172
0.54142727 0.45230675 0.06256172
0.57165920 0.45230675 0.06256172
0.60213730 0.45230675 0.06256172
0.63285302 0.45230675 0.06256172
0.66379852 0.45230675 0.06256172
0.69496655 0.45230675 0.06256200
0.72635042 0.45230675 0.06256172
0.75794388 0.45230675 0.06256172
0.78974116 0.45230675 0.06256208
0.82173682 0.45230675 0.06256172
0.85392579 0.45230675 0.06256172
0.88630330 0.45230675 0.06256172
0.91886487 0.45230675 0.06256213
0.06256194 0.48174023 0.06256172
0.06256194 0.48174023 0.06256172
0.06256194 0.48174023 0.06256172
0.08256736 0.48174023 0.06256172
0.10469315 0.48174023 0.06256172
0.12800366 0.48174023 0.06256172
0.15220077 0.48174023 0.06256172
0.17712248 0.48174023 0.06256172
0.20266443 0.48174023 0.06256172
0.22875278 0.48174023 0.06256172
0.25533212 0.48174023 0.06256172
0.28235902 0.48174023 0.06256172
0.30979843 0.48174023 0.06256172
0.33762132 0.48174023 0.06256172
0.36580323 0.48174023 0.06256172
0.39432320 0.48174023 0.06256191
0.42316302 0.48174023 0.06256172
0.45230675 0.48174023 0.06256172
0.48174023 0.48174023 0.06256172
0.51145086 0.48174023 0.06256172
0.54142727 0.48174023 0.06256172
0.57165920 0.48174023 0.06256172
0.60213730 0.48174023 0.06256172
0.63285302 0.48174023 0.06256172
0.66379852 0.48174023 0.06256172
0.69496655 0.48174023 0.06256200
0.72635042 0.48174023 0.06256172
0.75794388 0.48174023 0.06256172
0.78974116 0.48174023 0.06256172
0.82173682 0.48174023 0.06256172
0.85392579 0.48174023 0.06256172
0.88630330 0.48174023 0.06256172
0.91886487 0.48174023 0.06256213
0.06256194 0.51145086 0.06256172
0.06256194 0.51145086 0.06256172
0.06256194 0.51145086 0.06256172
0.08256736 0.51145086 0.06256172
0.10469315 0.51145086 0.06256172
0.12800366 0.51145086 0.06256172
0.15220077 0.51145086 0.06256172
0.17712248 0.51145086 0.06256172
0.20266443 0.51145086 0.06256172
0.22875278 0.51145086 0.06256191
0.25533212 0.51145086 0.06256172
0.28235902 0.51145086 0.06256191
0.30979843 0.51145086 0.06256172
0.33762132 0.51145086 0.06256172
0.36580323 0.51145086 0.06256172
0.39432320 0.51145086 0.06256172
0.42316302 0.51145086 0.06256194
0.45230675 0.51145086 0.06256172
0.48174023 0.51145086 0.06256172
0.51145086 0.51145086 0.06256172
0.54142727 0.51145086 0.06256172
0.57165920 0.51145086 0.06256172
0.60213730 0.51145086 0.06256172
0.63285302 0.51145086 0.06256172
0.66379852 0.51145086 0.06256172
0.69496655 0.51145086 0.06256172
0.72635042 0.51145086 0.06256200
0.75794388 0.51145086 0.06256204
0.78974116 0.51145086 0.06256204
0.82173682 0.51145086 0.06256172
0.85392579 0.51145086 0.06256172
0.88630330 0.51145086 0.06256172
0.91886487 0.51145086 0.06256219
0.06256192 0.54142727 0.06256172
0.06256192 0.54142727 0.06256172
0.06256192 0.54142727 0.06256172
0.08256736 0.54142727 0.06256172
0.10469315 0.54142727 0.06256172
0.12800366 0.54142727 0.06256172
0.15220077 0.54142727 0.06256194
0.17712248 0.54142727 0.06256172
0.20266443 0.54142727 0.06256172
0.22875278 0.54142727 0.06256172
0.25533212 0.54142727 0.06256194
0.28235902 0.54142727 0.06256194
0.30979843 0.54142727 0.06256172
0.33762132 0.54142727 0.06256172
0.36580323 0.54142727 0.06256172
0.39432320 0.54142727 0.06256172
0.42316302 0.54142727 0.06256172
0.45230675 0.54142727 0.06256172
0.48174023 0.54142727 0.06256194
0.51145086 0.54142727 0.06256172
0.54142727 0.54142727 0.06256172
0.57165920 0.54142727 0.06256172
0.60213730 0.54142727 0.06256197
0.63285302 0.54142727 0.06256172
0.66379852 0.54142727 0.06256172
0.69496655 0.54142727 0.06256172
0.72635042 0.54142727 0.06256172
0.75794388 0.54142727 0.06256172
0.78974116 0.54142727 0.06256172
0.82173682 0.54142727 0.06256172
0.85392579 0.54142727 0.06256208
0.88630330 0.54142727 0.06256213
0.91886487 0.54142727 0.06256172
0.06256187 0.57165920 0.06256172
0.06256187 0.57165920 0.06256172
0.06256187 0.57165920 0.06256172
0.08256736 0.57165920 0.06256172
0.10469315 0.57165920 0.06256172
0.12800366 0.57165920 0.06256194
0.15220077 0.57165920 0.06256172
0.17712248 0.57165920 0.06256172
0.20266443 0.57165920 0.06256194
0.22875278 0.57165920 0.06256172
0.25533212 0.57165920 0.06256194
0.28235902 0.57165920 0.06256172
0.30979843 0.57165920 0.06256172
0.33762132 0.57165920 0.06256194
0.36580323 0.57165920 0.06256194
0.39432320 0.57165920 0.06256172
0.42316302 0.57165920 0.06256172
0.45230675 0.57165920 0.06256172
0.48174023 0.57165920 0.06256172
0.51145086 0.57165920 0.06256172
0.54142727 0.57165920 0.06256172
0.57165920 0.57165920 0.06256172
0.60213730 0.57165920 0.06256172
0.63285302 0.57165920 0.06256172
0.66379852 0.57165920 0.06256172
0.69496655 0.57165920 0.06256172
0.72635042 0.57165920 0.06256172
