src/ffmpeg_scripts/luts/luminance-unclipped_4p00.cube
TITLE "luminance-unclipped_4p00"
LUT_3D_SIZE 9
# PQ (EOTF Only)/Rec2020 -> PQ (EOTF Only)/Rec2020, CineEI Shift 4.00, Black Level -7.25% IRE, Input 109% -> Output 109% - Created with LUTCalc v4.01 by Ben Turley October 2020
0.00047898 0.00047898 0.00047898
0.19646513 0.00047898 0.00047898
0.44163084 0.00047916 0.00047898
0.63396931 0.00047898 0.00047923
0.80041568 0.00047937 0.00047935
0.91886608 0.00047931 0.00047898
0.91886608 0.00047898 0.00047898
0.91886608 0.00047898 0.00047898
0.91886608 0.00048030 0.00048014
0.00047913 0.19646513 0.00047898
0.19646513 0.19646513 0.00047898
0.44163084 0.19646513 0.00047898
0.63396931 0.19646513 0.00047923
0.80041568 0.19646513 0.00047898
0.91886608 0.19646513 0.00047898
0.91886608 0.19646513 0.00047898
0.91886608 0.19646513 0.00047898
0.91886608 0.19646513 0.00048014
0.00047898 0.44163084 0.00047898
0.19646513 0.44163084 0.00047918
0.44163084 0.44163084 0.00047898
0.63396931 0.44163084 0.00047898
0.80041568 0.44163084 0.00047898
0.91886608 0.44163084 0.00047898
0.91886608 0.44163084 0.00047961
0.91886608 0.44163084 0.00047898
0.91886608 0.44163084 0.00047898
0.00047929 0.63396931 0.00047898
0.19646513 0.63396931 0.00047898
0.44163084 0.63396931 0.00047898
0.63396931 0.63396931 0.00047898
0.80041568 0.63396931 0.00047898
0.91886608 0.63396931 0.00047946
0.91886608 0.63396931 0.00047898
0.91886608 0.63396931 0.00047983
0.91886608 0.63396931 0.00047898
0.00047930 0.80041568 0.00047898
0.19646513 0.80041568 0.00047898
0.44163084 0.80041568 0.00047898
0.63396931 0.80041568 0.00047898
0.80041568 0.80041568 0.00047898
0.91886608 0.80041568 0.00047898
0.91886608 0.80041568 0.00047898
0.91886608 0.80041568 0.00047898
0.91886608 0.80041568 0.00047898
0.00047898 0.91886608 0.00047898
0.19646513 0.91886608 0.00047898
0.44163084 0.91886608 0.00047898
0.63396931 0.91886608 0.00047898
0.80041568 0.91886608 0.00047946
0.91886608 0.91886608 0.00047953
0.91886608 0.91886608 0.00047898
0.91886608 0.91886608 0.00047898
0.91886608 0.91886608 0.00047898
0.00047963 0.91886608 0.00047898
0.19646513 0.91886608 0.00047898
0.44163084 0.91886608 0.00047898
0.63396931 0.91886608 0.00047898
0.80041568 0.91886608 0.00047898
0.91886608 0.91886608 0.00047961
0.91886608 0.91886608 0.00047898
0.91886608 0.91886608 0.00047898
0.91886608 0.91886608 0.00048014
0.00047993 0.91886608 0.00047898
0.19646513 0.91886608 0.00047898
0.44163084 0.91886608 0.00047898
0.63396931 0.91886608 0.00047898
0.80041568 0.91886608 0.00047898
0.91886608 0.91886608 0.00047898
0.91886608 0.91886608 0.00047898
0.91886608 0.91886608 0.00047898
0.91886608 0.91886608 0.00048014
0.00048030 0.91886608 0.00047898
0.19646513 0.91886608 0.00048014
0.44163084 0.91886608 0.00047898
0.63396931 0.91886608 0.00047898
0.80041568 0.91886608 0.00047898
0.91886608 0.91886608 0.00047898
0.91886608 0.91886608 0.00047898
0.91886608 0.91886608 0.00048014
0.91886608 0.91886608 0.00047898
0.00047898 0.00047914 0.19646513
0.19646513 0.00047916 0.19646513
0.44163084 0.00047918 0.19646513
0.63396931 0.00047920 0.19646513
0.80041568 0.00047898 0.19646513
0.91886608 0.00047931 0.19646513
0.91886608 0.00047960 0.19646513
0.91886608 0.00047898 0.19646513
0.91886608 0.00048017 0.19646513
0.00047898 0.19646513 0.19646513
0.19646513 0.19646513 0.19646513
0.44163084 0.19646513 0.19646513
0.63396931 0.19646513 0.19646513
0.80041568 0.19646513 0.19646513
0.91886608 0.19646513 0.19646513
0.91886608 0.19646513 0.19646513
0.91886608 0.19646513 0.19646513
0.91886608 0.19646513 0.19646513
0.00047917 0.44163084 0.19646513
0.19646513 0.44163084 0.19646513
0.44163084 0.44163084 0.19646513
0.63396931 0.44163084 0.19646513
0.80041568 0.44163084 0.19646513
0.91886608 0.44163084 0.19646513
0.91886608 0.44163084 0.19646513
0.91886608 0.44163084 0.19646513
0.91886608 0.44163084 0.19646513
0.00047928 0.63396931 0.19646513
0.19646513 0.63396931 0.19646513
0.44163084 0.63396931 0.19646513
0.63396931 0.63396931 0.19646513
0.80041568 0.63396931 0.19646513
0.91886608 0.63396931 0.19646513
0.91886608 0.63396931 0.19646513
0.91886608 0.63396931 0.19646513
0.91886608 0.63396931 0.19646513
0.00047898 0.80041568 0.19646513
0.19646513 0.80041568 0.19646513
0.44163084 0.80041568 0.19646513
0.63396931 0.80041568 0.19646513
0.80041568 0.80041568 0.19646513
0.91886608 0.80041568 0.19646513
0.91886608 0.80041568 0.19646513
0.91886608 0.80041568 0.19646513
0.91886608 0.80041568 0.19646513
0.00047948 0.91886608 0.19646513
0.19646513 0.91886608 0.19646513
0.44163084 0.91886608 0.19646513
0.63396931 0.91886608 0.19646513
0.80041568 0.91886608 0.19646513
0.91886608 0.91886608 0.19646513
0.91886608 0.91886608 0.19646513
0.91886608 0.91886608 0.19646513
0.91886608 0.91886608 0.19646513
0.00047966 0.91886608 0.19646513
0.19646513 0.91886608 0.19646513
0.44163084 0.91886608 0.19646513
0.63396931 0.91886608 0.19646513
0.80041568 0.91886608 0.19646513
0.91886608 0.91886608 0.19646513
0.91886608 0.91886608 0.19646513
0.91886608 0.91886608 0.19646513
0.91886608 0.91886608 0.19646513
0.00048000 0.91886608 0.19646513
0.19646513 0.91886608 0.19646513
0.44163084 0.91886608 0.19646513
0.63396931 0.91886608 0.19646513
0.80041568 0.91886608 0.19646513
0.91886608 0.91886608 0.19646513
0.91886608 0.91886608 0.19646513
0.91886608 0.91886608 0.19646513
0.91886608 0.91886608 0.19646513
0.00047898 0.91886608 0.19646513
0.19646513 0.91886608 0.19646513
0.44163084 0.91886608 0.19646513
0.63396931 0.91886608 0.19646513
0.80041568 0.91886608 0.19646513
0.91886608 0.91886608 0.19646513
0.91886608 0.91886608 0.19646513
0.91886608 0.91886608 0.19646513
0.91886608 0.91886608 0.19646513
0.00047898 0.00047898 0.44163084
0.19646513 0.00047923 0.44163084
0.44163084 0.00047923 0.44163084
0.63396931 0.00047927 0.44163084
0.80041568 0.00047927 0.44163084
0.91886608 0.00047948 0.44163084
0.91886608 0.00047960 0.44163084
0.91886608 0.00047961 0.44163084
0.91886608 0.00048002 0.44163084
0.00047898 0.19646513 0.44163084
0.19646513 0.19646513 0.44163084
0.44163084 0.19646513 0.44163084
0.63396931 0.19646513 0.44163084
0.80041568 0.19646513 0.44163084
0.91886608 0.19646513 0.44163084
0.91886608 0.19646513 0.44163084
0.91886608 0.19646513 0.44163084
0.91886608 0.19646513 0.44163084
0.00047920 0.44163084 0.44163084
0.19646513 0.44163084 0.44163084
0.44163084 0.44163084 0.44163084
0.63396931 0.44163084 0.44163084
0.80041568 0.44163084 0.44163084
0.91886608 0.44163084 0.44163084
0.91886608 0.44163084 0.44163084
0.91886608 0.44163084 0.44163084
0.91886608 0.44163084 0.44163084
0.00047925 0.63396931 0.44163084
0.19646513 0.63396931 0.44163084
0.44163084 0.63396931 0.44163084
0.63396931 0.63396931 0.44163084
0.80041568 0.63396931 0.44163084
0.91886608 0.63396931 0.44163084
0.91886608 0.63396931 0.44163084
0.91886608 0.63396931 0.44163084
0.91886608 0.63396931 0.44163084
0.00047934 0.80041568 0.44163084
0.19646513 0.80041568 0.44163084
0.44163084 0.80041568 0.44163084
0.63396931 0.80041568 0.44163084
0.80041568 0.80041568 0.44163084
0.91886608 0.80041568 0.44163084
0.91886608 0.80041568 0.44163084
0.91886608 0.80041568 0.44163084
0.91886608 0.80041568 0.44163084
0.00047955 0.91886608 0.44163084
0.19646513 0.91886608 0.44163084
0.44163084 0.91886608 0.44163084
0.63396931 0.91886608 0.44163084
0.80041568 0.91886608 0.44163084
0.91886608 0.91886608 0.44163084
0.91886608 0.91886608 0.44163084
0.91886608 0.91886608 0.44163084
0.91886608 0.91886608 0.44163084
0.00047964 0.91886608 0.44163084
0.19646513 0.91886608 0.44163084
0.44163084 0.91886608 0.44163084
0.63396931 0.91886608 0.44163084
0.80041568 0.91886608 0.44163084
0.91886608 0.91886608 0.44163084
0.91886608 0.91886608 0.44163084
0.91886608 0.91886608 0.44163084
0.91886608 0.91886608 0.44163084
0.00047999 0.91886608 0.44163084
0.19646513 0.91886608 0.44163084
0.44163084 0.91886608 0.44163084
0.63396931 0.91886608 0.44163084
0.80041568 0.91886608 0.44163084
0.91886608 0.91886608 0.44163084
0.91886608 0.91886608 0.44163084
0.91886608 0.91886608 0.44163084
0.91886608 0.91886608 0.44163084
0.00048024 0.91886608 0.44163084
0.19646513 0.91886608 0.44163084
0.44163084 0.91886608 0.44163084
0.63396931 0.91886608 0.44163084
0.80041568 0.91886608 0.44163084
0.91886608 0.91886608 0.44163084
0.91886608 0.91886608 0.44163084
0.91886608 0.91886608 0.44163084
0.91886608 0.91886608 0.44163084
0.00047898 0.00047898 0.63396931
0.19646513 0.00047935 0.63396931
0.44163084 0.00047898 0.63396931
0.63396931 0.00047935 0.63396931
0.80041568 0.00047935 0.63396931
0.91886608 0.00047940 0.63396931
0.91886608 0.00047953 0.63396931
0.91886608 0.00047898 0.63396931
0.91886608 0.00048025 0.63396931
0.00047898 0.19646513 0.63396931
0.19646513 0.19646513 0.63396931
0.44163084 0.19646513 0.63396931
0.63396931 0.19646513 0.63396931
0.80041568 0.19646513 0.63396931
0.91886608 0.19646513 0.63396931
0.91886608 0.19646513 0.63396931
0.91886608 0.19646513 0.63396931
0.91886608 0.19646513 0.63396931
0.00047898 0.44163084 0.63396931
0.19646513 0.44163084 0.63396931
0.44163084 0.44163084 0.63396931
0.63396931 0.44163084 0.63396931
0.80041568 0.44163084 0.63396931
0.91886608 0.44163084 0.63396931
0.91886608 0.44163084 0.63396931
0.91886608 0.44163084 0.63396931
0.91886608 0.44163084 0.63396931
0.00047931 0.63396931 0.63396931
0.19646513 0.63396931 0.63396931
0.44163084 0.63396931 0.63396931
0.63396931 0.63396931 0.63396931
0.80041568 0.63396931 0.63396931
0.91886608 0.63396931 0.63396931
0.91886608 0.63396931 0.63396931
0.91886608 0.63396931 0.63396931
0.91886608 0.63396931 0.63396931
0.00047931 0.80041568 0.63396931
0.19646513 0.80041568 0.63396931
0.44163084 0.80041568 0.63396931
0.63396931 0.80041568 0.63396931
0.80041568 0.80041568 0.63396931
0.91886608 0.80041568 0.63396931
0.91886608 0.80041568 0.63396931
0.91886608 0.80041568 0.63396931
0.91886608 0.80041568 0.63396931
0.00047938 0.91886608 0.63396931
0.19646513 0.91886608 0.63396931
0.44163084 0.91886608 0.63396931
0.63396931 0.91886608 0.63396931
0.80041568 0.91886608 0.63396931
0.91886608 0.91886608 0.63396931
0.91886608 0.91886608 0.63396931
0.91886608 0.91886608 0.63396931
0.91886608 0.91886608 0.63396931
0.00047979 0.91886608 0.63396931
0.19646513 0.91886608 0.63396931
0.44163084 0.91886608 0.63396931
0.63396931 0.91886608 0.63396931
0.80041568 0.91886608 0.63396931
0.91886608 0.91886608 0.63396931
0.91886608 0.91886608 0.63396931
0.91886608 0.91886608 0.63396931
0.91886608 0.91886608 0.63396931
0.00048005 0.91886608 0.63396931
0.19646513 0.91886608 0.63396931
0.44163084 0.91886608 0.63396931
0.63396931 0.91886608 0.63396931
0.80041568 0.91886608 0.63396931
0.91886608 0.91886608 0.63396931
0.91886608 0.91886608 0.63396931
0.91886608 0.91886608 0.63396931
0.91886608 0.91886608 0.63396931
0.00047898 0.91886608 0.63396931
0.19646513 0.91886608 0.63396931
0.44163084 0.91886608 0.63396931
0.63396931 0.91886608 0.63396931
0.80041568 0.91886608 0.63396931
0.91886608 0.91886608 0.63396931
0.91886608 0.91886608 0.63396931
0.91886608 0.91886608 0.63396931
0.91886608 0.91886608 0.63396931
0.00047898 0.00047946 0.80041568
0.19646513 0.00047953 0.80041568
0.44163084 0.00047898 0.80041568
0.63396931 0.00047898 0.80041568
0.80041568 0.00047946 0.80041568
0.91886608 0.00047898 0.80041568
0.91886608 0.00047953 0.80041568
0.91886608 0.00047983 0.80041568
0.91886608 0.00048042 0.80041568
0.00047898 0.19646513 0.80041568
0.19646513 0.19646513 0.80041568
0.44163084 0.19646513 0.80041568
0.63396931 0.19646513 0.80041568
0.80041568 0.19646513 0.80041568
0.91886608 0.19646513 0.80041568
0.91886608 0.19646513 0.80041568
0.91886608 0.19646513 0.80041568
0.91886608 0.19646513 0.80041568
0.00047898 0.44163084 0.80041568
0.19646513 0.44163084 0.80041568
0.44163084 0.44163084 0.80041568
0.63396931 0.44163084 0.80041568
0.80041568 0.44163084 0.80041568
0.91886608 0.44163084 0.80041568
0.91886608 0.44163084 0.80041568
0.91886608 0.44163084 0.80041568
0.91886608 0.44163084 0.80041568
0.00047940 0.63396931 0.80041568
0.19646513 0.63396931 0.80041568
0.44163084 0.63396931 0.80041568
0.63396931 0.63396931 0.80041568
0.80041568 0.63396931 0.80041568
0.91886608 0.63396931 0.80041568
0.91886608 0.63396931 0.80041568
0.91886608 0.63396931 0.80041568
0.91886608 0.63396931 0.80041568
0.00047898 0.80041568 0.80041568
0.19646513 0.80041568 0.80041568
0.44163084 0.80041568 0.80041568
0.63396931 0.80041568 0.80041568
0.80041568 0.80041568 0.80041568
0.91886608 0.80041568 0.80041568
0.91886608 0.80041568 0.80041568
0.91886608 0.80041568 0.80041568
0.91886608 0.80041568 0.80041568
0.00047898 0.91886608 0.80041568
0.19646513 0.91886608 0.80041568
0.44163084 0.91886608 0.80041568
0.63396931 0.91886608 0.80041568
0.80041568 0.91886608 0.80041568
0.91886608 0.91886608 0.80041568
0.91886608 0.91886608 0.80041568
0.91886608 0.91886608 0.80041568
0.91886608 0.91886608 0.80041568
0.00047975 0.91886608 0.80041568
0.19646513 0.91886608 0.80041568
0.44163084 0.91886608 0.80041568
0.63396931 0.91886608 0.80041568
0.80041568 0.91886608 0.80041568
0.91886608 0.91886608 0.80041568
0.91886608 0.91886608 0.80041568
0.91886608 0.91886608 0.80041568
0.91886608 0.91886608 0.80041568
0.00048006 0.91886608 0.80041568
0.19646513 0.91886608 0.80041568
0.44163084 0.91886608 0.80041568
0.63396931 0.91886608 0.80041568
0.80041568 0.91886608 0.80041568
0.91886608 0.91886608 0.80041568
0.91886608 0.91886608 0.80041568
0.91886608 0.91886608 0.80041568
0.91886608 0.91886608 0.80041568
0.00047898 0.91886608 0.80041568
0.19646513 0.91886608 0.80041568
0.44163084 0.91886608 0.80041568
0.63396931 0.91886608 0.80041568
0.80041568 0.91886608 0.80041568
0.91886608 0.91886608 0.80041568
0.91886608 0.91886608 0.80041568
0.91886608 0.91886608 0.80041568
0.91886608 0.91886608 0.80041568
0.00047898 0.00047971 0.91886608
0.19646513 0.00047971 0.91886608
0.44163084 0.00047971 0.91886608
0.63396931 0.00047961 0.91886608
0.80041568 0.00047978 0.91886608
0.91886608 0.00047971 0.91886608
0.91886608 0.00047961 0.91886608
0.91886608 0.00047898 0.91886608
0.91886608 0.00047898 0.91886608
0.00047898 0.19646513 0.91886608
0.19646513 0.19646513 0.91886608
0.44163084 0.19646513 0.91886608
0.63396931 0.19646513 0.91886608
0.80041568 0.19646513 0.91886608
0.91886608 0.19646513 0.91886608
0.91886608 0.19646513 0.91886608
0.91886608 0.19646513 0.91886608
0.91886608 0.19646513 0.91886608
0.00047898 0.44163084 0.91886608
0.19646513 0.44163084 0.91886608
0.44163084 0.44163084 0.91886608
0.63396931 0.44163084 0.91886608
0.80041568 0.44163084 0.91886608
0.91886608 0.44163084 0.91886608
0.91886608 0.44163084 0.91886608
0.91886608 0.44163084 0.91886608
0.91886608 0.44163084 0.91886608
0.00047898 0.63396931 0.91886608
0.19646513 0.63396931 0.91886608
0.44163084 0.63396931 0.91886608
0.63396931 0.63396931 0.91886608
0.80041568 0.63396931 0.91886608
0.91886608 0.63396931 0.91886608
0.91886608 0.63396931 0.91886608
0.91886608 0.63396931 0.91886608
0.91886608 0.63396931 0.91886608
0.00047898 0.80041568 0.91886608
0.19646513 0.80041568 0.91886608
0.44163084 0.80041568 0.91886608
0.63396931 0.80041568 0.91886608
0.80041568 0.80041568 0.91886608
0.91886608 0.80041568 0.91886608
0.91886608 0.80041568 0.91886608
0.91886608 0.80041568 0.91886608
0.91886608 0.80041568 0.91886608
0.00047953 0.91886608 0.91886608
0.19646513 0.91886608 0.91886608
0.44163084 0.91886608 0.91886608
0.63396931 0.91886608 0.91886608
0.80041568 0.91886608 0.91886608
0.91886608 0.91886608 0.91886608
0.91886608 0.91886608 0.91886608
0.91886608 0.91886608 0.91886608
0.91886608 0.91886608 0.91886608
0.00047967 0.91886608 0.91886608
0.19646513 0.91886608 0.91886608
0.44163084 0.91886608 0.91886608
0.63396931 0.91886608 0.91886608
0.80041568 0.91886608 0.91886608
0.91886608 0.91886608 0.91886608
0.91886608 0.91886608 0.91886608
0.91886608 0.91886608 0.91886608
0.91886608 0.91886608 0.91886608
0.00047999 0.91886608 0.91886608
0.19646513 0.91886608 0.91886608
0.44163084 0.91886608 0.91886608
0.63396931 0.91886608 0.91886608
0.80041568 0.91886608 0.91886608
0.91886608 0.91886608 0.91886608
0.91886608 0.91886608 0.91886608
0.91886608 0.91886608 0.91886608
0.91886608 0.91886608 0.91886608
0.00048059 0.91886608 0.91886608
0.19646513 0.91886608 0.91886608
0.44163084 0.91886608 0.91886608
0.63396931 0.91886608 0.91886608
0.80041568 0.91886608 0.91886608
0.91886608 0.91886608 0.91886608
0.91886608 0.91886608 0.91886608
0.91886608 0.91886608 0.91886608
0.91886608 0.91886608 0.91886608
0.00047898 0.00047983 0.91886608
0.19646513 0.00047983 0.91886608
0.44163084 0.00047983 0.91886608
0.63396931 0.00047983 0.91886608
0.80041568 0.00047983 0.91886608
0.91886608 0.00047898 0.91886608
0.91886608 0.00047983 0.91886608
0.91886608 0.00047898 0.91886608
0.91886608 0.00047898 0.91886608
0.00047898 0.19646513 0.91886608
0.19646513 0.19646513 0.91886608
0.44163084 0.19646513 0.91886608
0.63396931 0.19646513 0.91886608
0.80041568 0.19646513 0.91886608
0.91886608 0.19646513 0.91886608
0.91886608 0.19646513 0.91886608
0.91886608 0.19646513 0.91886608
0.91886608 0.19646513 0.91886608
0.00047898 0.44163084 0.91886608
0.19646513 0.44163084 0.91886608
0.44163084 0.44163084 0.91886608
0.63396931 0.44163084 0.91886608
0.80041568 0.44163084 0.91886608
0.91886608 0.44163084 0.91886608
0.91886608 0.44163084 0.91886608
0.91886608 0.44163084 0.91886608
0.91886608 0.44163084 0.91886608
0.00047898 0.63396931 0.91886608
0.19646513 0.63396931 0.91886608
0.44163084 0.63396931 0.91886608
0.63396931 0.63396931 0.91886608
0.80041568 0.63396931 0.91886608
0.91886608 0.63396931 0.91886608
0.91886608 0.63396931 0.91886608
0.91886608 0.63396931 0.91886608
0.91886608 0.63396931 0.91886608
0.00047898 0.80041568 0.91886608
0.19646513 0.80041568 0.91886608
0.44163084 0.80041568 0.91886608
0.63396931 0.80041568 0.91886608
0.80041568 0.80041568 0.91886608
0.91886608 0.80041568 0.91886608
0.91886608 0.80041568 0.91886608
0.91886608 0.80041568 0.91886608
0.91886608 0.80041568 0.91886608
0.00047898 0.91886608 0.91886608
0.19646513 0.91886608 0.91886608
0.44163084 0.91886608 0.91886608
0.63396931 0.91886608 0.91886608
0.80041568 0.91886608 0.91886608
0.91886608 0.91886608 0.91886608
0.91886608 0.91886608 0.91886608
0.91886608 0.91886608 0.91886608
0.91886608 0.91886608 0.91886608
0.00047898 0.91886608 0.91886608
0.19646513 0.91886608 0.91886608
0.44163084 0.91886608 0.91886608
0.63396931 0.91886608 0.91886608
0.80041568 0.91886608 0.91886608
0.91886608 0.91886608 0.91886608
0.91886608 0.91886608 0.91886608
0.91886608 0.91886608 0.91886608
0.91886608 0.91886608 0.91886608
0.00047971 0.91886608 0.91886608
0.19646513 0.91886608 0.91886608
0.44163084 0.91886608 0.91886608
0.63396931 0.91886608 0.91886608
0.80041568 0.91886608 0.91886608
0.91886608 0.91886608 0.91886608
0.91886608 0.91886608 0.91886608
0.91886608 0.91886608 0.91886608
0.91886608 0.91886608 0.91886608
0.00048032 0.91886608 0.91886608
0.19646513 0.91886608 0.91886608
0.44163084 0.91886608 0.91886608
0.63396931 0.91886608 0.91886608
0.80041568 0.91886608 0.91886608
0.91886608 0.91886608 0.91886608
0.91886608 0.91886608 0.91886608
0.91886608 0.91886608 0.91886608
0.91886608 0.91886608 0.91886608
0.00047898 0.00048048 0.91886608
0.19646513 0.00048034 0.91886608
0.44163084 0.00048034 0.91886608
0.63396931 0.00048034 0.91886608
0.80041568 0.00048014 0.91886608
0.91886608 0.00048034 0.91886608
0.91886608 0.00048014 0.91886608
0.91886608 0.00048014 0.91886608
0.91886608 0.00048059 0.91886608
0.00047898 0.19646513 0.91886608
0.19646513 0.19646513 0.91886608
0.44163084 0.19646513 0.91886608
0.63396931 0.19646513 0.91886608
0.80041568 0.19646513 0.91886608
0.91886608 0.19646513 0.91886608
0.91886608 0.19646513 0.91886608
0.91886608 0.19646513 0.91886608
0.91886608 0.19646513 0.91886608
0.00047898 0.44163084 0.91886608
0.19646513 0.44163084 0.91886608
0.44163084 0.44163084 0.91886608
0.63396931 0.44163084 0.91886608
0.80041568 0.44163084 0.91886608
0.91886608 0.44163084 0.91886608
0.91886608 0.44163084 0.91886608
0.91886608 0.44163084 0.91886608
0.91886608 0.44163084 0.91886608
0.00047898 0.63396931 0.91886608
0.19646513 0.63396931 0.91886608
0.44163084 0.63396931 0.91886608
0.63396931 0.63396931 0.91886608
0.80041568 0.63396931 0.91886608
0.91886608 0.63396931 0.91886608
0.91886608 0.63396931 0.91886608
0.91886608 0.63396931 0.91886608
0.91886608 0.63396931 0.91886608
0.00047898 0.80041568 0.91886608
0.19646513 0.80041568 0.91886608
0.44163084 0.80041568 0.91886608
0.63396931 0.80041568 0.91886608
0.80041568 0.80041568 0.91886608
0.91886608 0.80041568 0.91886608
0.91886608 0.80041568 0.91886608
0.91886608 0.80041568 0.91886608
0.91886608 0.80041568 0.91886608
0.00047997 0.91886608 0.91886608
0.19646513 0.91886608 0.91886608
0.44163084 0.91886608 0.91886608
0.63396931 0.91886608 0.91886608
0.80041568 0.91886608 0.91886608
0.91886608 0.91886608 0.91886608
0.91886608 0.91886608 0.91886608
0.91886608 0.91886608 0.91886608
0.91886608 0.91886608 0.91886608
0.00047898 0.91886608 0.91886608
0.19646513 0.91886608 0.91886608
0.44163084 0.91886608 0.91886608
0.63396931 0.91886608 0.91886608
0.80041568 0.91886608 0.91886608
0.91886608 0.91886608 0.91886608
0.91886608 0.91886608 0.91886608
0.91886608 0.91886608 0.91886608
0.91886608 0.91886608 0.91886608
0.00047898 0.91886608 0.91886608
0.19646513 0.91886608 0.91886608
0.44163084 0.91886608 0.91886608
0.63396931 0.91886608 0.91886608
0.80041568 0.91886608 0.91886608
0.91886608 0.91886608 0.91886608
0.91886608 0.91886608 0.91886608
0.91886608 0.91886608 0.91886608
0.91886608 0.91886608 0.91886608
0.00048014 0.91886608 0.91886608
0.19646513 0.91886608 0.91886608
0.44163084 0.91886608 0.91886608
0.63396931 0.91886608 0.91886608
0.80041568 0.91886608 0.91886608
0.91886608 0.91886608 0.91886608
0.91886608 0.91886608 0.91886608
0.91886608 0.91886608 0.91886608
0.91886608 0.91886608 0.91886608
0.00047898 0.00048090 0.91886608
0.19646513 0.00048059 0.91886608
0.44163084 0.00048090 0.91886608
0.63396931 0.00048090 0.91886608
0.80041568 0.00048090 0.91886608
0.91886608 0.00048090 0.91886608
0.91886608 0.00048090 0.91886608
0.91886608 0.00048059 0.91886608
0.91886608 0.00047898 0.91886608
0.00048034 0.19646513 0.91886608
0.19646513 0.19646513 0.91886608
0.44163084 0.19646513 0.91886608
0.63396931 0.19646513 0.91886608
0.80041568 0.19646513 0.91886608
0.91886608 0.19646513 0.91886608
0.91886608 0.19646513 0.91886608
0.91886608 0.19646513 0.91886608
0.91886608 0.19646513 0.91886608
0.00047898 0.44163084 0.91886608
0.19646513 0.44163084 0.91886608
0.44163084 0.44163084 0.91886608
0.63396931 0.44163084 0.91886608
0.80041568 0.44163084 0.91886608
0.91886608 0.44163084 0.91886608
0.91886608 0.44163084 0.91886608
0.91886608 0.44163084 0.91886608
0.91886608 0.44163084 0.91886608
0.00047898 0.63396931 0.91886608
0.19646513 0.63396931 0.91886608
0.44163084 0.63396931 0.91886608
0.63396931 0.63396931 0.91886608
0.80041568 0.63396931 0.91886608
0.91886608 0.63396931 0.91886608
0.91886608 0.63396931 0.91886608
0.91886608 0.63396931 0.91886608
0.91886608 0.63396931 0.91886608
0.00047898 0.80041568 0.91886608
0.19646513 0.80041568 0.91886608
0.44163084 0.80041568 0.91886608
0.63396931 0.80041568 0.91886608
0.80041568 0.80041568 0.91886608
0.91886608 0.80041568 0.91886608
0.91886608 0.80041568 0.91886608
0.91886608 0.80041568 0.91886608
0.91886608 0.80041568 0.91886608
0.00047898 0.91886608 0.91886608
0.19646513 0.91886608 0.91886608
0.44163084 0.91886608 0.91886608
0.63396931 0.91886608 0.91886608
0.80041568 0.91886608 0.91886608
0.91886608 0.91886608 0.91886608
0.91886608 0.91886608 0.91886608
0.91886608 0.91886608 0.91886608
0.91886608 0.91886608 0.91886608
0.00047898 0.91886608 0.91886608
0.19646513 0.91886608 0.91886608
0.44163084 0.91886608 0.91886608
0.63396931 0.91886608 0.91886608
0.80041568 0.91886608 0.91886608
0.91886608 0.91886608 0.91886608
0.91886608 0.91886608 0.91886608
0.91886608 0.91886608 0.91886608
0.91886608 0.91886608 0.91886608
0.00047898 0.91886608 0.91886608
0.19646513 0.91886608 0.91886608
0.44163084 0.91886608 0.91886608
0.63396931 0.91886608 0.91886608
0.80041568 0.91886608 0.91886608
0.91886608 0.91886608 0.91886608
0.91886608 0.91886608 0.91886608
0.91886608 0.91886608 0.91886608
0.91886608 0.91886608 0.91886608
0.00048034 0.91886608 0.91886608
0.19646513 0.91886608 0.91886608
0.44163084 0.91886608 0.91886608
0.63396931 0.91886608 0.91886608
0.80041568 0.91886608 0.91886608
0.91886608 0.91886608 0.91886608
0.91886608 0.91886608 0.91886608
0.91886608 0.91886608 0.91886608
0.91886608 0.91886608 0.91886608
