src/ffmpeg_scripts/luts/luminance-unclipped_-3p00.cube
TITLE "luminance-unclipped_-3p00"
LUT_3D_SIZE 9
# PQ (EOTF Only)/Rec2020 -> PQ (EOTF Only)/Rec2020, CineEI Shift -3.00, Black Level -7.25% IRE, Input 109% -> Output 109% - Created with LUTCalc v4.01 by Ben Turley October 2020
0.00047898 0.00047898 0.00047898
0.02910960 0.00047902 0.00047898
0.10868243 0.00047898 0.00047898
0.20634796 0.00047898 0.00047898
0.31785113 0.00047915 0.00047898
0.44112784 0.00047916 0.00047898
0.57489434 0.00047921 0.00047898
0.71825381 0.00047898 0.00047898
0.87053471 0.00047941 0.00047940
0.00047904 0.02910960 0.00047898
0.02910960 0.02910960 0.00047898
0.10868243 0.02910960 0.00047898
0.20634796 0.02910960 0.00047898
0.31785113 0.02910960 0.00047898
0.44112784 0.02910960 0.00047898
0.57489434 0.02910960 0.00047898
0.71825381 0.02910960 0.00047931
0.87053471 0.02910960 0.00047898
0.00047898 0.10868243 0.00047898
0.02910960 0.10868243 0.00047898
0.10868243 0.10868243 0.00047898
0.20634796 0.10868243 0.00047898
0.31785113 0.10868243 0.00047898
0.44112784 0.10868243 0.00047898
0.57489434 0.10868243 0.00047898
0.71825381 0.10868243 0.00047898
0.87053471 0.10868243 0.00047898
0.00047911 0.20634796 0.00047910
0.02910960 0.20634796 0.00047898
0.10868243 0.20634796 0.00047898
0.20634796 0.20634796 0.00047912
0.31785113 0.20634796 0.00047898
0.44112784 0.20634796 0.00047898
0.57489434 0.20634796 0.00047898
0.71825381 0.20634796 0.00047931
0.87053471 0.20634796 0.00047898
0.00047898 0.31785113 0.00047898
0.02910960 0.31785113 0.00047898
0.10868243 0.31785113 0.00047898
0.20634796 0.31785113 0.00047898
0.31785113 0.31785113 0.00047898
0.44112784 0.31785113 0.00047898
0.57489434 0.31785113 0.00047898
0.71825381 0.31785113 0.00047898
0.87053471 0.31785113 0.00047898
0.00047912 0.44112784 0.00047898
0.02910960 0.44112784 0.00047898
0.10868243 0.44112784 0.00047898
0.20634796 0.44112784 0.00047898
0.31785113 0.44112784 0.00047918
0.44112784 0.44112784 0.00047898
0.57489434 0.44112784 0.00047898
0.71825381 0.44112784 0.00047898
0.87053471 0.44112784 0.00047898
0.00047925 0.57489434 0.00047898
0.02910960 0.57489434 0.00047898
0.10868243 0.57489434 0.00047898
0.20634796 0.57489434 0.00047898
0.31785113 0.57489434 0.00047898
0.44112784 0.57489434 0.00047923
0.57489434 0.57489434 0.00047898
0.71825381 0.57489434 0.00047931
0.87053471 0.57489434 0.00047940
0.00047940 0.71825381 0.00047898
0.02910960 0.71825381 0.00047898
0.10868243 0.71825381 0.00047898
0.20634796 0.71825381 0.00047898
0.31785113 0.71825381 0.00047898
0.44112784 0.71825381 0.00047898
0.57489434 0.71825381 0.00047898
0.71825381 0.71825381 0.00047898
0.87053471 0.71825381 0.00047898
0.00047946 0.87053471 0.00047898
0.02910960 0.87053471 0.00047898
0.10868243 0.87053471 0.00047898
0.20634796 0.87053471 0.00047898
0.31785113 0.87053471 0.00047898
0.44112784 0.87053471 0.00047898
0.57489434 0.87053471 0.00047898
0.71825381 0.87053471 0.00047898
0.87053471 0.87053471 0.00047898
0.00047898 0.00047906 0.02910960
0.02910960 0.00047905 0.02910960
0.10868243 0.00047898 0.02910960
0.20634796 0.00047898 0.02910960
0.31785113 0.00047916 0.02910960
0.44112784 0.00047898 0.02910960
0.57489434 0.00047918 0.02910960
0.71825381 0.00047925 0.02910960
0.87053471 0.00047935 0.02910960
0.00047904 0.02910960 0.02910960
0.02910960 0.02910960 0.02910960
0.10868243 0.02910960 0.02910960
0.20634796 0.02910960 0.02910960
0.31785113 0.02910960 0.02910960
0.44112784 0.02910960 0.02910960
0.57489434 0.02910960 0.02910960
0.71825381 0.02910960 0.02910960
0.87053471 0.02910960 0.02910960
0.00047907 0.10868243 0.02910960
0.02910960 0.10868243 0.02910960
0.10868243 0.10868243 0.02910960
0.20634796 0.10868243 0.02910960
0.31785113 0.10868243 0.02910960
0.44112784 0.10868243 0.02910960
0.57489434 0.10868243 0.02910960
0.71825381 0.10868243 0.02910960
0.87053471 0.10868243 0.02910960
0.00047911 0.20634796 0.02910960
0.02910960 0.20634796 0.02910960
0.10868243 0.20634796 0.02910960
0.20634796 0.20634796 0.02910960
0.31785113 0.20634796 0.02910960
0.44112784 0.20634796 0.02910960
0.57489434 0.20634796 0.02910960
0.71825381 0.20634796 0.02910960
0.87053471 0.20634796 0.02910960
0.00047916 0.31785113 0.02910960
0.02910960 0.31785113 0.02910960
0.10868243 0.31785113 0.02910960
0.20634796 0.31785113 0.02910960
0.31785113 0.31785113 0.02910960
0.44112784 0.31785113 0.02910960
0.57489434 0.31785113 0.02910960
0.71825381 0.31785113 0.02910960
0.87053471 0.31785113 0.02910960
0.00047919 0.44112784 0.02910960
0.02910960 0.44112784 0.02910960
0.10868243 0.44112784 0.02910960
0.20634796 0.44112784 0.02910960
0.31785113 0.44112784 0.02910960
0.44112784 0.44112784 0.02910960
0.57489434 0.44112784 0.02910960
0.71825381 0.44112784 0.02910960
0.87053471 0.44112784 0.02910960
0.00047926 0.57489434 0.02910960
0.02910960 0.57489434 0.02910960
0.10868243 0.57489434 0.02910960
0.20634796 0.57489434 0.02910960
0.31785113 0.57489434 0.02910960
0.44112784 0.57489434 0.02910960
0.57489434 0.57489434 0.02910960
0.71825381 0.57489434 0.02910960
0.87053471 0.57489434 0.02910960
0.00047937 0.71825381 0.02910960
0.02910960 0.71825381 0.02910960
0.10868243 0.71825381 0.02910960
0.20634796 0.71825381 0.02910960
0.31785113 0.71825381 0.02910960
0.44112784 0.71825381 0.02910960
0.57489434 0.71825381 0.02910960
0.71825381 0.71825381 0.02910960
0.87053471 0.71825381 0.02910960
0.00047944 0.87053471 0.02910960
0.02910960 0.87053471 0.02910960
0.10868243 0.87053471 0.02910960
0.20634796 0.87053471 0.02910960
0.31785113 0.87053471 0.02910960
0.44112784 0.87053471 0.02910960
0.57489434 0.87053471 0.02910960
0.71825381 0.87053471 0.02910960
0.87053471 0.87053471 0.02910960
0.00047898 0.00047898 0.10868243
0.02910960 0.00047898 0.10868243
0.10868243 0.00047909 0.10868243
0.20634796 0.00047898 0.10868243
0.31785113 0.00047914 0.10868243
0.44112784 0.00047917 0.10868243
0.57489434 0.00047918 0.10868243
0.71825381 0.00047898 0.10868243
0.87053471 0.00047941 0.10868243
0.00047898 0.02910960 0.10868243
0.02910960 0.02910960 0.10868243
0.10868243 0.02910960 0.10868243
0.20634796 0.02910960 0.10868243
0.31785113 0.02910960 0.10868243
0.44112784 0.02910960 0.10868243
0.57489434 0.02910960 0.10868243
0.71825381 0.02910960 0.10868243
0.87053471 0.02910960 0.10868243
0.00047898 0.10868243 0.10868243
0.02910960 0.10868243 0.10868243
0.10868243 0.10868243 0.10868243
0.20634796 0.10868243 0.10868243
0.31785113 0.10868243 0.10868243
0.44112784 0.10868243 0.10868243
0.57489434 0.10868243 0.10868243
0.71825381 0.10868243 0.10868243
0.87053471 0.10868243 0.10868243
0.00047912 0.20634796 0.10868243
0.02910960 0.20634796 0.10868243
0.10868243 0.20634796 0.10868243
0.20634796 0.20634796 0.10868243
0.31785113 0.20634796 0.10868243
0.44112784 0.20634796 0.10868243
0.57489434 0.20634796 0.10868243
0.71825381 0.20634796 0.10868243
0.87053471 0.20634796 0.10868243
0.00047914 0.31785113 0.10868243
0.02910960 0.31785113 0.10868243
0.10868243 0.31785113 0.10868243
0.20634796 0.31785113 0.10868243
0.31785113 0.31785113 0.10868243
0.44112784 0.31785113 0.10868243
0.57489434 0.31785113 0.10868243
0.71825381 0.31785113 0.10868243
0.87053471 0.31785113 0.10868243
0.00047921 0.44112784 0.10868243
0.02910960 0.44112784 0.10868243
0.10868243 0.44112784 0.10868243
0.20634796 0.44112784 0.10868243
0.31785113 0.44112784 0.10868243
0.44112784 0.44112784 0.10868243
0.57489434 0.44112784 0.10868243
0.71825381 0.44112784 0.10868243
0.87053471 0.44112784 0.10868243
0.00047925 0.57489434 0.10868243
0.02910960 0.57489434 0.10868243
0.10868243 0.57489434 0.10868243
0.20634796 0.57489434 0.10868243
0.31785113 0.57489434 0.10868243
0.44112784 0.57489434 0.10868243
0.57489434 0.57489434 0.10868243
0.71825381 0.57489434 0.10868243
0.87053471 0.57489434 0.10868243
0.00047941 0.71825381 0.10868243
0.02910960 0.71825381 0.10868243
0.10868243 0.71825381 0.10868243
0.20634796 0.71825381 0.10868243
0.31785113 0.71825381 0.10868243
0.44112784 0.71825381 0.10868243
0.57489434 0.71825381 0.10868243
0.71825381 0.71825381 0.10868243
0.87053471 0.71825381 0.10868243
0.00047944 0.87053471 0.10868243
0.02910960 0.87053471 0.10868243
0.10868243 0.87053471 0.10868243
0.20634796 0.87053471 0.10868243
0.31785113 0.87053471 0.10868243
0.44112784 0.87053471 0.10868243
0.57489434 0.87053471 0.10868243
0.71825381 0.87053471 0.10868243
0.87053471 0.87053471 0.10868243
0.00047898 0.00047914 0.20634796
0.02910960 0.00047898 0.20634796
0.10868243 0.00047898 0.20634796
0.20634796 0.00047916 0.20634796
0.31785113 0.00047898 0.20634796
0.44112784 0.00047920 0.20634796
0.57489434 0.00047918 0.20634796
0.71825381 0.00047898 0.20634796
0.87053471 0.00047939 0.20634796
0.00047898 0.02910960 0.20634796
0.02910960 0.02910960 0.20634796
0.10868243 0.02910960 0.20634796
0.20634796 0.02910960 0.20634796
0.31785113 0.02910960 0.20634796
0.44112784 0.02910960 0.20634796
0.57489434 0.02910960 0.20634796
0.71825381 0.02910960 0.20634796
0.87053471 0.02910960 0.20634796
0.00047898 0.10868243 0.20634796
0.02910960 0.10868243 0.20634796
0.10868243 0.10868243 0.20634796
0.20634796 0.10868243 0.20634796
0.31785113 0.10868243 0.20634796
0.44112784 0.10868243 0.20634796
0.57489434 0.10868243 0.20634796
0.71825381 0.10868243 0.20634796
0.87053471 0.10868243 0.20634796
0.00047912 0.20634796 0.20634796
0.02910960 0.20634796 0.20634796
0.10868243 0.20634796 0.20634796
0.20634796 0.20634796 0.20634796
0.31785113 0.20634796 0.20634796
0.44112784 0.20634796 0.20634796
0.57489434 0.20634796 0.20634796
0.71825381 0.20634796 0.20634796
0.87053471 0.20634796 0.20634796
0.00047915 0.31785113 0.20634796
0.02910960 0.31785113 0.20634796
0.10868243 0.31785113 0.20634796
0.20634796 0.31785113 0.20634796
0.31785113 0.31785113 0.20634796
0.44112784 0.31785113 0.20634796
0.57489434 0.31785113 0.20634796
0.71825381 0.31785113 0.20634796
0.87053471 0.31785113 0.20634796
0.00047917 0.44112784 0.20634796
0.02910960 0.44112784 0.20634796
0.10868243 0.44112784 0.20634796
0.20634796 0.44112784 0.20634796
0.31785113 0.44112784 0.20634796
0.44112784 0.44112784 0.20634796
0.57489434 0.44112784 0.20634796
0.71825381 0.44112784 0.20634796
0.87053471 0.44112784 0.20634796
0.00047925 0.57489434 0.20634796
0.02910960 0.57489434 0.20634796
0.10868243 0.57489434 0.20634796
0.20634796 0.57489434 0.20634796
0.31785113 0.57489434 0.20634796
0.44112784 0.57489434 0.20634796
0.57489434 0.57489434 0.20634796
0.71825381 0.57489434 0.20634796
0.87053471 0.57489434 0.20634796
0.00047938 0.71825381 0.20634796
0.02910960 0.71825381 0.20634796
0.10868243 0.71825381 0.20634796
0.20634796 0.71825381 0.20634796
0.31785113 0.71825381 0.20634796
0.44112784 0.71825381 0.20634796
0.57489434 0.71825381 0.20634796
0.71825381 0.71825381 0.20634796
0.87053471 0.71825381 0.20634796
0.00047945 0.87053471 0.20634796
0.02910960 0.87053471 0.20634796
0.10868243 0.87053471 0.20634796
0.20634796 0.87053471 0.20634796
0.31785113 0.87053471 0.20634796
0.44112784 0.87053471 0.20634796
0.57489434 0.87053471 0.20634796
0.71825381 0.87053471 0.20634796
0.87053471 0.87053471 0.20634796
0.00047898 0.00047898 0.31785113
0.02910960 0.00047918 0.31785113
0.10868243 0.00047918 0.31785113
0.20634796 0.00047898 0.31785113
0.31785113 0.00047920 0.31785113
0.44112784 0.00047898 0.31785113
0.57489434 0.00047923 0.31785113
0.71825381 0.00047929 0.31785113
0.87053471 0.00047946 0.31785113
0.00047898 0.02910960 0.31785113
0.02910960 0.02910960 0.31785113
0.10868243 0.02910960 0.31785113
0.20634796 0.02910960 0.31785113
0.31785113 0.02910960 0.31785113
0.44112784 0.02910960 0.31785113
0.57489434 0.02910960 0.31785113
0.71825381 0.02910960 0.31785113
0.87053471 0.02910960 0.31785113
0.00047898 0.10868243 0.31785113
0.02910960 0.10868243 0.31785113
0.10868243 0.10868243 0.31785113
0.20634796 0.10868243 0.31785113
0.31785113 0.10868243 0.31785113
0.44112784 0.10868243 0.31785113
0.57489434 0.10868243 0.31785113
0.71825381 0.10868243 0.31785113
0.87053471 0.10868243 0.31785113
0.00047898 0.20634796 0.31785113
0.02910960 0.20634796 0.31785113
0.10868243 0.20634796 0.31785113
0.20634796 0.20634796 0.31785113
0.31785113 0.20634796 0.31785113
0.44112784 0.20634796 0.31785113
0.57489434 0.20634796 0.31785113
0.71825381 0.20634796 0.31785113
0.87053471 0.20634796 0.31785113
0.00047898 0.31785113 0.31785113
0.02910960 0.31785113 0.31785113
0.10868243 0.31785113 0.31785113
0.20634796 0.31785113 0.31785113
0.31785113 0.31785113 0.31785113
0.44112784 0.31785113 0.31785113
0.57489434 0.31785113 0.31785113
0.71825381 0.31785113 0.31785113
0.87053471 0.31785113 0.31785113
0.00047921 0.44112784 0.31785113
0.02910960 0.44112784 0.31785113
0.10868243 0.44112784 0.31785113
0.20634796 0.44112784 0.31785113
0.31785113 0.44112784 0.31785113
0.44112784 0.44112784 0.31785113
0.57489434 0.44112784 0.31785113
0.71825381 0.44112784 0.31785113
0.87053471 0.44112784 0.31785113
0.00047932 0.57489434 0.31785113
0.02910960 0.57489434 0.31785113
0.10868243 0.57489434 0.31785113
0.20634796 0.57489434 0.31785113
0.31785113 0.57489434 0.31785113
0.44112784 0.57489434 0.31785113
0.57489434 0.57489434 0.31785113
0.71825381 0.57489434 0.31785113
0.87053471 0.57489434 0.31785113
0.00047938 0.71825381 0.31785113
0.02910960 0.71825381 0.31785113
0.10868243 0.71825381 0.31785113
0.20634796 0.71825381 0.31785113
0.31785113 0.71825381 0.31785113
0.44112784 0.71825381 0.31785113
0.57489434 0.71825381 0.31785113
0.71825381 0.71825381 0.31785113
0.87053471 0.71825381 0.31785113
0.00047946 0.87053471 0.31785113
0.02910960 0.87053471 0.31785113
0.10868243 0.87053471 0.31785113
0.20634796 0.87053471 0.31785113
0.31785113 0.87053471 0.31785113
0.44112784 0.87053471 0.31785113
0.57489434 0.87053471 0.31785113
0.71825381 0.87053471 0.31785113
0.87053471 0.87053471 0.31785113
0.00047898 0.00047923 0.44112784
0.02910960 0.00047923 0.44112784
0.10868243 0.00047927 0.44112784
0.20634796 0.00047923 0.44112784
0.31785113 0.00047927 0.44112784
0.44112784 0.00047929 0.44112784
0.57489434 0.00047898 0.44112784
0.71825381 0.00047927 0.44112784
0.87053471 0.00047898 0.44112784
0.00047898 0.02910960 0.44112784
0.02910960 0.02910960 0.44112784
0.10868243 0.02910960 0.44112784
0.20634796 0.02910960 0.44112784
0.31785113 0.02910960 0.44112784
0.44112784 0.02910960 0.44112784
0.57489434 0.02910960 0.44112784
0.71825381 0.02910960 0.44112784
0.87053471 0.02910960 0.44112784
0.00047920 0.10868243 0.44112784
0.02910960 0.10868243 0.44112784
0.10868243 0.10868243 0.44112784
0.20634796 0.10868243 0.44112784
0.31785113 0.10868243 0.44112784
0.44112784 0.10868243 0.44112784
0.57489434 0.10868243 0.44112784
0.71825381 0.10868243 0.44112784
0.87053471 0.10868243 0.44112784
0.00047898 0.20634796 0.44112784
0.02910960 0.20634796 0.44112784
0.10868243 0.20634796 0.44112784
0.20634796 0.20634796 0.44112784
0.31785113 0.20634796 0.44112784
0.44112784 0.20634796 0.44112784
0.57489434 0.20634796 0.44112784
0.71825381 0.20634796 0.44112784
0.87053471 0.20634796 0.44112784
0.00047898 0.31785113 0.44112784
0.02910960 0.31785113 0.44112784
0.10868243 0.31785113 0.44112784
0.20634796 0.31785113 0.44112784
0.31785113 0.31785113 0.44112784
0.44112784 0.31785113 0.44112784
0.57489434 0.31785113 0.44112784
0.71825381 0.31785113 0.44112784
0.87053471 0.31785113 0.44112784
0.00047920 0.44112784 0.44112784
0.02910960 0.44112784 0.44112784
0.10868243 0.44112784 0.44112784
0.20634796 0.44112784 0.44112784
0.31785113 0.44112784 0.44112784
0.44112784 0.44112784 0.44112784
0.57489434 0.44112784 0.44112784
0.71825381 0.44112784 0.44112784
0.87053471 0.44112784 0.44112784
0.00047929 0.57489434 0.44112784
0.02910960 0.57489434 0.44112784
0.10868243 0.57489434 0.44112784
0.20634796 0.57489434 0.44112784
0.31785113 0.57489434 0.44112784
0.44112784 0.57489434 0.44112784
0.57489434 0.57489434 0.44112784
0.71825381 0.57489434 0.44112784
0.87053471 0.57489434 0.44112784
0.00047937 0.71825381 0.44112784
0.02910960 0.71825381 0.44112784
0.10868243 0.71825381 0.44112784
0.20634796 0.71825381 0.44112784
0.31785113 0.71825381 0.44112784
0.44112784 0.71825381 0.44112784
0.57489434 0.71825381 0.44112784
0.71825381 0.71825381 0.44112784
0.87053471 0.71825381 0.44112784
0.00047954 0.87053471 0.44112784
0.02910960 0.87053471 0.44112784
0.10868243 0.87053471 0.44112784
0.20634796 0.87053471 0.44112784
0.31785113 0.87053471 0.44112784
0.44112784 0.87053471 0.44112784
0.57489434 0.87053471 0.44112784
0.71825381 0.87053471 0.44112784
0.87053471 0.87053471 0.44112784
0.00047898 0.00047898 0.57489434
0.02910960 0.00047898 0.57489434
0.10868243 0.00047898 0.57489434
0.20634796 0.00047931 0.57489434
0.31785113 0.00047898 0.57489434
0.44112784 0.00047898 0.57489434
0.57489434 0.00047898 0.57489434
0.71825381 0.00047898 0.57489434
0.87053471 0.00047898 0.57489434
0.00047898 0.02910960 0.57489434
0.02910960 0.02910960 0.57489434
0.10868243 0.02910960 0.57489434
0.20634796 0.02910960 0.57489434
0.31785113 0.02910960 0.57489434
0.44112784 0.02910960 0.57489434
0.57489434 0.02910960 0.57489434
0.71825381 0.02910960 0.57489434
0.87053471 0.02910960 0.57489434
0.00047898 0.10868243 0.57489434
0.02910960 0.10868243 0.57489434
0.10868243 0.10868243 0.57489434
0.20634796 0.10868243 0.57489434
0.31785113 0.10868243 0.57489434
0.44112784 0.10868243 0.57489434
0.57489434 0.10868243 0.57489434
0.71825381 0.10868243 0.57489434
0.87053471 0.10868243 0.57489434
0.00047898 0.20634796 0.57489434
0.02910960 0.20634796 0.57489434
0.10868243 0.20634796 0.57489434
0.20634796 0.20634796 0.57489434
0.31785113 0.20634796 0.57489434
0.44112784 0.20634796 0.57489434
0.57489434 0.20634796 0.57489434
0.71825381 0.20634796 0.57489434
0.87053471 0.20634796 0.57489434
0.00047898 0.31785113 0.57489434
0.02910960 0.31785113 0.57489434
0.10868243 0.31785113 0.57489434
0.20634796 0.31785113 0.57489434
0.31785113 0.31785113 0.57489434
0.44112784 0.31785113 0.57489434
0.57489434 0.31785113 0.57489434
0.71825381 0.31785113 0.57489434
0.87053471 0.31785113 0.57489434
0.00047898 0.44112784 0.57489434
0.02910960 0.44112784 0.57489434
0.10868243 0.44112784 0.57489434
0.20634796 0.44112784 0.57489434
0.31785113 0.44112784 0.57489434
0.44112784 0.44112784 0.57489434
0.57489434 0.44112784 0.57489434
0.71825381 0.44112784 0.57489434
0.87053471 0.44112784 0.57489434
0.00047898 0.57489434 0.57489434
0.02910960 0.57489434 0.57489434
0.10868243 0.57489434 0.57489434
0.20634796 0.57489434 0.57489434
0.31785113 0.57489434 0.57489434
0.44112784 0.57489434 0.57489434
0.57489434 0.57489434 0.57489434
0.71825381 0.57489434 0.57489434
0.87053471 0.57489434 0.57489434
0.00047935 0.71825381 0.57489434
0.02910960 0.71825381 0.57489434
0.10868243 0.71825381 0.57489434
0.20634796 0.71825381 0.57489434
0.31785113 0.71825381 0.57489434
0.44112784 0.71825381 0.57489434
0.57489434 0.71825381 0.57489434
0.71825381 0.71825381 0.57489434
0.87053471 0.71825381 0.57489434
0.00047948 0.87053471 0.57489434
0.02910960 0.87053471 0.57489434
0.10868243 0.87053471 0.57489434
0.20634796 0.87053471 0.57489434
0.31785113 0.87053471 0.57489434
0.44112784 0.87053471 0.57489434
0.57489434 0.87053471 0.57489434
0.71825381 0.87053471 0.57489434
0.87053471 0.87053471 0.57489434
0.00047898 0.00047946 0.71825381
0.02910960 0.00047940 0.71825381
0.10868243 0.00047940 0.71825381
0.20634796 0.00047946 0.71825381
0.31785113 0.00047898 0.71825381
0.44112784 0.00047898 0.71825381
0.57489434 0.00047940 0.71825381
0.71825381 0.00047946 0.71825381
0.87053471 0.00047946 0.71825381
0.00047898 0.02910960 0.71825381
0.02910960 0.02910960 0.71825381
0.10868243 0.02910960 0.71825381
0.20634796 0.02910960 0.71825381
0.31785113 0.02910960 0.71825381
0.44112784 0.02910960 0.71825381
0.57489434 0.02910960 0.71825381
0.71825381 0.02910960 0.71825381
0.87053471 0.02910960 0.71825381
0.00047898 0.10868243 0.71825381
0.02910960 0.10868243 0.71825381
0.10868243 0.10868243 0.71825381
0.20634796 0.10868243 0.71825381
0.31785113 0.10868243 0.71825381
0.44112784 0.10868243 0.71825381
0.57489434 0.10868243 0.71825381
0.71825381 0.10868243 0.71825381
0.87053471 0.10868243 0.71825381
0.00047898 0.20634796 0.71825381
0.02910960 0.20634796 0.71825381
0.10868243 0.20634796 0.71825381
0.20634796 0.20634796 0.71825381
0.31785113 0.20634796 0.71825381
0.44112784 0.20634796 0.71825381
0.57489434 0.20634796 0.71825381
0.71825381 0.20634796 0.71825381
0.87053471 0.20634796 0.71825381
0.00047898 0.31785113 0.71825381
0.02910960 0.31785113 0.71825381
0.10868243 0.31785113 0.71825381
0.20634796 0.31785113 0.71825381
0.31785113 0.31785113 0.71825381
0.44112784 0.31785113 0.71825381
0.57489434 0.31785113 0.71825381
0.71825381 0.31785113 0.71825381
0.87053471 0.31785113 0.71825381
0.00047898 0.44112784 0.71825381
0.02910960 0.44112784 0.71825381
0.10868243 0.44112784 0.71825381
0.20634796 0.44112784 0.71825381
0.31785113 0.44112784 0.71825381
0.44112784 0.44112784 0.71825381
0.57489434 0.44112784 0.71825381
0.71825381 0.44112784 0.71825381
0.87053471 0.44112784 0.71825381
0.00047898 0.57489434 0.71825381
0.02910960 0.57489434 0.71825381
0.10868243 0.57489434 0.71825381
0.20634796 0.57489434 0.71825381
0.31785113 0.57489434 0.71825381
0.44112784 0.57489434 0.71825381
0.57489434 0.57489434 0.71825381
0.71825381 0.57489434 0.71825381
0.87053471 0.57489434 0.71825381
0.00047898 0.71825381 0.71825381
0.02910960 0.71825381 0.71825381
0.10868243 0.71825381 0.71825381
0.20634796 0.71825381 0.71825381
0.31785113 0.71825381 0.71825381
0.44112784 0.71825381 0.71825381
0.57489434 0.71825381 0.71825381
0.71825381 0.71825381 0.71825381
0.87053471 0.71825381 0.71825381
0.00047954 0.87053471 0.71825381
0.02910960 0.87053471 0.71825381
0.10868243 0.87053471 0.71825381
0.20634796 0.87053471 0.71825381
0.31785113 0.87053471 0.71825381
0.44112784 0.87053471 0.71825381
0.57489434 0.87053471 0.71825381
0.71825381 0.87053471 0.71825381
0.87053471 0.87053471 0.71825381
0.00047898 0.00047898 0.87053471
0.02910960 0.00047898 0.87053471
0.10868243 0.00047961 0.87053471
0.20634796 0.00047953 0.87053471
0.31785113 0.00047953 0.87053471
0.44112784 0.00047953 0.87053471
0.57489434 0.00047953 0.87053471
0.71825381 0.00047953 0.87053471
0.87053471 0.00047953 0.87053471
0.00047898 0.02910960 0.87053471
0.02910960 0.02910960 0.87053471
0.10868243 0.02910960 0.87053471
0.20634796 0.02910960 0.87053471
0.31785113 0.02910960 0.87053471
0.44112784 0.02910960 0.87053471
0.57489434 0.02910960 0.87053471
0.71825381 0.02910960 0.87053471
0.87053471 0.02910960 0.87053471
0.00047898 0.10868243 0.87053471
0.02910960 0.10868243 0.87053471
0.10868243 0.10868243 0.87053471
0.20634796 0.10868243 0.87053471
0.31785113 0.10868243 0.87053471
0.44112784 0.10868243 0.87053471
0.57489434 0.10868243 0.87053471
0.71825381 0.10868243 0.87053471
0.87053471 0.10868243 0.87053471
0.00047946 0.20634796 0.87053471
0.02910960 0.20634796 0.87053471
0.10868243 0.20634796 0.87053471
0.20634796 0.20634796 0.87053471
0.31785113 0.20634796 0.87053471
0.44112784 0.20634796 0.87053471
0.57489434 0.20634796 0.87053471
0.71825381 0.20634796 0.87053471
0.87053471 0.20634796 0.87053471
0.00047898 0.31785113 0.87053471
0.02910960 0.31785113 0.87053471
0.10868243 0.31785113 0.87053471
0.20634796 0.31785113 0.87053471
0.31785113 0.31785113 0.87053471
0.44112784 0.31785113 0.87053471
0.57489434 0.31785113 0.87053471
0.71825381 0.31785113 0.87053471
0.87053471 0.31785113 0.87053471
0.00047898 0.44112784 0.87053471
0.02910960 0.44112784 0.87053471
0.10868243 0.44112784 0.87053471
0.20634796 0.44112784 0.87053471
0.31785113 0.44112784 0.87053471
0.44112784 0.44112784 0.87053471
0.57489434 0.44112784 0.87053471
0.71825381 0.44112784 0.87053471
0.87053471 0.44112784 0.87053471
0.00047898 0.57489434 0.87053471
0.02910960 0.57489434 0.87053471
0.10868243 0.57489434 0.87053471
0.20634796 0.57489434 0.87053471
0.31785113 0.57489434 0.87053471
0.44112784 0.57489434 0.87053471
0.57489434 0.57489434 0.87053471
0.71825381 0.57489434 0.87053471
0.87053471 0.57489434 0.87053471
0.00047898 0.71825381 0.87053471
0.02910960 0.71825381 0.87053471
0.10868243 0.71825381 0.87053471
0.20634796 0.71825381 0.87053471
0.31785113 0.71825381 0.87053471
0.44112784 0.71825381 0.87053471
0.57489434 0.71825381 0.87053471
0.71825381 0.71825381 0.87053471
0.87053471 0.71825381 0.87053471
0.00047946 0.87053471 0.87053471
0.02910960 0.87053471 0.87053471
0.10868243 0.87053471 0.87053471
0.20634796 0.87053471 0.87053471
0.31785113 0.87053471 0.87053471
0.44112784 0.87053471 0.87053471
0.57489434 0.87053471 0.87053471
0.71825381 0.87053471 0.87053471
0.87053471 0.87053471 0.87053471
