src/ffmpeg_scripts/luts/luminance-unclipped_-2p33.cube
TITLE "luminance-unclipped_-2p33"
LUT_3D_SIZE 9
# PQ (EOTF Only)/Rec2020 -> PQ (EOTF Only)/Rec2020, CineEI Shift -2.33, Black Level -7.25% IRE, Input 109% -> Output 109% - Created with LUTCalc v4.01 by Ben Turley October 2020
0.00047898 0.00047898 0.00047898
0.03611815 0.00047898 0.00047898
0.12847967 0.00047898 0.00047898
0.23668559 0.00047898 0.00047910
0.35644528 0.00047918 0.00047914
0.48572258 0.00047916 0.00047898
0.62326872 0.00047898 0.00047898
0.76822043 0.00047932 0.00047898
0.91886608 0.00047931 0.00047898
0.00047905 0.03611815 0.00047898
0.03611815 0.03611815 0.00047898
0.12847967 0.03611815 0.00047898
0.23668559 0.03611815 0.00047898
0.35644528 0.03611815 0.00047898
0.48572258 0.03611815 0.00047898
0.62326872 0.03611815 0.00047923
0.76822043 0.03611815 0.00047931
0.91886608 0.03611815 0.00047940
0.00047908 0.12847967 0.00047898
0.03611815 0.12847967 0.00047898
0.12847967 0.12847967 0.00047898
0.23668559 0.12847967 0.00047898
0.35644528 0.12847967 0.00047914
0.48572258 0.12847967 0.00047898
0.62326872 0.12847967 0.00047898
0.76822043 0.12847967 0.00047931
0.91886608 0.12847967 0.00047898
0.00047898 0.23668559 0.00047910
0.03611815 0.23668559 0.00047910
0.12847967 0.23668559 0.00047898
0.23668559 0.23668559 0.00047912
0.35644528 0.23668559 0.00047898
0.48572258 0.23668559 0.00047898
0.62326872 0.23668559 0.00047898
0.76822043 0.23668559 0.00047935
0.91886608 0.23668559 0.00047898
0.00047898 0.35644528 0.00047898
0.03611815 0.35644528 0.00047916
0.12847967 0.35644528 0.00047898
0.23668559 0.35644528 0.00047898
0.35644528 0.35644528 0.00047898
0.48572258 0.35644528 0.00047898
0.62326872 0.35644528 0.00047898
0.76822043 0.35644528 0.00047898
0.91886608 0.35644528 0.00047898
0.00047918 0.48572258 0.00047898
0.03611815 0.48572258 0.00047898
0.12847967 0.48572258 0.00047920
0.23668559 0.48572258 0.00047898
0.35644528 0.48572258 0.00047898
0.48572258 0.48572258 0.00047898
0.62326872 0.48572258 0.00047898
0.76822043 0.48572258 0.00047898
0.91886608 0.48572258 0.00047898
0.00047932 0.62326872 0.00047898
0.03611815 0.62326872 0.00047898
0.12847967 0.62326872 0.00047927
0.23668559 0.62326872 0.00047898
0.35644528 0.62326872 0.00047898
0.48572258 0.62326872 0.00047898
0.62326872 0.62326872 0.00047927
0.76822043 0.62326872 0.00047935
0.91886608 0.62326872 0.00047946
0.00047932 0.76822043 0.00047898
0.03611815 0.76822043 0.00047935
0.12847967 0.76822043 0.00047898
0.23668559 0.76822043 0.00047898
0.35644528 0.76822043 0.00047898
0.48572258 0.76822043 0.00047898
0.62326872 0.76822043 0.00047898
0.76822043 0.76822043 0.00047898
0.91886608 0.76822043 0.00047898
0.00047947 0.91886608 0.00047898
0.03611815 0.91886608 0.00047898
0.12847967 0.91886608 0.00047946
0.23668559 0.91886608 0.00047946
0.35644528 0.91886608 0.00047898
0.48572258 0.91886608 0.00047898
0.62326872 0.91886608 0.00047946
0.76822043 0.91886608 0.00047946
0.91886608 0.91886608 0.00047898
0.00047898 0.00047905 0.03611815
0.03611815 0.00047906 0.03611815
0.12847967 0.00047898 0.03611815
0.23668559 0.00047898 0.03611815
0.35644528 0.00047917 0.03611815
0.48572258 0.00047898 0.03611815
0.62326872 0.00047898 0.03611815
0.76822043 0.00047933 0.03611815
0.91886608 0.00047931 0.03611815
0.00047898 0.03611815 0.03611815
0.03611815 0.03611815 0.03611815
0.12847967 0.03611815 0.03611815
0.23668559 0.03611815 0.03611815
0.35644528 0.03611815 0.03611815
0.48572258 0.03611815 0.03611815
0.62326872 0.03611815 0.03611815
0.76822043 0.03611815 0.03611815
0.91886608 0.03611815 0.03611815
0.00047909 0.12847967 0.03611815
0.03611815 0.12847967 0.03611815
0.12847967 0.12847967 0.03611815
0.23668559 0.12847967 0.03611815
0.35644528 0.12847967 0.03611815
0.48572258 0.12847967 0.03611815
0.62326872 0.12847967 0.03611815
0.76822043 0.12847967 0.03611815
0.91886608 0.12847967 0.03611815
0.00047910 0.23668559 0.03611815
0.03611815 0.23668559 0.03611815
0.12847967 0.23668559 0.03611815
0.23668559 0.23668559 0.03611815
0.35644528 0.23668559 0.03611815
0.48572258 0.23668559 0.03611815
0.62326872 0.23668559 0.03611815
0.76822043 0.23668559 0.03611815
0.91886608 0.23668559 0.03611815
0.00047920 0.35644528 0.03611815
0.03611815 0.35644528 0.03611815
0.12847967 0.35644528 0.03611815
0.23668559 0.35644528 0.03611815
0.35644528 0.35644528 0.03611815
0.48572258 0.35644528 0.03611815
0.62326872 0.35644528 0.03611815
0.76822043 0.35644528 0.03611815
0.91886608 0.35644528 0.03611815
0.00047898 0.48572258 0.03611815
0.03611815 0.48572258 0.03611815
0.12847967 0.48572258 0.03611815
0.23668559 0.48572258 0.03611815
0.35644528 0.48572258 0.03611815
0.48572258 0.48572258 0.03611815
0.62326872 0.48572258 0.03611815
0.76822043 0.48572258 0.03611815
0.91886608 0.48572258 0.03611815
0.00047928 0.62326872 0.03611815
0.03611815 0.62326872 0.03611815
0.12847967 0.62326872 0.03611815
0.23668559 0.62326872 0.03611815
0.35644528 0.62326872 0.03611815
0.48572258 0.62326872 0.03611815
0.62326872 0.62326872 0.03611815
0.76822043 0.62326872 0.03611815
0.91886608 0.62326872 0.03611815
0.00047934 0.76822043 0.03611815
0.03611815 0.76822043 0.03611815
0.12847967 0.76822043 0.03611815
0.23668559 0.76822043 0.03611815
0.35644528 0.76822043 0.03611815
0.48572258 0.76822043 0.03611815
0.62326872 0.76822043 0.03611815
0.76822043 0.76822043 0.03611815
0.91886608 0.76822043 0.03611815
0.00047927 0.91886608 0.03611815
0.03611815 0.91886608 0.03611815
0.12847967 0.91886608 0.03611815
0.23668559 0.91886608 0.03611815
0.35644528 0.91886608 0.03611815
0.48572258 0.91886608 0.03611815
0.62326872 0.91886608 0.03611815
0.76822043 0.91886608 0.03611815
0.91886608 0.91886608 0.03611815
0.00047908 0.00047910 0.12847967
0.03611815 0.00047898 0.12847967
0.12847967 0.00047910 0.12847967
0.23668559 0.00047898 0.12847967
0.35644528 0.00047917 0.12847967
0.48572258 0.00047898 0.12847967
0.62326872 0.00047923 0.12847967
0.76822043 0.00047934 0.12847967
0.91886608 0.00047947 0.12847967
0.00047898 0.03611815 0.12847967
0.03611815 0.03611815 0.12847967
0.12847967 0.03611815 0.12847967
0.23668559 0.03611815 0.12847967
0.35644528 0.03611815 0.12847967
0.48572258 0.03611815 0.12847967
0.62326872 0.03611815 0.12847967
0.76822043 0.03611815 0.12847967
0.91886608 0.03611815 0.12847967
0.00047909 0.12847967 0.12847967
0.03611815 0.12847967 0.12847967
0.12847967 0.12847967 0.12847967
0.23668559 0.12847967 0.12847967
0.35644528 0.12847967 0.12847967
0.48572258 0.12847967 0.12847967
0.62326872 0.12847967 0.12847967
0.76822043 0.12847967 0.12847967
0.91886608 0.12847967 0.12847967
0.00047913 0.23668559 0.12847967
0.03611815 0.23668559 0.12847967
0.12847967 0.23668559 0.12847967
0.23668559 0.23668559 0.12847967
0.35644528 0.23668559 0.12847967
0.48572258 0.23668559 0.12847967
0.62326872 0.23668559 0.12847967
0.76822043 0.23668559 0.12847967
0.91886608 0.23668559 0.12847967
0.00047918 0.35644528 0.12847967
0.03611815 0.35644528 0.12847967
0.12847967 0.35644528 0.12847967
0.23668559 0.35644528 0.12847967
0.35644528 0.35644528 0.12847967
0.48572258 0.35644528 0.12847967
0.62326872 0.35644528 0.12847967
0.76822043 0.35644528 0.12847967
0.91886608 0.35644528 0.12847967
0.00047923 0.48572258 0.12847967
0.03611815 0.48572258 0.12847967
0.12847967 0.48572258 0.12847967
0.23668559 0.48572258 0.12847967
0.35644528 0.48572258 0.12847967
0.48572258 0.48572258 0.12847967
0.62326872 0.48572258 0.12847967
0.76822043 0.48572258 0.12847967
0.91886608 0.48572258 0.12847967
0.00047898 0.62326872 0.12847967
0.03611815 0.62326872 0.12847967
0.12847967 0.62326872 0.12847967
0.23668559 0.62326872 0.12847967
0.35644528 0.62326872 0.12847967
0.48572258 0.62326872 0.12847967
0.62326872 0.62326872 0.12847967
0.76822043 0.62326872 0.12847967
0.91886608 0.62326872 0.12847967
0.00047940 0.76822043 0.12847967
0.03611815 0.76822043 0.12847967
0.12847967 0.76822043 0.12847967
0.23668559 0.76822043 0.12847967
0.35644528 0.76822043 0.12847967
0.48572258 0.76822043 0.12847967
0.62326872 0.76822043 0.12847967
0.76822043 0.76822043 0.12847967
0.91886608 0.76822043 0.12847967
0.00047898 0.91886608 0.12847967
0.03611815 0.91886608 0.12847967
0.12847967 0.91886608 0.12847967
0.23668559 0.91886608 0.12847967
0.35644528 0.91886608 0.12847967
0.48572258 0.91886608 0.12847967
0.62326872 0.91886608 0.12847967
0.76822043 0.91886608 0.12847967
0.91886608 0.91886608 0.12847967
0.00047898 0.00047898 0.23668559
0.03611815 0.00047916 0.23668559
0.12847967 0.00047916 0.23668559
0.23668559 0.00047919 0.23668559
0.35644528 0.00047918 0.23668559
0.48572258 0.00047916 0.23668559
0.62326872 0.00047898 0.23668559
0.76822043 0.00047898 0.23668559
0.91886608 0.00047898 0.23668559
0.00047898 0.03611815 0.23668559
0.03611815 0.03611815 0.23668559
0.12847967 0.03611815 0.23668559
0.23668559 0.03611815 0.23668559
0.35644528 0.03611815 0.23668559
0.48572258 0.03611815 0.23668559
0.62326872 0.03611815 0.23668559
0.76822043 0.03611815 0.23668559
0.91886608 0.03611815 0.23668559
0.00047898 0.12847967 0.23668559
0.03611815 0.12847967 0.23668559
0.12847967 0.12847967 0.23668559
0.23668559 0.12847967 0.23668559
0.35644528 0.12847967 0.23668559
0.48572258 0.12847967 0.23668559
0.62326872 0.12847967 0.23668559
0.76822043 0.12847967 0.23668559
0.91886608 0.12847967 0.23668559
0.00047914 0.23668559 0.23668559
0.03611815 0.23668559 0.23668559
0.12847967 0.23668559 0.23668559
0.23668559 0.23668559 0.23668559
0.35644528 0.23668559 0.23668559
0.48572258 0.23668559 0.23668559
0.62326872 0.23668559 0.23668559
0.76822043 0.23668559 0.23668559
0.91886608 0.23668559 0.23668559
0.00047898 0.35644528 0.23668559
0.03611815 0.35644528 0.23668559
0.12847967 0.35644528 0.23668559
0.23668559 0.35644528 0.23668559
0.35644528 0.35644528 0.23668559
0.48572258 0.35644528 0.23668559
0.62326872 0.35644528 0.23668559
0.76822043 0.35644528 0.23668559
0.91886608 0.35644528 0.23668559
0.00047925 0.48572258 0.23668559
0.03611815 0.48572258 0.23668559
0.12847967 0.48572258 0.23668559
0.23668559 0.48572258 0.23668559
0.35644528 0.48572258 0.23668559
0.48572258 0.48572258 0.23668559
0.62326872 0.48572258 0.23668559
0.76822043 0.48572258 0.23668559
0.91886608 0.48572258 0.23668559
0.00047932 0.62326872 0.23668559
0.03611815 0.62326872 0.23668559
0.12847967 0.62326872 0.23668559
0.23668559 0.62326872 0.23668559
0.35644528 0.62326872 0.23668559
0.48572258 0.62326872 0.23668559
0.62326872 0.62326872 0.23668559
0.76822043 0.62326872 0.23668559
0.91886608 0.62326872 0.23668559
0.00047898 0.76822043 0.23668559
0.03611815 0.76822043 0.23668559
0.12847967 0.76822043 0.23668559
0.23668559 0.76822043 0.23668559
0.35644528 0.76822043 0.23668559
0.48572258 0.76822043 0.23668559
0.62326872 0.76822043 0.23668559
0.76822043 0.76822043 0.23668559
0.91886608 0.76822043 0.23668559
0.00047944 0.91886608 0.23668559
0.03611815 0.91886608 0.23668559
0.12847967 0.91886608 0.23668559
0.23668559 0.91886608 0.23668559
0.35644528 0.91886608 0.23668559
0.48572258 0.91886608 0.23668559
0.62326872 0.91886608 0.23668559
0.76822043 0.91886608 0.23668559
0.91886608 0.91886608 0.23668559
0.00047916 0.00047920 0.35644528
0.03611815 0.00047923 0.35644528
0.12847967 0.00047898 0.35644528
0.23668559 0.00047898 0.35644528
0.35644528 0.00047898 0.35644528
0.48572258 0.00047898 0.35644528
0.62326872 0.00047927 0.35644528
0.76822043 0.00047933 0.35644528
0.91886608 0.00047946 0.35644528
0.00047898 0.03611815 0.35644528
0.03611815 0.03611815 0.35644528
0.12847967 0.03611815 0.35644528
0.23668559 0.03611815 0.35644528
0.35644528 0.03611815 0.35644528
0.48572258 0.03611815 0.35644528
0.62326872 0.03611815 0.35644528
0.76822043 0.03611815 0.35644528
0.91886608 0.03611815 0.35644528
0.00047898 0.12847967 0.35644528
0.03611815 0.12847967 0.35644528
0.12847967 0.12847967 0.35644528
0.23668559 0.12847967 0.35644528
0.35644528 0.12847967 0.35644528
0.48572258 0.12847967 0.35644528
0.62326872 0.12847967 0.35644528
0.76822043 0.12847967 0.35644528
0.91886608 0.12847967 0.35644528
0.00047898 0.23668559 0.35644528
0.03611815 0.23668559 0.35644528
0.12847967 0.23668559 0.35644528
0.23668559 0.23668559 0.35644528
0.35644528 0.23668559 0.35644528
0.48572258 0.23668559 0.35644528
0.62326872 0.23668559 0.35644528
0.76822043 0.23668559 0.35644528
0.91886608 0.23668559 0.35644528
0.00047898 0.35644528 0.35644528
0.03611815 0.35644528 0.35644528
0.12847967 0.35644528 0.35644528
0.23668559 0.35644528 0.35644528
0.35644528 0.35644528 0.35644528
0.48572258 0.35644528 0.35644528
0.62326872 0.35644528 0.35644528
0.76822043 0.35644528 0.35644528
0.91886608 0.35644528 0.35644528
0.00047918 0.48572258 0.35644528
0.03611815 0.48572258 0.35644528
0.12847967 0.48572258 0.35644528
0.23668559 0.48572258 0.35644528
0.35644528 0.48572258 0.35644528
0.48572258 0.48572258 0.35644528
0.62326872 0.48572258 0.35644528
0.76822043 0.48572258 0.35644528
0.91886608 0.48572258 0.35644528
0.00047927 0.62326872 0.35644528
0.03611815 0.62326872 0.35644528
0.12847967 0.62326872 0.35644528
0.23668559 0.62326872 0.35644528
0.35644528 0.62326872 0.35644528
0.48572258 0.62326872 0.35644528
0.62326872 0.62326872 0.35644528
0.76822043 0.62326872 0.35644528
0.91886608 0.62326872 0.35644528
0.00047945 0.76822043 0.35644528
0.03611815 0.76822043 0.35644528
0.12847967 0.76822043 0.35644528
0.23668559 0.76822043 0.35644528
0.35644528 0.76822043 0.35644528
0.48572258 0.76822043 0.35644528
0.62326872 0.76822043 0.35644528
0.76822043 0.76822043 0.35644528
0.91886608 0.76822043 0.35644528
0.00047898 0.91886608 0.35644528
0.03611815 0.91886608 0.35644528
0.12847967 0.91886608 0.35644528
0.23668559 0.91886608 0.35644528
0.35644528 0.91886608 0.35644528
0.48572258 0.91886608 0.35644528
0.62326872 0.91886608 0.35644528
0.76822043 0.91886608 0.35644528
0.91886608 0.91886608 0.35644528
0.00047920 0.00047931 0.48572258
0.03611815 0.00047931 0.48572258
0.12847967 0.00047931 0.48572258
0.23668559 0.00047927 0.48572258
0.35644528 0.00047933 0.48572258
0.48572258 0.00047898 0.48572258
0.62326872 0.00047898 0.48572258
0.76822043 0.00047933 0.48572258
0.91886608 0.00047898 0.48572258
0.00047898 0.03611815 0.48572258
0.03611815 0.03611815 0.48572258
0.12847967 0.03611815 0.48572258
0.23668559 0.03611815 0.48572258
0.35644528 0.03611815 0.48572258
0.48572258 0.03611815 0.48572258
0.62326872 0.03611815 0.48572258
0.76822043 0.03611815 0.48572258
0.91886608 0.03611815 0.48572258
0.00047920 0.12847967 0.48572258
0.03611815 0.12847967 0.48572258
0.12847967 0.12847967 0.48572258
0.23668559 0.12847967 0.48572258
0.35644528 0.12847967 0.48572258
0.48572258 0.12847967 0.48572258
0.62326872 0.12847967 0.48572258
0.76822043 0.12847967 0.48572258
0.91886608 0.12847967 0.48572258
0.00047898 0.23668559 0.48572258
0.03611815 0.23668559 0.48572258
0.12847967 0.23668559 0.48572258
0.23668559 0.23668559 0.48572258
0.35644528 0.23668559 0.48572258
0.48572258 0.23668559 0.48572258
0.62326872 0.23668559 0.48572258
0.76822043 0.23668559 0.48572258
0.91886608 0.23668559 0.48572258
0.00047920 0.35644528 0.48572258
0.03611815 0.35644528 0.48572258
0.12847967 0.35644528 0.48572258
0.23668559 0.35644528 0.48572258
0.35644528 0.35644528 0.48572258
0.48572258 0.35644528 0.48572258
0.62326872 0.35644528 0.48572258
0.76822043 0.35644528 0.48572258
0.91886608 0.35644528 0.48572258
0.00047898 0.48572258 0.48572258
0.03611815 0.48572258 0.48572258
0.12847967 0.48572258 0.48572258
0.23668559 0.48572258 0.48572258
0.35644528 0.48572258 0.48572258
0.48572258 0.48572258 0.48572258
0.62326872 0.48572258 0.48572258
0.76822043 0.48572258 0.48572258
0.91886608 0.48572258 0.48572258
0.00047932 0.62326872 0.48572258
0.03611815 0.62326872 0.48572258
0.12847967 0.62326872 0.48572258
0.23668559 0.62326872 0.48572258
0.35644528 0.62326872 0.48572258
0.48572258 0.62326872 0.48572258
0.62326872 0.62326872 0.48572258
0.76822043 0.62326872 0.48572258
0.91886608 0.62326872 0.48572258
0.00047933 0.76822043 0.48572258
0.03611815 0.76822043 0.48572258
0.12847967 0.76822043 0.48572258
0.23668559 0.76822043 0.48572258
0.35644528 0.76822043 0.48572258
0.48572258 0.76822043 0.48572258
0.62326872 0.76822043 0.48572258
0.76822043 0.76822043 0.48572258
0.91886608 0.76822043 0.48572258
0.00047951 0.91886608 0.48572258
0.03611815 0.91886608 0.48572258
0.12847967 0.91886608 0.48572258
0.23668559 0.91886608 0.48572258
0.35644528 0.91886608 0.48572258
0.48572258 0.91886608 0.48572258
0.62326872 0.91886608 0.48572258
0.76822043 0.91886608 0.48572258
0.91886608 0.91886608 0.48572258
0.00047898 0.00047935 0.62326872
0.03611815 0.00047935 0.62326872
0.12847967 0.00047898 0.62326872
0.23668559 0.00047940 0.62326872
0.35644528 0.00047935 0.62326872
0.48572258 0.00047935 0.62326872
0.62326872 0.00047898 0.62326872
0.76822043 0.00047898 0.62326872
0.91886608 0.00047898 0.62326872
0.00047898 0.03611815 0.62326872
0.03611815 0.03611815 0.62326872
0.12847967 0.03611815 0.62326872
0.23668559 0.03611815 0.62326872
0.35644528 0.03611815 0.62326872
0.48572258 0.03611815 0.62326872
0.62326872 0.03611815 0.62326872
0.76822043 0.03611815 0.62326872
0.91886608 0.03611815 0.62326872
0.00047898 0.12847967 0.62326872
0.03611815 0.12847967 0.62326872
0.12847967 0.12847967 0.62326872
0.23668559 0.12847967 0.62326872
0.35644528 0.12847967 0.62326872
0.48572258 0.12847967 0.62326872
0.62326872 0.12847967 0.62326872
0.76822043 0.12847967 0.62326872
0.91886608 0.12847967 0.62326872
0.00047898 0.23668559 0.62326872
0.03611815 0.23668559 0.62326872
0.12847967 0.23668559 0.62326872
0.23668559 0.23668559 0.62326872
0.35644528 0.23668559 0.62326872
0.48572258 0.23668559 0.62326872
0.62326872 0.23668559 0.62326872
0.76822043 0.23668559 0.62326872
0.91886608 0.23668559 0.62326872
0.00047898 0.35644528 0.62326872
0.03611815 0.35644528 0.62326872
0.12847967 0.35644528 0.62326872
0.23668559 0.35644528 0.62326872
0.35644528 0.35644528 0.62326872
0.48572258 0.35644528 0.62326872
0.62326872 0.35644528 0.62326872
0.76822043 0.35644528 0.62326872
0.91886608 0.35644528 0.62326872
0.00047898 0.48572258 0.62326872
0.03611815 0.48572258 0.62326872
0.12847967 0.48572258 0.62326872
0.23668559 0.48572258 0.62326872
0.35644528 0.48572258 0.62326872
0.48572258 0.48572258 0.62326872
0.62326872 0.48572258 0.62326872
0.76822043 0.48572258 0.62326872
0.91886608 0.48572258 0.62326872
0.00047898 0.62326872 0.62326872
0.03611815 0.62326872 0.62326872
0.12847967 0.62326872 0.62326872
0.23668559 0.62326872 0.62326872
0.35644528 0.62326872 0.62326872
0.48572258 0.62326872 0.62326872
0.62326872 0.62326872 0.62326872
0.76822043 0.62326872 0.62326872
0.91886608 0.62326872 0.62326872
0.00047931 0.76822043 0.62326872
0.03611815 0.76822043 0.62326872
0.12847967 0.76822043 0.62326872
0.23668559 0.76822043 0.62326872
0.35644528 0.76822043 0.62326872
0.48572258 0.76822043 0.62326872
0.62326872 0.76822043 0.62326872
0.76822043 0.76822043 0.62326872
0.91886608 0.76822043 0.62326872
0.00047946 0.91886608 0.62326872
0.03611815 0.91886608 0.62326872
0.12847967 0.91886608 0.62326872
0.23668559 0.91886608 0.62326872
0.35644528 0.91886608 0.62326872
0.48572258 0.91886608 0.62326872
0.62326872 0.91886608 0.62326872
0.76822043 0.91886608 0.62326872
0.91886608 0.91886608 0.62326872
0.00047898 0.00047953 0.76822043
0.03611815 0.00047946 0.76822043
0.12847967 0.00047946 0.76822043
0.23668559 0.00047946 0.76822043
0.35644528 0.00047898 0.76822043
0.48572258 0.00047946 0.76822043
0.62326872 0.00047898 0.76822043
0.76822043 0.00047946 0.76822043
0.91886608 0.00047961 0.76822043
0.00047898 0.03611815 0.76822043
0.03611815 0.03611815 0.76822043
0.12847967 0.03611815 0.76822043
0.23668559 0.03611815 0.76822043
0.35644528 0.03611815 0.76822043
0.48572258 0.03611815 0.76822043
0.62326872 0.03611815 0.76822043
0.76822043 0.03611815 0.76822043
0.91886608 0.03611815 0.76822043
0.00047898 0.12847967 0.76822043
0.03611815 0.12847967 0.76822043
0.12847967 0.12847967 0.76822043
0.23668559 0.12847967 0.76822043
0.35644528 0.12847967 0.76822043
0.48572258 0.12847967 0.76822043
0.62326872 0.12847967 0.76822043
0.76822043 0.12847967 0.76822043
0.91886608 0.12847967 0.76822043
0.00047898 0.23668559 0.76822043
0.03611815 0.23668559 0.76822043
0.12847967 0.23668559 0.76822043
0.23668559 0.23668559 0.76822043
0.35644528 0.23668559 0.76822043
0.48572258 0.23668559 0.76822043
0.62326872 0.23668559 0.76822043
0.76822043 0.23668559 0.76822043
0.91886608 0.23668559 0.76822043
0.00047898 0.35644528 0.76822043
0.03611815 0.35644528 0.76822043
0.12847967 0.35644528 0.76822043
0.23668559 0.35644528 0.76822043
0.35644528 0.35644528 0.76822043
0.48572258 0.35644528 0.76822043
0.62326872 0.35644528 0.76822043
0.76822043 0.35644528 0.76822043
0.91886608 0.35644528 0.76822043
0.00047898 0.48572258 0.76822043
0.03611815 0.48572258 0.76822043
0.12847967 0.48572258 0.76822043
0.23668559 0.48572258 0.76822043
0.35644528 0.48572258 0.76822043
0.48572258 0.48572258 0.76822043
0.62326872 0.48572258 0.76822043
0.76822043 0.48572258 0.76822043
0.91886608 0.48572258 0.76822043
0.00047898 0.62326872 0.76822043
0.03611815 0.62326872 0.76822043
0.12847967 0.62326872 0.76822043
0.23668559 0.62326872 0.76822043
0.35644528 0.62326872 0.76822043
0.48572258 0.62326872 0.76822043
0.62326872 0.62326872 0.76822043
0.76822043 0.62326872 0.76822043
0.91886608 0.62326872 0.76822043
0.00047935 0.76822043 0.76822043
0.03611815 0.76822043 0.76822043
0.12847967 0.76822043 0.76822043
0.23668559 0.76822043 0.76822043
0.35644528 0.76822043 0.76822043
0.48572258 0.76822043 0.76822043
0.62326872 0.76822043 0.76822043
0.76822043 0.76822043 0.76822043
0.91886608 0.76822043 0.76822043
0.00047953 0.91886608 0.76822043
0.03611815 0.91886608 0.76822043
0.12847967 0.91886608 0.76822043
0.23668559 0.91886608 0.76822043
0.35644528 0.91886608 0.76822043
0.48572258 0.91886608 0.76822043
0.62326872 0.91886608 0.76822043
0.76822043 0.91886608 0.76822043
0.91886608 0.91886608 0.76822043
0.00047898 0.00047971 0.91886608
0.03611815 0.00047898 0.91886608
0.12847967 0.00047971 0.91886608
0.23668559 0.00047961 0.91886608
0.35644528 0.00047961 0.91886608
0.48572258 0.00047961 0.91886608
0.62326872 0.00047961 0.91886608
0.76822043 0.00047898 0.91886608
0.91886608 0.00047961 0.91886608
0.00047946 0.03611815 0.91886608
0.03611815 0.03611815 0.91886608
0.12847967 0.03611815 0.91886608
0.23668559 0.03611815 0.91886608
0.35644528 0.03611815 0.91886608
0.48572258 0.03611815 0.91886608
0.62326872 0.03611815 0.91886608
0.76822043 0.03611815 0.91886608
0.91886608 0.03611815 0.91886608
0.00047898 0.12847967 0.91886608
0.03611815 0.12847967 0.91886608
0.12847967 0.12847967 0.91886608
0.23668559 0.12847967 0.91886608
0.35644528 0.12847967 0.91886608
0.48572258 0.12847967 0.91886608
0.62326872 0.12847967 0.91886608
0.76822043 0.12847967 0.91886608
0.91886608 0.12847967 0.91886608
0.00047898 0.23668559 0.91886608
0.03611815 0.23668559 0.91886608
0.12847967 0.23668559 0.91886608
0.23668559 0.23668559 0.91886608
0.35644528 0.23668559 0.91886608
0.48572258 0.23668559 0.91886608
0.62326872 0.23668559 0.91886608
0.76822043 0.23668559 0.91886608
0.91886608 0.23668559 0.91886608
0.00047898 0.35644528 0.91886608
0.03611815 0.35644528 0.91886608
0.12847967 0.35644528 0.91886608
0.23668559 0.35644528 0.91886608
0.35644528 0.35644528 0.91886608
0.48572258 0.35644528 0.91886608
0.62326872 0.35644528 0.91886608
0.76822043 0.35644528 0.91886608
0.91886608 0.35644528 0.91886608
0.00047898 0.48572258 0.91886608
0.03611815 0.48572258 0.91886608
0.12847967 0.48572258 0.91886608
0.23668559 0.48572258 0.91886608
0.35644528 0.48572258 0.91886608
0.48572258 0.48572258 0.91886608
0.62326872 0.48572258 0.91886608
0.76822043 0.48572258 0.91886608
0.91886608 0.48572258 0.91886608
0.00047898 0.62326872 0.91886608
0.03611815 0.62326872 0.91886608
0.12847967 0.62326872 0.91886608
0.23668559 0.62326872 0.91886608
0.35644528 0.62326872 0.91886608
0.48572258 0.62326872 0.91886608
0.62326872 0.62326872 0.91886608
0.76822043 0.62326872 0.91886608
0.91886608 0.62326872 0.91886608
0.00047898 0.76822043 0.91886608
0.03611815 0.76822043 0.91886608
0.12847967 0.76822043 0.91886608
0.23668559 0.76822043 0.91886608
0.35644528 0.76822043 0.91886608
0.48572258 0.76822043 0.91886608
0.62326872 0.76822043 0.91886608
0.76822043 0.76822043 0.91886608
0.91886608 0.76822043 0.91886608
0.00047953 0.91886608 0.91886608
0.03611815 0.91886608 0.91886608
0.12847967 0.91886608 0.91886608
0.23668559 0.91886608 0.91886608
0.35644528 0.91886608 0.91886608
0.48572258 0.91886608 0.91886608
0.62326872 0.91886608 0.91886608
0.76822043 0.91886608 0.91886608
0.91886608 0.91886608 0.91886608
