src/ffmpeg_scripts/luts/luminance-unclipped_2p33.cube
TITLE "luminance-unclipped_2p33"
LUT_3D_SIZE 33
# PQ (EOTF Only)/Rec2020 -> PQ (EOTF Only)/Rec2020, CineEI Shift 2.33, Black Level -7.25% IRE, Input 109% -> Output 109% - Created with LUTCalc v4.01 by Ben Turley October 2020
0.00047898 0.00047898 0.00047898
0.00047898 0.00047898 0.00047898
0.00047898 0.00047898 0.00047898
0.07373468 0.00047898 0.00047905
0.13424595 0.00047898 0.00047898
0.18950863 0.00047898 0.00047898
0.24140254 0.00047898 0.00047898
0.29082721 0.00047898 0.00047912
0.33831179 0.00047898 0.00047898
0.38420444 0.00047898 0.00047918
0.42875128 0.00047919 0.00047898
0.47213523 0.00047914 0.00047898
0.51449740 0.00047898 0.00047898
0.55594984 0.00047898 0.00047898
0.59658356 0.00047898 0.00047898
0.63647390 0.00047922 0.00047923
0.67568421 0.00047923 0.00047898
0.71426844 0.00047931 0.00047898
0.75227309 0.00047934 0.00047931
0.78973858 0.00047939 0.00047898
0.82670043 0.00047898 0.00047898
0.86319000 0.00047898 0.00047898
0.89923523 0.00047898 0.00047898
0.91886608 0.00047898 0.00047898
0.91886608 0.00047935 0.00047898
0.91886608 0.00047898 0.00047946
0.91886608 0.00047898 0.00047898
0.91886608 0.00047956 0.00047898
0.91886608 0.00047898 0.00047898
0.91886608 0.00047898 0.00047898
0.91886608 0.00047971 0.00047971
0.91886608 0.00047971 0.00047898
0.91886608 0.00047987 0.00047997
0.00047898 0.00047898 0.00047898
0.00047898 0.00047898 0.00047898
0.00047898 0.00047898 0.00047898
0.07373468 0.00047898 0.00047905
0.13424595 0.00047898 0.00047898
0.18950863 0.00047898 0.00047898
0.24140254 0.00047898 0.00047898
0.29082721 0.00047898 0.00047912
0.33831179 0.00047898 0.00047898
0.38420444 0.00047898 0.00047918
0.42875128 0.00047919 0.00047898
0.47213523 0.00047914 0.00047898
0.51449740 0.00047898 0.00047898
0.55594984 0.00047898 0.00047898
0.59658356 0.00047898 0.00047898
0.63647390 0.00047922 0.00047923
0.67568421 0.00047923 0.00047898
0.71426844 0.00047931 0.00047898
0.75227309 0.00047934 0.00047931
0.78973858 0.00047939 0.00047898
0.82670043 0.00047898 0.00047898
0.86319000 0.00047898 0.00047898
0.89923523 0.00047898 0.00047898
0.91886608 0.00047898 0.00047898
0.91886608 0.00047935 0.00047898
0.91886608 0.00047898 0.00047946
0.91886608 0.00047898 0.00047898
0.91886608 0.00047956 0.00047898
0.91886608 0.00047898 0.00047898
0.91886608 0.00047898 0.00047898
0.91886608 0.00047971 0.00047971
0.91886608 0.00047971 0.00047898
0.91886608 0.00047987 0.00047997
0.00047898 0.00047898 0.00047898
0.00047898 0.00047898 0.00047898
0.00047898 0.00047898 0.00047898
0.07373468 0.00047898 0.00047905
0.13424595 0.00047898 0.00047898
0.18950863 0.00047898 0.00047898
0.24140254 0.00047898 0.00047898
0.29082721 0.00047898 0.00047912
0.33831179 0.00047898 0.00047898
0.38420444 0.00047898 0.00047918
0.42875128 0.00047919 0.00047898
0.47213523 0.00047914 0.00047898
0.51449740 0.00047898 0.00047898
0.55594984 0.00047898 0.00047898
0.59658356 0.00047898 0.00047898
0.63647390 0.00047922 0.00047923
0.67568421 0.00047923 0.00047898
0.71426844 0.00047931 0.00047898
0.75227309 0.00047934 0.00047931
0.78973858 0.00047939 0.00047898
0.82670043 0.00047898 0.00047898
0.86319000 0.00047898 0.00047898
0.89923523 0.00047898 0.00047898
0.91886608 0.00047898 0.00047898
0.91886608 0.00047935 0.00047898
0.91886608 0.00047898 0.00047946
0.91886608 0.00047898 0.00047898
0.91886608 0.00047956 0.00047898
0.91886608 0.00047898 0.00047898
0.91886608 0.00047898 0.00047898
0.91886608 0.00047971 0.00047971
0.91886608 0.00047971 0.00047898
0.91886608 0.00047987 0.00047997
0.00047907 0.07373468 0.00047898
0.00047907 0.07373468 0.00047898
0.00047907 0.07373468 0.00047898
0.07373468 0.07373468 0.00047898
0.13424595 0.07373468 0.00047898
0.18950863 0.07373468 0.00047898
0.24140254 0.07373468 0.00047898
0.29082721 0.07373468 0.00047898
0.33831179 0.07373468 0.00047898
0.38420444 0.07373468 0.00047898
0.42875128 0.07373468 0.00047898
0.47213523 0.07373468 0.00047898
0.51449740 0.07373468 0.00047898
0.55594984 0.07373468 0.00047898
0.59658356 0.07373468 0.00047898
0.63647390 0.07373468 0.00047923
0.67568421 0.07373468 0.00047898
0.71426844 0.07373468 0.00047898
0.75227309 0.07373468 0.00047898
0.78973858 0.07373468 0.00047898
0.82670043 0.07373468 0.00047898
0.86319000 0.07373468 0.00047898
0.89923523 0.07373468 0.00047898
0.91886608 0.07373468 0.00047940
0.91886608 0.07373468 0.00047946
0.91886608 0.07373468 0.00047898
0.91886608 0.07373468 0.00047898
0.91886608 0.07373468 0.00047953
0.91886608 0.07373468 0.00047898
0.91886608 0.07373468 0.00047961
0.91886608 0.07373468 0.00047971
0.91886608 0.07373468 0.00047898
0.91886608 0.07373468 0.00047898
0.00047910 0.13424595 0.00047898
0.00047910 0.13424595 0.00047898
0.00047910 0.13424595 0.00047898
0.07373468 0.13424595 0.00047898
0.13424595 0.13424595 0.00047898
0.18950863 0.13424595 0.00047898
0.24140254 0.13424595 0.00047910
0.29082721 0.13424595 0.00047912
0.33831179 0.13424595 0.00047898
0.38420444 0.13424595 0.00047916
0.42875128 0.13424595 0.00047898
0.47213523 0.13424595 0.00047918
0.51449740 0.13424595 0.00047920
0.55594984 0.13424595 0.00047920
0.59658356 0.13424595 0.00047898
0.63647390 0.13424595 0.00047898
0.67568421 0.13424595 0.00047898
0.71426844 0.13424595 0.00047927
0.75227309 0.13424595 0.00047898
0.78973858 0.13424595 0.00047898
0.82670043 0.13424595 0.00047898
0.86319000 0.13424595 0.00047898
0.89923523 0.13424595 0.00047898
0.91886608 0.13424595 0.00047940
0.91886608 0.13424595 0.00047946
0.91886608 0.13424595 0.00047946
0.91886608 0.13424595 0.00047898
0.91886608 0.13424595 0.00047961
0.91886608 0.13424595 0.00047971
0.91886608 0.13424595 0.00047898
0.91886608 0.13424595 0.00047971
0.91886608 0.13424595 0.00047898
0.91886608 0.13424595 0.00047983
0.00047908 0.18950863 0.00047898
0.00047908 0.18950863 0.00047898
0.00047908 0.18950863 0.00047898
0.07373468 0.18950863 0.00047898
0.13424595 0.18950863 0.00047910
0.18950863 0.18950863 0.00047898
0.24140254 0.18950863 0.00047912
0.29082721 0.18950863 0.00047898
0.33831179 0.18950863 0.00047898
0.38420444 0.18950863 0.00047916
0.42875128 0.18950863 0.00047898
0.47213523 0.18950863 0.00047898
0.51449740 0.18950863 0.00047898
0.55594984 0.18950863 0.00047920
0.59658356 0.18950863 0.00047923
0.63647390 0.18950863 0.00047898
0.67568421 0.18950863 0.00047898
0.71426844 0.18950863 0.00047927
0.75227309 0.18950863 0.00047898
0.78973858 0.18950863 0.00047898
0.82670043 0.18950863 0.00047898
0.86319000 0.18950863 0.00047898
0.89923523 0.18950863 0.00047898
0.91886608 0.18950863 0.00047898
0.91886608 0.18950863 0.00047898
0.91886608 0.18950863 0.00047898
0.91886608 0.18950863 0.00047898
0.91886608 0.18950863 0.00047898
0.91886608 0.18950863 0.00047961
0.91886608 0.18950863 0.00047898
0.91886608 0.18950863 0.00047898
0.91886608 0.18950863 0.00047898
0.91886608 0.18950863 0.00047997
0.00047912 0.24140254 0.00047898
0.00047912 0.24140254 0.00047898
0.00047912 0.24140254 0.00047898
0.07373468 0.24140254 0.00047898
0.13424595 0.24140254 0.00047898
0.18950863 0.24140254 0.00047898
0.24140254 0.24140254 0.00047898
0.29082721 0.24140254 0.00047898
0.33831179 0.24140254 0.00047898
0.38420444 0.24140254 0.00047898
0.42875128 0.24140254 0.00047898
0.47213523 0.24140254 0.00047898
0.51449740 0.24140254 0.00047898
0.55594984 0.24140254 0.00047898
0.59658356 0.24140254 0.00047898
0.63647390 0.24140254 0.00047923
0.67568421 0.24140254 0.00047898
0.71426844 0.24140254 0.00047898
0.75227309 0.24140254 0.00047898
0.78973858 0.24140254 0.00047898
0.82670043 0.24140254 0.00047898
0.86319000 0.24140254 0.00047898
0.89923523 0.24140254 0.00047946
0.91886608 0.24140254 0.00047898
0.91886608 0.24140254 0.00047898
0.91886608 0.24140254 0.00047898
0.91886608 0.24140254 0.00047898
0.91886608 0.24140254 0.00047953
0.91886608 0.24140254 0.00047898
0.91886608 0.24140254 0.00047898
0.91886608 0.24140254 0.00047898
0.91886608 0.24140254 0.00047898
0.91886608 0.24140254 0.00047898
0.00047913 0.29082721 0.00047898
0.00047913 0.29082721 0.00047898
0.00047913 0.29082721 0.00047898
0.07373468 0.29082721 0.00047898
0.13424595 0.29082721 0.00047898
0.18950863 0.29082721 0.00047898
0.24140254 0.29082721 0.00047898
0.29082721 0.29082721 0.00047898
0.33831179 0.29082721 0.00047898
0.38420444 0.29082721 0.00047898
0.42875128 0.29082721 0.00047918
0.47213523 0.29082721 0.00047898
0.51449740 0.29082721 0.00047898
0.55594984 0.29082721 0.00047898
0.59658356 0.29082721 0.00047923
0.63647390 0.29082721 0.00047898
0.67568421 0.29082721 0.00047898
0.71426844 0.29082721 0.00047898
0.75227309 0.29082721 0.00047931
0.78973858 0.29082721 0.00047898
0.82670043 0.29082721 0.00047898
0.86319000 0.29082721 0.00047898
0.89923523 0.29082721 0.00047940
0.91886608 0.29082721 0.00047940
0.91886608 0.29082721 0.00047946
0.91886608 0.29082721 0.00047946
0.91886608 0.29082721 0.00047898
0.91886608 0.29082721 0.00047898
0.91886608 0.29082721 0.00047898
0.91886608 0.29082721 0.00047898
0.91886608 0.29082721 0.00047898
0.91886608 0.29082721 0.00047898
0.91886608 0.29082721 0.00047898
0.00047916 0.33831179 0.00047898
0.00047916 0.33831179 0.00047898
0.00047916 0.33831179 0.00047898
0.07373468 0.33831179 0.00047914
0.13424595 0.33831179 0.00047898
0.18950863 0.33831179 0.00047898
0.24140254 0.33831179 0.00047898
0.29082721 0.33831179 0.00047898
0.33831179 0.33831179 0.00047898
0.38420444 0.33831179 0.00047898
0.42875128 0.33831179 0.00047898
0.47213523 0.33831179 0.00047898
0.51449740 0.33831179 0.00047898
0.55594984 0.33831179 0.00047920
0.59658356 0.33831179 0.00047898
0.63647390 0.33831179 0.00047923
0.67568421 0.33831179 0.00047927
0.71426844 0.33831179 0.00047931
0.75227309 0.33831179 0.00047898
0.78973858 0.33831179 0.00047898
0.82670043 0.33831179 0.00047898
0.86319000 0.33831179 0.00047898
0.89923523 0.33831179 0.00047898
0.91886608 0.33831179 0.00047898
0.91886608 0.33831179 0.00047946
0.91886608 0.33831179 0.00047953
0.91886608 0.33831179 0.00047898
0.91886608 0.33831179 0.00047898
0.91886608 0.33831179 0.00047898
0.91886608 0.33831179 0.00047898
0.91886608 0.33831179 0.00047898
0.91886608 0.33831179 0.00047898
0.91886608 0.33831179 0.00047898
0.00047920 0.38420444 0.00047898
0.00047920 0.38420444 0.00047898
0.00047920 0.38420444 0.00047898
0.07373468 0.38420444 0.00047898
0.13424595 0.38420444 0.00047898
0.18950863 0.38420444 0.00047898
0.24140254 0.38420444 0.00047898
0.29082721 0.38420444 0.00047898
0.33831179 0.38420444 0.00047898
0.38420444 0.38420444 0.00047898
0.42875128 0.38420444 0.00047898
0.47213523 0.38420444 0.00047920
0.51449740 0.38420444 0.00047920
0.55594984 0.38420444 0.00047898
0.59658356 0.38420444 0.00047898
0.63647390 0.38420444 0.00047898
0.67568421 0.38420444 0.00047898
0.71426844 0.38420444 0.00047898
0.75227309 0.38420444 0.00047898
0.78973858 0.38420444 0.00047898
0.82670043 0.38420444 0.00047898
0.86319000 0.38420444 0.00047898
0.89923523 0.38420444 0.00047898
0.91886608 0.38420444 0.00047940
0.91886608 0.38420444 0.00047946
0.91886608 0.38420444 0.00047898
0.91886608 0.38420444 0.00047898
0.91886608 0.38420444 0.00047898
0.91886608 0.38420444 0.00047961
0.91886608 0.38420444 0.00047898
0.91886608 0.38420444 0.00047898
0.91886608 0.38420444 0.00047898
0.91886608 0.38420444 0.00047898
0.00047924 0.42875128 0.00047898
0.00047924 0.42875128 0.00047898
0.00047924 0.42875128 0.00047898
0.07373468 0.42875128 0.00047898
0.13424595 0.42875128 0.00047898
0.18950863 0.42875128 0.00047898
0.24140254 0.42875128 0.00047898
0.29082721 0.42875128 0.00047898
0.33831179 0.42875128 0.00047898
0.38420444 0.42875128 0.00047898
0.42875128 0.42875128 0.00047898
0.47213523 0.42875128 0.00047898
0.51449740 0.42875128 0.00047898
0.55594984 0.42875128 0.00047898
0.59658356 0.42875128 0.00047898
0.63647390 0.42875128 0.00047898
0.67568421 0.42875128 0.00047898
0.71426844 0.42875128 0.00047898
0.75227309 0.42875128 0.00047898
0.78973858 0.42875128 0.00047898
0.82670043 0.42875128 0.00047898
0.86319000 0.42875128 0.00047898
0.89923523 0.42875128 0.00047940
0.91886608 0.42875128 0.00047940
0.91886608 0.42875128 0.00047898
0.91886608 0.42875128 0.00047898
0.91886608 0.42875128 0.00047898
0.91886608 0.42875128 0.00047953
0.91886608 0.42875128 0.00047898
0.91886608 0.42875128 0.00047898
0.91886608 0.42875128 0.00047898
0.91886608 0.42875128 0.00047898
0.91886608 0.42875128 0.00047898
0.00047926 0.47213523 0.00047898
0.00047926 0.47213523 0.00047898
0.00047926 0.47213523 0.00047898
0.07373468 0.47213523 0.00047898
0.13424595 0.47213523 0.00047898
0.18950863 0.47213523 0.00047920
0.24140254 0.47213523 0.00047898
0.29082721 0.47213523 0.00047898
0.33831179 0.47213523 0.00047898
0.38420444 0.47213523 0.00047898
0.42875128 0.47213523 0.00047898
0.47213523 0.47213523 0.00047898
0.51449740 0.47213523 0.00047898
0.55594984 0.47213523 0.00047898
0.59658356 0.47213523 0.00047927
0.63647390 0.47213523 0.00047927
0.67568421 0.47213523 0.00047898
0.71426844 0.47213523 0.00047898
0.75227309 0.47213523 0.00047931
0.78973858 0.47213523 0.00047898
0.82670043 0.47213523 0.00047935
0.86319000 0.47213523 0.00047898
0.89923523 0.47213523 0.00047898
0.91886608 0.47213523 0.00047898
0.91886608 0.47213523 0.00047898
0.91886608 0.47213523 0.00047946
0.91886608 0.47213523 0.00047898
0.91886608 0.47213523 0.00047898
0.91886608 0.47213523 0.00047898
0.91886608 0.47213523 0.00047898
0.91886608 0.47213523 0.00047898
0.91886608 0.47213523 0.00047971
0.91886608 0.47213523 0.00047898
0.00047925 0.51449740 0.00047920
0.00047925 0.51449740 0.00047920
0.00047925 0.51449740 0.00047920
0.07373468 0.51449740 0.00047920
0.13424595 0.51449740 0.00047898
0.18950863 0.51449740 0.00047898
0.24140254 0.51449740 0.00047920
0.29082721 0.51449740 0.00047898
0.33831179 0.51449740 0.00047898
0.38420444 0.51449740 0.00047920
0.42875128 0.51449740 0.00047898
0.47213523 0.51449740 0.00047898
0.51449740 0.51449740 0.00047923
0.55594984 0.51449740 0.00047898
0.59658356 0.51449740 0.00047898
0.63647390 0.51449740 0.00047898
0.67568421 0.51449740 0.00047927
0.71426844 0.51449740 0.00047898
0.75227309 0.51449740 0.00047898
0.78973858 0.51449740 0.00047898
0.82670043 0.51449740 0.00047935
0.86319000 0.51449740 0.00047898
0.89923523 0.51449740 0.00047940
0.91886608 0.51449740 0.00047898
0.91886608 0.51449740 0.00047898
0.91886608 0.51449740 0.00047898
0.91886608 0.51449740 0.00047898
0.91886608 0.51449740 0.00047898
0.91886608 0.51449740 0.00047898
0.91886608 0.51449740 0.00047898
0.91886608 0.51449740 0.00047971
0.91886608 0.51449740 0.00047898
0.91886608 0.51449740 0.00047983
0.00047917 0.55594984 0.00047898
0.00047917 0.55594984 0.00047898
0.00047917 0.55594984 0.00047898
0.07373468 0.55594984 0.00047898
0.13424595 0.55594984 0.00047898
0.18950863 0.55594984 0.00047898
0.24140254 0.55594984 0.00047923
0.29082721 0.55594984 0.00047898
0.33831179 0.55594984 0.00047898
0.38420444 0.55594984 0.00047898
0.42875128 0.55594984 0.00047923
0.47213523 0.55594984 0.00047898
0.51449740 0.55594984 0.00047898
0.55594984 0.55594984 0.00047898
0.59658356 0.55594984 0.00047898
0.63647390 0.55594984 0.00047898
0.67568421 0.55594984 0.00047898
0.71426844 0.55594984 0.00047898
0.75227309 0.55594984 0.00047931
0.78973858 0.55594984 0.00047898
0.82670043 0.55594984 0.00047898
0.86319000 0.55594984 0.00047898
0.89923523 0.55594984 0.00047898
0.91886608 0.55594984 0.00047898
0.91886608 0.55594984 0.00047898
0.91886608 0.55594984 0.00047946
0.91886608 0.55594984 0.00047953
0.91886608 0.55594984 0.00047898
0.91886608 0.55594984 0.00047898
0.91886608 0.55594984 0.00047898
0.91886608 0.55594984 0.00047971
0.91886608 0.55594984 0.00047898
0.91886608 0.55594984 0.00047898
0.00047922 0.59658356 0.00047898
0.00047922 0.59658356 0.00047898
0.00047922 0.59658356 0.00047898
0.07373468 0.59658356 0.00047898
0.13424595 0.59658356 0.00047898
0.18950863 0.59658356 0.00047898
0.24140254 0.59658356 0.00047923
0.29082721 0.59658356 0.00047898
0.33831179 0.59658356 0.00047898
0.38420444 0.59658356 0.00047923
0.42875128 0.59658356 0.00047923
0.47213523 0.59658356 0.00047898
0.51449740 0.59658356 0.00047898
0.55594984 0.59658356 0.00047927
0.59658356 0.59658356 0.00047898
0.63647390 0.59658356 0.00047898
0.67568421 0.59658356 0.00047898
0.71426844 0.59658356 0.00047898
0.75227309 0.59658356 0.00047898
0.78973858 0.59658356 0.00047898
0.82670043 0.59658356 0.00047898
0.86319000 0.59658356 0.00047898
0.89923523 0.59658356 0.00047898
0.91886608 0.59658356 0.00047898
0.91886608 0.59658356 0.00047898
0.91886608 0.59658356 0.00047898
0.91886608 0.59658356 0.00047898
0.91886608 0.59658356 0.00047898
0.91886608 0.59658356 0.00047961
0.91886608 0.59658356 0.00047898
0.91886608 0.59658356 0.00047898
0.91886608 0.59658356 0.00047898
0.91886608 0.59658356 0.00047898
0.00047935 0.63647390 0.00047898
0.00047935 0.63647390 0.00047898
0.00047935 0.63647390 0.00047898
0.07373468 0.63647390 0.00047898
0.13424595 0.63647390 0.00047898
0.18950863 0.63647390 0.00047927
0.24140254 0.63647390 0.00047898
0.29082721 0.63647390 0.00047898
0.33831179 0.63647390 0.00047898
0.38420444 0.63647390 0.00047898
0.42875128 0.63647390 0.00047898
0.47213523 0.63647390 0.00047898
0.51449740 0.63647390 0.00047898
0.55594984 0.63647390 0.00047898
0.59658356 0.63647390 0.00047898
0.63647390 0.63647390 0.00047898
0.67568421 0.63647390 0.00047898
0.71426844 0.63647390 0.00047898
0.75227309 0.63647390 0.00047898
0.78973858 0.63647390 0.00047898
0.82670043 0.63647390 0.00047898
0.86319000 0.63647390 0.00047898
0.89923523 0.63647390 0.00047898
0.91886608 0.63647390 0.00047898
0.91886608 0.63647390 0.00047898
0.91886608 0.63647390 0.00047898
0.91886608 0.63647390 0.00047898
0.91886608 0.63647390 0.00047898
0.91886608 0.63647390 0.00047961
0.91886608 0.63647390 0.00047898
0.91886608 0.63647390 0.00047898
0.91886608 0.63647390 0.00047898
0.91886608 0.63647390 0.00047983
0.00047927 0.67568421 0.00047898
0.00047927 0.67568421 0.00047898
0.00047927 0.67568421 0.00047898
0.07373468 0.67568421 0.00047898
0.13424595 0.67568421 0.00047927
0.18950863 0.67568421 0.00047927
0.24140254 0.67568421 0.00047898
0.29082721 0.67568421 0.00047898
0.33831179 0.67568421 0.00047898
0.38420444 0.67568421 0.00047898
0.42875128 0.67568421 0.00047898
0.47213523 0.67568421 0.00047898
0.51449740 0.67568421 0.00047898
0.55594984 0.67568421 0.00047898
0.59658356 0.67568421 0.00047898
0.63647390 0.67568421 0.00047898
0.67568421 0.67568421 0.00047898
0.71426844 0.67568421 0.00047931
0.75227309 0.67568421 0.00047898
0.78973858 0.67568421 0.00047898
0.82670043 0.67568421 0.00047898
0.86319000 0.67568421 0.00047898
0.89923523 0.67568421 0.00047940
0.91886608 0.67568421 0.00047898
0.91886608 0.67568421 0.00047898
0.91886608 0.67568421 0.00047898
0.91886608 0.67568421 0.00047898
0.91886608 0.67568421 0.00047898
0.91886608 0.67568421 0.00047898
0.91886608 0.67568421 0.00047898
0.91886608 0.67568421 0.00047898
0.91886608 0.67568421 0.00047898
0.91886608 0.67568421 0.00047898
0.00047935 0.71426844 0.00047898
0.00047935 0.71426844 0.00047898
0.00047935 0.71426844 0.00047898
0.07373468 0.71426844 0.00047931
0.13424595 0.71426844 0.00047898
0.18950863 0.71426844 0.00047898
0.24140254 0.71426844 0.00047898
0.29082721 0.71426844 0.00047898
0.33831179 0.71426844 0.00047898
0.38420444 0.71426844 0.00047898
0.42875128 0.71426844 0.00047931
0.47213523 0.71426844 0.00047931
0.51449740 0.71426844 0.00047898
0.55594984 0.71426844 0.00047931
0.59658356 0.71426844 0.00047898
0.63647390 0.71426844 0.00047931
0.67568421 0.71426844 0.00047935
0.71426844 0.71426844 0.00047898
0.75227309 0.71426844 0.00047898
0.78973858 0.71426844 0.00047898
0.82670043 0.71426844 0.00047898
0.86319000 0.71426844 0.00047898
0.89923523 0.71426844 0.00047898
0.91886608 0.71426844 0.00047898
0.91886608 0.71426844 0.00047898
0.91886608 0.71426844 0.00047898
0.91886608 0.71426844 0.00047953
0.91886608 0.71426844 0.00047898
0.91886608 0.71426844 0.00047898
0.91886608 0.71426844 0.00047898
0.91886608 0.71426844 0.00047898
0.91886608 0.71426844 0.00047898
0.91886608 0.71426844 0.00047898
0.00047942 0.75227309 0.00047898
0.00047942 0.75227309 0.00047898
0.00047942 0.75227309 0.00047898
0.07373468 0.75227309 0.00047898
0.13424595 0.75227309 0.00047898
0.18950863 0.75227309 0.00047898
0.24140254 0.75227309 0.00047898
0.29082721 0.75227309 0.00047898
0.33831179 0.75227309 0.00047898
0.38420444 0.75227309 0.00047898
0.42875128 0.75227309 0.00047898
0.47213523 0.75227309 0.00047898
0.51449740 0.75227309 0.00047898
0.55594984 0.75227309 0.00047898
0.59658356 0.75227309 0.00047898
0.63647390 0.75227309 0.00047898
0.67568421 0.75227309 0.00047898
0.71426844 0.75227309 0.00047898
0.75227309 0.75227309 0.00047898
0.78973858 0.75227309 0.00047935
0.82670043 0.75227309 0.00047898
0.86319000 0.75227309 0.00047898
0.89923523 0.75227309 0.00047940
0.91886608 0.75227309 0.00047898
0.91886608 0.75227309 0.00047898
0.91886608 0.75227309 0.00047898
0.91886608 0.75227309 0.00047898
0.91886608 0.75227309 0.00047898
0.91886608 0.75227309 0.00047898
0.91886608 0.75227309 0.00047898
0.91886608 0.75227309 0.00047898
0.91886608 0.75227309 0.00047971
0.91886608 0.75227309 0.00047983
0.00047941 0.78973858 0.00047898
0.00047941 0.78973858 0.00047898
0.00047941 0.78973858 0.00047898
0.07373468 0.78973858 0.00047898
0.13424595 0.78973858 0.00047898
0.18950863 0.78973858 0.00047898
0.24140254 0.78973858 0.00047898
0.29082721 0.78973858 0.00047898
0.33831179 0.78973858 0.00047898
0.38420444 0.78973858 0.00047898
0.42875128 0.78973858 0.00047898
0.47213523 0.78973858 0.00047935
0.51449740 0.78973858 0.00047898
0.55594984 0.78973858 0.00047898
0.59658356 0.78973858 0.00047898
0.63647390 0.78973858 0.00047898
0.67568421 0.78973858 0.00047898
0.71426844 0.78973858 0.00047898
0.75227309 0.78973858 0.00047940
0.78973858 0.78973858 0.00047898
0.82670043 0.78973858 0.00047898
0.86319000 0.78973858 0.00047898
0.89923523 0.78973858 0.00047946
0.91886608 0.78973858 0.00047898
0.91886608 0.78973858 0.00047898
0.91886608 0.78973858 0.00047898
0.91886608 0.78973858 0.00047898
0.91886608 0.78973858 0.00047953
0.91886608 0.78973858 0.00047961
0.91886608 0.78973858 0.00047898
0.91886608 0.78973858 0.00047898
0.91886608 0.78973858 0.00047898
0.91886608 0.78973858 0.00047898
0.00047937 0.82670043 0.00047935
0.00047937 0.82670043 0.00047935
0.00047937 0.82670043 0.00047935
0.07373468 0.82670043 0.00047935
0.13424595 0.82670043 0.00047898
0.18950863 0.82670043 0.00047940
0.24140254 0.82670043 0.00047898
0.29082721 0.82670043 0.00047898
0.33831179 0.82670043 0.00047935
0.38420444 0.82670043 0.00047898
0.42875128 0.82670043 0.00047935
0.47213523 0.82670043 0.00047898
0.51449740 0.82670043 0.00047898
0.55594984 0.82670043 0.00047935
0.59658356 0.82670043 0.00047898
0.63647390 0.82670043 0.00047898
0.67568421 0.82670043 0.00047940
0.71426844 0.82670043 0.00047898
0.75227309 0.82670043 0.00047898
0.78973858 0.82670043 0.00047898
0.82670043 0.82670043 0.00047940
0.86319000 0.82670043 0.00047898
0.89923523 0.82670043 0.00047898
0.91886608 0.82670043 0.00047946
0.91886608 0.82670043 0.00047898
0.91886608 0.82670043 0.00047898
0.91886608 0.82670043 0.00047898
0.91886608 0.82670043 0.00047898
0.91886608 0.82670043 0.00047898
0.91886608 0.82670043 0.00047898
0.91886608 0.82670043 0.00047898
0.91886608 0.82670043 0.00047898
0.91886608 0.82670043 0.00047898
0.00047950 0.86319000 0.00047898
0.00047950 0.86319000 0.00047898
0.00047950 0.86319000 0.00047898
0.07373468 0.86319000 0.00047898
0.13424595 0.86319000 0.00047898
0.18950863 0.86319000 0.00047940
0.24140254 0.86319000 0.00047898
0.29082721 0.86319000 0.00047898
0.33831179 0.86319000 0.00047898
0.38420444 0.86319000 0.00047898
0.42875128 0.86319000 0.00047898
0.47213523 0.86319000 0.00047898
0.51449740 0.86319000 0.00047898
0.55594984 0.86319000 0.00047898
0.59658356 0.86319000 0.00047898
0.63647390 0.86319000 0.00047898
0.67568421 0.86319000 0.00047898
0.71426844 0.86319000 0.00047898
0.75227309 0.86319000 0.00047898
0.78973858 0.86319000 0.00047898
0.82670043 0.86319000 0.00047898
0.86319000 0.86319000 0.00047898
0.89923523 0.86319000 0.00047898
0.91886608 0.86319000 0.00047946
0.91886608 0.86319000 0.00047898
0.91886608 0.86319000 0.00047898
0.91886608 0.86319000 0.00047898
