src/ffmpeg_scripts/luts/luminance-unclipped_0p67.cube
TITLE "luminance-unclipped_0p67"
LUT_3D_SIZE 9
# PQ (EOTF Only)/Rec2020 -> PQ (EOTF Only)/Rec2020, CineEI Shift 0.67, Black Level -7.25% IRE, Input 109% -> Output 109% - Created with LUTCalc v4.01 by Ben Turley October 2020
0.00047898 0.00047898 0.00047898
0.08755798 0.00047906 0.00047898
0.24902938 0.00047898 0.00047898
0.40365153 0.00047898 0.00047916
0.55419416 0.00047918 0.00047923
0.70179064 0.00047898 0.00047898
0.84707199 0.00047898 0.00047898
0.91886608 0.00047952 0.00047898
0.91886608 0.00047953 0.00047961
0.00047907 0.08755798 0.00047898
0.08755798 0.08755798 0.00047898
0.24902938 0.08755798 0.00047898
0.40365153 0.08755798 0.00047898
0.55419416 0.08755798 0.00047898
0.70179064 0.08755798 0.00047898
0.84707199 0.08755798 0.00047898
0.91886608 0.08755798 0.00047946
0.91886608 0.08755798 0.00047898
0.00047912 0.24902938 0.00047898
0.08755798 0.24902938 0.00047898
0.24902938 0.24902938 0.00047898
0.40365153 0.24902938 0.00047898
0.55419416 0.24902938 0.00047920
0.70179064 0.24902938 0.00047898
0.84707199 0.24902938 0.00047898
0.91886608 0.24902938 0.00047898
0.91886608 0.24902938 0.00047898
0.00047919 0.40365153 0.00047916
0.08755798 0.40365153 0.00047898
0.24902938 0.40365153 0.00047898
0.40365153 0.40365153 0.00047918
0.55419416 0.40365153 0.00047923
0.70179064 0.40365153 0.00047898
0.84707199 0.40365153 0.00047898
0.91886608 0.40365153 0.00047946
0.91886608 0.40365153 0.00047898
0.00047898 0.55419416 0.00047898
0.08755798 0.55419416 0.00047898
0.24902938 0.55419416 0.00047898
0.40365153 0.55419416 0.00047898
0.55419416 0.55419416 0.00047898
0.70179064 0.55419416 0.00047898
0.84707199 0.55419416 0.00047898
0.91886608 0.55419416 0.00047898
0.91886608 0.55419416 0.00047898
0.00047928 0.70179064 0.00047931
0.08755798 0.70179064 0.00047898
0.24902938 0.70179064 0.00047931
0.40365153 0.70179064 0.00047898
0.55419416 0.70179064 0.00047931
0.70179064 0.70179064 0.00047898
0.84707199 0.70179064 0.00047898
0.91886608 0.70179064 0.00047898
0.91886608 0.70179064 0.00047898
0.00047898 0.84707199 0.00047898
0.08755798 0.84707199 0.00047898
0.24902938 0.84707199 0.00047898
0.40365153 0.84707199 0.00047940
0.55419416 0.84707199 0.00047898
0.70179064 0.84707199 0.00047940
0.84707199 0.84707199 0.00047898
0.91886608 0.84707199 0.00047898
0.91886608 0.84707199 0.00047961
0.00047949 0.91886608 0.00047898
0.08755798 0.91886608 0.00047898
0.24902938 0.91886608 0.00047898
0.40365153 0.91886608 0.00047898
0.55419416 0.91886608 0.00047898
0.70179064 0.91886608 0.00047898
0.84707199 0.91886608 0.00047898
0.91886608 0.91886608 0.00047898
0.91886608 0.91886608 0.00047898
0.00047973 0.91886608 0.00047971
0.08755798 0.91886608 0.00047971
0.24902938 0.91886608 0.00047898
0.40365153 0.91886608 0.00047898
0.55419416 0.91886608 0.00047898
0.70179064 0.91886608 0.00047898
0.84707199 0.91886608 0.00047898
0.91886608 0.91886608 0.00047971
0.91886608 0.91886608 0.00047898
0.00047898 0.00047909 0.08755798
0.08755798 0.00047908 0.08755798
0.24902938 0.00047898 0.08755798
0.40365153 0.00047898 0.08755798
0.55419416 0.00047921 0.08755798
0.70179064 0.00047898 0.08755798
0.84707199 0.00047898 0.08755798
0.91886608 0.00047952 0.08755798
0.91886608 0.00047958 0.08755798
0.00047908 0.08755798 0.08755798
0.08755798 0.08755798 0.08755798
0.24902938 0.08755798 0.08755798
0.40365153 0.08755798 0.08755798
0.55419416 0.08755798 0.08755798
0.70179064 0.08755798 0.08755798
0.84707199 0.08755798 0.08755798
0.91886608 0.08755798 0.08755798
0.91886608 0.08755798 0.08755798
0.00047913 0.24902938 0.08755798
0.08755798 0.24902938 0.08755798
0.24902938 0.24902938 0.08755798
0.40365153 0.24902938 0.08755798
0.55419416 0.24902938 0.08755798
0.70179064 0.24902938 0.08755798
0.84707199 0.24902938 0.08755798
0.91886608 0.24902938 0.08755798
0.91886608 0.24902938 0.08755798
0.00047915 0.40365153 0.08755798
0.08755798 0.40365153 0.08755798
0.24902938 0.40365153 0.08755798
0.40365153 0.40365153 0.08755798
0.55419416 0.40365153 0.08755798
0.70179064 0.40365153 0.08755798
0.84707199 0.40365153 0.08755798
0.91886608 0.40365153 0.08755798
0.91886608 0.40365153 0.08755798
0.00047898 0.55419416 0.08755798
0.08755798 0.55419416 0.08755798
0.24902938 0.55419416 0.08755798
0.40365153 0.55419416 0.08755798
0.55419416 0.55419416 0.08755798
0.70179064 0.55419416 0.08755798
0.84707199 0.55419416 0.08755798
0.91886608 0.55419416 0.08755798
0.91886608 0.55419416 0.08755798
0.00047935 0.70179064 0.08755798
0.08755798 0.70179064 0.08755798
0.24902938 0.70179064 0.08755798
0.40365153 0.70179064 0.08755798
0.55419416 0.70179064 0.08755798
0.70179064 0.70179064 0.08755798
0.84707199 0.70179064 0.08755798
0.91886608 0.70179064 0.08755798
0.91886608 0.70179064 0.08755798
0.00047898 0.84707199 0.08755798
0.08755798 0.84707199 0.08755798
0.24902938 0.84707199 0.08755798
0.40365153 0.84707199 0.08755798
0.55419416 0.84707199 0.08755798
0.70179064 0.84707199 0.08755798
0.84707199 0.84707199 0.08755798
0.91886608 0.84707199 0.08755798
0.91886608 0.84707199 0.08755798
0.00047952 0.91886608 0.08755798
0.08755798 0.91886608 0.08755798
0.24902938 0.91886608 0.08755798
0.40365153 0.91886608 0.08755798
0.55419416 0.91886608 0.08755798
0.70179064 0.91886608 0.08755798
0.84707199 0.91886608 0.08755798
0.91886608 0.91886608 0.08755798
0.91886608 0.91886608 0.08755798
0.00047950 0.91886608 0.08755798
0.08755798 0.91886608 0.08755798
0.24902938 0.91886608 0.08755798
0.40365153 0.91886608 0.08755798
0.55419416 0.91886608 0.08755798
0.70179064 0.91886608 0.08755798
0.84707199 0.91886608 0.08755798
0.91886608 0.91886608 0.08755798
0.91886608 0.91886608 0.08755798
0.00047898 0.00047916 0.24902938
0.08755798 0.00047916 0.24902938
0.24902938 0.00047916 0.24902938
0.40365153 0.00047898 0.24902938
0.55419416 0.00047923 0.24902938
0.70179064 0.00047932 0.24902938
0.84707199 0.00047898 0.24902938
0.91886608 0.00047954 0.24902938
0.91886608 0.00047958 0.24902938
0.00047898 0.08755798 0.24902938
0.08755798 0.08755798 0.24902938
0.24902938 0.08755798 0.24902938
0.40365153 0.08755798 0.24902938
0.55419416 0.08755798 0.24902938
0.70179064 0.08755798 0.24902938
0.84707199 0.08755798 0.24902938
0.91886608 0.08755798 0.24902938
0.91886608 0.08755798 0.24902938
0.00047898 0.24902938 0.24902938
0.08755798 0.24902938 0.24902938
0.24902938 0.24902938 0.24902938
0.40365153 0.24902938 0.24902938
0.55419416 0.24902938 0.24902938
0.70179064 0.24902938 0.24902938
0.84707199 0.24902938 0.24902938
0.91886608 0.24902938 0.24902938
0.91886608 0.24902938 0.24902938
0.00047898 0.40365153 0.24902938
0.08755798 0.40365153 0.24902938
0.24902938 0.40365153 0.24902938
0.40365153 0.40365153 0.24902938
0.55419416 0.40365153 0.24902938
0.70179064 0.40365153 0.24902938
0.84707199 0.40365153 0.24902938
0.91886608 0.40365153 0.24902938
0.91886608 0.40365153 0.24902938
0.00047927 0.55419416 0.24902938
0.08755798 0.55419416 0.24902938
0.24902938 0.55419416 0.24902938
0.40365153 0.55419416 0.24902938
0.55419416 0.55419416 0.24902938
0.70179064 0.55419416 0.24902938
0.84707199 0.55419416 0.24902938
0.91886608 0.55419416 0.24902938
0.91886608 0.55419416 0.24902938
0.00047935 0.70179064 0.24902938
0.08755798 0.70179064 0.24902938
0.24902938 0.70179064 0.24902938
0.40365153 0.70179064 0.24902938
0.55419416 0.70179064 0.24902938
0.70179064 0.70179064 0.24902938
0.84707199 0.70179064 0.24902938
0.91886608 0.70179064 0.24902938
0.91886608 0.70179064 0.24902938
0.00047953 0.84707199 0.24902938
0.08755798 0.84707199 0.24902938
0.24902938 0.84707199 0.24902938
0.40365153 0.84707199 0.24902938
0.55419416 0.84707199 0.24902938
0.70179064 0.84707199 0.24902938
0.84707199 0.84707199 0.24902938
0.91886608 0.84707199 0.24902938
0.91886608 0.84707199 0.24902938
0.00047931 0.91886608 0.24902938
0.08755798 0.91886608 0.24902938
0.24902938 0.91886608 0.24902938
0.40365153 0.91886608 0.24902938
0.55419416 0.91886608 0.24902938
0.70179064 0.91886608 0.24902938
0.84707199 0.91886608 0.24902938
0.91886608 0.91886608 0.24902938
0.91886608 0.91886608 0.24902938
0.00047898 0.91886608 0.24902938
0.08755798 0.91886608 0.24902938
0.24902938 0.91886608 0.24902938
0.40365153 0.91886608 0.24902938
0.55419416 0.91886608 0.24902938
0.70179064 0.91886608 0.24902938
0.84707199 0.91886608 0.24902938
0.91886608 0.91886608 0.24902938
0.91886608 0.91886608 0.24902938
0.00047898 0.00047923 0.40365153
0.08755798 0.00047923 0.40365153
0.24902938 0.00047923 0.40365153
0.40365153 0.00047898 0.40365153
0.55419416 0.00047898 0.40365153
0.70179064 0.00047931 0.40365153
0.84707199 0.00047898 0.40365153
0.91886608 0.00047898 0.40365153
0.91886608 0.00047946 0.40365153
0.00047898 0.08755798 0.40365153
0.08755798 0.08755798 0.40365153
0.24902938 0.08755798 0.40365153
0.40365153 0.08755798 0.40365153
0.55419416 0.08755798 0.40365153
0.70179064 0.08755798 0.40365153
0.84707199 0.08755798 0.40365153
0.91886608 0.08755798 0.40365153
0.91886608 0.08755798 0.40365153
0.00047898 0.24902938 0.40365153
0.08755798 0.24902938 0.40365153
0.24902938 0.24902938 0.40365153
0.40365153 0.24902938 0.40365153
0.55419416 0.24902938 0.40365153
0.70179064 0.24902938 0.40365153
0.84707199 0.24902938 0.40365153
0.91886608 0.24902938 0.40365153
0.91886608 0.24902938 0.40365153
0.00047918 0.40365153 0.40365153
0.08755798 0.40365153 0.40365153
0.24902938 0.40365153 0.40365153
0.40365153 0.40365153 0.40365153
0.55419416 0.40365153 0.40365153
0.70179064 0.40365153 0.40365153
0.84707199 0.40365153 0.40365153
0.91886608 0.40365153 0.40365153
0.91886608 0.40365153 0.40365153
0.00047898 0.55419416 0.40365153
0.08755798 0.55419416 0.40365153
0.24902938 0.55419416 0.40365153
0.40365153 0.55419416 0.40365153
0.55419416 0.55419416 0.40365153
0.70179064 0.55419416 0.40365153
0.84707199 0.55419416 0.40365153
0.91886608 0.55419416 0.40365153
0.91886608 0.55419416 0.40365153
0.00047931 0.70179064 0.40365153
0.08755798 0.70179064 0.40365153
0.24902938 0.70179064 0.40365153
0.40365153 0.70179064 0.40365153
0.55419416 0.70179064 0.40365153
0.70179064 0.70179064 0.40365153
0.84707199 0.70179064 0.40365153
0.91886608 0.70179064 0.40365153
0.91886608 0.70179064 0.40365153
0.00047949 0.84707199 0.40365153
0.08755798 0.84707199 0.40365153
0.24902938 0.84707199 0.40365153
0.40365153 0.84707199 0.40365153
0.55419416 0.84707199 0.40365153
0.70179064 0.84707199 0.40365153
0.84707199 0.84707199 0.40365153
0.91886608 0.84707199 0.40365153
0.91886608 0.84707199 0.40365153
0.00047898 0.91886608 0.40365153
0.08755798 0.91886608 0.40365153
0.24902938 0.91886608 0.40365153
0.40365153 0.91886608 0.40365153
0.55419416 0.91886608 0.40365153
0.70179064 0.91886608 0.40365153
0.84707199 0.91886608 0.40365153
0.91886608 0.91886608 0.40365153
0.91886608 0.91886608 0.40365153
0.00047969 0.91886608 0.40365153
0.08755798 0.91886608 0.40365153
0.24902938 0.91886608 0.40365153
0.40365153 0.91886608 0.40365153
0.55419416 0.91886608 0.40365153
0.70179064 0.91886608 0.40365153
0.84707199 0.91886608 0.40365153
0.91886608 0.91886608 0.40365153
0.91886608 0.91886608 0.40365153
0.00047898 0.00047935 0.55419416
0.08755798 0.00047898 0.55419416
0.24902938 0.00047898 0.55419416
0.40365153 0.00047931 0.55419416
0.55419416 0.00047931 0.55419416
0.70179064 0.00047898 0.55419416
0.84707199 0.00047931 0.55419416
0.91886608 0.00047935 0.55419416
0.91886608 0.00047973 0.55419416
0.00047923 0.08755798 0.55419416
0.08755798 0.08755798 0.55419416
0.24902938 0.08755798 0.55419416
0.40365153 0.08755798 0.55419416
0.55419416 0.08755798 0.55419416
0.70179064 0.08755798 0.55419416
0.84707199 0.08755798 0.55419416
0.91886608 0.08755798 0.55419416
0.91886608 0.08755798 0.55419416
0.00047898 0.24902938 0.55419416
0.08755798 0.24902938 0.55419416
0.24902938 0.24902938 0.55419416
0.40365153 0.24902938 0.55419416
0.55419416 0.24902938 0.55419416
0.70179064 0.24902938 0.55419416
0.84707199 0.24902938 0.55419416
0.91886608 0.24902938 0.55419416
0.91886608 0.24902938 0.55419416
0.00047898 0.40365153 0.55419416
0.08755798 0.40365153 0.55419416
0.24902938 0.40365153 0.55419416
0.40365153 0.40365153 0.55419416
0.55419416 0.40365153 0.55419416
0.70179064 0.40365153 0.55419416
0.84707199 0.40365153 0.55419416
0.91886608 0.40365153 0.55419416
0.91886608 0.40365153 0.55419416
0.00047898 0.55419416 0.55419416
0.08755798 0.55419416 0.55419416
0.24902938 0.55419416 0.55419416
0.40365153 0.55419416 0.55419416
0.55419416 0.55419416 0.55419416
0.70179064 0.55419416 0.55419416
0.84707199 0.55419416 0.55419416
0.91886608 0.55419416 0.55419416
0.91886608 0.55419416 0.55419416
0.00047898 0.70179064 0.55419416
0.08755798 0.70179064 0.55419416
0.24902938 0.70179064 0.55419416
0.40365153 0.70179064 0.55419416
0.55419416 0.70179064 0.55419416
0.70179064 0.70179064 0.55419416
0.84707199 0.70179064 0.55419416
0.91886608 0.70179064 0.55419416
0.91886608 0.70179064 0.55419416
0.00047898 0.84707199 0.55419416
0.08755798 0.84707199 0.55419416
0.24902938 0.84707199 0.55419416
0.40365153 0.84707199 0.55419416
0.55419416 0.84707199 0.55419416
0.70179064 0.84707199 0.55419416
0.84707199 0.84707199 0.55419416
0.91886608 0.84707199 0.55419416
0.91886608 0.84707199 0.55419416
0.00047961 0.91886608 0.55419416
0.08755798 0.91886608 0.55419416
0.24902938 0.91886608 0.55419416
0.40365153 0.91886608 0.55419416
0.55419416 0.91886608 0.55419416
0.70179064 0.91886608 0.55419416
0.84707199 0.91886608 0.55419416
0.91886608 0.91886608 0.55419416
0.91886608 0.91886608 0.55419416
0.00047898 0.91886608 0.55419416
0.08755798 0.91886608 0.55419416
0.24902938 0.91886608 0.55419416
0.40365153 0.91886608 0.55419416
0.55419416 0.91886608 0.55419416
0.70179064 0.91886608 0.55419416
0.84707199 0.91886608 0.55419416
0.91886608 0.91886608 0.55419416
0.91886608 0.91886608 0.55419416
0.00047931 0.00047940 0.70179064
0.08755798 0.00047946 0.70179064
0.24902938 0.00047940 0.70179064
0.40365153 0.00047946 0.70179064
0.55419416 0.00047946 0.70179064
0.70179064 0.00047940 0.70179064
0.84707199 0.00047946 0.70179064
0.91886608 0.00047940 0.70179064
0.91886608 0.00047898 0.70179064
0.00047898 0.08755798 0.70179064
0.08755798 0.08755798 0.70179064
0.24902938 0.08755798 0.70179064
0.40365153 0.08755798 0.70179064
0.55419416 0.08755798 0.70179064
0.70179064 0.08755798 0.70179064
0.84707199 0.08755798 0.70179064
0.91886608 0.08755798 0.70179064
0.91886608 0.08755798 0.70179064
0.00047931 0.24902938 0.70179064
0.08755798 0.24902938 0.70179064
0.24902938 0.24902938 0.70179064
0.40365153 0.24902938 0.70179064
0.55419416 0.24902938 0.70179064
0.70179064 0.24902938 0.70179064
0.84707199 0.24902938 0.70179064
0.91886608 0.24902938 0.70179064
0.91886608 0.24902938 0.70179064
0.00047898 0.40365153 0.70179064
0.08755798 0.40365153 0.70179064
0.24902938 0.40365153 0.70179064
0.40365153 0.40365153 0.70179064
0.55419416 0.40365153 0.70179064
0.70179064 0.40365153 0.70179064
0.84707199 0.40365153 0.70179064
0.91886608 0.40365153 0.70179064
0.91886608 0.40365153 0.70179064
0.00047898 0.55419416 0.70179064
0.08755798 0.55419416 0.70179064
0.24902938 0.55419416 0.70179064
0.40365153 0.55419416 0.70179064
0.55419416 0.55419416 0.70179064
0.70179064 0.55419416 0.70179064
0.84707199 0.55419416 0.70179064
0.91886608 0.55419416 0.70179064
0.91886608 0.55419416 0.70179064
0.00047898 0.70179064 0.70179064
0.08755798 0.70179064 0.70179064
0.24902938 0.70179064 0.70179064
0.40365153 0.70179064 0.70179064
0.55419416 0.70179064 0.70179064
0.70179064 0.70179064 0.70179064
0.84707199 0.70179064 0.70179064
0.91886608 0.70179064 0.70179064
0.91886608 0.70179064 0.70179064
0.00047940 0.84707199 0.70179064
0.08755798 0.84707199 0.70179064
0.24902938 0.84707199 0.70179064
0.40365153 0.84707199 0.70179064
0.55419416 0.84707199 0.70179064
0.70179064 0.84707199 0.70179064
0.84707199 0.84707199 0.70179064
0.91886608 0.84707199 0.70179064
0.91886608 0.84707199 0.70179064
0.00047898 0.91886608 0.70179064
0.08755798 0.91886608 0.70179064
0.24902938 0.91886608 0.70179064
0.40365153 0.91886608 0.70179064
0.55419416 0.91886608 0.70179064
0.70179064 0.91886608 0.70179064
0.84707199 0.91886608 0.70179064
0.91886608 0.91886608 0.70179064
0.91886608 0.91886608 0.70179064
0.00047980 0.91886608 0.70179064
0.08755798 0.91886608 0.70179064
0.24902938 0.91886608 0.70179064
0.40365153 0.91886608 0.70179064
0.55419416 0.91886608 0.70179064
0.70179064 0.91886608 0.70179064
0.84707199 0.91886608 0.70179064
0.91886608 0.91886608 0.70179064
0.91886608 0.91886608 0.70179064
0.00047898 0.00047953 0.84707199
0.08755798 0.00047953 0.84707199
0.24902938 0.00047898 0.84707199
0.40365153 0.00047953 0.84707199
0.55419416 0.00047953 0.84707199
0.70179064 0.00047953 0.84707199
0.84707199 0.00047953 0.84707199
0.91886608 0.00047898 0.84707199
0.91886608 0.00047898 0.84707199
0.00047898 0.08755798 0.84707199
0.08755798 0.08755798 0.84707199
0.24902938 0.08755798 0.84707199
0.40365153 0.08755798 0.84707199
0.55419416 0.08755798 0.84707199
0.70179064 0.08755798 0.84707199
0.84707199 0.08755798 0.84707199
0.91886608 0.08755798 0.84707199
0.91886608 0.08755798 0.84707199
0.00047898 0.24902938 0.84707199
0.08755798 0.24902938 0.84707199
0.24902938 0.24902938 0.84707199
0.40365153 0.24902938 0.84707199
0.55419416 0.24902938 0.84707199
0.70179064 0.24902938 0.84707199
0.84707199 0.24902938 0.84707199
0.91886608 0.24902938 0.84707199
0.91886608 0.24902938 0.84707199
0.00047898 0.40365153 0.84707199
0.08755798 0.40365153 0.84707199
0.24902938 0.40365153 0.84707199
0.40365153 0.40365153 0.84707199
0.55419416 0.40365153 0.84707199
0.70179064 0.40365153 0.84707199
0.84707199 0.40365153 0.84707199
0.91886608 0.40365153 0.84707199
0.91886608 0.40365153 0.84707199
0.00047898 0.55419416 0.84707199
0.08755798 0.55419416 0.84707199
0.24902938 0.55419416 0.84707199
0.40365153 0.55419416 0.84707199
0.55419416 0.55419416 0.84707199
0.70179064 0.55419416 0.84707199
0.84707199 0.55419416 0.84707199
0.91886608 0.55419416 0.84707199
0.91886608 0.55419416 0.84707199
0.00047898 0.70179064 0.84707199
0.08755798 0.70179064 0.84707199
0.24902938 0.70179064 0.84707199
0.40365153 0.70179064 0.84707199
0.55419416 0.70179064 0.84707199
0.70179064 0.70179064 0.84707199
0.84707199 0.70179064 0.84707199
0.91886608 0.70179064 0.84707199
0.91886608 0.70179064 0.84707199
0.00047898 0.84707199 0.84707199
0.08755798 0.84707199 0.84707199
0.24902938 0.84707199 0.84707199
0.40365153 0.84707199 0.84707199
0.55419416 0.84707199 0.84707199
0.70179064 0.84707199 0.84707199
0.84707199 0.84707199 0.84707199
0.91886608 0.84707199 0.84707199
0.91886608 0.84707199 0.84707199
0.00047898 0.91886608 0.84707199
0.08755798 0.91886608 0.84707199
0.24902938 0.91886608 0.84707199
0.40365153 0.91886608 0.84707199
0.55419416 0.91886608 0.84707199
0.70179064 0.91886608 0.84707199
0.84707199 0.91886608 0.84707199
0.91886608 0.91886608 0.84707199
0.91886608 0.91886608 0.84707199
0.00047973 0.91886608 0.84707199
0.08755798 0.91886608 0.84707199
0.24902938 0.91886608 0.84707199
0.40365153 0.91886608 0.84707199
0.55419416 0.91886608 0.84707199
0.70179064 0.91886608 0.84707199
0.84707199 0.91886608 0.84707199
0.91886608 0.91886608 0.84707199
0.91886608 0.91886608 0.84707199
0.00047898 0.00047983 0.91886608
0.08755798 0.00047983 0.91886608
0.24902938 0.00047898 0.91886608
0.40365153 0.00047983 0.91886608
0.55419416 0.00047898 0.91886608
0.70179064 0.00047971 0.91886608
0.84707199 0.00047971 0.91886608
0.91886608 0.00047983 0.91886608
0.91886608 0.00047971 0.91886608
0.00047898 0.08755798 0.91886608
0.08755798 0.08755798 0.91886608
0.24902938 0.08755798 0.91886608
0.40365153 0.08755798 0.91886608
0.55419416 0.08755798 0.91886608
0.70179064 0.08755798 0.91886608
0.84707199 0.08755798 0.91886608
0.91886608 0.08755798 0.91886608
0.91886608 0.08755798 0.91886608
0.00047898 0.24902938 0.91886608
0.08755798 0.24902938 0.91886608
0.24902938 0.24902938 0.91886608
0.40365153 0.24902938 0.91886608
0.55419416 0.24902938 0.91886608
0.70179064 0.24902938 0.91886608
0.84707199 0.24902938 0.91886608
0.91886608 0.24902938 0.91886608
0.91886608 0.24902938 0.91886608
0.00047898 0.40365153 0.91886608
0.08755798 0.40365153 0.91886608
0.24902938 0.40365153 0.91886608
0.40365153 0.40365153 0.91886608
0.55419416 0.40365153 0.91886608
0.70179064 0.40365153 0.91886608
0.84707199 0.40365153 0.91886608
0.91886608 0.40365153 0.91886608
0.91886608 0.40365153 0.91886608
0.00047898 0.55419416 0.91886608
0.08755798 0.55419416 0.91886608
0.24902938 0.55419416 0.91886608
0.40365153 0.55419416 0.91886608
0.55419416 0.55419416 0.91886608
0.70179064 0.55419416 0.91886608
0.84707199 0.55419416 0.91886608
0.91886608 0.55419416 0.91886608
0.91886608 0.55419416 0.91886608
0.00047953 0.70179064 0.91886608
0.08755798 0.70179064 0.91886608
0.24902938 0.70179064 0.91886608
0.40365153 0.70179064 0.91886608
0.55419416 0.70179064 0.91886608
0.70179064 0.70179064 0.91886608
0.84707199 0.70179064 0.91886608
0.91886608 0.70179064 0.91886608
0.91886608 0.70179064 0.91886608
0.00047898 0.84707199 0.91886608
0.08755798 0.84707199 0.91886608
0.24902938 0.84707199 0.91886608
0.40365153 0.84707199 0.91886608
0.55419416 0.84707199 0.91886608
0.70179064 0.84707199 0.91886608
0.84707199 0.84707199 0.91886608
0.91886608 0.84707199 0.91886608
0.91886608 0.84707199 0.91886608
0.00047898 0.91886608 0.91886608
0.08755798 0.91886608 0.91886608
0.24902938 0.91886608 0.91886608
0.40365153 0.91886608 0.91886608
0.55419416 0.91886608 0.91886608
0.70179064 0.91886608 0.91886608
0.84707199 0.91886608 0.91886608
0.91886608 0.91886608 0.91886608
0.91886608 0.91886608 0.91886608
0.00047987 0.91886608 0.91886608
0.08755798 0.91886608 0.91886608
0.24902938 0.91886608 0.91886608
0.40365153 0.91886608 0.91886608
0.55419416 0.91886608 0.91886608
0.70179064 0.91886608 0.91886608
0.84707199 0.91886608 0.91886608
0.91886608 0.91886608 0.91886608
0.91886608 0.91886608 0.91886608
0.00047898 0.00047997 0.91886608
0.08755798 0.00047898 0.91886608
0.24902938 0.00047997 0.91886608
0.40365153 0.00047997 0.91886608
0.55419416 0.00048014 0.91886608
0.70179064 0.00047997 0.91886608
0.84707199 0.00047997 0.91886608
0.91886608 0.00047997 0.91886608
0.91886608 0.00047997 0.91886608
0.00047971 0.08755798 0.91886608
0.08755798 0.08755798 0.91886608
0.24902938 0.08755798 0.91886608
0.40365153 0.08755798 0.91886608
0.55419416 0.08755798 0.91886608
0.70179064 0.08755798 0.91886608
0.84707199 0.08755798 0.91886608
0.91886608 0.08755798 0.91886608
0.91886608 0.08755798 0.91886608
0.00047971 0.24902938 0.91886608
0.08755798 0.24902938 0.91886608
0.24902938 0.24902938 0.91886608
0.40365153 0.24902938 0.91886608
0.55419416 0.24902938 0.91886608
0.70179064 0.24902938 0.91886608
0.84707199 0.24902938 0.91886608
0.91886608 0.24902938 0.91886608
0.91886608 0.24902938 0.91886608
0.00047971 0.40365153 0.91886608
0.08755798 0.40365153 0.91886608
0.24902938 0.40365153 0.91886608
0.40365153 0.40365153 0.91886608
0.55419416 0.40365153 0.91886608
0.70179064 0.40365153 0.91886608
0.84707199 0.40365153 0.91886608
0.91886608 0.40365153 0.91886608
0.91886608 0.40365153 0.91886608
0.00047898 0.55419416 0.91886608
0.08755798 0.55419416 0.91886608
0.24902938 0.55419416 0.91886608
0.40365153 0.55419416 0.91886608
0.55419416 0.55419416 0.91886608
0.70179064 0.55419416 0.91886608
0.84707199 0.55419416 0.91886608
0.91886608 0.55419416 0.91886608
0.91886608 0.55419416 0.91886608
0.00047898 0.70179064 0.91886608
0.08755798 0.70179064 0.91886608
0.24902938 0.70179064 0.91886608
0.40365153 0.70179064 0.91886608
0.55419416 0.70179064 0.91886608
0.70179064 0.70179064 0.91886608
0.84707199 0.70179064 0.91886608
0.91886608 0.70179064 0.91886608
0.91886608 0.70179064 0.91886608
0.00047971 0.84707199 0.91886608
0.08755798 0.84707199 0.91886608
0.24902938 0.84707199 0.91886608
0.40365153 0.84707199 0.91886608
0.55419416 0.84707199 0.91886608
0.70179064 0.84707199 0.91886608
0.84707199 0.84707199 0.91886608
0.91886608 0.84707199 0.91886608
0.91886608 0.84707199 0.91886608
0.00047971 0.91886608 0.91886608
0.08755798 0.91886608 0.91886608
0.24902938 0.91886608 0.91886608
0.40365153 0.91886608 0.91886608
0.55419416 0.91886608 0.91886608
0.70179064 0.91886608 0.91886608
0.84707199 0.91886608 0.91886608
0.91886608 0.91886608 0.91886608
0.91886608 0.91886608 0.91886608
0.00047971 0.91886608 0.91886608
0.08755798 0.91886608 0.91886608
0.24902938 0.91886608 0.91886608
0.40365153 0.91886608 0.91886608
0.55419416 0.91886608 0.91886608
0.70179064 0.91886608 0.91886608
0.84707199 0.91886608 0.91886608
0.91886608 0.91886608 0.91886608
0.91886608 0.91886608 0.91886608
