src/ffmpeg_scripts/luts/luminance_2p00.cube
TITLE "luminance_2p00"
LUT_3D_SIZE 33
# PQ (EOTF Only)/Rec2020 -> PQ (EOTF Only)/Rec2020, CineEI Shift 2.00, Black Level 0.00% IRE, Input 109% -> Output 109% - Created with LUTCalc v4.01 by Ben Turley October 2020
0.06256172 0.06256172 0.06256172
0.06256172 0.06256172 0.06256172
0.06256172 0.06256172 0.06256172
0.12003243 0.06256177 0.06256172
0.16889980 0.06256179 0.06256172
0.21410239 0.06256172 0.06256172
0.25692105 0.06256172 0.06256182
0.29797601 0.06256182 0.06256172
0.33763521 0.06256172 0.06256172
0.37614231 0.06256172 0.06256185
0.41367051 0.06256188 0.06256172
0.45034914 0.06256188 0.06256172
0.48627836 0.06256172 0.06256172
0.52153802 0.06256190 0.06256191
0.55619317 0.06256172 0.06256172
0.59029784 0.06256172 0.06256172
0.62389756 0.06256197 0.06256197
0.65703123 0.06256191 0.06256197
0.68973243 0.06256172 0.06256172
0.72203047 0.06256172 0.06256172
0.75395109 0.06256172 0.06256172
0.78551711 0.06256172 0.06256172
0.81674888 0.06256197 0.06256208
0.84766465 0.06256172 0.06256172
0.87828090 0.06256172 0.06256172
0.90861255 0.06256172 0.06256172
0.91886608 0.06256213 0.06256172
0.91886608 0.06256213 0.06256172
0.91886608 0.06256213 0.06256172
0.91886608 0.06256231 0.06256172
0.91886608 0.06256172 0.06256172
0.91886608 0.06256231 0.06256172
0.91886608 0.06256231 0.06256172
0.06256172 0.06256172 0.06256172
0.06256172 0.06256172 0.06256172
0.06256172 0.06256172 0.06256172
0.12003243 0.06256177 0.06256172
0.16889980 0.06256179 0.06256172
0.21410239 0.06256172 0.06256172
0.25692105 0.06256172 0.06256182
0.29797601 0.06256182 0.06256172
0.33763521 0.06256172 0.06256172
0.37614231 0.06256172 0.06256185
0.41367051 0.06256188 0.06256172
0.45034914 0.06256188 0.06256172
0.48627836 0.06256172 0.06256172
0.52153802 0.06256190 0.06256191
0.55619317 0.06256172 0.06256172
0.59029784 0.06256172 0.06256172
0.62389756 0.06256197 0.06256197
0.65703123 0.06256191 0.06256197
0.68973243 0.06256172 0.06256172
0.72203047 0.06256172 0.06256172
0.75395109 0.06256172 0.06256172
0.78551711 0.06256172 0.06256172
0.81674888 0.06256197 0.06256208
0.84766465 0.06256172 0.06256172
0.87828090 0.06256172 0.06256172
0.90861255 0.06256172 0.06256172
0.91886608 0.06256213 0.06256172
0.91886608 0.06256213 0.06256172
0.91886608 0.06256213 0.06256172
0.91886608 0.06256231 0.06256172
0.91886608 0.06256172 0.06256172
0.91886608 0.06256231 0.06256172
0.91886608 0.06256231 0.06256172
0.06256172 0.06256172 0.06256172
0.06256172 0.06256172 0.06256172
0.06256172 0.06256172 0.06256172
0.12003243 0.06256177 0.06256172
0.16889980 0.06256179 0.06256172
0.21410239 0.06256172 0.06256172
0.25692105 0.06256172 0.06256182
0.29797601 0.06256182 0.06256172
0.33763521 0.06256172 0.06256172
0.37614231 0.06256172 0.06256185
0.41367051 0.06256188 0.06256172
0.45034914 0.06256188 0.06256172
0.48627836 0.06256172 0.06256172
0.52153802 0.06256190 0.06256191
0.55619317 0.06256172 0.06256172
0.59029784 0.06256172 0.06256172
0.62389756 0.06256197 0.06256197
0.65703123 0.06256191 0.06256197
0.68973243 0.06256172 0.06256172
0.72203047 0.06256172 0.06256172
0.75395109 0.06256172 0.06256172
0.78551711 0.06256172 0.06256172
0.81674888 0.06256197 0.06256208
0.84766465 0.06256172 0.06256172
0.87828090 0.06256172 0.06256172
0.90861255 0.06256172 0.06256172
0.91886608 0.06256213 0.06256172
0.91886608 0.06256213 0.06256172
0.91886608 0.06256213 0.06256172
0.91886608 0.06256231 0.06256172
0.91886608 0.06256172 0.06256172
0.91886608 0.06256231 0.06256172
0.91886608 0.06256231 0.06256172
0.06256179 0.12003243 0.06256172
0.06256179 0.12003243 0.06256172
0.06256179 0.12003243 0.06256172
0.12003243 0.12003243 0.06256172
0.16889980 0.12003243 0.06256172
0.21410239 0.12003243 0.06256172
0.25692105 0.12003243 0.06256172
0.29797601 0.12003243 0.06256172
0.33763521 0.12003243 0.06256172
0.37614231 0.12003243 0.06256172
0.41367051 0.12003243 0.06256172
0.45034914 0.12003243 0.06256172
0.48627836 0.12003243 0.06256172
0.52153802 0.12003243 0.06256172
0.55619317 0.12003243 0.06256172
0.59029784 0.12003243 0.06256172
0.62389756 0.12003243 0.06256172
0.65703123 0.12003243 0.06256172
0.68973243 0.12003243 0.06256172
0.72203047 0.12003243 0.06256172
0.75395109 0.12003243 0.06256172
0.78551711 0.12003243 0.06256172
0.81674888 0.12003243 0.06256172
0.84766465 0.12003243 0.06256208
0.87828090 0.12003243 0.06256172
0.90861255 0.12003243 0.06256172
0.91886608 0.12003243 0.06256172
0.91886608 0.12003243 0.06256172
0.91886608 0.12003243 0.06256172
0.91886608 0.12003243 0.06256172
0.91886608 0.12003243 0.06256235
0.91886608 0.12003243 0.06256235
0.91886608 0.12003243 0.06256172
0.06256181 0.16889980 0.06256172
0.06256181 0.16889980 0.06256172
0.06256181 0.16889980 0.06256172
0.12003243 0.16889980 0.06256172
0.16889980 0.16889980 0.06256172
0.21410239 0.16889980 0.06256172
0.25692105 0.16889980 0.06256172
0.29797601 0.16889980 0.06256184
0.33763521 0.16889980 0.06256172
0.37614231 0.16889980 0.06256172
0.41367051 0.16889980 0.06256172
0.45034914 0.16889980 0.06256189
0.48627836 0.16889980 0.06256172
0.52153802 0.16889980 0.06256172
0.55619317 0.16889980 0.06256172
0.59029784 0.16889980 0.06256172
0.62389756 0.16889980 0.06256172
0.65703123 0.16889980 0.06256172
0.68973243 0.16889980 0.06256172
0.72203047 0.16889980 0.06256172
0.75395109 0.16889980 0.06256172
0.78551711 0.16889980 0.06256172
0.81674888 0.16889980 0.06256172
0.84766465 0.16889980 0.06256208
0.87828090 0.16889980 0.06256172
0.90861255 0.16889980 0.06256172
0.91886608 0.16889980 0.06256172
0.91886608 0.16889980 0.06256172
0.91886608 0.16889980 0.06256227
0.91886608 0.16889980 0.06256172
0.91886608 0.16889980 0.06256172
0.91886608 0.16889980 0.06256172
0.91886608 0.16889980 0.06256172
0.06256182 0.21410239 0.06256172
0.06256182 0.21410239 0.06256172
0.06256182 0.21410239 0.06256172
0.12003243 0.21410239 0.06256172
0.16889980 0.21410239 0.06256181
0.21410239 0.21410239 0.06256172
0.25692105 0.21410239 0.06256172
0.29797601 0.21410239 0.06256172
0.33763521 0.21410239 0.06256172
0.37614231 0.21410239 0.06256172
0.41367051 0.21410239 0.06256187
0.45034914 0.21410239 0.06256172
0.48627836 0.21410239 0.06256172
0.52153802 0.21410239 0.06256172
0.55619317 0.21410239 0.06256194
0.59029784 0.21410239 0.06256172
0.62389756 0.21410239 0.06256172
0.65703123 0.21410239 0.06256172
0.68973243 0.21410239 0.06256172
0.72203047 0.21410239 0.06256172
0.75395109 0.21410239 0.06256172
0.78551711 0.21410239 0.06256172
0.81674888 0.21410239 0.06256208
0.84766465 0.21410239 0.06256172
0.87828090 0.21410239 0.06256172
0.90861255 0.21410239 0.06256172
0.91886608 0.21410239 0.06256172
0.91886608 0.21410239 0.06256172
0.91886608 0.21410239 0.06256172
0.91886608 0.21410239 0.06256172
0.91886608 0.21410239 0.06256172
0.91886608 0.21410239 0.06256172
0.91886608 0.21410239 0.06256245
0.06256182 0.25692105 0.06256172
0.06256182 0.25692105 0.06256172
0.06256182 0.25692105 0.06256172
0.12003243 0.25692105 0.06256172
0.16889980 0.25692105 0.06256172
0.21410239 0.25692105 0.06256172
0.25692105 0.25692105 0.06256184
0.29797601 0.25692105 0.06256172
0.33763521 0.25692105 0.06256172
0.37614231 0.25692105 0.06256172
0.41367051 0.25692105 0.06256172
0.45034914 0.25692105 0.06256172
0.48627836 0.25692105 0.06256172
0.52153802 0.25692105 0.06256191
0.55619317 0.25692105 0.06256172
0.59029784 0.25692105 0.06256172
0.62389756 0.25692105 0.06256172
0.65703123 0.25692105 0.06256172
0.68973243 0.25692105 0.06256172
0.72203047 0.25692105 0.06256172
0.75395109 0.25692105 0.06256172
0.78551711 0.25692105 0.06256172
0.81674888 0.25692105 0.06256208
0.84766465 0.25692105 0.06256172
0.87828090 0.25692105 0.06256172
0.90861255 0.25692105 0.06256172
0.91886608 0.25692105 0.06256172
0.91886608 0.25692105 0.06256219
0.91886608 0.25692105 0.06256172
0.91886608 0.25692105 0.06256172
0.91886608 0.25692105 0.06256235
0.91886608 0.25692105 0.06256172
0.91886608 0.25692105 0.06256172
0.06256186 0.29797601 0.06256184
0.06256186 0.29797601 0.06256184
0.06256186 0.29797601 0.06256184
0.12003243 0.29797601 0.06256172
0.16889980 0.29797601 0.06256172
0.21410239 0.29797601 0.06256184
0.25692105 0.29797601 0.06256172
0.29797601 0.29797601 0.06256172
0.33763521 0.29797601 0.06256172
0.37614231 0.29797601 0.06256172
0.41367051 0.29797601 0.06256187
0.45034914 0.29797601 0.06256172
0.48627836 0.29797601 0.06256172
0.52153802 0.29797601 0.06256172
0.55619317 0.29797601 0.06256194
0.59029784 0.29797601 0.06256194
0.62389756 0.29797601 0.06256197
0.65703123 0.29797601 0.06256172
0.68973243 0.29797601 0.06256200
0.72203047 0.29797601 0.06256172
0.75395109 0.29797601 0.06256172
0.78551711 0.29797601 0.06256172
0.81674888 0.29797601 0.06256208
0.84766465 0.29797601 0.06256208
0.87828090 0.29797601 0.06256172
0.90861255 0.29797601 0.06256172
0.91886608 0.29797601 0.06256172
0.91886608 0.29797601 0.06256172
0.91886608 0.29797601 0.06256172
0.91886608 0.29797601 0.06256172
0.91886608 0.29797601 0.06256172
0.91886608 0.29797601 0.06256172
0.91886608 0.29797601 0.06256172
0.06256172 0.33763521 0.06256172
0.06256172 0.33763521 0.06256172
0.06256172 0.33763521 0.06256172
0.12003243 0.33763521 0.06256185
0.16889980 0.33763521 0.06256172
0.21410239 0.33763521 0.06256172
0.25692105 0.33763521 0.06256172
0.29797601 0.33763521 0.06256172
0.33763521 0.33763521 0.06256172
0.37614231 0.33763521 0.06256172
0.41367051 0.33763521 0.06256172
0.45034914 0.33763521 0.06256172
0.48627836 0.33763521 0.06256172
0.52153802 0.33763521 0.06256191
0.55619317 0.33763521 0.06256172
0.59029784 0.33763521 0.06256172
0.62389756 0.33763521 0.06256172
0.65703123 0.33763521 0.06256197
0.68973243 0.33763521 0.06256172
0.72203047 0.33763521 0.06256172
0.75395109 0.33763521 0.06256172
0.78551711 0.33763521 0.06256172
0.81674888 0.33763521 0.06256172
0.84766465 0.33763521 0.06256172
0.87828090 0.33763521 0.06256172
0.90861255 0.33763521 0.06256172
0.91886608 0.33763521 0.06256172
0.91886608 0.33763521 0.06256172
0.91886608 0.33763521 0.06256172
0.91886608 0.33763521 0.06256172
0.91886608 0.33763521 0.06256172
0.91886608 0.33763521 0.06256172
0.91886608 0.33763521 0.06256172
0.06256191 0.37614231 0.06256172
0.06256191 0.37614231 0.06256172
0.06256191 0.37614231 0.06256172
0.12003243 0.37614231 0.06256172
0.16889980 0.37614231 0.06256172
0.21410239 0.37614231 0.06256187
0.25692105 0.37614231 0.06256172
0.29797601 0.37614231 0.06256172
0.33763521 0.37614231 0.06256187
0.37614231 0.37614231 0.06256172
0.41367051 0.37614231 0.06256189
0.45034914 0.37614231 0.06256189
0.48627836 0.37614231 0.06256172
0.52153802 0.37614231 0.06256191
0.55619317 0.37614231 0.06256172
0.59029784 0.37614231 0.06256172
0.62389756 0.37614231 0.06256197
0.65703123 0.37614231 0.06256172
0.68973243 0.37614231 0.06256172
0.72203047 0.37614231 0.06256172
0.75395109 0.37614231 0.06256172
0.78551711 0.37614231 0.06256172
0.81674888 0.37614231 0.06256172
0.84766465 0.37614231 0.06256172
0.87828090 0.37614231 0.06256213
0.90861255 0.37614231 0.06256172
0.91886608 0.37614231 0.06256172
0.91886608 0.37614231 0.06256172
0.91886608 0.37614231 0.06256172
0.91886608 0.37614231 0.06256172
0.91886608 0.37614231 0.06256235
0.91886608 0.37614231 0.06256172
0.91886608 0.37614231 0.06256172
0.06256194 0.41367051 0.06256172
0.06256194 0.41367051 0.06256172
0.06256194 0.41367051 0.06256172
0.12003243 0.41367051 0.06256172
0.16889980 0.41367051 0.06256172
0.21410239 0.41367051 0.06256172
0.25692105 0.41367051 0.06256172
0.29797601 0.41367051 0.06256172
0.33763521 0.41367051 0.06256172
0.37614231 0.41367051 0.06256172
0.41367051 0.41367051 0.06256172
0.45034914 0.41367051 0.06256172
0.48627836 0.41367051 0.06256172
0.52153802 0.41367051 0.06256172
0.55619317 0.41367051 0.06256172
0.59029784 0.41367051 0.06256172
0.62389756 0.41367051 0.06256197
0.65703123 0.41367051 0.06256197
0.68973243 0.41367051 0.06256172
0.72203047 0.41367051 0.06256172
0.75395109 0.41367051 0.06256172
0.78551711 0.41367051 0.06256172
0.81674888 0.41367051 0.06256172
0.84766465 0.41367051 0.06256208
0.87828090 0.41367051 0.06256172
0.90861255 0.41367051 0.06256172
0.91886608 0.41367051 0.06256172
0.91886608 0.41367051 0.06256172
0.91886608 0.41367051 0.06256172
0.91886608 0.41367051 0.06256172
0.91886608 0.41367051 0.06256235
0.91886608 0.41367051 0.06256172
0.91886608 0.41367051 0.06256172
0.06256190 0.45034914 0.06256172
0.06256190 0.45034914 0.06256172
0.06256190 0.45034914 0.06256172
0.12003243 0.45034914 0.06256172
0.16889980 0.45034914 0.06256172
0.21410239 0.45034914 0.06256172
0.25692105 0.45034914 0.06256172
0.29797601 0.45034914 0.06256172
0.33763521 0.45034914 0.06256172
0.37614231 0.45034914 0.06256172
0.41367051 0.45034914 0.06256172
0.45034914 0.45034914 0.06256172
0.48627836 0.45034914 0.06256172
0.52153802 0.45034914 0.06256172
0.55619317 0.45034914 0.06256194
0.59029784 0.45034914 0.06256172
0.62389756 0.45034914 0.06256172
0.65703123 0.45034914 0.06256172
0.68973243 0.45034914 0.06256172
0.72203047 0.45034914 0.06256172
0.75395109 0.45034914 0.06256172
0.78551711 0.45034914 0.06256172
0.81674888 0.45034914 0.06256172
0.84766465 0.45034914 0.06256208
0.87828090 0.45034914 0.06256172
0.90861255 0.45034914 0.06256213
0.91886608 0.45034914 0.06256172
0.91886608 0.45034914 0.06256172
0.91886608 0.45034914 0.06256172
0.91886608 0.45034914 0.06256172
0.91886608 0.45034914 0.06256172
0.91886608 0.45034914 0.06256172
0.91886608 0.45034914 0.06256172
0.06256193 0.48627836 0.06256191
0.06256193 0.48627836 0.06256191
0.06256193 0.48627836 0.06256191
0.12003243 0.48627836 0.06256191
0.16889980 0.48627836 0.06256172
0.21410239 0.48627836 0.06256191
0.25692105 0.48627836 0.06256191
0.29797601 0.48627836 0.06256191
0.33763521 0.48627836 0.06256172
0.37614231 0.48627836 0.06256172
0.41367051 0.48627836 0.06256172
0.45034914 0.48627836 0.06256172
0.48627836 0.48627836 0.06256194
0.52153802 0.48627836 0.06256172
0.55619317 0.48627836 0.06256172
0.59029784 0.48627836 0.06256172
0.62389756 0.48627836 0.06256172
0.65703123 0.48627836 0.06256197
0.68973243 0.48627836 0.06256172
0.72203047 0.48627836 0.06256172
0.75395109 0.48627836 0.06256172
0.78551711 0.48627836 0.06256172
0.81674888 0.48627836 0.06256172
0.84766465 0.48627836 0.06256172
0.87828090 0.48627836 0.06256172
0.90861255 0.48627836 0.06256172
0.91886608 0.48627836 0.06256219
0.91886608 0.48627836 0.06256219
0.91886608 0.48627836 0.06256172
0.91886608 0.48627836 0.06256172
0.91886608 0.48627836 0.06256172
0.91886608 0.48627836 0.06256172
0.91886608 0.48627836 0.06256172
0.06256195 0.52153802 0.06256172
0.06256195 0.52153802 0.06256172
0.06256195 0.52153802 0.06256172
0.12003243 0.52153802 0.06256191
0.16889980 0.52153802 0.06256172
0.21410239 0.52153802 0.06256172
0.25692105 0.52153802 0.06256172
0.29797601 0.52153802 0.06256172
0.33763521 0.52153802 0.06256172
0.37614231 0.52153802 0.06256194
0.41367051 0.52153802 0.06256172
0.45034914 0.52153802 0.06256172
0.48627836 0.52153802 0.06256172
0.52153802 0.52153802 0.06256194
0.55619317 0.52153802 0.06256172
0.59029784 0.52153802 0.06256172
0.62389756 0.52153802 0.06256172
0.65703123 0.52153802 0.06256172
0.68973243 0.52153802 0.06256172
0.72203047 0.52153802 0.06256200
0.75395109 0.52153802 0.06256172
0.78551711 0.52153802 0.06256172
0.81674888 0.52153802 0.06256172
0.84766465 0.52153802 0.06256172
0.87828090 0.52153802 0.06256172
0.90861255 0.52153802 0.06256213
0.91886608 0.52153802 0.06256172
0.91886608 0.52153802 0.06256172
0.91886608 0.52153802 0.06256172
0.91886608 0.52153802 0.06256172
0.91886608 0.52153802 0.06256235
0.91886608 0.52153802 0.06256172
0.91886608 0.52153802 0.06256172
0.06256172 0.55619317 0.06256194
0.06256172 0.55619317 0.06256194
0.06256172 0.55619317 0.06256194
0.12003243 0.55619317 0.06256172
0.16889980 0.55619317 0.06256172
0.21410239 0.55619317 0.06256172
0.25692105 0.55619317 0.06256172
0.29797601 0.55619317 0.06256172
0.33763521 0.55619317 0.06256172
0.37614231 0.55619317 0.06256172
0.41367051 0.55619317 0.06256172
0.45034914 0.55619317 0.06256172
0.48627836 0.55619317 0.06256172
0.52153802 0.55619317 0.06256197
0.55619317 0.55619317 0.06256172
0.59029784 0.55619317 0.06256172
0.62389756 0.55619317 0.06256172
0.65703123 0.55619317 0.06256172
0.68973243 0.55619317 0.06256172
0.72203047 0.55619317 0.06256172
0.75395109 0.55619317 0.06256172
0.78551711 0.55619317 0.06256172
0.81674888 0.55619317 0.06256172
0.84766465 0.55619317 0.06256172
0.87828090 0.55619317 0.06256172
0.90861255 0.55619317 0.06256172
0.91886608 0.55619317 0.06256172
0.91886608 0.55619317 0.06256172
0.91886608 0.55619317 0.06256172
0.91886608 0.55619317 0.06256172
0.91886608 0.55619317 0.06256172
0.91886608 0.55619317 0.06256172
0.91886608 0.55619317 0.06256245
0.06256200 0.59029784 0.06256172
0.06256200 0.59029784 0.06256172
0.06256200 0.59029784 0.06256172
0.12003243 0.59029784 0.06256172
0.16889980 0.59029784 0.06256172
0.21410239 0.59029784 0.06256172
0.25692105 0.59029784 0.06256172
0.29797601 0.59029784 0.06256172
0.33763521 0.59029784 0.06256172
0.37614231 0.59029784 0.06256172
0.41367051 0.59029784 0.06256172
0.45034914 0.59029784 0.06256172
0.48627836 0.59029784 0.06256172
0.52153802 0.59029784 0.06256172
0.55619317 0.59029784 0.06256172
0.59029784 0.59029784 0.06256172
0.62389756 0.59029784 0.06256172
0.65703123 0.59029784 0.06256172
0.68973243 0.59029784 0.06256172
0.72203047 0.59029784 0.06256172
0.75395109 0.59029784 0.06256172
0.78551711 0.59029784 0.06256172
0.81674888 0.59029784 0.06256172
0.84766465 0.59029784 0.06256172
0.87828090 0.59029784 0.06256213
0.90861255 0.59029784 0.06256172
0.91886608 0.59029784 0.06256172
0.91886608 0.59029784 0.06256172
0.91886608 0.59029784 0.06256227
0.91886608 0.59029784 0.06256172
0.91886608 0.59029784 0.06256172
0.91886608 0.59029784 0.06256172
0.91886608 0.59029784 0.06256172
0.06256195 0.62389756 0.06256172
0.06256195 0.62389756 0.06256172
0.06256195 0.62389756 0.06256172
0.12003243 0.62389756 0.06256172
0.16889980 0.62389756 0.06256172
0.21410239 0.62389756 0.06256172
0.25692105 0.62389756 0.06256172
0.29797601 0.62389756 0.06256172
0.33763521 0.62389756 0.06256172
0.37614231 0.62389756 0.06256172
0.41367051 0.62389756 0.06256172
0.45034914 0.62389756 0.06256172
0.48627836 0.62389756 0.06256172
0.52153802 0.62389756 0.06256172
0.55619317 0.62389756 0.06256172
0.59029784 0.62389756 0.06256172
0.62389756 0.62389756 0.06256172
0.65703123 0.62389756 0.06256200
0.68973243 0.62389756 0.06256172
0.72203047 0.62389756 0.06256172
0.75395109 0.62389756 0.06256172
0.78551711 0.62389756 0.06256172
0.81674888 0.62389756 0.06256172
0.84766465 0.62389756 0.06256172
0.87828090 0.62389756 0.06256172
0.90861255 0.62389756 0.06256172
0.91886608 0.62389756 0.06256172
0.91886608 0.62389756 0.06256172
0.91886608 0.62389756 0.06256172
0.91886608 0.62389756 0.06256172
0.91886608 0.62389756 0.06256235
0.91886608 0.62389756 0.06256172
0.91886608 0.62389756 0.06256172
0.06256195 0.65703123 0.06256172
0.06256195 0.65703123 0.06256172
0.06256195 0.65703123 0.06256172
0.12003243 0.65703123 0.06256172
0.16889980 0.65703123 0.06256200
0.21410239 0.65703123 0.06256172
0.25692105 0.65703123 0.06256172
0.29797601 0.65703123 0.06256172
0.33763521 0.65703123 0.06256172
0.37614231 0.65703123 0.06256172
0.41367051 0.65703123 0.06256172
0.45034914 0.65703123 0.06256172
0.48627836 0.65703123 0.06256172
0.52153802 0.65703123 0.06256200
0.55619317 0.65703123 0.06256172
0.59029784 0.65703123 0.06256172
0.62389756 0.65703123 0.06256172
0.65703123 0.65703123 0.06256172
0.68973243 0.65703123 0.06256172
0.72203047 0.65703123 0.06256172
0.75395109 0.65703123 0.06256172
0.78551711 0.65703123 0.06256172
0.81674888 0.65703123 0.06256172
0.84766465 0.65703123 0.06256172
0.87828090 0.65703123 0.06256172
0.90861255 0.65703123 0.06256213
0.91886608 0.65703123 0.06256172
0.91886608 0.65703123 0.06256172
0.91886608 0.65703123 0.06256227
0.91886608 0.65703123 0.06256172
0.91886608 0.65703123 0.06256172
0.91886608 0.65703123 0.06256172
0.91886608 0.65703123 0.06256172
0.06256201 0.68973243 0.06256172
0.06256201 0.68973243 0.06256172
0.06256201 0.68973243 0.06256172
0.12003243 0.68973243 0.06256172
0.16889980 0.68973243 0.06256172
0.21410239 0.68973243 0.06256172
0.25692105 0.68973243 0.06256172
0.29797601 0.68973243 0.06256172
0.33763521 0.68973243 0.06256172
0.37614231 0.68973243 0.06256172
0.41367051 0.68973243 0.06256172
0.45034914 0.68973243 0.06256172
0.48627836 0.68973243 0.06256172
0.52153802 0.68973243 0.06256172
0.55619317 0.68973243 0.06256172
0.59029784 0.68973243 0.06256172
0.62389756 0.68973243 0.06256172
0.65703123 0.68973243 0.06256172
0.68973243 0.68973243 0.06256172
0.72203047 0.68973243 0.06256172
0.75395109 0.68973243 0.06256172
0.78551711 0.68973243 0.06256172
0.81674888 0.68973243 0.06256208
0.84766465 0.68973243 0.06256172
0.87828090 0.68973243 0.06256172
0.90861255 0.68973243 0.06256172
0.91886608 0.68973243 0.06256172
0.91886608 0.68973243 0.06256172
0.91886608 0.68973243 0.06256227
0.91886608 0.68973243 0.06256172
0.91886608 0.68973243 0.06256172
0.91886608 0.68973243 0.06256172
0.91886608 0.68973243 0.06256172
0.06256202 0.72203047 0.06256172
0.06256202 0.72203047 0.06256172
0.06256202 0.72203047 0.06256172
0.12003243 0.72203047 0.06256172
0.16889980 0.72203047 0.06256172
0.21410239 0.72203047 0.06256172
0.25692105 0.72203047 0.06256172
0.29797601 0.72203047 0.06256172
0.33763521 0.72203047 0.06256172
0.37614231 0.72203047 0.06256172
0.41367051 0.72203047 0.06256172
0.45034914 0.72203047 0.06256172
0.48627836 0.72203047 0.06256172
0.52153802 0.72203047 0.06256172
0.55619317 0.72203047 0.06256172
0.59029784 0.72203047 0.06256204
0.62389756 0.72203047 0.06256172
0.65703123 0.72203047 0.06256172
0.68973243 0.72203047 0.06256204
0.72203047 0.72203047 0.06256172
0.75395109 0.72203047 0.06256172
0.78551711 0.72203047 0.06256172
0.81674888 0.72203047 0.06256172
0.84766465 0.72203047 0.06256172
0.87828090 0.72203047 0.06256172
0.90861255 0.72203047 0.06256172
0.91886608 0.72203047 0.06256219
0.91886608 0.72203047 0.06256172
0.91886608 0.72203047 0.06256227
0.91886608 0.72203047 0.06256172
0.91886608 0.72203047 0.06256172
0.91886608 0.72203047 0.06256172
0.91886608 0.72203047 0.06256245
0.06256209 0.75395109 0.06256172
0.06256209 0.75395109 0.06256172
0.06256209 0.75395109 0.06256172
0.12003243 0.75395109 0.06256172
0.16889980 0.75395109 0.06256172
0.21410239 0.75395109 0.06256204
0.25692105 0.75395109 0.06256172
0.29797601 0.75395109 0.06256172
0.33763521 0.75395109 0.06256172
0.37614231 0.75395109 0.06256204
0.41367051 0.75395109 0.06256172
0.45034914 0.75395109 0.06256172
0.48627836 0.75395109 0.06256172
0.52153802 0.75395109 0.06256172
0.55619317 0.75395109 0.06256172
0.59029784 0.75395109 0.06256172
0.62389756 0.75395109 0.06256172
0.65703123 0.75395109 0.06256172
0.68973243 0.75395109 0.06256172
0.72203047 0.75395109 0.06256172
0.75395109 0.75395109 0.06256172
0.78551711 0.75395109 0.06256172
0.81674888 0.75395109 0.06256172
0.84766465 0.75395109 0.06256213
0.87828090 0.75395109 0.06256172
0.90861255 0.75395109 0.06256172
0.91886608 0.75395109 0.06256219
0.91886608 0.75395109 0.06256172
0.91886608 0.75395109 0.06256172
0.91886608 0.75395109 0.06256172
0.91886608 0.75395109 0.06256172
0.91886608 0.75395109 0.06256172
0.91886608 0.75395109 0.06256172
0.06256210 0.78551711 0.06256172
0.06256210 0.78551711 0.06256172
0.06256210 0.78551711 0.06256172
0.12003243 0.78551711 0.06256172
0.16889980 0.78551711 0.06256172
0.21410239 0.78551711 0.06256172
0.25692105 0.78551711 0.06256172
0.29797601 0.78551711 0.06256172
0.33763521 0.78551711 0.06256172
0.37614231 0.78551711 0.06256172
0.41367051 0.78551711 0.06256172
0.45034914 0.78551711 0.06256172
0.48627836 0.78551711 0.06256172
0.52153802 0.78551711 0.06256172
0.55619317 0.78551711 0.06256172
0.59029784 0.78551711 0.06256172
0.62389756 0.78551711 0.06256172
0.65703123 0.78551711 0.06256172
0.68973243 0.78551711 0.06256172
0.72203047 0.78551711 0.06256172
0.75395109 0.78551711 0.06256172
0.78551711 0.78551711 0.06256172
0.81674888 0.78551711 0.06256172
0.84766465 0.78551711 0.06256172
0.87828090 0.78551711 0.06256172
0.90861255 0.78551711 0.06256172
0.91886608 0.78551711 0.06256172
