src/ffmpeg_scripts/luts/luminance-unclipped_-2p00.cube
TITLE "luminance-unclipped_-2p00"
LUT_3D_SIZE 33
# PQ (EOTF Only)/Rec2020 -> PQ (EOTF Only)/Rec2020, CineEI Shift -2.00, Black Level -7.25% IRE, Input 109% -> Output 109% - Created with LUTCalc v4.01 by Ben Turley October 2020
0.00047898 0.00047898 0.00047898
0.00047898 0.00047898 0.00047898
0.00047898 0.00047898 0.00047898
0.01885800 0.00047901 0.00047898
0.04013427 0.00047898 0.00047898
0.06313455 0.00047898 0.00047898
0.08746267 0.00047906 0.00047906
0.11289906 0.00047898 0.00047898
0.13930017 0.00047898 0.00047898
0.16656332 0.00047898 0.00047898
0.19461062 0.00047898 0.00047898
0.22338059 0.00047911 0.00047898
0.25282316 0.00047898 0.00047898
0.28289662 0.00047898 0.00047912
0.31356559 0.00047898 0.00047898
0.34479958 0.00047898 0.00047898
0.37657197 0.00047917 0.00047916
0.40885931 0.00047898 0.00047916
0.44164073 0.00047898 0.00047898
0.47489752 0.00047919 0.00047898
0.50861276 0.00047917 0.00047898
0.54277111 0.00047898 0.00047898
0.57735855 0.00047921 0.00047898
0.61236219 0.00047898 0.00047898
0.64777019 0.00047898 0.00047898
0.68357156 0.00047898 0.00047927
0.71975612 0.00047898 0.00047898
0.75631435 0.00047898 0.00047898
0.79323740 0.00047934 0.00047898
0.83051695 0.00047898 0.00047898
0.86814518 0.00047927 0.00047898
0.90611474 0.00047931 0.00047940
0.91886608 0.00047946 0.00047946
0.00047898 0.00047898 0.00047898
0.00047898 0.00047898 0.00047898
0.00047898 0.00047898 0.00047898
0.01885800 0.00047901 0.00047898
0.04013427 0.00047898 0.00047898
0.06313455 0.00047898 0.00047898
0.08746267 0.00047906 0.00047906
0.11289906 0.00047898 0.00047898
0.13930017 0.00047898 0.00047898
0.16656332 0.00047898 0.00047898
0.19461062 0.00047898 0.00047898
0.22338059 0.00047911 0.00047898
0.25282316 0.00047898 0.00047898
0.28289662 0.00047898 0.00047912
0.31356559 0.00047898 0.00047898
0.34479958 0.00047898 0.00047898
0.37657197 0.00047917 0.00047916
0.40885931 0.00047898 0.00047916
0.44164073 0.00047898 0.00047898
0.47489752 0.00047919 0.00047898
0.50861276 0.00047917 0.00047898
0.54277111 0.00047898 0.00047898
0.57735855 0.00047921 0.00047898
0.61236219 0.00047898 0.00047898
0.64777019 0.00047898 0.00047898
0.68357156 0.00047898 0.00047927
0.71975612 0.00047898 0.00047898
0.75631435 0.00047898 0.00047898
0.79323740 0.00047934 0.00047898
0.83051695 0.00047898 0.00047898
0.86814518 0.00047927 0.00047898
0.90611474 0.00047931 0.00047940
0.91886608 0.00047946 0.00047946
0.00047898 0.00047898 0.00047898
0.00047898 0.00047898 0.00047898
0.00047898 0.00047898 0.00047898
0.01885800 0.00047901 0.00047898
0.04013427 0.00047898 0.00047898
0.06313455 0.00047898 0.00047898
0.08746267 0.00047906 0.00047906
0.11289906 0.00047898 0.00047898
0.13930017 0.00047898 0.00047898
0.16656332 0.00047898 0.00047898
0.19461062 0.00047898 0.00047898
0.22338059 0.00047911 0.00047898
0.25282316 0.00047898 0.00047898
0.28289662 0.00047898 0.00047912
0.31356559 0.00047898 0.00047898
0.34479958 0.00047898 0.00047898
0.37657197 0.00047917 0.00047916
0.40885931 0.00047898 0.00047916
0.44164073 0.00047898 0.00047898
0.47489752 0.00047919 0.00047898
0.50861276 0.00047917 0.00047898
0.54277111 0.00047898 0.00047898
0.57735855 0.00047921 0.00047898
0.61236219 0.00047898 0.00047898
0.64777019 0.00047898 0.00047898
0.68357156 0.00047898 0.00047927
0.71975612 0.00047898 0.00047898
0.75631435 0.00047898 0.00047898
0.79323740 0.00047934 0.00047898
0.83051695 0.00047898 0.00047898
0.86814518 0.00047927 0.00047898
0.90611474 0.00047931 0.00047940
0.91886608 0.00047946 0.00047946
0.00047903 0.01885800 0.00047898
0.00047903 0.01885800 0.00047898
0.00047903 0.01885800 0.00047898
0.01885800 0.01885800 0.00047898
0.04013427 0.01885800 0.00047898
0.06313455 0.01885800 0.00047898
0.08746267 0.01885800 0.00047898
0.11289906 0.01885800 0.00047898
0.13930017 0.01885800 0.00047908
0.16656332 0.01885800 0.00047898
0.19461062 0.01885800 0.00047898
0.22338059 0.01885800 0.00047898
0.25282316 0.01885800 0.00047898
0.28289662 0.01885800 0.00047912
0.31356559 0.01885800 0.00047898
0.34479958 0.01885800 0.00047914
0.37657197 0.01885800 0.00047916
0.40885931 0.01885800 0.00047898
0.44164073 0.01885800 0.00047898
0.47489752 0.01885800 0.00047898
0.50861276 0.01885800 0.00047898
0.54277111 0.01885800 0.00047920
0.57735855 0.01885800 0.00047898
0.61236219 0.01885800 0.00047923
0.64777019 0.01885800 0.00047898
0.68357156 0.01885800 0.00047898
0.71975612 0.01885800 0.00047898
0.75631435 0.01885800 0.00047898
0.79323740 0.01885800 0.00047935
0.83051695 0.01885800 0.00047898
0.86814518 0.01885800 0.00047940
0.90611474 0.01885800 0.00047898
0.91886608 0.01885800 0.00047898
0.00047905 0.04013427 0.00047898
0.00047905 0.04013427 0.00047898
0.00047905 0.04013427 0.00047898
0.01885800 0.04013427 0.00047898
0.04013427 0.04013427 0.00047898
0.06313455 0.04013427 0.00047898
0.08746267 0.04013427 0.00047907
0.11289906 0.04013427 0.00047907
0.13930017 0.04013427 0.00047898
0.16656332 0.04013427 0.00047908
0.19461062 0.04013427 0.00047898
0.22338059 0.04013427 0.00047910
0.25282316 0.04013427 0.00047898
0.28289662 0.04013427 0.00047912
0.31356559 0.04013427 0.00047914
0.34479958 0.04013427 0.00047898
0.37657197 0.04013427 0.00047898
0.40885931 0.04013427 0.00047916
0.44164073 0.04013427 0.00047898
0.47489752 0.04013427 0.00047898
0.50861276 0.04013427 0.00047898
0.54277111 0.04013427 0.00047898
0.57735855 0.04013427 0.00047898
0.61236219 0.04013427 0.00047898
0.64777019 0.04013427 0.00047898
0.68357156 0.04013427 0.00047898
0.71975612 0.04013427 0.00047931
0.75631435 0.04013427 0.00047931
0.79323740 0.04013427 0.00047898
0.83051695 0.04013427 0.00047898
0.86814518 0.04013427 0.00047898
0.90611474 0.04013427 0.00047898
0.91886608 0.04013427 0.00047898
0.00047905 0.06313455 0.00047898
0.00047905 0.06313455 0.00047898
0.00047905 0.06313455 0.00047898
0.01885800 0.06313455 0.00047905
0.04013427 0.06313455 0.00047898
0.06313455 0.06313455 0.00047898
0.08746267 0.06313455 0.00047906
0.11289906 0.06313455 0.00047907
0.13930017 0.06313455 0.00047898
0.16656332 0.06313455 0.00047909
0.19461062 0.06313455 0.00047898
0.22338059 0.06313455 0.00047898
0.25282316 0.06313455 0.00047898
0.28289662 0.06313455 0.00047912
0.31356559 0.06313455 0.00047914
0.34479958 0.06313455 0.00047898
0.37657197 0.06313455 0.00047916
0.40885931 0.06313455 0.00047916
0.44164073 0.06313455 0.00047898
0.47489752 0.06313455 0.00047898
0.50861276 0.06313455 0.00047898
0.54277111 0.06313455 0.00047898
0.57735855 0.06313455 0.00047898
0.61236219 0.06313455 0.00047898
0.64777019 0.06313455 0.00047898
0.68357156 0.06313455 0.00047927
0.71975612 0.06313455 0.00047898
0.75631435 0.06313455 0.00047898
0.79323740 0.06313455 0.00047935
0.83051695 0.06313455 0.00047898
0.86814518 0.06313455 0.00047898
0.90611474 0.06313455 0.00047898
0.91886608 0.06313455 0.00047898
0.00047906 0.08746267 0.00047898
0.00047906 0.08746267 0.00047898
0.00047906 0.08746267 0.00047898
0.01885800 0.08746267 0.00047898
0.04013427 0.08746267 0.00047898
0.06313455 0.08746267 0.00047898
0.08746267 0.08746267 0.00047898
0.11289906 0.08746267 0.00047898
0.13930017 0.08746267 0.00047898
0.16656332 0.08746267 0.00047898
0.19461062 0.08746267 0.00047898
0.22338059 0.08746267 0.00047898
0.25282316 0.08746267 0.00047898
0.28289662 0.08746267 0.00047898
0.31356559 0.08746267 0.00047898
0.34479958 0.08746267 0.00047898
0.37657197 0.08746267 0.00047898
0.40885931 0.08746267 0.00047898
0.44164073 0.08746267 0.00047898
0.47489752 0.08746267 0.00047898
0.50861276 0.08746267 0.00047898
0.54277111 0.08746267 0.00047898
0.57735855 0.08746267 0.00047923
0.61236219 0.08746267 0.00047898
0.64777019 0.08746267 0.00047898
0.68357156 0.08746267 0.00047898
0.71975612 0.08746267 0.00047898
0.75631435 0.08746267 0.00047931
0.79323740 0.08746267 0.00047935
0.83051695 0.08746267 0.00047898
0.86814518 0.08746267 0.00047940
0.90611474 0.08746267 0.00047898
0.91886608 0.08746267 0.00047898
0.00047908 0.11289906 0.00047898
0.00047908 0.11289906 0.00047898
0.00047908 0.11289906 0.00047898
0.01885800 0.11289906 0.00047898
0.04013427 0.11289906 0.00047898
0.06313455 0.11289906 0.00047898
0.08746267 0.11289906 0.00047898
0.11289906 0.11289906 0.00047898
0.13930017 0.11289906 0.00047898
0.16656332 0.11289906 0.00047898
0.19461062 0.11289906 0.00047910
0.22338059 0.11289906 0.00047898
0.25282316 0.11289906 0.00047898
0.28289662 0.11289906 0.00047898
0.31356559 0.11289906 0.00047914
0.34479958 0.11289906 0.00047898
0.37657197 0.11289906 0.00047916
0.40885931 0.11289906 0.00047898
0.44164073 0.11289906 0.00047898
0.47489752 0.11289906 0.00047918
0.50861276 0.11289906 0.00047898
0.54277111 0.11289906 0.00047898
0.57735855 0.11289906 0.00047923
0.61236219 0.11289906 0.00047923
0.64777019 0.11289906 0.00047898
0.68357156 0.11289906 0.00047927
0.71975612 0.11289906 0.00047898
0.75631435 0.11289906 0.00047898
0.79323740 0.11289906 0.00047898
0.83051695 0.11289906 0.00047898
0.86814518 0.11289906 0.00047940
0.90611474 0.11289906 0.00047898
0.91886608 0.11289906 0.00047946
0.00047898 0.13930017 0.00047898
0.00047898 0.13930017 0.00047898
0.00047898 0.13930017 0.00047898
0.01885800 0.13930017 0.00047908
0.04013427 0.13930017 0.00047898
0.06313455 0.13930017 0.00047908
0.08746267 0.13930017 0.00047898
0.11289906 0.13930017 0.00047898
0.13930017 0.13930017 0.00047898
0.16656332 0.13930017 0.00047898
0.19461062 0.13930017 0.00047898
0.22338059 0.13930017 0.00047910
0.25282316 0.13930017 0.00047898
0.28289662 0.13930017 0.00047898
0.31356559 0.13930017 0.00047898
0.34479958 0.13930017 0.00047898
0.37657197 0.13930017 0.00047916
0.40885931 0.13930017 0.00047916
0.44164073 0.13930017 0.00047898
0.47489752 0.13930017 0.00047898
0.50861276 0.13930017 0.00047898
0.54277111 0.13930017 0.00047898
0.57735855 0.13930017 0.00047898
0.61236219 0.13930017 0.00047898
0.64777019 0.13930017 0.00047898
0.68357156 0.13930017 0.00047898
0.71975612 0.13930017 0.00047931
0.75631435 0.13930017 0.00047898
0.79323740 0.13930017 0.00047898
0.83051695 0.13930017 0.00047898
0.86814518 0.13930017 0.00047898
0.90611474 0.13930017 0.00047898
0.91886608 0.13930017 0.00047898
0.00047911 0.16656332 0.00047898
0.00047911 0.16656332 0.00047898
0.00047911 0.16656332 0.00047898
0.01885800 0.16656332 0.00047898
0.04013427 0.16656332 0.00047898
0.06313455 0.16656332 0.00047898
0.08746267 0.16656332 0.00047898
0.11289906 0.16656332 0.00047898
0.13930017 0.16656332 0.00047898
0.16656332 0.16656332 0.00047898
0.19461062 0.16656332 0.00047910
0.22338059 0.16656332 0.00047898
0.25282316 0.16656332 0.00047898
0.28289662 0.16656332 0.00047898
0.31356559 0.16656332 0.00047898
0.34479958 0.16656332 0.00047898
0.37657197 0.16656332 0.00047916
0.40885931 0.16656332 0.00047898
0.44164073 0.16656332 0.00047918
0.47489752 0.16656332 0.00047898
0.50861276 0.16656332 0.00047898
0.54277111 0.16656332 0.00047898
0.57735855 0.16656332 0.00047898
0.61236219 0.16656332 0.00047923
0.64777019 0.16656332 0.00047898
0.68357156 0.16656332 0.00047927
0.71975612 0.16656332 0.00047898
0.75631435 0.16656332 0.00047931
0.79323740 0.16656332 0.00047898
0.83051695 0.16656332 0.00047898
0.86814518 0.16656332 0.00047940
0.90611474 0.16656332 0.00047898
0.91886608 0.16656332 0.00047898
0.00047912 0.19461062 0.00047898
0.00047912 0.19461062 0.00047898
0.00047912 0.19461062 0.00047898
0.01885800 0.19461062 0.00047898
0.04013427 0.19461062 0.00047898
0.06313455 0.19461062 0.00047898
0.08746267 0.19461062 0.00047898
0.11289906 0.19461062 0.00047898
0.13930017 0.19461062 0.00047898
0.16656332 0.19461062 0.00047898
0.19461062 0.19461062 0.00047898
0.22338059 0.19461062 0.00047898
0.25282316 0.19461062 0.00047898
0.28289662 0.19461062 0.00047898
0.31356559 0.19461062 0.00047898
0.34479958 0.19461062 0.00047898
0.37657197 0.19461062 0.00047898
0.40885931 0.19461062 0.00047898
0.44164073 0.19461062 0.00047898
0.47489752 0.19461062 0.00047898
0.50861276 0.19461062 0.00047898
0.54277111 0.19461062 0.00047898
0.57735855 0.19461062 0.00047898
0.61236219 0.19461062 0.00047923
0.64777019 0.19461062 0.00047898
0.68357156 0.19461062 0.00047898
0.71975612 0.19461062 0.00047898
0.75631435 0.19461062 0.00047898
0.79323740 0.19461062 0.00047935
0.83051695 0.19461062 0.00047898
0.86814518 0.19461062 0.00047898
0.90611474 0.19461062 0.00047898
0.91886608 0.19461062 0.00047898
0.00047913 0.22338059 0.00047898
0.00047913 0.22338059 0.00047898
0.00047913 0.22338059 0.00047898
0.01885800 0.22338059 0.00047898
0.04013427 0.22338059 0.00047898
0.06313455 0.22338059 0.00047898
0.08746267 0.22338059 0.00047898
0.11289906 0.22338059 0.00047898
0.13930017 0.22338059 0.00047898
0.16656332 0.22338059 0.00047898
0.19461062 0.22338059 0.00047898
0.22338059 0.22338059 0.00047898
0.25282316 0.22338059 0.00047898
0.28289662 0.22338059 0.00047898
0.31356559 0.22338059 0.00047914
0.34479958 0.22338059 0.00047898
0.37657197 0.22338059 0.00047898
0.40885931 0.22338059 0.00047916
0.44164073 0.22338059 0.00047898
0.47489752 0.22338059 0.00047898
0.50861276 0.22338059 0.00047898
0.54277111 0.22338059 0.00047898
0.57735855 0.22338059 0.00047898
0.61236219 0.22338059 0.00047923
0.64777019 0.22338059 0.00047898
0.68357156 0.22338059 0.00047927
0.71975612 0.22338059 0.00047898
0.75631435 0.22338059 0.00047931
0.79323740 0.22338059 0.00047935
0.83051695 0.22338059 0.00047898
0.86814518 0.22338059 0.00047940
0.90611474 0.22338059 0.00047898
0.91886608 0.22338059 0.00047898
0.00047913 0.25282316 0.00047898
0.00047913 0.25282316 0.00047898
0.00047913 0.25282316 0.00047898
0.01885800 0.25282316 0.00047898
0.04013427 0.25282316 0.00047898
0.06313455 0.25282316 0.00047898
0.08746267 0.25282316 0.00047898
0.11289906 0.25282316 0.00047898
0.13930017 0.25282316 0.00047898
0.16656332 0.25282316 0.00047912
0.19461062 0.25282316 0.00047898
0.22338059 0.25282316 0.00047898
0.25282316 0.25282316 0.00047914
0.28289662 0.25282316 0.00047898
0.31356559 0.25282316 0.00047898
0.34479958 0.25282316 0.00047898
0.37657197 0.25282316 0.00047916
0.40885931 0.25282316 0.00047916
0.44164073 0.25282316 0.00047898
0.47489752 0.25282316 0.00047898
0.50861276 0.25282316 0.00047898
0.54277111 0.25282316 0.00047898
0.57735855 0.25282316 0.00047898
0.61236219 0.25282316 0.00047898
0.64777019 0.25282316 0.00047898
0.68357156 0.25282316 0.00047927
0.71975612 0.25282316 0.00047898
0.75631435 0.25282316 0.00047931
0.79323740 0.25282316 0.00047935
0.83051695 0.25282316 0.00047898
0.86814518 0.25282316 0.00047898
0.90611474 0.25282316 0.00047898
0.91886608 0.25282316 0.00047898
0.00047915 0.28289662 0.00047898
0.00047915 0.28289662 0.00047898
0.00047915 0.28289662 0.00047898
0.01885800 0.28289662 0.00047912
0.04013427 0.28289662 0.00047898
0.06313455 0.28289662 0.00047898
0.08746267 0.28289662 0.00047912
0.11289906 0.28289662 0.00047898
0.13930017 0.28289662 0.00047898
0.16656332 0.28289662 0.00047914
0.19461062 0.28289662 0.00047914
0.22338059 0.28289662 0.00047898
0.25282316 0.28289662 0.00047898
0.28289662 0.28289662 0.00047914
0.31356559 0.28289662 0.00047898
0.34479958 0.28289662 0.00047898
0.37657197 0.28289662 0.00047916
0.40885931 0.28289662 0.00047898
0.44164073 0.28289662 0.00047898
0.47489752 0.28289662 0.00047898
0.50861276 0.28289662 0.00047898
0.54277111 0.28289662 0.00047898
0.57735855 0.28289662 0.00047898
0.61236219 0.28289662 0.00047923
0.64777019 0.28289662 0.00047898
0.68357156 0.28289662 0.00047898
0.71975612 0.28289662 0.00047898
0.75631435 0.28289662 0.00047898
0.79323740 0.28289662 0.00047935
0.83051695 0.28289662 0.00047898
0.86814518 0.28289662 0.00047940
0.90611474 0.28289662 0.00047898
0.91886608 0.28289662 0.00047946
0.00047898 0.31356559 0.00047914
0.00047898 0.31356559 0.00047914
0.00047898 0.31356559 0.00047914
0.01885800 0.31356559 0.00047898
0.04013427 0.31356559 0.00047914
0.06313455 0.31356559 0.00047898
0.08746267 0.31356559 0.00047898
0.11289906 0.31356559 0.00047898
0.13930017 0.31356559 0.00047898
0.16656332 0.31356559 0.00047914
0.19461062 0.31356559 0.00047898
0.22338059 0.31356559 0.00047914
0.25282316 0.31356559 0.00047898
0.28289662 0.31356559 0.00047916
0.31356559 0.31356559 0.00047898
0.34479958 0.31356559 0.00047898
0.37657197 0.31356559 0.00047916
0.40885931 0.31356559 0.00047898
0.44164073 0.31356559 0.00047918
0.47489752 0.31356559 0.00047898
0.50861276 0.31356559 0.00047898
0.54277111 0.31356559 0.00047898
0.57735855 0.31356559 0.00047898
0.61236219 0.31356559 0.00047898
0.64777019 0.31356559 0.00047898
0.68357156 0.31356559 0.00047898
0.71975612 0.31356559 0.00047898
0.75631435 0.31356559 0.00047931
0.79323740 0.31356559 0.00047898
0.83051695 0.31356559 0.00047898
0.86814518 0.31356559 0.00047898
0.90611474 0.31356559 0.00047898
0.91886608 0.31356559 0.00047946
0.00047918 0.34479958 0.00047898
0.00047918 0.34479958 0.00047898
0.00047918 0.34479958 0.00047898
0.01885800 0.34479958 0.00047898
0.04013427 0.34479958 0.00047898
0.06313455 0.34479958 0.00047916
0.08746267 0.34479958 0.00047898
0.11289906 0.34479958 0.00047898
0.13930017 0.34479958 0.00047898
0.16656332 0.34479958 0.00047898
0.19461062 0.34479958 0.00047898
0.22338059 0.34479958 0.00047898
0.25282316 0.34479958 0.00047898
0.28289662 0.34479958 0.00047898
0.31356559 0.34479958 0.00047898
0.34479958 0.34479958 0.00047916
0.37657197 0.34479958 0.00047898
0.40885931 0.34479958 0.00047898
0.44164073 0.34479958 0.00047898
0.47489752 0.34479958 0.00047898
0.50861276 0.34479958 0.00047898
0.54277111 0.34479958 0.00047898
0.57735855 0.34479958 0.00047898
0.61236219 0.34479958 0.00047898
0.64777019 0.34479958 0.00047927
0.68357156 0.34479958 0.00047927
0.71975612 0.34479958 0.00047898
0.75631435 0.34479958 0.00047898
0.79323740 0.34479958 0.00047898
0.83051695 0.34479958 0.00047898
0.86814518 0.34479958 0.00047898
0.90611474 0.34479958 0.00047898
0.91886608 0.34479958 0.00047898
0.00047898 0.37657197 0.00047898
0.00047898 0.37657197 0.00047898
0.00047898 0.37657197 0.00047898
0.01885800 0.37657197 0.00047898
0.04013427 0.37657197 0.00047916
0.06313455 0.37657197 0.00047898
0.08746267 0.37657197 0.00047898
0.11289906 0.37657197 0.00047898
0.13930017 0.37657197 0.00047916
0.16656332 0.37657197 0.00047898
0.19461062 0.37657197 0.00047898
0.22338059 0.37657197 0.00047898
0.25282316 0.37657197 0.00047898
0.28289662 0.37657197 0.00047898
0.31356559 0.37657197 0.00047916
0.34479958 0.37657197 0.00047918
0.37657197 0.37657197 0.00047898
0.40885931 0.37657197 0.00047918
0.44164073 0.37657197 0.00047898
0.47489752 0.37657197 0.00047898
0.50861276 0.37657197 0.00047898
0.54277111 0.37657197 0.00047898
0.57735855 0.37657197 0.00047923
0.61236219 0.37657197 0.00047898
0.64777019 0.37657197 0.00047898
0.68357156 0.37657197 0.00047927
0.71975612 0.37657197 0.00047898
0.75631435 0.37657197 0.00047898
0.79323740 0.37657197 0.00047898
0.83051695 0.37657197 0.00047898
0.86814518 0.37657197 0.00047940
0.90611474 0.37657197 0.00047898
0.91886608 0.37657197 0.00047898
0.00047921 0.40885931 0.00047918
0.00047921 0.40885931 0.00047918
0.00047921 0.40885931 0.00047918
0.01885800 0.40885931 0.00047918
0.04013427 0.40885931 0.00047918
0.06313455 0.40885931 0.00047898
0.08746267 0.40885931 0.00047898
0.11289906 0.40885931 0.00047898
0.13930017 0.40885931 0.00047898
0.16656332 0.40885931 0.00047898
0.19461062 0.40885931 0.00047918
0.22338059 0.40885931 0.00047918
0.25282316 0.40885931 0.00047898
0.28289662 0.40885931 0.00047918
0.31356559 0.40885931 0.00047898
0.34479958 0.40885931 0.00047898
0.37657197 0.40885931 0.00047898
0.40885931 0.40885931 0.00047898
0.44164073 0.40885931 0.00047898
0.47489752 0.40885931 0.00047898
0.50861276 0.40885931 0.00047898
0.54277111 0.40885931 0.00047898
0.57735855 0.40885931 0.00047898
0.61236219 0.40885931 0.00047898
0.64777019 0.40885931 0.00047898
0.68357156 0.40885931 0.00047898
0.71975612 0.40885931 0.00047898
0.75631435 0.40885931 0.00047931
0.79323740 0.40885931 0.00047935
0.83051695 0.40885931 0.00047898
0.86814518 0.40885931 0.00047898
0.90611474 0.40885931 0.00047898
0.91886608 0.40885931 0.00047946
0.00047922 0.44164073 0.00047898
0.00047922 0.44164073 0.00047898
0.00047922 0.44164073 0.00047898
0.01885800 0.44164073 0.00047918
0.04013427 0.44164073 0.00047898
0.06313455 0.44164073 0.00047898
0.08746267 0.44164073 0.00047898
0.11289906 0.44164073 0.00047898
0.13930017 0.44164073 0.00047898
0.16656332 0.44164073 0.00047898
0.19461062 0.44164073 0.00047898
0.22338059 0.44164073 0.00047898
0.25282316 0.44164073 0.00047898
0.28289662 0.44164073 0.00047898
0.31356559 0.44164073 0.00047918
0.34479958 0.44164073 0.00047898
0.37657197 0.44164073 0.00047898
0.40885931 0.44164073 0.00047898
0.44164073 0.44164073 0.00047898
0.47489752 0.44164073 0.00047898
0.50861276 0.44164073 0.00047898
0.54277111 0.44164073 0.00047898
0.57735855 0.44164073 0.00047923
0.61236219 0.44164073 0.00047898
0.64777019 0.44164073 0.00047898
0.68357156 0.44164073 0.00047898
0.71975612 0.44164073 0.00047898
0.75631435 0.44164073 0.00047931
0.79323740 0.44164073 0.00047898
0.83051695 0.44164073 0.00047898
0.86814518 0.44164073 0.00047898
0.90611474 0.44164073 0.00047898
0.91886608 0.44164073 0.00047898
0.00047919 0.47489752 0.00047898
0.00047919 0.47489752 0.00047898
0.00047919 0.47489752 0.00047898
0.01885800 0.47489752 0.00047898
0.04013427 0.47489752 0.00047898
0.06313455 0.47489752 0.00047898
0.08746267 0.47489752 0.00047898
0.11289906 0.47489752 0.00047898
0.13930017 0.47489752 0.00047898
0.16656332 0.47489752 0.00047898
0.19461062 0.47489752 0.00047898
0.22338059 0.47489752 0.00047898
0.25282316 0.47489752 0.00047898
0.28289662 0.47489752 0.00047898
0.31356559 0.47489752 0.00047898
0.34479958 0.47489752 0.00047898
0.37657197 0.47489752 0.00047920
0.40885931 0.47489752 0.00047898
0.44164073 0.47489752 0.00047923
0.47489752 0.47489752 0.00047898
0.50861276 0.47489752 0.00047898
0.54277111 0.47489752 0.00047898
0.57735855 0.47489752 0.00047923
0.61236219 0.47489752 0.00047898
0.64777019 0.47489752 0.00047898
0.68357156 0.47489752 0.00047898
0.71975612 0.47489752 0.00047898
0.75631435 0.47489752 0.00047898
0.79323740 0.47489752 0.00047898
0.83051695 0.47489752 0.00047898
0.86814518 0.47489752 0.00047898
0.90611474 0.47489752 0.00047898
0.91886608 0.47489752 0.00047898
0.00047898 0.50861276 0.00047898
0.00047898 0.50861276 0.00047898
0.00047898 0.50861276 0.00047898
0.01885800 0.50861276 0.00047898
0.04013427 0.50861276 0.00047920
0.06313455 0.50861276 0.00047920
0.08746267 0.50861276 0.00047920
0.11289906 0.50861276 0.00047898
0.13930017 0.50861276 0.00047920
0.16656332 0.50861276 0.00047920
0.19461062 0.50861276 0.00047898
0.22338059 0.50861276 0.00047920
0.25282316 0.50861276 0.00047898
0.28289662 0.50861276 0.00047898
0.31356559 0.50861276 0.00047898
0.34479958 0.50861276 0.00047898
0.37657197 0.50861276 0.00047920
0.40885931 0.50861276 0.00047898
0.44164073 0.50861276 0.00047898
0.47489752 0.50861276 0.00047898
0.50861276 0.50861276 0.00047898
0.54277111 0.50861276 0.00047898
0.57735855 0.50861276 0.00047898
0.61236219 0.50861276 0.00047898
0.64777019 0.50861276 0.00047927
0.68357156 0.50861276 0.00047898
0.71975612 0.50861276 0.00047898
0.75631435 0.50861276 0.00047898
0.79323740 0.50861276 0.00047898
0.83051695 0.50861276 0.00047898
0.86814518 0.50861276 0.00047898
0.90611474 0.50861276 0.00047940
0.91886608 0.50861276 0.00047898
0.00047924 0.54277111 0.00047898
0.00047924 0.54277111 0.00047898
0.00047924 0.54277111 0.00047898
0.01885800 0.54277111 0.00047898
0.04013427 0.54277111 0.00047898
0.06313455 0.54277111 0.00047923
0.08746267 0.54277111 0.00047898
0.11289906 0.54277111 0.00047898
0.13930017 0.54277111 0.00047898
0.16656332 0.54277111 0.00047923
0.19461062 0.54277111 0.00047898
0.22338059 0.54277111 0.00047898
0.25282316 0.54277111 0.00047898
0.28289662 0.54277111 0.00047898
0.31356559 0.54277111 0.00047923
0.34479958 0.54277111 0.00047898
0.37657197 0.54277111 0.00047898
0.40885931 0.54277111 0.00047898
0.44164073 0.54277111 0.00047898
0.47489752 0.54277111 0.00047898
0.50861276 0.54277111 0.00047898
0.54277111 0.54277111 0.00047898
0.57735855 0.54277111 0.00047898
0.61236219 0.54277111 0.00047898
0.64777019 0.54277111 0.00047898
0.68357156 0.54277111 0.00047927
0.71975612 0.54277111 0.00047898
