src/ffmpeg_scripts/luts/luminance_-1p33.cube
TITLE "luminance_-1p33"
LUT_3D_SIZE 5
# PQ (EOTF Only)/Rec2020 -> PQ (EOTF Only)/Rec2020, CineEI Shift -1.33, Black Level 0.00% IRE, Input 109% -> Output 109% - Created with LUTCalc v4.01 by Ben Turley October 2020
0.06256172 0.06256172 0.06256172
0.20266443 0.06256172 0.06256172
0.42316302 0.06256189 0.06256189
0.66379852 0.06256172 0.06256172
0.91886487 0.06256204 0.06256213
0.06256181 0.20266443 0.06256172
0.20266443 0.20266443 0.06256172
0.42316302 0.20266443 0.06256187
0.66379852 0.20266443 0.06256172
0.91886487 0.20266443 0.06256172
0.06256172 0.42316302 0.06256172
0.20266443 0.42316302 0.06256189
0.42316302 0.42316302 0.06256172
0.66379852 0.42316302 0.06256172
0.91886487 0.42316302 0.06256172
0.06256197 0.66379852 0.06256172
0.20266443 0.66379852 0.06256200
0.42316302 0.66379852 0.06256172
0.66379852 0.66379852 0.06256204
0.91886487 0.66379852 0.06256219
0.06256220 0.91886487 0.06256219
0.20266443 0.91886487 0.06256172
0.42316302 0.91886487 0.06256172
0.66379852 0.91886487 0.06256219
0.91886487 0.91886487 0.06256172
0.06256172 0.06256185 0.20266443
0.20266443 0.06256172 0.20266443
0.42316302 0.06256191 0.20266443
0.66379852 0.06256198 0.20266443
0.91886487 0.06256208 0.20266443
0.06256184 0.20266443 0.20266443
0.20266443 0.20266443 0.20266443
0.42316302 0.20266443 0.20266443
0.66379852 0.20266443 0.20266443
0.91886487 0.20266443 0.20266443
0.06256191 0.42316302 0.20266443
0.20266443 0.42316302 0.20266443
0.42316302 0.42316302 0.20266443
0.66379852 0.42316302 0.20266443
0.91886487 0.42316302 0.20266443
0.06256203 0.66379852 0.20266443
0.20266443 0.66379852 0.20266443
0.42316302 0.66379852 0.20266443
0.66379852 0.66379852 0.20266443
0.91886487 0.66379852 0.20266443
0.06256172 0.91886487 0.20266443
0.20266443 0.91886487 0.20266443
0.42316302 0.91886487 0.20266443
0.66379852 0.91886487 0.20266443
0.91886487 0.91886487 0.20266443
0.06256172 0.06256194 0.42316302
0.20266443 0.06256172 0.42316302
0.42316302 0.06256194 0.42316302
0.66379852 0.06256194 0.42316302
0.91886487 0.06256204 0.42316302
0.06256172 0.20266443 0.42316302
0.20266443 0.20266443 0.42316302
0.42316302 0.20266443 0.42316302
0.66379852 0.20266443 0.42316302
0.91886487 0.20266443 0.42316302
0.06256172 0.42316302 0.42316302
0.20266443 0.42316302 0.42316302
0.42316302 0.42316302 0.42316302
0.66379852 0.42316302 0.42316302
0.91886487 0.42316302 0.42316302
0.06256200 0.66379852 0.42316302
0.20266443 0.66379852 0.42316302
0.42316302 0.66379852 0.42316302
0.66379852 0.66379852 0.42316302
0.91886487 0.66379852 0.42316302
0.06256172 0.91886487 0.42316302
0.20266443 0.91886487 0.42316302
0.42316302 0.91886487 0.42316302
0.66379852 0.91886487 0.42316302
0.91886487 0.91886487 0.42316302
0.06256172 0.06256172 0.66379852
0.20266443 0.06256172 0.66379852
0.42316302 0.06256172 0.66379852
0.66379852 0.06256213 0.66379852
0.91886487 0.06256172 0.66379852
0.06256172 0.20266443 0.66379852
0.20266443 0.20266443 0.66379852
0.42316302 0.20266443 0.66379852
0.66379852 0.20266443 0.66379852
0.91886487 0.20266443 0.66379852
0.06256172 0.42316302 0.66379852
0.20266443 0.42316302 0.66379852
0.42316302 0.42316302 0.66379852
0.66379852 0.42316302 0.66379852
0.91886487 0.42316302 0.66379852
0.06256172 0.66379852 0.66379852
0.20266443 0.66379852 0.66379852
0.42316302 0.66379852 0.66379852
0.66379852 0.66379852 0.66379852
0.91886487 0.66379852 0.66379852
0.06256221 0.91886487 0.66379852
0.20266443 0.91886487 0.66379852
0.42316302 0.91886487 0.66379852
0.66379852 0.91886487 0.66379852
0.91886487 0.91886487 0.66379852
0.06256227 0.06256245 0.91886487
0.20266443 0.06256235 0.91886487
0.42316302 0.06256245 0.91886487
0.66379852 0.06256235 0.91886487
0.91886487 0.06256235 0.91886487
0.06256172 0.20266443 0.91886487
0.20266443 0.20266443 0.91886487
0.42316302 0.20266443 0.91886487
0.66379852 0.20266443 0.91886487
0.91886487 0.20266443 0.91886487
0.06256172 0.42316302 0.91886487
0.20266443 0.42316302 0.91886487
0.42316302 0.42316302 0.91886487
0.66379852 0.42316302 0.91886487
0.91886487 0.42316302 0.91886487
0.06256172 0.66379852 0.91886487
0.20266443 0.66379852 0.91886487
0.42316302 0.66379852 0.91886487
0.66379852 0.66379852 0.91886487
0.91886487 0.66379852 0.91886487
0.06256219 0.91886487 0.91886487
0.20266443 0.91886487 0.91886487
0.42316302 0.91886487 0.91886487
0.66379852 0.91886487 0.91886487
0.91886487 0.91886487 0.91886487
