src/ffmpeg_scripts/luts/luminance-unclipped_2p33.cube
TITLE "luminance-unclipped_2p33"
LUT_3D_SIZE 5
# PQ (EOTF Only)/Rec2020 -> PQ (EOTF Only)/Rec2020, CineEI Shift 2.33, Black Level -7.25% IRE, Input 109% -> Output 109% - Created with LUTCalc v4.01 by Ben Turley October 2020
0.00047898 0.00047898 0.00047898
0.33831179 0.00047898 0.00047898
0.67568421 0.00047923 0.00047898
0.91886608 0.00047935 0.00047898
0.91886608 0.00047987 0.00047997
0.00047916 0.33831179 0.00047898
0.33831179 0.33831179 0.00047898
0.67568421 0.33831179 0.00047927
0.91886608 0.33831179 0.00047946
0.91886608 0.33831179 0.00047898
0.00047927 0.67568421 0.00047898
0.33831179 0.67568421 0.00047898
0.67568421 0.67568421 0.00047898
0.91886608 0.67568421 0.00047898
0.91886608 0.67568421 0.00047898
0.00047931 0.91886608 0.00047898
0.33831179 0.91886608 0.00047898
0.67568421 0.91886608 0.00047946
0.91886608 0.91886608 0.00047953
0.91886608 0.91886608 0.00047983
0.00047994 0.91886608 0.00047898
0.33831179 0.91886608 0.00047983
0.67568421 0.91886608 0.00047898
0.91886608 0.91886608 0.00047983
0.91886608 0.91886608 0.00047898
0.00047898 0.00047923 0.33831179
0.33831179 0.00047920 0.33831179
0.67568421 0.00047927 0.33831179
0.91886608 0.00047946 0.33831179
0.91886608 0.00047978 0.33831179
0.00047916 0.33831179 0.33831179
0.33831179 0.33831179 0.33831179
0.67568421 0.33831179 0.33831179
0.91886608 0.33831179 0.33831179
0.91886608 0.33831179 0.33831179
0.00047934 0.67568421 0.33831179
0.33831179 0.67568421 0.33831179
0.67568421 0.67568421 0.33831179
0.91886608 0.67568421 0.33831179
0.91886608 0.67568421 0.33831179
0.00047935 0.91886608 0.33831179
0.33831179 0.91886608 0.33831179
0.67568421 0.91886608 0.33831179
0.91886608 0.91886608 0.33831179
0.91886608 0.91886608 0.33831179
0.00047991 0.91886608 0.33831179
0.33831179 0.91886608 0.33831179
0.67568421 0.91886608 0.33831179
0.91886608 0.91886608 0.33831179
0.91886608 0.91886608 0.33831179
0.00047931 0.00047940 0.67568421
0.33831179 0.00047898 0.67568421
0.67568421 0.00047898 0.67568421
0.91886608 0.00047953 0.67568421
0.91886608 0.00048004 0.67568421
0.00047898 0.33831179 0.67568421
0.33831179 0.33831179 0.67568421
0.67568421 0.33831179 0.67568421
0.91886608 0.33831179 0.67568421
0.91886608 0.33831179 0.67568421
0.00047898 0.67568421 0.67568421
0.33831179 0.67568421 0.67568421
0.67568421 0.67568421 0.67568421
0.91886608 0.67568421 0.67568421
0.91886608 0.67568421 0.67568421
0.00047965 0.91886608 0.67568421
0.33831179 0.91886608 0.67568421
0.67568421 0.91886608 0.67568421
0.91886608 0.91886608 0.67568421
0.91886608 0.91886608 0.67568421
0.00047898 0.91886608 0.67568421
0.33831179 0.91886608 0.67568421
0.67568421 0.91886608 0.67568421
0.91886608 0.91886608 0.67568421
0.91886608 0.91886608 0.67568421
0.00047898 0.00047978 0.91886608
0.33831179 0.00047898 0.91886608
0.67568421 0.00047898 0.91886608
0.91886608 0.00047898 0.91886608
0.91886608 0.00047983 0.91886608
0.00047898 0.33831179 0.91886608
0.33831179 0.33831179 0.91886608
0.67568421 0.33831179 0.91886608
0.91886608 0.33831179 0.91886608
0.91886608 0.33831179 0.91886608
0.00047898 0.67568421 0.91886608
0.33831179 0.67568421 0.91886608
0.67568421 0.67568421 0.91886608
0.91886608 0.67568421 0.91886608
0.91886608 0.67568421 0.91886608
0.00047898 0.91886608 0.91886608
0.33831179 0.91886608 0.91886608
0.67568421 0.91886608 0.91886608
0.91886608 0.91886608 0.91886608
0.91886608 0.91886608 0.91886608
0.00047997 0.91886608 0.91886608
0.33831179 0.91886608 0.91886608
0.67568421 0.91886608 0.91886608
0.91886608 0.91886608 0.91886608
0.91886608 0.91886608 0.91886608
0.00047898 0.00048034 0.91886608
0.33831179 0.00048048 0.91886608
0.67568421 0.00048048 0.91886608
0.91886608 0.00048034 0.91886608
0.91886608 0.00048034 0.91886608
0.00047997 0.33831179 0.91886608
0.33831179 0.33831179 0.91886608
0.67568421 0.33831179 0.91886608
0.91886608 0.33831179 0.91886608
0.91886608 0.33831179 0.91886608
0.00047898 0.67568421 0.91886608
0.33831179 0.67568421 0.91886608
0.67568421 0.67568421 0.91886608
0.91886608 0.67568421 0.91886608
0.91886608 0.67568421 0.91886608
0.00047898 0.91886608 0.91886608
0.33831179 0.91886608 0.91886608
0.67568421 0.91886608 0.91886608
0.91886608 0.91886608 0.91886608
0.91886608 0.91886608 0.91886608
0.00047898 0.91886608 0.91886608
0.33831179 0.91886608 0.91886608
0.67568421 0.91886608 0.91886608
0.91886608 0.91886608 0.91886608
0.91886608 0.91886608 0.91886608
