src/ffmpeg_scripts/luts/luminance_0p67.cube
TITLE "luminance_0p67"
LUT_3D_SIZE 9
# PQ (EOTF Only)/Rec2020 -> PQ (EOTF Only)/Rec2020, CineEI Shift 0.67, Black Level 0.00% IRE, Input 109% -> Output 109% - Created with LUTCalc v4.01 by Ben Turley October 2020
0.06256172 0.06256172 0.06256172
0.13770263 0.06256179 0.06256172
0.27703711 0.06256172 0.06256172
0.41046135 0.06256172 0.06256187
0.54036535 0.06256189 0.06256194
0.66772710 0.06256172 0.06256172
0.79309112 0.06256172 0.06256172
0.91680680 0.06256218 0.06256172
0.91886608 0.06256219 0.06256227
0.06256180 0.13770263 0.06256172
0.13770263 0.13770263 0.06256172
0.27703711 0.13770263 0.06256172
0.41046135 0.13770263 0.06256172
0.54036535 0.13770263 0.06256172
0.66772710 0.13770263 0.06256172
0.79309112 0.13770263 0.06256172
0.91680680 0.13770263 0.06256213
0.91886608 0.13770263 0.06256172
0.06256184 0.27703711 0.06256172
0.13770263 0.27703711 0.06256172
0.27703711 0.27703711 0.06256172
0.41046135 0.27703711 0.06256172
0.54036535 0.27703711 0.06256191
0.66772710 0.27703711 0.06256172
0.79309112 0.27703711 0.06256172
0.91680680 0.27703711 0.06256172
0.91886608 0.27703711 0.06256172
0.06256190 0.41046135 0.06256187
0.13770263 0.41046135 0.06256172
0.27703711 0.41046135 0.06256172
0.41046135 0.41046135 0.06256189
0.54036535 0.41046135 0.06256194
0.66772710 0.41046135 0.06256172
0.79309112 0.41046135 0.06256172
0.91680680 0.41046135 0.06256213
0.91886608 0.41046135 0.06256172
0.06256172 0.54036535 0.06256172
0.13770263 0.54036535 0.06256172
0.27703711 0.54036535 0.06256172
0.41046135 0.54036535 0.06256172
0.54036535 0.54036535 0.06256172
0.66772710 0.54036535 0.06256172
0.79309112 0.54036535 0.06256172
0.91680680 0.54036535 0.06256172
0.91886608 0.54036535 0.06256172
0.06256198 0.66772710 0.06256200
0.13770263 0.66772710 0.06256172
0.27703711 0.66772710 0.06256200
0.41046135 0.66772710 0.06256172
0.54036535 0.66772710 0.06256200
0.66772710 0.66772710 0.06256172
0.79309112 0.66772710 0.06256172
0.91680680 0.66772710 0.06256172
0.91886608 0.66772710 0.06256172
0.06256172 0.79309112 0.06256172
0.13770263 0.79309112 0.06256172
0.27703711 0.79309112 0.06256172
0.41046135 0.79309112 0.06256208
0.54036535 0.79309112 0.06256172
0.66772710 0.79309112 0.06256208
0.79309112 0.79309112 0.06256172
0.91680680 0.79309112 0.06256172
0.91886608 0.79309112 0.06256227
0.06256216 0.91680680 0.06256172
0.13770263 0.91680680 0.06256172
0.27703711 0.91680680 0.06256172
0.41046135 0.91680680 0.06256172
0.54036535 0.91680680 0.06256172
0.66772710 0.91680680 0.06256172
0.79309112 0.91680680 0.06256172
0.91680680 0.91680680 0.06256172
0.91886608 0.91680680 0.06256172
0.06256237 0.91886608 0.06256235
0.13770263 0.91886608 0.06256235
0.27703711 0.91886608 0.06256172
0.41046135 0.91886608 0.06256172
0.54036535 0.91886608 0.06256172
0.66772710 0.91886608 0.06256172
0.79309112 0.91886608 0.06256172
0.91680680 0.91886608 0.06256235
0.91886608 0.91886608 0.06256172
0.06256172 0.06256181 0.13770263
0.13770263 0.06256180 0.13770263
0.27703711 0.06256172 0.13770263
0.41046135 0.06256172 0.13770263
0.54036535 0.06256192 0.13770263
0.66772710 0.06256172 0.13770263
0.79309112 0.06256172 0.13770263
0.91680680 0.06256218 0.13770263
0.91886608 0.06256223 0.13770263
0.06256180 0.13770263 0.13770263
0.13770263 0.13770263 0.13770263
0.27703711 0.13770263 0.13770263
0.41046135 0.13770263 0.13770263
0.54036535 0.13770263 0.13770263
0.66772710 0.13770263 0.13770263
0.79309112 0.13770263 0.13770263
0.91680680 0.13770263 0.13770263
0.91886608 0.13770263 0.13770263
0.06256185 0.27703711 0.13770263
0.13770263 0.27703711 0.13770263
0.27703711 0.27703711 0.13770263
0.41046135 0.27703711 0.13770263
0.54036535 0.27703711 0.13770263
0.66772710 0.27703711 0.13770263
0.79309112 0.27703711 0.13770263
0.91680680 0.27703711 0.13770263
0.91886608 0.27703711 0.13770263
0.06256187 0.41046135 0.13770263
0.13770263 0.41046135 0.13770263
0.27703711 0.41046135 0.13770263
0.41046135 0.41046135 0.13770263
0.54036535 0.41046135 0.13770263
0.66772710 0.41046135 0.13770263
0.79309112 0.41046135 0.13770263
0.91680680 0.41046135 0.13770263
0.91886608 0.41046135 0.13770263
0.06256172 0.54036535 0.13770263
0.13770263 0.54036535 0.13770263
0.27703711 0.54036535 0.13770263
0.41046135 0.54036535 0.13770263
0.54036535 0.54036535 0.13770263
0.66772710 0.54036535 0.13770263
0.79309112 0.54036535 0.13770263
0.91680680 0.54036535 0.13770263
0.91886608 0.54036535 0.13770263
0.06256204 0.66772710 0.13770263
0.13770263 0.66772710 0.13770263
0.27703711 0.66772710 0.13770263
0.41046135 0.66772710 0.13770263
0.54036535 0.66772710 0.13770263
0.66772710 0.66772710 0.13770263
0.79309112 0.66772710 0.13770263
0.91680680 0.66772710 0.13770263
0.91886608 0.66772710 0.13770263
0.06256172 0.79309112 0.13770263
0.13770263 0.79309112 0.13770263
0.27703711 0.79309112 0.13770263
0.41046135 0.79309112 0.13770263
0.54036535 0.79309112 0.13770263
0.66772710 0.79309112 0.13770263
0.79309112 0.79309112 0.13770263
0.91680680 0.79309112 0.13770263
0.91886608 0.79309112 0.13770263
0.06256219 0.91680680 0.13770263
0.13770263 0.91680680 0.13770263
0.27703711 0.91680680 0.13770263
0.41046135 0.91680680 0.13770263
0.54036535 0.91680680 0.13770263
0.66772710 0.91680680 0.13770263
0.79309112 0.91680680 0.13770263
0.91680680 0.91680680 0.13770263
0.91886608 0.91680680 0.13770263
0.06256217 0.91886608 0.13770263
0.13770263 0.91886608 0.13770263
0.27703711 0.91886608 0.13770263
0.41046135 0.91886608 0.13770263
0.54036535 0.91886608 0.13770263
0.66772710 0.91886608 0.13770263
0.79309112 0.91886608 0.13770263
0.91680680 0.91886608 0.13770263
0.91886608 0.91886608 0.13770263
0.06256172 0.06256187 0.27703711
0.13770263 0.06256187 0.27703711
0.27703711 0.06256187 0.27703711
0.41046135 0.06256172 0.27703711
0.54036535 0.06256194 0.27703711
0.66772710 0.06256201 0.27703711
0.79309112 0.06256172 0.27703711
0.91680680 0.06256221 0.27703711
0.91886608 0.06256223 0.27703711
0.06256172 0.13770263 0.27703711
0.13770263 0.13770263 0.27703711
0.27703711 0.13770263 0.27703711
0.41046135 0.13770263 0.27703711
0.54036535 0.13770263 0.27703711
0.66772710 0.13770263 0.27703711
0.79309112 0.13770263 0.27703711
0.91680680 0.13770263 0.27703711
0.91886608 0.13770263 0.27703711
0.06256172 0.27703711 0.27703711
0.13770263 0.27703711 0.27703711
0.27703711 0.27703711 0.27703711
0.41046135 0.27703711 0.27703711
0.54036535 0.27703711 0.27703711
0.66772710 0.27703711 0.27703711
0.79309112 0.27703711 0.27703711
0.91680680 0.27703711 0.27703711
0.91886608 0.27703711 0.27703711
0.06256172 0.41046135 0.27703711
0.13770263 0.41046135 0.27703711
0.27703711 0.41046135 0.27703711
0.41046135 0.41046135 0.27703711
0.54036535 0.41046135 0.27703711
0.66772710 0.41046135 0.27703711
0.79309112 0.41046135 0.27703711
0.91680680 0.41046135 0.27703711
0.91886608 0.41046135 0.27703711
0.06256197 0.54036535 0.27703711
0.13770263 0.54036535 0.27703711
0.27703711 0.54036535 0.27703711
0.41046135 0.54036535 0.27703711
0.54036535 0.54036535 0.27703711
0.66772710 0.54036535 0.27703711
0.79309112 0.54036535 0.27703711
0.91680680 0.54036535 0.27703711
0.91886608 0.54036535 0.27703711
0.06256204 0.66772710 0.27703711
0.13770263 0.66772710 0.27703711
0.27703711 0.66772710 0.27703711
0.41046135 0.66772710 0.27703711
0.54036535 0.66772710 0.27703711
0.66772710 0.66772710 0.27703711
0.79309112 0.66772710 0.27703711
0.91680680 0.66772710 0.27703711
0.91886608 0.66772710 0.27703711
0.06256219 0.79309112 0.27703711
0.13770263 0.79309112 0.27703711
0.27703711 0.79309112 0.27703711
0.41046135 0.79309112 0.27703711
0.54036535 0.79309112 0.27703711
0.66772710 0.79309112 0.27703711
0.79309112 0.79309112 0.27703711
0.91680680 0.79309112 0.27703711
0.91886608 0.79309112 0.27703711
0.06256200 0.91680680 0.27703711
0.13770263 0.91680680 0.27703711
0.27703711 0.91680680 0.27703711
0.41046135 0.91680680 0.27703711
0.54036535 0.91680680 0.27703711
0.66772710 0.91680680 0.27703711
0.79309112 0.91680680 0.27703711
0.91680680 0.91680680 0.27703711
0.91886608 0.91680680 0.27703711
0.06256172 0.91886608 0.27703711
0.13770263 0.91886608 0.27703711
0.27703711 0.91886608 0.27703711
0.41046135 0.91886608 0.27703711
0.54036535 0.91886608 0.27703711
0.66772710 0.91886608 0.27703711
0.79309112 0.91886608 0.27703711
0.91680680 0.91886608 0.27703711
0.91886608 0.91886608 0.27703711
0.06256172 0.06256194 0.41046135
0.13770263 0.06256194 0.41046135
0.27703711 0.06256194 0.41046135
0.41046135 0.06256172 0.41046135
0.54036535 0.06256172 0.41046135
0.66772710 0.06256200 0.41046135
0.79309112 0.06256172 0.41046135
0.91680680 0.06256172 0.41046135
0.91886608 0.06256213 0.41046135
0.06256172 0.13770263 0.41046135
0.13770263 0.13770263 0.41046135
0.27703711 0.13770263 0.41046135
0.41046135 0.13770263 0.41046135
0.54036535 0.13770263 0.41046135
0.66772710 0.13770263 0.41046135
0.79309112 0.13770263 0.41046135
0.91680680 0.13770263 0.41046135
0.91886608 0.13770263 0.41046135
0.06256172 0.27703711 0.41046135
0.13770263 0.27703711 0.41046135
0.27703711 0.27703711 0.41046135
0.41046135 0.27703711 0.41046135
0.54036535 0.27703711 0.41046135
0.66772710 0.27703711 0.41046135
0.79309112 0.27703711 0.41046135
0.91680680 0.27703711 0.41046135
0.91886608 0.27703711 0.41046135
0.06256189 0.41046135 0.41046135
0.13770263 0.41046135 0.41046135
0.27703711 0.41046135 0.41046135
0.41046135 0.41046135 0.41046135
0.54036535 0.41046135 0.41046135
0.66772710 0.41046135 0.41046135
0.79309112 0.41046135 0.41046135
0.91680680 0.41046135 0.41046135
0.91886608 0.41046135 0.41046135
0.06256172 0.54036535 0.41046135
0.13770263 0.54036535 0.41046135
0.27703711 0.54036535 0.41046135
0.41046135 0.54036535 0.41046135
0.54036535 0.54036535 0.41046135
0.66772710 0.54036535 0.41046135
0.79309112 0.54036535 0.41046135
0.91680680 0.54036535 0.41046135
0.91886608 0.54036535 0.41046135
0.06256200 0.66772710 0.41046135
0.13770263 0.66772710 0.41046135
0.27703711 0.66772710 0.41046135
0.41046135 0.66772710 0.41046135
0.54036535 0.66772710 0.41046135
0.66772710 0.66772710 0.41046135
0.79309112 0.66772710 0.41046135
0.91680680 0.66772710 0.41046135
0.91886608 0.66772710 0.41046135
0.06256216 0.79309112 0.41046135
0.13770263 0.79309112 0.41046135
0.27703711 0.79309112 0.41046135
0.41046135 0.79309112 0.41046135
0.54036535 0.79309112 0.41046135
0.66772710 0.79309112 0.41046135
0.79309112 0.79309112 0.41046135
0.91680680 0.79309112 0.41046135
0.91886608 0.79309112 0.41046135
0.06256172 0.91680680 0.41046135
0.13770263 0.91680680 0.41046135
0.27703711 0.91680680 0.41046135
0.41046135 0.91680680 0.41046135
0.54036535 0.91680680 0.41046135
0.66772710 0.91680680 0.41046135
0.79309112 0.91680680 0.41046135
0.91680680 0.91680680 0.41046135
0.91886608 0.91680680 0.41046135
0.06256233 0.91886608 0.41046135
0.13770263 0.91886608 0.41046135
0.27703711 0.91886608 0.41046135
0.41046135 0.91886608 0.41046135
0.54036535 0.91886608 0.41046135
0.66772710 0.91886608 0.41046135
0.79309112 0.91886608 0.41046135
0.91680680 0.91886608 0.41046135
0.91886608 0.91886608 0.41046135
0.06256172 0.06256204 0.54036535
0.13770263 0.06256172 0.54036535
0.27703711 0.06256172 0.54036535
0.41046135 0.06256200 0.54036535
0.54036535 0.06256200 0.54036535
0.66772710 0.06256172 0.54036535
0.79309112 0.06256200 0.54036535
0.91680680 0.06256204 0.54036535
0.91886608 0.06256237 0.54036535
0.06256194 0.13770263 0.54036535
0.13770263 0.13770263 0.54036535
0.27703711 0.13770263 0.54036535
0.41046135 0.13770263 0.54036535
0.54036535 0.13770263 0.54036535
0.66772710 0.13770263 0.54036535
0.79309112 0.13770263 0.54036535
0.91680680 0.13770263 0.54036535
0.91886608 0.13770263 0.54036535
0.06256172 0.27703711 0.54036535
0.13770263 0.27703711 0.54036535
0.27703711 0.27703711 0.54036535
0.41046135 0.27703711 0.54036535
0.54036535 0.27703711 0.54036535
0.66772710 0.27703711 0.54036535
0.79309112 0.27703711 0.54036535
0.91680680 0.27703711 0.54036535
0.91886608 0.27703711 0.54036535
0.06256172 0.41046135 0.54036535
0.13770263 0.41046135 0.54036535
0.27703711 0.41046135 0.54036535
0.41046135 0.41046135 0.54036535
0.54036535 0.41046135 0.54036535
0.66772710 0.41046135 0.54036535
0.79309112 0.41046135 0.54036535
0.91680680 0.41046135 0.54036535
0.91886608 0.41046135 0.54036535
0.06256172 0.54036535 0.54036535
0.13770263 0.54036535 0.54036535
0.27703711 0.54036535 0.54036535
0.41046135 0.54036535 0.54036535
0.54036535 0.54036535 0.54036535
0.66772710 0.54036535 0.54036535
0.79309112 0.54036535 0.54036535
0.91680680 0.54036535 0.54036535
0.91886608 0.54036535 0.54036535
0.06256172 0.66772710 0.54036535
0.13770263 0.66772710 0.54036535
0.27703711 0.66772710 0.54036535
0.41046135 0.66772710 0.54036535
0.54036535 0.66772710 0.54036535
0.66772710 0.66772710 0.54036535
0.79309112 0.66772710 0.54036535
0.91680680 0.66772710 0.54036535
0.91886608 0.66772710 0.54036535
0.06256172 0.79309112 0.54036535
0.13770263 0.79309112 0.54036535
0.27703711 0.79309112 0.54036535
0.41046135 0.79309112 0.54036535
0.54036535 0.79309112 0.54036535
0.66772710 0.79309112 0.54036535
0.79309112 0.79309112 0.54036535
0.91680680 0.79309112 0.54036535
0.91886608 0.79309112 0.54036535
0.06256226 0.91680680 0.54036535
0.13770263 0.91680680 0.54036535
0.27703711 0.91680680 0.54036535
0.41046135 0.91680680 0.54036535
0.54036535 0.91680680 0.54036535
0.66772710 0.91680680 0.54036535
0.79309112 0.91680680 0.54036535
0.91680680 0.91680680 0.54036535
0.91886608 0.91680680 0.54036535
0.06256172 0.91886608 0.54036535
0.13770263 0.91886608 0.54036535
0.27703711 0.91886608 0.54036535
0.41046135 0.91886608 0.54036535
0.54036535 0.91886608 0.54036535
0.66772710 0.91886608 0.54036535
0.79309112 0.91886608 0.54036535
0.91680680 0.91886608 0.54036535
0.91886608 0.91886608 0.54036535
0.06256200 0.06256208 0.66772710
0.13770263 0.06256213 0.66772710
0.27703711 0.06256208 0.66772710
0.41046135 0.06256213 0.66772710
0.54036535 0.06256213 0.66772710
0.66772710 0.06256208 0.66772710
0.79309112 0.06256213 0.66772710
0.91680680 0.06256208 0.66772710
0.91886608 0.06256172 0.66772710
0.06256172 0.13770263 0.66772710
0.13770263 0.13770263 0.66772710
0.27703711 0.13770263 0.66772710
0.41046135 0.13770263 0.66772710
0.54036535 0.13770263 0.66772710
0.66772710 0.13770263 0.66772710
0.79309112 0.13770263 0.66772710
0.91680680 0.13770263 0.66772710
0.91886608 0.13770263 0.66772710
0.06256200 0.27703711 0.66772710
0.13770263 0.27703711 0.66772710
0.27703711 0.27703711 0.66772710
0.41046135 0.27703711 0.66772710
0.54036535 0.27703711 0.66772710
0.66772710 0.27703711 0.66772710
0.79309112 0.27703711 0.66772710
0.91680680 0.27703711 0.66772710
0.91886608 0.27703711 0.66772710
0.06256172 0.41046135 0.66772710
0.13770263 0.41046135 0.66772710
0.27703711 0.41046135 0.66772710
0.41046135 0.41046135 0.66772710
0.54036535 0.41046135 0.66772710
0.66772710 0.41046135 0.66772710
0.79309112 0.41046135 0.66772710
0.91680680 0.41046135 0.66772710
0.91886608 0.41046135 0.66772710
0.06256172 0.54036535 0.66772710
0.13770263 0.54036535 0.66772710
0.27703711 0.54036535 0.66772710
0.41046135 0.54036535 0.66772710
0.54036535 0.54036535 0.66772710
0.66772710 0.54036535 0.66772710
0.79309112 0.54036535 0.66772710
0.91680680 0.54036535 0.66772710
0.91886608 0.54036535 0.66772710
0.06256172 0.66772710 0.66772710
0.13770263 0.66772710 0.66772710
0.27703711 0.66772710 0.66772710
0.41046135 0.66772710 0.66772710
0.54036535 0.66772710 0.66772710
0.66772710 0.66772710 0.66772710
0.79309112 0.66772710 0.66772710
0.91680680 0.66772710 0.66772710
0.91886608 0.66772710 0.66772710
0.06256208 0.79309112 0.66772710
0.13770263 0.79309112 0.66772710
0.27703711 0.79309112 0.66772710
0.41046135 0.79309112 0.66772710
0.54036535 0.79309112 0.66772710
0.66772710 0.79309112 0.66772710
0.79309112 0.79309112 0.66772710
0.91680680 0.79309112 0.66772710
0.91886608 0.79309112 0.66772710
0.06256172 0.91680680 0.66772710
0.13770263 0.91680680 0.66772710
0.27703711 0.91680680 0.66772710
0.41046135 0.91680680 0.66772710
0.54036535 0.91680680 0.66772710
0.66772710 0.91680680 0.66772710
0.79309112 0.91680680 0.66772710
0.91680680 0.91680680 0.66772710
0.91886608 0.91680680 0.66772710
0.06256242 0.91886608 0.66772710
0.13770263 0.91886608 0.66772710
0.27703711 0.91886608 0.66772710
0.41046135 0.91886608 0.66772710
0.54036535 0.91886608 0.66772710
0.66772710 0.91886608 0.66772710
0.79309112 0.91886608 0.66772710
0.91680680 0.91886608 0.66772710
0.91886608 0.91886608 0.66772710
0.06256172 0.06256219 0.79309112
0.13770263 0.06256219 0.79309112
0.27703711 0.06256172 0.79309112
0.41046135 0.06256219 0.79309112
0.54036535 0.06256219 0.79309112
0.66772710 0.06256219 0.79309112
0.79309112 0.06256219 0.79309112
0.91680680 0.06256172 0.79309112
0.91886608 0.06256172 0.79309112
0.06256172 0.13770263 0.79309112
0.13770263 0.13770263 0.79309112
0.27703711 0.13770263 0.79309112
0.41046135 0.13770263 0.79309112
0.54036535 0.13770263 0.79309112
0.66772710 0.13770263 0.79309112
0.79309112 0.13770263 0.79309112
0.91680680 0.13770263 0.79309112
0.91886608 0.13770263 0.79309112
0.06256172 0.27703711 0.79309112
0.13770263 0.27703711 0.79309112
0.27703711 0.27703711 0.79309112
0.41046135 0.27703711 0.79309112
0.54036535 0.27703711 0.79309112
0.66772710 0.27703711 0.79309112
0.79309112 0.27703711 0.79309112
0.91680680 0.27703711 0.79309112
0.91886608 0.27703711 0.79309112
0.06256172 0.41046135 0.79309112
0.13770263 0.41046135 0.79309112
0.27703711 0.41046135 0.79309112
0.41046135 0.41046135 0.79309112
0.54036535 0.41046135 0.79309112
0.66772710 0.41046135 0.79309112
0.79309112 0.41046135 0.79309112
0.91680680 0.41046135 0.79309112
0.91886608 0.41046135 0.79309112
0.06256172 0.54036535 0.79309112
0.13770263 0.54036535 0.79309112
0.27703711 0.54036535 0.79309112
0.41046135 0.54036535 0.79309112
0.54036535 0.54036535 0.79309112
0.66772710 0.54036535 0.79309112
0.79309112 0.54036535 0.79309112
0.91680680 0.54036535 0.79309112
0.91886608 0.54036535 0.79309112
0.06256172 0.66772710 0.79309112
0.13770263 0.66772710 0.79309112
0.27703711 0.66772710 0.79309112
0.41046135 0.66772710 0.79309112
0.54036535 0.66772710 0.79309112
0.66772710 0.66772710 0.79309112
0.79309112 0.66772710 0.79309112
0.91680680 0.66772710 0.79309112
0.91886608 0.66772710 0.79309112
0.06256172 0.79309112 0.79309112
0.13770263 0.79309112 0.79309112
0.27703711 0.79309112 0.79309112
0.41046135 0.79309112 0.79309112
0.54036535 0.79309112 0.79309112
0.66772710 0.79309112 0.79309112
0.79309112 0.79309112 0.79309112
0.91680680 0.79309112 0.79309112
0.91886608 0.79309112 0.79309112
0.06256172 0.91680680 0.79309112
0.13770263 0.91680680 0.79309112
0.27703711 0.91680680 0.79309112
0.41046135 0.91680680 0.79309112
0.54036535 0.91680680 0.79309112
0.66772710 0.91680680 0.79309112
0.79309112 0.91680680 0.79309112
0.91680680 0.91680680 0.79309112
0.91886608 0.91680680 0.79309112
0.06256237 0.91886608 0.79309112
0.13770263 0.91886608 0.79309112
0.27703711 0.91886608 0.79309112
0.41046135 0.91886608 0.79309112
0.54036535 0.91886608 0.79309112
0.66772710 0.91886608 0.79309112
0.79309112 0.91886608 0.79309112
0.91680680 0.91886608 0.79309112
0.91886608 0.91886608 0.79309112
0.06256172 0.06256245 0.91680680
0.13770263 0.06256245 0.91680680
0.27703711 0.06256172 0.91680680
0.41046135 0.06256245 0.91680680
0.54036535 0.06256172 0.91680680
0.66772710 0.06256235 0.91680680
0.79309112 0.06256235 0.91680680
0.91680680 0.06256245 0.91680680
0.91886608 0.06256235 0.91680680
0.06256172 0.13770263 0.91680680
0.13770263 0.13770263 0.91680680
0.27703711 0.13770263 0.91680680
0.41046135 0.13770263 0.91680680
0.54036535 0.13770263 0.91680680
0.66772710 0.13770263 0.91680680
0.79309112 0.13770263 0.91680680
0.91680680 0.13770263 0.91680680
0.91886608 0.13770263 0.91680680
0.06256172 0.27703711 0.91680680
0.13770263 0.27703711 0.91680680
0.27703711 0.27703711 0.91680680
0.41046135 0.27703711 0.91680680
0.54036535 0.27703711 0.91680680
0.66772710 0.27703711 0.91680680
0.79309112 0.27703711 0.91680680
0.91680680 0.27703711 0.91680680
0.91886608 0.27703711 0.91680680
0.06256172 0.41046135 0.91680680
0.13770263 0.41046135 0.91680680
0.27703711 0.41046135 0.91680680
0.41046135 0.41046135 0.91680680
0.54036535 0.41046135 0.91680680
0.66772710 0.41046135 0.91680680
0.79309112 0.41046135 0.91680680
0.91680680 0.41046135 0.91680680
0.91886608 0.41046135 0.91680680
0.06256172 0.54036535 0.91680680
0.13770263 0.54036535 0.91680680
0.27703711 0.54036535 0.91680680
0.41046135 0.54036535 0.91680680
0.54036535 0.54036535 0.91680680
0.66772710 0.54036535 0.91680680
0.79309112 0.54036535 0.91680680
0.91680680 0.54036535 0.91680680
0.91886608 0.54036535 0.91680680
0.06256219 0.66772710 0.91680680
0.13770263 0.66772710 0.91680680
0.27703711 0.66772710 0.91680680
0.41046135 0.66772710 0.91680680
0.54036535 0.66772710 0.91680680
0.66772710 0.66772710 0.91680680
0.79309112 0.66772710 0.91680680
0.91680680 0.66772710 0.91680680
0.91886608 0.66772710 0.91680680
0.06256172 0.79309112 0.91680680
0.13770263 0.79309112 0.91680680
0.27703711 0.79309112 0.91680680
0.41046135 0.79309112 0.91680680
0.54036535 0.79309112 0.91680680
0.66772710 0.79309112 0.91680680
0.79309112 0.79309112 0.91680680
0.91680680 0.79309112 0.91680680
0.91886608 0.79309112 0.91680680
0.06256172 0.91680680 0.91680680
0.13770263 0.91680680 0.91680680
0.27703711 0.91680680 0.91680680
0.41046135 0.91680680 0.91680680
0.54036535 0.91680680 0.91680680
0.66772710 0.91680680 0.91680680
0.79309112 0.91680680 0.91680680
0.91680680 0.91680680 0.91680680
0.91886608 0.91680680 0.91680680
0.06256249 0.91886608 0.91680680
0.13770263 0.91886608 0.91680680
0.27703711 0.91886608 0.91680680
0.41046135 0.91886608 0.91680680
0.54036535 0.91886608 0.91680680
0.66772710 0.91886608 0.91680680
0.79309112 0.91886608 0.91680680
0.91680680 0.91886608 0.91680680
0.91886608 0.91886608 0.91680680
0.06256172 0.06256257 0.91886608
0.13770263 0.06256172 0.91886608
0.27703711 0.06256257 0.91886608
0.41046135 0.06256257 0.91886608
0.54036535 0.06256272 0.91886608
0.66772710 0.06256257 0.91886608
0.79309112 0.06256257 0.91886608
0.91680680 0.06256257 0.91886608
0.91886608 0.06256257 0.91886608
0.06256235 0.13770263 0.91886608
0.13770263 0.13770263 0.91886608
0.27703711 0.13770263 0.91886608
0.41046135 0.13770263 0.91886608
0.54036535 0.13770263 0.91886608
0.66772710 0.13770263 0.91886608
0.79309112 0.13770263 0.91886608
0.91680680 0.13770263 0.91886608
0.91886608 0.13770263 0.91886608
0.06256235 0.27703711 0.91886608
0.13770263 0.27703711 0.91886608
0.27703711 0.27703711 0.91886608
0.41046135 0.27703711 0.91886608
0.54036535 0.27703711 0.91886608
0.66772710 0.27703711 0.91886608
0.79309112 0.27703711 0.91886608
0.91680680 0.27703711 0.91886608
0.91886608 0.27703711 0.91886608
0.06256235 0.41046135 0.91886608
0.13770263 0.41046135 0.91886608
0.27703711 0.41046135 0.91886608
0.41046135 0.41046135 0.91886608
0.54036535 0.41046135 0.91886608
0.66772710 0.41046135 0.91886608
0.79309112 0.41046135 0.91886608
0.91680680 0.41046135 0.91886608
0.91886608 0.41046135 0.91886608
0.06256172 0.54036535 0.91886608
0.13770263 0.54036535 0.91886608
0.27703711 0.54036535 0.91886608
0.41046135 0.54036535 0.91886608
0.54036535 0.54036535 0.91886608
0.66772710 0.54036535 0.91886608
0.79309112 0.54036535 0.91886608
0.91680680 0.54036535 0.91886608
0.91886608 0.54036535 0.91886608
0.06256172 0.66772710 0.91886608
0.13770263 0.66772710 0.91886608
0.27703711 0.66772710 0.91886608
0.41046135 0.66772710 0.91886608
0.54036535 0.66772710 0.91886608
0.66772710 0.66772710 0.91886608
0.79309112 0.66772710 0.91886608
0.91680680 0.66772710 0.91886608
0.91886608 0.66772710 0.91886608
0.06256235 0.79309112 0.91886608
0.13770263 0.79309112 0.91886608
0.27703711 0.79309112 0.91886608
0.41046135 0.79309112 0.91886608
0.54036535 0.79309112 0.91886608
0.66772710 0.79309112 0.91886608
0.79309112 0.79309112 0.91886608
0.91680680 0.79309112 0.91886608
0.91886608 0.79309112 0.91886608
0.06256235 0.91680680 0.91886608
0.13770263 0.91680680 0.91886608
0.27703711 0.91680680 0.91886608
0.41046135 0.91680680 0.91886608
0.54036535 0.91680680 0.91886608
0.66772710 0.91680680 0.91886608
0.79309112 0.91680680 0.91886608
0.91680680 0.91680680 0.91886608
0.91886608 0.91680680 0.91886608
0.06256235 0.91886608 0.91886608
0.13770263 0.91886608 0.91886608
0.27703711 0.91886608 0.91886608
0.41046135 0.91886608 0.91886608
0.54036535 0.91886608 0.91886608
0.66772710 0.91886608 0.91886608
0.79309112 0.91886608 0.91886608
0.91680680 0.91886608 0.91886608
0.91886608 0.91886608 0.91886608
