src/ffmpeg_scripts/luts/luminance-unclipped_-2p33.cube
TITLE "luminance-unclipped_-2p33"
LUT_3D_SIZE 5
# PQ (EOTF Only)/Rec2020 -> PQ (EOTF Only)/Rec2020, CineEI Shift -2.33, Black Level -7.25% IRE, Input 109% -> Output 109% - Created with LUTCalc v4.01 by Ben Turley October 2020
0.00047898 0.00047898 0.00047898
0.12847967 0.00047898 0.00047898
0.35644528 0.00047918 0.00047914
0.62326872 0.00047898 0.00047898
0.91886608 0.00047931 0.00047898
0.00047908 0.12847967 0.00047898
0.12847967 0.12847967 0.00047898
0.35644528 0.12847967 0.00047914
0.62326872 0.12847967 0.00047898
0.91886608 0.12847967 0.00047898
0.00047898 0.35644528 0.00047898
0.12847967 0.35644528 0.00047898
0.35644528 0.35644528 0.00047898
0.62326872 0.35644528 0.00047898
0.91886608 0.35644528 0.00047898
0.00047932 0.62326872 0.00047898
0.12847967 0.62326872 0.00047927
0.35644528 0.62326872 0.00047898
0.62326872 0.62326872 0.00047927
0.91886608 0.62326872 0.00047946
0.00047947 0.91886608 0.00047898
0.12847967 0.91886608 0.00047946
0.35644528 0.91886608 0.00047898
0.62326872 0.91886608 0.00047946
0.91886608 0.91886608 0.00047898
0.00047908 0.00047910 0.12847967
0.12847967 0.00047910 0.12847967
0.35644528 0.00047917 0.12847967
0.62326872 0.00047923 0.12847967
0.91886608 0.00047947 0.12847967
0.00047909 0.12847967 0.12847967
0.12847967 0.12847967 0.12847967
0.35644528 0.12847967 0.12847967
0.62326872 0.12847967 0.12847967
0.91886608 0.12847967 0.12847967
0.00047918 0.35644528 0.12847967
0.12847967 0.35644528 0.12847967
0.35644528 0.35644528 0.12847967
0.62326872 0.35644528 0.12847967
0.91886608 0.35644528 0.12847967
0.00047898 0.62326872 0.12847967
0.12847967 0.62326872 0.12847967
0.35644528 0.62326872 0.12847967
0.62326872 0.62326872 0.12847967
0.91886608 0.62326872 0.12847967
0.00047898 0.91886608 0.12847967
0.12847967 0.91886608 0.12847967
0.35644528 0.91886608 0.12847967
0.62326872 0.91886608 0.12847967
0.91886608 0.91886608 0.12847967
0.00047916 0.00047920 0.35644528
0.12847967 0.00047898 0.35644528
0.35644528 0.00047898 0.35644528
0.62326872 0.00047927 0.35644528
0.91886608 0.00047946 0.35644528
0.00047898 0.12847967 0.35644528
0.12847967 0.12847967 0.35644528
0.35644528 0.12847967 0.35644528
0.62326872 0.12847967 0.35644528
0.91886608 0.12847967 0.35644528
0.00047898 0.35644528 0.35644528
0.12847967 0.35644528 0.35644528
0.35644528 0.35644528 0.35644528
0.62326872 0.35644528 0.35644528
0.91886608 0.35644528 0.35644528
0.00047927 0.62326872 0.35644528
0.12847967 0.62326872 0.35644528
0.35644528 0.62326872 0.35644528
0.62326872 0.62326872 0.35644528
0.91886608 0.62326872 0.35644528
0.00047898 0.91886608 0.35644528
0.12847967 0.91886608 0.35644528
0.35644528 0.91886608 0.35644528
0.62326872 0.91886608 0.35644528
0.91886608 0.91886608 0.35644528
0.00047898 0.00047935 0.62326872
0.12847967 0.00047898 0.62326872
0.35644528 0.00047935 0.62326872
0.62326872 0.00047898 0.62326872
0.91886608 0.00047898 0.62326872
0.00047898 0.12847967 0.62326872
0.12847967 0.12847967 0.62326872
0.35644528 0.12847967 0.62326872
0.62326872 0.12847967 0.62326872
0.91886608 0.12847967 0.62326872
0.00047898 0.35644528 0.62326872
0.12847967 0.35644528 0.62326872
0.35644528 0.35644528 0.62326872
0.62326872 0.35644528 0.62326872
0.91886608 0.35644528 0.62326872
0.00047898 0.62326872 0.62326872
0.12847967 0.62326872 0.62326872
0.35644528 0.62326872 0.62326872
0.62326872 0.62326872 0.62326872
0.91886608 0.62326872 0.62326872
0.00047946 0.91886608 0.62326872
0.12847967 0.91886608 0.62326872
0.35644528 0.91886608 0.62326872
0.62326872 0.91886608 0.62326872
0.91886608 0.91886608 0.62326872
0.00047898 0.00047971 0.91886608
0.12847967 0.00047971 0.91886608
0.35644528 0.00047961 0.91886608
0.62326872 0.00047961 0.91886608
0.91886608 0.00047961 0.91886608
0.00047898 0.12847967 0.91886608
0.12847967 0.12847967 0.91886608
0.35644528 0.12847967 0.91886608
0.62326872 0.12847967 0.91886608
0.91886608 0.12847967 0.91886608
0.00047898 0.35644528 0.91886608
0.12847967 0.35644528 0.91886608
0.35644528 0.35644528 0.91886608
0.62326872 0.35644528 0.91886608
0.91886608 0.35644528 0.91886608
0.00047898 0.62326872 0.91886608
0.12847967 0.62326872 0.91886608
0.35644528 0.62326872 0.91886608
0.62326872 0.62326872 0.91886608
0.91886608 0.62326872 0.91886608
0.00047953 0.91886608 0.91886608
0.12847967 0.91886608 0.91886608
0.35644528 0.91886608 0.91886608
0.62326872 0.91886608 0.91886608
0.91886608 0.91886608 0.91886608
