src/ffmpeg_scripts/luts/luminance-unclipped_-2p67.cube
TITLE "luminance-unclipped_-2p67"
LUT_3D_SIZE 5
# PQ (EOTF Only)/Rec2020 -> PQ (EOTF Only)/Rec2020, CineEI Shift -2.67, Black Level -7.25% IRE, Input 109% -> Output 109% - Created with LUTCalc v4.01 by Ben Turley October 2020
0.00047898 0.00047898 0.00047898
0.11827813 0.00047905 0.00047898
0.33686472 0.00047898 0.00047898
0.59896583 0.00047898 0.00047898
0.89530050 0.00047938 0.00047940
0.00047908 0.11827813 0.00047898
0.11827813 0.11827813 0.00047898
0.33686472 0.11827813 0.00047914
0.59896583 0.11827813 0.00047923
0.89530050 0.11827813 0.00047898
0.00047898 0.33686472 0.00047898
0.11827813 0.33686472 0.00047898
0.33686472 0.33686472 0.00047898
0.59896583 0.33686472 0.00047898
0.89530050 0.33686472 0.00047898
0.00047926 0.59896583 0.00047898
0.11827813 0.59896583 0.00047898
0.33686472 0.59896583 0.00047898
0.59896583 0.59896583 0.00047898
0.89530050 0.59896583 0.00047946
0.00047944 0.89530050 0.00047898
0.11827813 0.89530050 0.00047940
0.33686472 0.89530050 0.00047898
0.59896583 0.89530050 0.00047940
0.89530050 0.89530050 0.00047898
0.00047898 0.00047910 0.11827813
0.11827813 0.00047898 0.11827813
0.33686472 0.00047912 0.11827813
0.59896583 0.00047898 0.11827813
0.89530050 0.00047931 0.11827813
0.00047898 0.11827813 0.11827813
0.11827813 0.11827813 0.11827813
0.33686472 0.11827813 0.11827813
0.59896583 0.11827813 0.11827813
0.89530050 0.11827813 0.11827813
0.00047914 0.33686472 0.11827813
0.11827813 0.33686472 0.11827813
0.33686472 0.33686472 0.11827813
0.59896583 0.33686472 0.11827813
0.89530050 0.33686472 0.11827813
0.00047898 0.59896583 0.11827813
0.11827813 0.59896583 0.11827813
0.33686472 0.59896583 0.11827813
0.59896583 0.59896583 0.11827813
0.89530050 0.59896583 0.11827813
0.00047942 0.89530050 0.11827813
0.11827813 0.89530050 0.11827813
0.33686472 0.89530050 0.11827813
0.59896583 0.89530050 0.11827813
0.89530050 0.89530050 0.11827813
0.00047898 0.00047920 0.33686472
0.11827813 0.00047898 0.33686472
0.33686472 0.00047920 0.33686472
0.59896583 0.00047898 0.33686472
0.89530050 0.00047935 0.33686472
0.00047898 0.11827813 0.33686472
0.11827813 0.11827813 0.33686472
0.33686472 0.11827813 0.33686472
0.59896583 0.11827813 0.33686472
0.89530050 0.11827813 0.33686472
0.00047898 0.33686472 0.33686472
0.11827813 0.33686472 0.33686472
0.33686472 0.33686472 0.33686472
0.59896583 0.33686472 0.33686472
0.89530050 0.33686472 0.33686472
0.00047928 0.59896583 0.33686472
0.11827813 0.59896583 0.33686472
0.33686472 0.59896583 0.33686472
0.59896583 0.59896583 0.33686472
0.89530050 0.59896583 0.33686472
0.00047898 0.89530050 0.33686472
0.11827813 0.89530050 0.33686472
0.33686472 0.89530050 0.33686472
0.59896583 0.89530050 0.33686472
0.89530050 0.89530050 0.33686472
0.00047898 0.00047931 0.59896583
0.11827813 0.00047898 0.59896583
0.33686472 0.00047931 0.59896583
0.59896583 0.00047935 0.59896583
0.89530050 0.00047898 0.59896583
0.00047898 0.11827813 0.59896583
0.11827813 0.11827813 0.59896583
0.33686472 0.11827813 0.59896583
0.59896583 0.11827813 0.59896583
0.89530050 0.11827813 0.59896583
0.00047898 0.33686472 0.59896583
0.11827813 0.33686472 0.59896583
0.33686472 0.33686472 0.59896583
0.59896583 0.33686472 0.59896583
0.89530050 0.33686472 0.59896583
0.00047898 0.59896583 0.59896583
0.11827813 0.59896583 0.59896583
0.33686472 0.59896583 0.59896583
0.59896583 0.59896583 0.59896583
0.89530050 0.59896583 0.59896583
0.00047944 0.89530050 0.59896583
0.11827813 0.89530050 0.59896583
0.33686472 0.89530050 0.59896583
0.59896583 0.89530050 0.59896583
0.89530050 0.89530050 0.59896583
0.00047946 0.00047961 0.89530050
0.11827813 0.00047961 0.89530050
0.33686472 0.00047967 0.89530050
0.59896583 0.00047953 0.89530050
0.89530050 0.00047961 0.89530050
0.00047898 0.11827813 0.89530050
0.11827813 0.11827813 0.89530050
0.33686472 0.11827813 0.89530050
0.59896583 0.11827813 0.89530050
0.89530050 0.11827813 0.89530050
0.00047898 0.33686472 0.89530050
0.11827813 0.33686472 0.89530050
0.33686472 0.33686472 0.89530050
0.59896583 0.33686472 0.89530050
0.89530050 0.33686472 0.89530050
0.00047898 0.59896583 0.89530050
0.11827813 0.59896583 0.89530050
0.33686472 0.59896583 0.89530050
0.59896583 0.59896583 0.89530050
0.89530050 0.59896583 0.89530050
0.00047946 0.89530050 0.89530050
0.11827813 0.89530050 0.89530050
0.33686472 0.89530050 0.89530050
0.59896583 0.89530050 0.89530050
0.89530050 0.89530050 0.89530050
