src/ffmpeg_scripts/luts/luminance-unclipped_-1p00.cube
TITLE "luminance-unclipped_-1p00"
LUT_3D_SIZE 9
# PQ (EOTF Only)/Rec2020 -> PQ (EOTF Only)/Rec2020, CineEI Shift -1.00, Black Level -7.25% IRE, Input 109% -> Output 109% - Created with LUTCalc v4.01 by Ben Turley October 2020
0.00047898 0.00047898 0.00047898
0.05450388 0.00047903 0.00047898
0.17557670 0.00047898 0.00047898
0.30500735 0.00047898 0.00047898
0.43999321 0.00047920 0.00047898
0.57928293 0.00047921 0.00047898
0.72213932 0.00047928 0.00047898
0.86806838 0.00047898 0.00047898
0.91886608 0.00047954 0.00047953
0.00047906 0.05450388 0.00047898
0.05450388 0.05450388 0.00047898
0.17557670 0.05450388 0.00047898
0.30500735 0.05450388 0.00047898
0.43999321 0.05450388 0.00047898
0.57928293 0.05450388 0.00047898
0.72213932 0.05450388 0.00047898
0.86806838 0.05450388 0.00047940
0.91886608 0.05450388 0.00047898
0.00047898 0.17557670 0.00047898
0.05450388 0.17557670 0.00047898
0.17557670 0.17557670 0.00047898
0.30500735 0.17557670 0.00047898
0.43999321 0.17557670 0.00047898
0.57928293 0.17557670 0.00047898
0.72213932 0.17557670 0.00047898
0.86806838 0.17557670 0.00047898
0.91886608 0.17557670 0.00047898
0.00047915 0.30500735 0.00047914
0.05450388 0.30500735 0.00047898
0.17557670 0.30500735 0.00047898
0.30500735 0.30500735 0.00047916
0.43999321 0.30500735 0.00047898
0.57928293 0.30500735 0.00047898
0.72213932 0.30500735 0.00047898
0.86806838 0.30500735 0.00047940
0.91886608 0.30500735 0.00047898
0.00047898 0.43999321 0.00047898
0.05450388 0.43999321 0.00047898
0.17557670 0.43999321 0.00047898
0.30500735 0.43999321 0.00047898
0.43999321 0.43999321 0.00047898
0.57928293 0.43999321 0.00047898
0.72213932 0.43999321 0.00047898
0.86806838 0.43999321 0.00047898
0.91886608 0.43999321 0.00047898
0.00047916 0.57928293 0.00047898
0.05450388 0.57928293 0.00047898
0.17557670 0.57928293 0.00047898
0.30500735 0.57928293 0.00047898
0.43999321 0.57928293 0.00047923
0.57928293 0.57928293 0.00047898
0.72213932 0.57928293 0.00047898
0.86806838 0.57928293 0.00047898
0.91886608 0.57928293 0.00047898
0.00047932 0.72213932 0.00047898
0.05450388 0.72213932 0.00047898
0.17557670 0.72213932 0.00047898
0.30500735 0.72213932 0.00047898
0.43999321 0.72213932 0.00047898
0.57928293 0.72213932 0.00047931
0.72213932 0.72213932 0.00047898
0.86806838 0.72213932 0.00047940
0.91886608 0.72213932 0.00047953
0.00047953 0.86806838 0.00047898
0.05450388 0.86806838 0.00047898
0.17557670 0.86806838 0.00047898
0.30500735 0.86806838 0.00047898
0.43999321 0.86806838 0.00047898
0.57928293 0.86806838 0.00047898
0.72213932 0.86806838 0.00047898
0.86806838 0.86806838 0.00047898
0.91886608 0.86806838 0.00047898
0.00047961 0.91886608 0.00047898
0.05450388 0.91886608 0.00047898
0.17557670 0.91886608 0.00047898
0.30500735 0.91886608 0.00047898
0.43999321 0.91886608 0.00047898
0.57928293 0.91886608 0.00047898
0.72213932 0.91886608 0.00047898
0.86806838 0.91886608 0.00047898
0.91886608 0.91886608 0.00047898
0.00047898 0.00047908 0.05450388
0.05450388 0.00047907 0.05450388
0.17557670 0.00047898 0.05450388
0.30500735 0.00047898 0.05450388
0.43999321 0.00047921 0.05450388
0.57928293 0.00047898 0.05450388
0.72213932 0.00047923 0.05450388
0.86806838 0.00047933 0.05450388
0.91886608 0.00047946 0.05450388
0.00047906 0.05450388 0.05450388
0.05450388 0.05450388 0.05450388
0.17557670 0.05450388 0.05450388
0.30500735 0.05450388 0.05450388
0.43999321 0.05450388 0.05450388
0.57928293 0.05450388 0.05450388
0.72213932 0.05450388 0.05450388
0.86806838 0.05450388 0.05450388
0.91886608 0.05450388 0.05450388
0.00047909 0.17557670 0.05450388
0.05450388 0.17557670 0.05450388
0.17557670 0.17557670 0.05450388
0.30500735 0.17557670 0.05450388
0.43999321 0.17557670 0.05450388
0.57928293 0.17557670 0.05450388
0.72213932 0.17557670 0.05450388
0.86806838 0.17557670 0.05450388
0.91886608 0.17557670 0.05450388
0.00047915 0.30500735 0.05450388
0.05450388 0.30500735 0.05450388
0.17557670 0.30500735 0.05450388
0.30500735 0.30500735 0.05450388
0.43999321 0.30500735 0.05450388
0.57928293 0.30500735 0.05450388
0.72213932 0.30500735 0.05450388
0.86806838 0.30500735 0.05450388
0.91886608 0.30500735 0.05450388
0.00047921 0.43999321 0.05450388
0.05450388 0.43999321 0.05450388
0.17557670 0.43999321 0.05450388
0.30500735 0.43999321 0.05450388
0.43999321 0.43999321 0.05450388
0.57928293 0.43999321 0.05450388
0.72213932 0.43999321 0.05450388
0.86806838 0.43999321 0.05450388
0.91886608 0.43999321 0.05450388
0.00047925 0.57928293 0.05450388
0.05450388 0.57928293 0.05450388
0.17557670 0.57928293 0.05450388
0.30500735 0.57928293 0.05450388
0.43999321 0.57928293 0.05450388
0.57928293 0.57928293 0.05450388
0.72213932 0.57928293 0.05450388
0.86806838 0.57928293 0.05450388
0.91886608 0.57928293 0.05450388
0.00047934 0.72213932 0.05450388
0.05450388 0.72213932 0.05450388
0.17557670 0.72213932 0.05450388
0.30500735 0.72213932 0.05450388
0.43999321 0.72213932 0.05450388
0.57928293 0.72213932 0.05450388
0.72213932 0.72213932 0.05450388
0.86806838 0.72213932 0.05450388
0.91886608 0.72213932 0.05450388
0.00047949 0.86806838 0.05450388
0.05450388 0.86806838 0.05450388
0.17557670 0.86806838 0.05450388
0.30500735 0.86806838 0.05450388
0.43999321 0.86806838 0.05450388
0.57928293 0.86806838 0.05450388
0.72213932 0.86806838 0.05450388
0.86806838 0.86806838 0.05450388
0.91886608 0.86806838 0.05450388
0.00047959 0.91886608 0.05450388
0.05450388 0.91886608 0.05450388
0.17557670 0.91886608 0.05450388
0.30500735 0.91886608 0.05450388
0.43999321 0.91886608 0.05450388
0.57928293 0.91886608 0.05450388
0.72213932 0.91886608 0.05450388
0.86806838 0.91886608 0.05450388
0.91886608 0.91886608 0.05450388
0.00047898 0.00047898 0.17557670
0.05450388 0.00047898 0.17557670
0.17557670 0.00047912 0.17557670
0.30500735 0.00047898 0.17557670
0.43999321 0.00047918 0.17557670
0.57928293 0.00047922 0.17557670
0.72213932 0.00047923 0.17557670
0.86806838 0.00047898 0.17557670
0.91886608 0.00047954 0.17557670
0.00047898 0.05450388 0.17557670
0.05450388 0.05450388 0.17557670
0.17557670 0.05450388 0.17557670
0.30500735 0.05450388 0.17557670
0.43999321 0.05450388 0.17557670
0.57928293 0.05450388 0.17557670
0.72213932 0.05450388 0.17557670
0.86806838 0.05450388 0.17557670
0.91886608 0.05450388 0.17557670
0.00047898 0.17557670 0.17557670
0.05450388 0.17557670 0.17557670
0.17557670 0.17557670 0.17557670
0.30500735 0.17557670 0.17557670
0.43999321 0.17557670 0.17557670
0.57928293 0.17557670 0.17557670
0.72213932 0.17557670 0.17557670
0.86806838 0.17557670 0.17557670
0.91886608 0.17557670 0.17557670
0.00047915 0.30500735 0.17557670
0.05450388 0.30500735 0.17557670
0.17557670 0.30500735 0.17557670
0.30500735 0.30500735 0.17557670
0.43999321 0.30500735 0.17557670
0.57928293 0.30500735 0.17557670
0.72213932 0.30500735 0.17557670
0.86806838 0.30500735 0.17557670
0.91886608 0.30500735 0.17557670
0.00047919 0.43999321 0.17557670
0.05450388 0.43999321 0.17557670
0.17557670 0.43999321 0.17557670
0.30500735 0.43999321 0.17557670
0.43999321 0.43999321 0.17557670
0.57928293 0.43999321 0.17557670
0.72213932 0.43999321 0.17557670
0.86806838 0.43999321 0.17557670
0.91886608 0.43999321 0.17557670
0.00047928 0.57928293 0.17557670
0.05450388 0.57928293 0.17557670
0.17557670 0.57928293 0.17557670
0.30500735 0.57928293 0.17557670
0.43999321 0.57928293 0.17557670
0.57928293 0.57928293 0.17557670
0.72213932 0.57928293 0.17557670
0.86806838 0.57928293 0.17557670
0.91886608 0.57928293 0.17557670
0.00047933 0.72213932 0.17557670
0.05450388 0.72213932 0.17557670
0.17557670 0.72213932 0.17557670
0.30500735 0.72213932 0.17557670
0.43999321 0.72213932 0.17557670
0.57928293 0.72213932 0.17557670
0.72213932 0.72213932 0.17557670
0.86806838 0.72213932 0.17557670
0.91886608 0.72213932 0.17557670
0.00047954 0.86806838 0.17557670
0.05450388 0.86806838 0.17557670
0.17557670 0.86806838 0.17557670
0.30500735 0.86806838 0.17557670
0.43999321 0.86806838 0.17557670
0.57928293 0.86806838 0.17557670
0.72213932 0.86806838 0.17557670
0.86806838 0.86806838 0.17557670
0.91886608 0.86806838 0.17557670
0.00047959 0.91886608 0.17557670
0.05450388 0.91886608 0.17557670
0.17557670 0.91886608 0.17557670
0.30500735 0.91886608 0.17557670
0.43999321 0.91886608 0.17557670
0.57928293 0.91886608 0.17557670
0.72213932 0.91886608 0.17557670
0.86806838 0.91886608 0.17557670
0.91886608 0.91886608 0.17557670
0.00047898 0.00047918 0.30500735
0.05450388 0.00047898 0.30500735
0.17557670 0.00047898 0.30500735
0.30500735 0.00047920 0.30500735
0.43999321 0.00047898 0.30500735
0.57928293 0.00047927 0.30500735
0.72213932 0.00047923 0.30500735
0.86806838 0.00047898 0.30500735
0.91886608 0.00047952 0.30500735
0.00047898 0.05450388 0.30500735
0.05450388 0.05450388 0.30500735
0.17557670 0.05450388 0.30500735
0.30500735 0.05450388 0.30500735
0.43999321 0.05450388 0.30500735
0.57928293 0.05450388 0.30500735
0.72213932 0.05450388 0.30500735
0.86806838 0.05450388 0.30500735
0.91886608 0.05450388 0.30500735
0.00047898 0.17557670 0.30500735
0.05450388 0.17557670 0.30500735
0.17557670 0.17557670 0.30500735
0.30500735 0.17557670 0.30500735
0.43999321 0.17557670 0.30500735
0.57928293 0.17557670 0.30500735
0.72213932 0.17557670 0.30500735
0.86806838 0.17557670 0.30500735
0.91886608 0.17557670 0.30500735
0.00047916 0.30500735 0.30500735
0.05450388 0.30500735 0.30500735
0.17557670 0.30500735 0.30500735
0.30500735 0.30500735 0.30500735
0.43999321 0.30500735 0.30500735
0.57928293 0.30500735 0.30500735
0.72213932 0.30500735 0.30500735
0.86806838 0.30500735 0.30500735
0.91886608 0.30500735 0.30500735
0.00047919 0.43999321 0.30500735
0.05450388 0.43999321 0.30500735
0.17557670 0.43999321 0.30500735
0.30500735 0.43999321 0.30500735
0.43999321 0.43999321 0.30500735
0.57928293 0.43999321 0.30500735
0.72213932 0.43999321 0.30500735
0.86806838 0.43999321 0.30500735
0.91886608 0.43999321 0.30500735
0.00047923 0.57928293 0.30500735
0.05450388 0.57928293 0.30500735
0.17557670 0.57928293 0.30500735
0.30500735 0.57928293 0.30500735
0.43999321 0.57928293 0.30500735
0.57928293 0.57928293 0.30500735
0.72213932 0.57928293 0.30500735
0.86806838 0.57928293 0.30500735
0.91886608 0.57928293 0.30500735
0.00047933 0.72213932 0.30500735
0.05450388 0.72213932 0.30500735
0.17557670 0.72213932 0.30500735
0.30500735 0.72213932 0.30500735
0.43999321 0.72213932 0.30500735
0.57928293 0.72213932 0.30500735
0.72213932 0.72213932 0.30500735
0.86806838 0.72213932 0.30500735
0.91886608 0.72213932 0.30500735
0.00047950 0.86806838 0.30500735
0.05450388 0.86806838 0.30500735
0.17557670 0.86806838 0.30500735
0.30500735 0.86806838 0.30500735
0.43999321 0.86806838 0.30500735
0.57928293 0.86806838 0.30500735
0.72213932 0.86806838 0.30500735
0.86806838 0.86806838 0.30500735
0.91886608 0.86806838 0.30500735
0.00047959 0.91886608 0.30500735
0.05450388 0.91886608 0.30500735
0.17557670 0.91886608 0.30500735
0.30500735 0.91886608 0.30500735
0.43999321 0.91886608 0.30500735
0.57928293 0.91886608 0.30500735
0.72213932 0.91886608 0.30500735
0.86806838 0.91886608 0.30500735
0.91886608 0.91886608 0.30500735
0.00047898 0.00047898 0.43999321
0.05450388 0.00047923 0.43999321
0.17557670 0.00047923 0.43999321
0.30500735 0.00047898 0.43999321
0.43999321 0.00047927 0.43999321
0.57928293 0.00047898 0.43999321
0.72213932 0.00047931 0.43999321
0.86806838 0.00047938 0.43999321
0.91886608 0.00047961 0.43999321
0.00047898 0.05450388 0.43999321
0.05450388 0.05450388 0.43999321
0.17557670 0.05450388 0.43999321
0.30500735 0.05450388 0.43999321
0.43999321 0.05450388 0.43999321
0.57928293 0.05450388 0.43999321
0.72213932 0.05450388 0.43999321
0.86806838 0.05450388 0.43999321
0.91886608 0.05450388 0.43999321
0.00047898 0.17557670 0.43999321
0.05450388 0.17557670 0.43999321
0.17557670 0.17557670 0.43999321
0.30500735 0.17557670 0.43999321
0.43999321 0.17557670 0.43999321
0.57928293 0.17557670 0.43999321
0.72213932 0.17557670 0.43999321
0.86806838 0.17557670 0.43999321
0.91886608 0.17557670 0.43999321
0.00047898 0.30500735 0.43999321
0.05450388 0.30500735 0.43999321
0.17557670 0.30500735 0.43999321
0.30500735 0.30500735 0.43999321
0.43999321 0.30500735 0.43999321
0.57928293 0.30500735 0.43999321
0.72213932 0.30500735 0.43999321
0.86806838 0.30500735 0.43999321
0.91886608 0.30500735 0.43999321
0.00047898 0.43999321 0.43999321
0.05450388 0.43999321 0.43999321
0.17557670 0.43999321 0.43999321
0.30500735 0.43999321 0.43999321
0.43999321 0.43999321 0.43999321
0.57928293 0.43999321 0.43999321
0.72213932 0.43999321 0.43999321
0.86806838 0.43999321 0.43999321
0.91886608 0.43999321 0.43999321
0.00047928 0.57928293 0.43999321
0.05450388 0.57928293 0.43999321
0.17557670 0.57928293 0.43999321
0.30500735 0.57928293 0.43999321
0.43999321 0.57928293 0.43999321
0.57928293 0.57928293 0.43999321
0.72213932 0.57928293 0.43999321
0.86806838 0.57928293 0.43999321
0.91886608 0.57928293 0.43999321
0.00047942 0.72213932 0.43999321
0.05450388 0.72213932 0.43999321
0.17557670 0.72213932 0.43999321
0.30500735 0.72213932 0.43999321
0.43999321 0.72213932 0.43999321
0.57928293 0.72213932 0.43999321
0.72213932 0.72213932 0.43999321
0.86806838 0.72213932 0.43999321
0.91886608 0.72213932 0.43999321
0.00047951 0.86806838 0.43999321
0.05450388 0.86806838 0.43999321
0.17557670 0.86806838 0.43999321
0.30500735 0.86806838 0.43999321
0.43999321 0.86806838 0.43999321
0.57928293 0.86806838 0.43999321
0.72213932 0.86806838 0.43999321
0.86806838 0.86806838 0.43999321
0.91886608 0.86806838 0.43999321
0.00047961 0.91886608 0.43999321
0.05450388 0.91886608 0.43999321
0.17557670 0.91886608 0.43999321
0.30500735 0.91886608 0.43999321
0.43999321 0.91886608 0.43999321
0.57928293 0.91886608 0.43999321
0.72213932 0.91886608 0.43999321
0.86806838 0.91886608 0.43999321
0.91886608 0.91886608 0.43999321
0.00047898 0.00047931 0.57928293
0.05450388 0.00047931 0.57928293
0.17557670 0.00047935 0.57928293
0.30500735 0.00047931 0.57928293
0.43999321 0.00047935 0.57928293
0.57928293 0.00047938 0.57928293
0.72213932 0.00047898 0.57928293
0.86806838 0.00047935 0.57928293
0.91886608 0.00047898 0.57928293
0.00047898 0.05450388 0.57928293
0.05450388 0.05450388 0.57928293
0.17557670 0.05450388 0.57928293
0.30500735 0.05450388 0.57928293
0.43999321 0.05450388 0.57928293
0.57928293 0.05450388 0.57928293
0.72213932 0.05450388 0.57928293
0.86806838 0.05450388 0.57928293
0.91886608 0.05450388 0.57928293
0.00047927 0.17557670 0.57928293
0.05450388 0.17557670 0.57928293
0.17557670 0.17557670 0.57928293
0.30500735 0.17557670 0.57928293
0.43999321 0.17557670 0.57928293
0.57928293 0.17557670 0.57928293
0.72213932 0.17557670 0.57928293
0.86806838 0.17557670 0.57928293
0.91886608 0.17557670 0.57928293
0.00047898 0.30500735 0.57928293
0.05450388 0.30500735 0.57928293
0.17557670 0.30500735 0.57928293
0.30500735 0.30500735 0.57928293
0.43999321 0.30500735 0.57928293
0.57928293 0.30500735 0.57928293
0.72213932 0.30500735 0.57928293
0.86806838 0.30500735 0.57928293
0.91886608 0.30500735 0.57928293
0.00047898 0.43999321 0.57928293
0.05450388 0.43999321 0.57928293
0.17557670 0.43999321 0.57928293
0.30500735 0.43999321 0.57928293
0.43999321 0.43999321 0.57928293
0.57928293 0.43999321 0.57928293
0.72213932 0.43999321 0.57928293
0.86806838 0.43999321 0.57928293
0.91886608 0.43999321 0.57928293
0.00047927 0.57928293 0.57928293
0.05450388 0.57928293 0.57928293
0.17557670 0.57928293 0.57928293
0.30500735 0.57928293 0.57928293
0.43999321 0.57928293 0.57928293
0.57928293 0.57928293 0.57928293
0.72213932 0.57928293 0.57928293
0.86806838 0.57928293 0.57928293
0.91886608 0.57928293 0.57928293
0.00047938 0.72213932 0.57928293
0.05450388 0.72213932 0.57928293
0.17557670 0.72213932 0.57928293
0.30500735 0.72213932 0.57928293
0.43999321 0.72213932 0.57928293
0.57928293 0.72213932 0.57928293
0.72213932 0.72213932 0.57928293
0.86806838 0.72213932 0.57928293
0.91886608 0.72213932 0.57928293
0.00047949 0.86806838 0.57928293
0.05450388 0.86806838 0.57928293
0.17557670 0.86806838 0.57928293
0.30500735 0.86806838 0.57928293
0.43999321 0.86806838 0.57928293
0.57928293 0.86806838 0.57928293
0.72213932 0.86806838 0.57928293
0.86806838 0.86806838 0.57928293
0.91886608 0.86806838 0.57928293
0.00047972 0.91886608 0.57928293
0.05450388 0.91886608 0.57928293
0.17557670 0.91886608 0.57928293
0.30500735 0.91886608 0.57928293
0.43999321 0.91886608 0.57928293
0.57928293 0.91886608 0.57928293
0.72213932 0.91886608 0.57928293
0.86806838 0.91886608 0.57928293
0.91886608 0.91886608 0.57928293
0.00047898 0.00047898 0.72213932
0.05450388 0.00047898 0.72213932
0.17557670 0.00047898 0.72213932
0.30500735 0.00047940 0.72213932
0.43999321 0.00047898 0.72213932
0.57928293 0.00047898 0.72213932
0.72213932 0.00047898 0.72213932
0.86806838 0.00047898 0.72213932
0.91886608 0.00047898 0.72213932
0.00047898 0.05450388 0.72213932
0.05450388 0.05450388 0.72213932
0.17557670 0.05450388 0.72213932
0.30500735 0.05450388 0.72213932
0.43999321 0.05450388 0.72213932
0.57928293 0.05450388 0.72213932
0.72213932 0.05450388 0.72213932
0.86806838 0.05450388 0.72213932
0.91886608 0.05450388 0.72213932
0.00047898 0.17557670 0.72213932
0.05450388 0.17557670 0.72213932
0.17557670 0.17557670 0.72213932
0.30500735 0.17557670 0.72213932
0.43999321 0.17557670 0.72213932
0.57928293 0.17557670 0.72213932
0.72213932 0.17557670 0.72213932
0.86806838 0.17557670 0.72213932
0.91886608 0.17557670 0.72213932
0.00047898 0.30500735 0.72213932
0.05450388 0.30500735 0.72213932
0.17557670 0.30500735 0.72213932
0.30500735 0.30500735 0.72213932
0.43999321 0.30500735 0.72213932
0.57928293 0.30500735 0.72213932
0.72213932 0.30500735 0.72213932
0.86806838 0.30500735 0.72213932
0.91886608 0.30500735 0.72213932
0.00047898 0.43999321 0.72213932
0.05450388 0.43999321 0.72213932
0.17557670 0.43999321 0.72213932
0.30500735 0.43999321 0.72213932
0.43999321 0.43999321 0.72213932
0.57928293 0.43999321 0.72213932
0.72213932 0.43999321 0.72213932
0.86806838 0.43999321 0.72213932
0.91886608 0.43999321 0.72213932
0.00047898 0.57928293 0.72213932
0.05450388 0.57928293 0.72213932
0.17557670 0.57928293 0.72213932
0.30500735 0.57928293 0.72213932
0.43999321 0.57928293 0.72213932
0.57928293 0.57928293 0.72213932
0.72213932 0.57928293 0.72213932
0.86806838 0.57928293 0.72213932
0.91886608 0.57928293 0.72213932
0.00047898 0.72213932 0.72213932
0.05450388 0.72213932 0.72213932
0.17557670 0.72213932 0.72213932
0.30500735 0.72213932 0.72213932
0.43999321 0.72213932 0.72213932
0.57928293 0.72213932 0.72213932
0.72213932 0.72213932 0.72213932
0.86806838 0.72213932 0.72213932
0.91886608 0.72213932 0.72213932
0.00047946 0.86806838 0.72213932
0.05450388 0.86806838 0.72213932
0.17557670 0.86806838 0.72213932
0.30500735 0.86806838 0.72213932
0.43999321 0.86806838 0.72213932
0.57928293 0.86806838 0.72213932
0.72213932 0.86806838 0.72213932
0.86806838 0.86806838 0.72213932
0.91886608 0.86806838 0.72213932
0.00047964 0.91886608 0.72213932
0.05450388 0.91886608 0.72213932
0.17557670 0.91886608 0.72213932
0.30500735 0.91886608 0.72213932
0.43999321 0.91886608 0.72213932
0.57928293 0.91886608 0.72213932
0.72213932 0.91886608 0.72213932
0.86806838 0.91886608 0.72213932
0.91886608 0.91886608 0.72213932
0.00047898 0.00047961 0.86806838
0.05450388 0.00047953 0.86806838
0.17557670 0.00047953 0.86806838
0.30500735 0.00047961 0.86806838
0.43999321 0.00047898 0.86806838
0.57928293 0.00047898 0.86806838
0.72213932 0.00047953 0.86806838
0.86806838 0.00047961 0.86806838
0.91886608 0.00047961 0.86806838
0.00047898 0.05450388 0.86806838
0.05450388 0.05450388 0.86806838
0.17557670 0.05450388 0.86806838
0.30500735 0.05450388 0.86806838
0.43999321 0.05450388 0.86806838
0.57928293 0.05450388 0.86806838
0.72213932 0.05450388 0.86806838
0.86806838 0.05450388 0.86806838
0.91886608 0.05450388 0.86806838
0.00047898 0.17557670 0.86806838
0.05450388 0.17557670 0.86806838
0.17557670 0.17557670 0.86806838
0.30500735 0.17557670 0.86806838
0.43999321 0.17557670 0.86806838
0.57928293 0.17557670 0.86806838
0.72213932 0.17557670 0.86806838
0.86806838 0.17557670 0.86806838
0.91886608 0.17557670 0.86806838
0.00047898 0.30500735 0.86806838
0.05450388 0.30500735 0.86806838
0.17557670 0.30500735 0.86806838
0.30500735 0.30500735 0.86806838
0.43999321 0.30500735 0.86806838
0.57928293 0.30500735 0.86806838
0.72213932 0.30500735 0.86806838
0.86806838 0.30500735 0.86806838
0.91886608 0.30500735 0.86806838
0.00047898 0.43999321 0.86806838
0.05450388 0.43999321 0.86806838
0.17557670 0.43999321 0.86806838
0.30500735 0.43999321 0.86806838
0.43999321 0.43999321 0.86806838
0.57928293 0.43999321 0.86806838
0.72213932 0.43999321 0.86806838
0.86806838 0.43999321 0.86806838
0.91886608 0.43999321 0.86806838
0.00047898 0.57928293 0.86806838
0.05450388 0.57928293 0.86806838
0.17557670 0.57928293 0.86806838
0.30500735 0.57928293 0.86806838
0.43999321 0.57928293 0.86806838
0.57928293 0.57928293 0.86806838
0.72213932 0.57928293 0.86806838
0.86806838 0.57928293 0.86806838
0.91886608 0.57928293 0.86806838
0.00047898 0.72213932 0.86806838
0.05450388 0.72213932 0.86806838
0.17557670 0.72213932 0.86806838
0.30500735 0.72213932 0.86806838
0.43999321 0.72213932 0.86806838
0.57928293 0.72213932 0.86806838
0.72213932 0.72213932 0.86806838
0.86806838 0.72213932 0.86806838
0.91886608 0.72213932 0.86806838
0.00047898 0.86806838 0.86806838
0.05450388 0.86806838 0.86806838
0.17557670 0.86806838 0.86806838
0.30500735 0.86806838 0.86806838
0.43999321 0.86806838 0.86806838
0.57928293 0.86806838 0.86806838
0.72213932 0.86806838 0.86806838
0.86806838 0.86806838 0.86806838
0.91886608 0.86806838 0.86806838
0.00047973 0.91886608 0.86806838
0.05450388 0.91886608 0.86806838
0.17557670 0.91886608 0.86806838
0.30500735 0.91886608 0.86806838
0.43999321 0.91886608 0.86806838
0.57928293 0.91886608 0.86806838
0.72213932 0.91886608 0.86806838
0.86806838 0.91886608 0.86806838
0.91886608 0.91886608 0.86806838
0.00047898 0.00047898 0.91886608
0.05450388 0.00047898 0.91886608
0.17557670 0.00047983 0.91886608
0.30500735 0.00047971 0.91886608
0.43999321 0.00047971 0.91886608
0.57928293 0.00047971 0.91886608
0.72213932 0.00047971 0.91886608
0.86806838 0.00047971 0.91886608
0.91886608 0.00047971 0.91886608
0.00047898 0.05450388 0.91886608
0.05450388 0.05450388 0.91886608
0.17557670 0.05450388 0.91886608
0.30500735 0.05450388 0.91886608
0.43999321 0.05450388 0.91886608
0.57928293 0.05450388 0.91886608
0.72213932 0.05450388 0.91886608
0.86806838 0.05450388 0.91886608
0.91886608 0.05450388 0.91886608
0.00047898 0.17557670 0.91886608
0.05450388 0.17557670 0.91886608
0.17557670 0.17557670 0.91886608
0.30500735 0.17557670 0.91886608
0.43999321 0.17557670 0.91886608
0.57928293 0.17557670 0.91886608
0.72213932 0.17557670 0.91886608
0.86806838 0.17557670 0.91886608
0.91886608 0.17557670 0.91886608
0.00047961 0.30500735 0.91886608
0.05450388 0.30500735 0.91886608
0.17557670 0.30500735 0.91886608
0.30500735 0.30500735 0.91886608
0.43999321 0.30500735 0.91886608
0.57928293 0.30500735 0.91886608
0.72213932 0.30500735 0.91886608
0.86806838 0.30500735 0.91886608
0.91886608 0.30500735 0.91886608
0.00047898 0.43999321 0.91886608
0.05450388 0.43999321 0.91886608
0.17557670 0.43999321 0.91886608
0.30500735 0.43999321 0.91886608
0.43999321 0.43999321 0.91886608
0.57928293 0.43999321 0.91886608
0.72213932 0.43999321 0.91886608
0.86806838 0.43999321 0.91886608
0.91886608 0.43999321 0.91886608
0.00047898 0.57928293 0.91886608
0.05450388 0.57928293 0.91886608
0.17557670 0.57928293 0.91886608
0.30500735 0.57928293 0.91886608
0.43999321 0.57928293 0.91886608
0.57928293 0.57928293 0.91886608
0.72213932 0.57928293 0.91886608
0.86806838 0.57928293 0.91886608
0.91886608 0.57928293 0.91886608
0.00047898 0.72213932 0.91886608
0.05450388 0.72213932 0.91886608
0.17557670 0.72213932 0.91886608
0.30500735 0.72213932 0.91886608
0.43999321 0.72213932 0.91886608
0.57928293 0.72213932 0.91886608
0.72213932 0.72213932 0.91886608
0.86806838 0.72213932 0.91886608
0.91886608 0.72213932 0.91886608
0.00047898 0.86806838 0.91886608
0.05450388 0.86806838 0.91886608
0.17557670 0.86806838 0.91886608
0.30500735 0.86806838 0.91886608
0.43999321 0.86806838 0.91886608
0.57928293 0.86806838 0.91886608
0.72213932 0.86806838 0.91886608
0.86806838 0.86806838 0.91886608
0.91886608 0.86806838 0.91886608
0.00047961 0.91886608 0.91886608
0.05450388 0.91886608 0.91886608
0.17557670 0.91886608 0.91886608
0.30500735 0.91886608 0.91886608
0.43999321 0.91886608 0.91886608
0.57928293 0.91886608 0.91886608
0.72213932 0.91886608 0.91886608
0.86806838 0.91886608 0.91886608
0.91886608 0.91886608 0.91886608
