src/ffmpeg_scripts/luts/luminance-unclipped_2p67.cube
TITLE "luminance-unclipped_2p67"
LUT_3D_SIZE 33
# PQ (EOTF Only)/Rec2020 -> PQ (EOTF Only)/Rec2020, CineEI Shift 2.67, Black Level -7.25% IRE, Input 109% -> Output 109% - Created with LUTCalc v4.01 by Ben Turley October 2020
0.00047898 0.00047898 0.00047898
0.00047898 0.00047898 0.00047898
0.00047898 0.00047898 0.00047898
0.08089887 0.00047898 0.00047898
0.14540550 0.00047908 0.00047898
0.20357462 0.00047898 0.00047898
0.25772957 0.00047910 0.00047910
0.30896905 0.00047912 0.00047898
0.35793399 0.00047898 0.00047898
0.40504339 0.00047898 0.00047898
0.45059184 0.00047898 0.00047898
0.49479729 0.00047917 0.00047898
0.53782719 0.00047898 0.00047920
0.57981405 0.00047916 0.00047923
0.62086511 0.00047918 0.00047898
0.66106894 0.00047898 0.00047898
0.70049974 0.00047923 0.00047931
0.73922060 0.00047898 0.00047931
0.77728574 0.00047931 0.00047931
0.81474223 0.00047937 0.00047898
0.85163127 0.00047898 0.00047898
0.88798924 0.00047947 0.00047940
0.91886608 0.00047898 0.00047898
0.91886608 0.00047898 0.00047898
0.91886608 0.00047898 0.00047898
0.91886608 0.00047898 0.00047953
0.91886608 0.00047946 0.00047898
0.91886608 0.00047953 0.00047898
0.91886608 0.00047969 0.00047898
0.91886608 0.00047898 0.00047898
0.91886608 0.00047953 0.00047898
0.91886608 0.00047898 0.00047898
0.91886608 0.00047971 0.00047983
0.00047898 0.00047898 0.00047898
0.00047898 0.00047898 0.00047898
0.00047898 0.00047898 0.00047898
0.08089887 0.00047898 0.00047898
0.14540550 0.00047908 0.00047898
0.20357462 0.00047898 0.00047898
0.25772957 0.00047910 0.00047910
0.30896905 0.00047912 0.00047898
0.35793399 0.00047898 0.00047898
0.40504339 0.00047898 0.00047898
0.45059184 0.00047898 0.00047898
0.49479729 0.00047917 0.00047898
0.53782719 0.00047898 0.00047920
0.57981405 0.00047916 0.00047923
0.62086511 0.00047918 0.00047898
0.66106894 0.00047898 0.00047898
0.70049974 0.00047923 0.00047931
0.73922060 0.00047898 0.00047931
0.77728574 0.00047931 0.00047931
0.81474223 0.00047937 0.00047898
0.85163127 0.00047898 0.00047898
0.88798924 0.00047947 0.00047940
0.91886608 0.00047898 0.00047898
0.91886608 0.00047898 0.00047898
0.91886608 0.00047898 0.00047898
0.91886608 0.00047898 0.00047953
0.91886608 0.00047946 0.00047898
0.91886608 0.00047953 0.00047898
0.91886608 0.00047969 0.00047898
0.91886608 0.00047898 0.00047898
0.91886608 0.00047953 0.00047898
0.91886608 0.00047898 0.00047898
0.91886608 0.00047971 0.00047983
0.00047898 0.00047898 0.00047898
0.00047898 0.00047898 0.00047898
0.00047898 0.00047898 0.00047898
0.08089887 0.00047898 0.00047898
0.14540550 0.00047908 0.00047898
0.20357462 0.00047898 0.00047898
0.25772957 0.00047910 0.00047910
0.30896905 0.00047912 0.00047898
0.35793399 0.00047898 0.00047898
0.40504339 0.00047898 0.00047898
0.45059184 0.00047898 0.00047898
0.49479729 0.00047917 0.00047898
0.53782719 0.00047898 0.00047920
0.57981405 0.00047916 0.00047923
0.62086511 0.00047918 0.00047898
0.66106894 0.00047898 0.00047898
0.70049974 0.00047923 0.00047931
0.73922060 0.00047898 0.00047931
0.77728574 0.00047931 0.00047931
0.81474223 0.00047937 0.00047898
0.85163127 0.00047898 0.00047898
0.88798924 0.00047947 0.00047940
0.91886608 0.00047898 0.00047898
0.91886608 0.00047898 0.00047898
0.91886608 0.00047898 0.00047898
0.91886608 0.00047898 0.00047953
0.91886608 0.00047946 0.00047898
0.91886608 0.00047953 0.00047898
0.91886608 0.00047969 0.00047898
0.91886608 0.00047898 0.00047898
0.91886608 0.00047953 0.00047898
0.91886608 0.00047898 0.00047898
0.91886608 0.00047971 0.00047983
0.00047906 0.08089887 0.00047898
0.00047906 0.08089887 0.00047898
0.00047906 0.08089887 0.00047898
0.08089887 0.08089887 0.00047898
0.14540550 0.08089887 0.00047898
0.20357462 0.08089887 0.00047898
0.25772957 0.08089887 0.00047898
0.30896905 0.08089887 0.00047898
0.35793399 0.08089887 0.00047898
0.40504339 0.08089887 0.00047916
0.45059184 0.08089887 0.00047898
0.49479729 0.08089887 0.00047898
0.53782719 0.08089887 0.00047898
0.57981405 0.08089887 0.00047898
0.62086511 0.08089887 0.00047923
0.66106894 0.08089887 0.00047898
0.70049974 0.08089887 0.00047931
0.73922060 0.08089887 0.00047898
0.77728574 0.08089887 0.00047898
0.81474223 0.08089887 0.00047898
0.85163127 0.08089887 0.00047935
0.88798924 0.08089887 0.00047898
0.91886608 0.08089887 0.00047940
0.91886608 0.08089887 0.00047898
0.91886608 0.08089887 0.00047898
0.91886608 0.08089887 0.00047898
0.91886608 0.08089887 0.00047898
0.91886608 0.08089887 0.00047898
0.91886608 0.08089887 0.00047898
0.91886608 0.08089887 0.00047898
0.91886608 0.08089887 0.00047983
0.91886608 0.08089887 0.00047898
0.91886608 0.08089887 0.00047997
0.00047910 0.14540550 0.00047898
0.00047910 0.14540550 0.00047898
0.00047910 0.14540550 0.00047898
0.08089887 0.14540550 0.00047898
0.14540550 0.14540550 0.00047898
0.20357462 0.14540550 0.00047898
0.25772957 0.14540550 0.00047914
0.30896905 0.14540550 0.00047914
0.35793399 0.14540550 0.00047898
0.40504339 0.14540550 0.00047916
0.45059184 0.14540550 0.00047898
0.49479729 0.14540550 0.00047918
0.53782719 0.14540550 0.00047898
0.57981405 0.14540550 0.00047898
0.62086511 0.14540550 0.00047923
0.66106894 0.14540550 0.00047898
0.70049974 0.14540550 0.00047898
0.73922060 0.14540550 0.00047931
0.77728574 0.14540550 0.00047898
0.81474223 0.14540550 0.00047898
0.85163127 0.14540550 0.00047898
0.88798924 0.14540550 0.00047898
0.91886608 0.14540550 0.00047898
0.91886608 0.14540550 0.00047946
0.91886608 0.14540550 0.00047898
0.91886608 0.14540550 0.00047898
0.91886608 0.14540550 0.00047953
0.91886608 0.14540550 0.00047898
0.91886608 0.14540550 0.00047961
0.91886608 0.14540550 0.00047898
0.91886608 0.14540550 0.00047898
0.91886608 0.14540550 0.00047898
0.91886608 0.14540550 0.00047898
0.00047898 0.20357462 0.00047898
0.00047898 0.20357462 0.00047898
0.00047898 0.20357462 0.00047898
0.08089887 0.20357462 0.00047898
0.14540550 0.20357462 0.00047898
0.20357462 0.20357462 0.00047898
0.25772957 0.20357462 0.00047912
0.30896905 0.20357462 0.00047914
0.35793399 0.20357462 0.00047916
0.40504339 0.20357462 0.00047916
0.45059184 0.20357462 0.00047898
0.49479729 0.20357462 0.00047898
0.53782719 0.20357462 0.00047898
0.57981405 0.20357462 0.00047898
0.62086511 0.20357462 0.00047898
0.66106894 0.20357462 0.00047898
0.70049974 0.20357462 0.00047898
0.73922060 0.20357462 0.00047898
0.77728574 0.20357462 0.00047898
0.81474223 0.20357462 0.00047898
0.85163127 0.20357462 0.00047935
0.88798924 0.20357462 0.00047940
0.91886608 0.20357462 0.00047898
0.91886608 0.20357462 0.00047898
0.91886608 0.20357462 0.00047898
0.91886608 0.20357462 0.00047898
0.91886608 0.20357462 0.00047953
0.91886608 0.20357462 0.00047898
0.91886608 0.20357462 0.00047961
0.91886608 0.20357462 0.00047898
0.91886608 0.20357462 0.00047898
0.91886608 0.20357462 0.00047898
0.91886608 0.20357462 0.00047983
0.00047907 0.25772957 0.00047898
0.00047907 0.25772957 0.00047898
0.00047907 0.25772957 0.00047898
0.08089887 0.25772957 0.00047898
0.14540550 0.25772957 0.00047898
0.20357462 0.25772957 0.00047898
0.25772957 0.25772957 0.00047898
0.30896905 0.25772957 0.00047914
0.35793399 0.25772957 0.00047898
0.40504339 0.25772957 0.00047916
0.45059184 0.25772957 0.00047898
0.49479729 0.25772957 0.00047898
0.53782719 0.25772957 0.00047898
0.57981405 0.25772957 0.00047898
0.62086511 0.25772957 0.00047927
0.66106894 0.25772957 0.00047927
0.70049974 0.25772957 0.00047898
0.73922060 0.25772957 0.00047931
0.77728574 0.25772957 0.00047898
0.81474223 0.25772957 0.00047898
0.85163127 0.25772957 0.00047898
0.88798924 0.25772957 0.00047898
0.91886608 0.25772957 0.00047940
0.91886608 0.25772957 0.00047898
0.91886608 0.25772957 0.00047898
0.91886608 0.25772957 0.00047898
0.91886608 0.25772957 0.00047953
0.91886608 0.25772957 0.00047898
0.91886608 0.25772957 0.00047898
0.91886608 0.25772957 0.00047898
0.91886608 0.25772957 0.00047971
0.91886608 0.25772957 0.00047898
0.91886608 0.25772957 0.00047898
0.00047916 0.30896905 0.00047898
0.00047916 0.30896905 0.00047898
0.00047916 0.30896905 0.00047898
0.08089887 0.30896905 0.00047898
0.14540550 0.30896905 0.00047898
0.20357462 0.30896905 0.00047898
0.25772957 0.30896905 0.00047898
0.30896905 0.30896905 0.00047898
0.35793399 0.30896905 0.00047898
0.40504339 0.30896905 0.00047898
0.45059184 0.30896905 0.00047918
0.49479729 0.30896905 0.00047898
0.53782719 0.30896905 0.00047898
0.57981405 0.30896905 0.00047923
0.62086511 0.30896905 0.00047923
0.66106894 0.30896905 0.00047898
0.70049974 0.30896905 0.00047898
0.73922060 0.30896905 0.00047931
0.77728574 0.30896905 0.00047931
0.81474223 0.30896905 0.00047898
0.85163127 0.30896905 0.00047898
0.88798924 0.30896905 0.00047898
0.91886608 0.30896905 0.00047898
0.91886608 0.30896905 0.00047898
0.91886608 0.30896905 0.00047898
0.91886608 0.30896905 0.00047898
0.91886608 0.30896905 0.00047898
0.91886608 0.30896905 0.00047898
0.91886608 0.30896905 0.00047898
0.91886608 0.30896905 0.00047898
0.91886608 0.30896905 0.00047898
0.91886608 0.30896905 0.00047898
0.91886608 0.30896905 0.00047898
0.00047916 0.35793399 0.00047898
0.00047916 0.35793399 0.00047898
0.00047916 0.35793399 0.00047898
0.08089887 0.35793399 0.00047916
0.14540550 0.35793399 0.00047898
0.20357462 0.35793399 0.00047898
0.25772957 0.35793399 0.00047898
0.30896905 0.35793399 0.00047898
0.35793399 0.35793399 0.00047898
0.40504339 0.35793399 0.00047898
0.45059184 0.35793399 0.00047918
0.49479729 0.35793399 0.00047898
0.53782719 0.35793399 0.00047898
0.57981405 0.35793399 0.00047898
0.62086511 0.35793399 0.00047898
0.66106894 0.35793399 0.00047898
0.70049974 0.35793399 0.00047927
0.73922060 0.35793399 0.00047898
0.77728574 0.35793399 0.00047898
0.81474223 0.35793399 0.00047898
0.85163127 0.35793399 0.00047898
0.88798924 0.35793399 0.00047898
0.91886608 0.35793399 0.00047898
0.91886608 0.35793399 0.00047898
0.91886608 0.35793399 0.00047898
0.91886608 0.35793399 0.00047898
0.91886608 0.35793399 0.00047898
0.91886608 0.35793399 0.00047898
0.91886608 0.35793399 0.00047898
0.91886608 0.35793399 0.00047898
0.91886608 0.35793399 0.00047898
0.91886608 0.35793399 0.00047898
0.91886608 0.35793399 0.00047898
0.00047919 0.40504339 0.00047898
0.00047919 0.40504339 0.00047898
0.00047919 0.40504339 0.00047898
0.08089887 0.40504339 0.00047898
0.14540550 0.40504339 0.00047898
0.20357462 0.40504339 0.00047898
0.25772957 0.40504339 0.00047898
0.30896905 0.40504339 0.00047898
0.35793399 0.40504339 0.00047898
0.40504339 0.40504339 0.00047898
0.45059184 0.40504339 0.00047898
0.49479729 0.40504339 0.00047920
0.53782719 0.40504339 0.00047898
0.57981405 0.40504339 0.00047923
0.62086511 0.40504339 0.00047898
0.66106894 0.40504339 0.00047898
0.70049974 0.40504339 0.00047927
0.73922060 0.40504339 0.00047931
0.77728574 0.40504339 0.00047931
0.81474223 0.40504339 0.00047935
0.85163127 0.40504339 0.00047898
0.88798924 0.40504339 0.00047898
0.91886608 0.40504339 0.00047898
0.91886608 0.40504339 0.00047946
0.91886608 0.40504339 0.00047946
0.91886608 0.40504339 0.00047953
0.91886608 0.40504339 0.00047898
0.91886608 0.40504339 0.00047898
0.91886608 0.40504339 0.00047961
0.91886608 0.40504339 0.00047898
0.91886608 0.40504339 0.00047971
0.91886608 0.40504339 0.00047898
0.91886608 0.40504339 0.00047898
0.00047921 0.45059184 0.00047898
0.00047921 0.45059184 0.00047898
0.00047921 0.45059184 0.00047898
0.08089887 0.45059184 0.00047898
0.14540550 0.45059184 0.00047898
0.20357462 0.45059184 0.00047898
0.25772957 0.45059184 0.00047898
0.30896905 0.45059184 0.00047898
0.35793399 0.45059184 0.00047898
0.40504339 0.45059184 0.00047898
0.45059184 0.45059184 0.00047898
0.49479729 0.45059184 0.00047898
0.53782719 0.45059184 0.00047898
0.57981405 0.45059184 0.00047923
0.62086511 0.45059184 0.00047898
0.66106894 0.45059184 0.00047898
0.70049974 0.45059184 0.00047898
0.73922060 0.45059184 0.00047898
0.77728574 0.45059184 0.00047898
0.81474223 0.45059184 0.00047898
0.85163127 0.45059184 0.00047898
0.88798924 0.45059184 0.00047898
0.91886608 0.45059184 0.00047898
0.91886608 0.45059184 0.00047898
0.91886608 0.45059184 0.00047898
0.91886608 0.45059184 0.00047953
0.91886608 0.45059184 0.00047898
0.91886608 0.45059184 0.00047898
0.91886608 0.45059184 0.00047898
0.91886608 0.45059184 0.00047898
0.91886608 0.45059184 0.00047898
0.91886608 0.45059184 0.00047898
0.91886608 0.45059184 0.00047898
0.00047918 0.49479729 0.00047898
0.00047918 0.49479729 0.00047898
0.00047918 0.49479729 0.00047898
0.08089887 0.49479729 0.00047898
0.14540550 0.49479729 0.00047898
0.20357462 0.49479729 0.00047898
0.25772957 0.49479729 0.00047898
0.30896905 0.49479729 0.00047898
0.35793399 0.49479729 0.00047898
0.40504339 0.49479729 0.00047898
0.45059184 0.49479729 0.00047898
0.49479729 0.49479729 0.00047923
0.53782719 0.49479729 0.00047898
0.57981405 0.49479729 0.00047898
0.62086511 0.49479729 0.00047898
0.66106894 0.49479729 0.00047898
0.70049974 0.49479729 0.00047898
0.73922060 0.49479729 0.00047898
0.77728574 0.49479729 0.00047898
0.81474223 0.49479729 0.00047898
0.85163127 0.49479729 0.00047898
0.88798924 0.49479729 0.00047898
0.91886608 0.49479729 0.00047940
0.91886608 0.49479729 0.00047898
0.91886608 0.49479729 0.00047898
0.91886608 0.49479729 0.00047898
0.91886608 0.49479729 0.00047898
0.91886608 0.49479729 0.00047898
0.91886608 0.49479729 0.00047898
0.91886608 0.49479729 0.00047898
0.91886608 0.49479729 0.00047971
0.91886608 0.49479729 0.00047898
0.91886608 0.49479729 0.00047898
0.00047925 0.53782719 0.00047920
0.00047925 0.53782719 0.00047920
0.00047925 0.53782719 0.00047920
0.08089887 0.53782719 0.00047898
0.14540550 0.53782719 0.00047898
0.20357462 0.53782719 0.00047923
0.25772957 0.53782719 0.00047923
0.30896905 0.53782719 0.00047898
0.35793399 0.53782719 0.00047898
0.40504339 0.53782719 0.00047923
0.45059184 0.53782719 0.00047898
0.49479729 0.53782719 0.00047898
0.53782719 0.53782719 0.00047923
0.57981405 0.53782719 0.00047898
0.62086511 0.53782719 0.00047898
0.66106894 0.53782719 0.00047898
0.70049974 0.53782719 0.00047931
0.73922060 0.53782719 0.00047898
0.77728574 0.53782719 0.00047931
0.81474223 0.53782719 0.00047898
0.85163127 0.53782719 0.00047898
0.88798924 0.53782719 0.00047898
0.91886608 0.53782719 0.00047940
0.91886608 0.53782719 0.00047898
0.91886608 0.53782719 0.00047898
0.91886608 0.53782719 0.00047953
0.91886608 0.53782719 0.00047898
0.91886608 0.53782719 0.00047961
0.91886608 0.53782719 0.00047961
0.91886608 0.53782719 0.00047898
0.91886608 0.53782719 0.00047971
0.91886608 0.53782719 0.00047898
0.91886608 0.53782719 0.00047898
0.00047924 0.57981405 0.00047898
0.00047924 0.57981405 0.00047898
0.00047924 0.57981405 0.00047898
0.08089887 0.57981405 0.00047923
0.14540550 0.57981405 0.00047898
0.20357462 0.57981405 0.00047898
0.25772957 0.57981405 0.00047923
0.30896905 0.57981405 0.00047898
0.35793399 0.57981405 0.00047898
0.40504339 0.57981405 0.00047898
0.45059184 0.57981405 0.00047923
0.49479729 0.57981405 0.00047898
0.53782719 0.57981405 0.00047898
0.57981405 0.57981405 0.00047927
0.62086511 0.57981405 0.00047898
0.66106894 0.57981405 0.00047898
0.70049974 0.57981405 0.00047898
0.73922060 0.57981405 0.00047898
0.77728574 0.57981405 0.00047935
0.81474223 0.57981405 0.00047898
0.85163127 0.57981405 0.00047898
0.88798924 0.57981405 0.00047898
0.91886608 0.57981405 0.00047898
0.91886608 0.57981405 0.00047898
0.91886608 0.57981405 0.00047898
0.91886608 0.57981405 0.00047898
0.91886608 0.57981405 0.00047898
0.91886608 0.57981405 0.00047898
0.91886608 0.57981405 0.00047961
0.91886608 0.57981405 0.00047898
0.91886608 0.57981405 0.00047898
0.91886608 0.57981405 0.00047898
0.91886608 0.57981405 0.00047898
0.00047924 0.62086511 0.00047898
0.00047924 0.62086511 0.00047898
0.00047924 0.62086511 0.00047898
0.08089887 0.62086511 0.00047898
0.14540550 0.62086511 0.00047898
0.20357462 0.62086511 0.00047898
0.25772957 0.62086511 0.00047898
0.30896905 0.62086511 0.00047898
0.35793399 0.62086511 0.00047898
0.40504339 0.62086511 0.00047898
0.45059184 0.62086511 0.00047931
0.49479729 0.62086511 0.00047927
0.53782719 0.62086511 0.00047898
0.57981405 0.62086511 0.00047927
0.62086511 0.62086511 0.00047898
0.66106894 0.62086511 0.00047898
0.70049974 0.62086511 0.00047931
0.73922060 0.62086511 0.00047935
0.77728574 0.62086511 0.00047935
0.81474223 0.62086511 0.00047898
0.85163127 0.62086511 0.00047898
0.88798924 0.62086511 0.00047898
0.91886608 0.62086511 0.00047940
0.91886608 0.62086511 0.00047898
0.91886608 0.62086511 0.00047946
0.91886608 0.62086511 0.00047898
0.91886608 0.62086511 0.00047898
0.91886608 0.62086511 0.00047898
0.91886608 0.62086511 0.00047898
0.91886608 0.62086511 0.00047898
0.91886608 0.62086511 0.00047898
0.91886608 0.62086511 0.00047898
0.91886608 0.62086511 0.00047983
0.00047934 0.66106894 0.00047898
0.00047934 0.66106894 0.00047898
0.00047934 0.66106894 0.00047898
0.08089887 0.66106894 0.00047898
0.14540550 0.66106894 0.00047898
0.20357462 0.66106894 0.00047898
0.25772957 0.66106894 0.00047898
0.30896905 0.66106894 0.00047898
0.35793399 0.66106894 0.00047898
0.40504339 0.66106894 0.00047898
0.45059184 0.66106894 0.00047898
0.49479729 0.66106894 0.00047898
0.53782719 0.66106894 0.00047898
0.57981405 0.66106894 0.00047898
0.62086511 0.66106894 0.00047898
0.66106894 0.66106894 0.00047898
0.70049974 0.66106894 0.00047898
0.73922060 0.66106894 0.00047898
0.77728574 0.66106894 0.00047898
0.81474223 0.66106894 0.00047898
0.85163127 0.66106894 0.00047898
0.88798924 0.66106894 0.00047898
0.91886608 0.66106894 0.00047940
0.91886608 0.66106894 0.00047898
0.91886608 0.66106894 0.00047898
0.91886608 0.66106894 0.00047898
0.91886608 0.66106894 0.00047898
0.91886608 0.66106894 0.00047898
0.91886608 0.66106894 0.00047898
0.91886608 0.66106894 0.00047898
0.91886608 0.66106894 0.00047898
0.91886608 0.66106894 0.00047898
0.91886608 0.66106894 0.00047983
0.00047898 0.70049974 0.00047898
0.00047898 0.70049974 0.00047898
0.00047898 0.70049974 0.00047898
0.08089887 0.70049974 0.00047898
0.14540550 0.70049974 0.00047898
0.20357462 0.70049974 0.00047898
0.25772957 0.70049974 0.00047898
0.30896905 0.70049974 0.00047898
0.35793399 0.70049974 0.00047898
0.40504339 0.70049974 0.00047898
0.45059184 0.70049974 0.00047898
0.49479729 0.70049974 0.00047898
0.53782719 0.70049974 0.00047898
0.57981405 0.70049974 0.00047898
0.62086511 0.70049974 0.00047931
0.66106894 0.70049974 0.00047931
0.70049974 0.70049974 0.00047898
0.73922060 0.70049974 0.00047898
0.77728574 0.70049974 0.00047898
0.81474223 0.70049974 0.00047898
0.85163127 0.70049974 0.00047898
0.88798924 0.70049974 0.00047898
0.91886608 0.70049974 0.00047940
0.91886608 0.70049974 0.00047898
0.91886608 0.70049974 0.00047898
0.91886608 0.70049974 0.00047898
0.91886608 0.70049974 0.00047898
0.91886608 0.70049974 0.00047898
0.91886608 0.70049974 0.00047898
0.91886608 0.70049974 0.00047898
0.91886608 0.70049974 0.00047898
0.91886608 0.70049974 0.00047898
0.91886608 0.70049974 0.00047898
0.00047937 0.73922060 0.00047898
0.00047937 0.73922060 0.00047898
0.00047937 0.73922060 0.00047898
0.08089887 0.73922060 0.00047898
0.14540550 0.73922060 0.00047898
0.20357462 0.73922060 0.00047898
0.25772957 0.73922060 0.00047898
0.30896905 0.73922060 0.00047898
0.35793399 0.73922060 0.00047931
0.40504339 0.73922060 0.00047898
0.45059184 0.73922060 0.00047931
0.49479729 0.73922060 0.00047931
0.53782719 0.73922060 0.00047898
0.57981405 0.73922060 0.00047931
0.62086511 0.73922060 0.00047898
0.66106894 0.73922060 0.00047898
0.70049974 0.73922060 0.00047935
0.73922060 0.73922060 0.00047898
0.77728574 0.73922060 0.00047898
0.81474223 0.73922060 0.00047898
0.85163127 0.73922060 0.00047898
0.88798924 0.73922060 0.00047940
0.91886608 0.73922060 0.00047898
0.91886608 0.73922060 0.00047898
0.91886608 0.73922060 0.00047898
0.91886608 0.73922060 0.00047898
0.91886608 0.73922060 0.00047898
0.91886608 0.73922060 0.00047961
0.91886608 0.73922060 0.00047961
0.91886608 0.73922060 0.00047898
0.91886608 0.73922060 0.00047898
0.91886608 0.73922060 0.00047983
0.91886608 0.73922060 0.00047983
0.00047941 0.77728574 0.00047898
0.00047941 0.77728574 0.00047898
0.00047941 0.77728574 0.00047898
0.08089887 0.77728574 0.00047898
0.14540550 0.77728574 0.00047898
0.20357462 0.77728574 0.00047898
0.25772957 0.77728574 0.00047898
0.30896905 0.77728574 0.00047898
0.35793399 0.77728574 0.00047898
0.40504339 0.77728574 0.00047898
0.45059184 0.77728574 0.00047898
0.49479729 0.77728574 0.00047935
0.53782719 0.77728574 0.00047898
0.57981405 0.77728574 0.00047898
0.62086511 0.77728574 0.00047898
0.66106894 0.77728574 0.00047898
0.70049974 0.77728574 0.00047898
0.73922060 0.77728574 0.00047898
0.77728574 0.77728574 0.00047898
0.81474223 0.77728574 0.00047898
0.85163127 0.77728574 0.00047898
0.88798924 0.77728574 0.00047898
0.91886608 0.77728574 0.00047898
0.91886608 0.77728574 0.00047898
0.91886608 0.77728574 0.00047898
0.91886608 0.77728574 0.00047898
0.91886608 0.77728574 0.00047898
0.91886608 0.77728574 0.00047961
0.91886608 0.77728574 0.00047898
0.91886608 0.77728574 0.00047898
0.91886608 0.77728574 0.00047898
0.91886608 0.77728574 0.00047898
0.91886608 0.77728574 0.00047983
0.00047941 0.81474223 0.00047898
0.00047941 0.81474223 0.00047898
0.00047941 0.81474223 0.00047898
0.08089887 0.81474223 0.00047898
0.14540550 0.81474223 0.00047898
0.20357462 0.81474223 0.00047898
0.25772957 0.81474223 0.00047898
0.30896905 0.81474223 0.00047898
0.35793399 0.81474223 0.00047898
0.40504339 0.81474223 0.00047898
0.45059184 0.81474223 0.00047898
0.49479729 0.81474223 0.00047935
0.53782719 0.81474223 0.00047898
0.57981405 0.81474223 0.00047898
0.62086511 0.81474223 0.00047898
0.66106894 0.81474223 0.00047898
0.70049974 0.81474223 0.00047898
0.73922060 0.81474223 0.00047898
0.77728574 0.81474223 0.00047940
0.81474223 0.81474223 0.00047898
0.85163127 0.81474223 0.00047898
0.88798924 0.81474223 0.00047898
0.91886608 0.81474223 0.00047898
0.91886608 0.81474223 0.00047898
0.91886608 0.81474223 0.00047898
0.91886608 0.81474223 0.00047898
0.91886608 0.81474223 0.00047953
0.91886608 0.81474223 0.00047898
0.91886608 0.81474223 0.00047971
0.91886608 0.81474223 0.00047898
0.91886608 0.81474223 0.00047898
0.91886608 0.81474223 0.00047898
0.91886608 0.81474223 0.00047997
0.00047937 0.85163127 0.00047940
0.00047937 0.85163127 0.00047940
0.00047937 0.85163127 0.00047940
0.08089887 0.85163127 0.00047898
0.14540550 0.85163127 0.00047898
0.20357462 0.85163127 0.00047898
0.25772957 0.85163127 0.00047940
0.30896905 0.85163127 0.00047898
0.35793399 0.85163127 0.00047940
0.40504339 0.85163127 0.00047898
0.45059184 0.85163127 0.00047940
0.49479729 0.85163127 0.00047940
0.53782719 0.85163127 0.00047898
0.57981405 0.85163127 0.00047940
0.62086511 0.85163127 0.00047898
0.66106894 0.85163127 0.00047898
0.70049974 0.85163127 0.00047940
0.73922060 0.85163127 0.00047898
0.77728574 0.85163127 0.00047940
0.81474223 0.85163127 0.00047898
0.85163127 0.85163127 0.00047898
0.88798924 0.85163127 0.00047898
0.91886608 0.85163127 0.00047898
0.91886608 0.85163127 0.00047898
0.91886608 0.85163127 0.00047898
0.91886608 0.85163127 0.00047898
0.91886608 0.85163127 0.00047898
0.91886608 0.85163127 0.00047961
0.91886608 0.85163127 0.00047898
0.91886608 0.85163127 0.00047898
0.91886608 0.85163127 0.00047971
0.91886608 0.85163127 0.00047983
0.91886608 0.85163127 0.00047898
0.00047931 0.88798924 0.00047898
0.00047931 0.88798924 0.00047898
0.00047931 0.88798924 0.00047898
0.08089887 0.88798924 0.00047898
0.14540550 0.88798924 0.00047940
0.20357462 0.88798924 0.00047940
0.25772957 0.88798924 0.00047898
0.30896905 0.88798924 0.00047898
0.35793399 0.88798924 0.00047940
0.40504339 0.88798924 0.00047898
0.45059184 0.88798924 0.00047940
0.49479729 0.88798924 0.00047898
0.53782719 0.88798924 0.00047898
0.57981405 0.88798924 0.00047940
0.62086511 0.88798924 0.00047940
0.66106894 0.88798924 0.00047898
0.70049974 0.88798924 0.00047898
0.73922060 0.88798924 0.00047940
0.77728574 0.88798924 0.00047898
0.81474223 0.88798924 0.00047898
0.85163127 0.88798924 0.00047898
0.88798924 0.88798924 0.00047898
0.91886608 0.88798924 0.00047898
0.91886608 0.88798924 0.00047898
0.91886608 0.88798924 0.00047953
0.91886608 0.88798924 0.00047898
0.91886608 0.88798924 0.00047898
