src/ffmpeg_scripts/luts/luminance_-1p00.cube
TITLE "luminance_-1p00"
LUT_3D_SIZE 33
# PQ (EOTF Only)/Rec2020 -> PQ (EOTF Only)/Rec2020, CineEI Shift -1.00, Black Level 0.00% IRE, Input 109% -> Output 109% - Created with LUTCalc v4.01 by Ben Turley October 2020
0.06256172 0.06256172 0.06256172
0.06256172 0.06256172 0.06256172
0.06256172 0.06256172 0.06256172
0.08497465 0.06256176 0.06256172
0.10918008 0.06256176 0.06256172
0.13435261 0.06256172 0.06256172
0.16023857 0.06256180 0.06256179
0.18670158 0.06256179 0.06256172
0.21365443 0.06256172 0.06256172
0.24103582 0.06256172 0.06256181
0.26879998 0.06256172 0.06256172
0.29691121 0.06256185 0.06256172
0.32534079 0.06256172 0.06256172
0.35406504 0.06256185 0.06256185
0.38306408 0.06256172 0.06256172
0.41232089 0.06256172 0.06256172
0.44182077 0.06256191 0.06256172
0.47155085 0.06256172 0.06256172
0.50149976 0.06256192 0.06256172
0.53165737 0.06256172 0.06256172
0.56201458 0.06256192 0.06256172
0.59256319 0.06256191 0.06256172
0.62329575 0.06256200 0.06256197
0.65420546 0.06256172 0.06256172
0.68528608 0.06256198 0.06256172
0.71653186 0.06256172 0.06256172
0.74793750 0.06256172 0.06256172
0.77949807 0.06256200 0.06256172
0.81120901 0.06256172 0.06256172
0.84306603 0.06256210 0.06256172
0.87506515 0.06256172 0.06256172
0.90720262 0.06256211 0.06256172
0.91886608 0.06256221 0.06256219
0.06256172 0.06256172 0.06256172
0.06256172 0.06256172 0.06256172
0.06256172 0.06256172 0.06256172
0.08497465 0.06256176 0.06256172
0.10918008 0.06256176 0.06256172
0.13435261 0.06256172 0.06256172
0.16023857 0.06256180 0.06256179
0.18670158 0.06256179 0.06256172
0.21365443 0.06256172 0.06256172
0.24103582 0.06256172 0.06256181
0.26879998 0.06256172 0.06256172
0.29691121 0.06256185 0.06256172
0.32534079 0.06256172 0.06256172
0.35406504 0.06256185 0.06256185
0.38306408 0.06256172 0.06256172
0.41232089 0.06256172 0.06256172
0.44182077 0.06256191 0.06256172
0.47155085 0.06256172 0.06256172
0.50149976 0.06256192 0.06256172
0.53165737 0.06256172 0.06256172
0.56201458 0.06256192 0.06256172
0.59256319 0.06256191 0.06256172
0.62329575 0.06256200 0.06256197
0.65420546 0.06256172 0.06256172
0.68528608 0.06256198 0.06256172
0.71653186 0.06256172 0.06256172
0.74793750 0.06256172 0.06256172
0.77949807 0.06256200 0.06256172
0.81120901 0.06256172 0.06256172
0.84306603 0.06256210 0.06256172
0.87506515 0.06256172 0.06256172
0.90720262 0.06256211 0.06256172
0.91886608 0.06256221 0.06256219
0.06256172 0.06256172 0.06256172
0.06256172 0.06256172 0.06256172
0.06256172 0.06256172 0.06256172
0.08497465 0.06256176 0.06256172
0.10918008 0.06256176 0.06256172
0.13435261 0.06256172 0.06256172
0.16023857 0.06256180 0.06256179
0.18670158 0.06256179 0.06256172
0.21365443 0.06256172 0.06256172
0.24103582 0.06256172 0.06256181
0.26879998 0.06256172 0.06256172
0.29691121 0.06256185 0.06256172
0.32534079 0.06256172 0.06256172
0.35406504 0.06256185 0.06256185
0.38306408 0.06256172 0.06256172
0.41232089 0.06256172 0.06256172
0.44182077 0.06256191 0.06256172
0.47155085 0.06256172 0.06256172
0.50149976 0.06256192 0.06256172
0.53165737 0.06256172 0.06256172
0.56201458 0.06256192 0.06256172
0.59256319 0.06256191 0.06256172
0.62329575 0.06256200 0.06256197
0.65420546 0.06256172 0.06256172
0.68528608 0.06256198 0.06256172
0.71653186 0.06256172 0.06256172
0.74793750 0.06256172 0.06256172
0.77949807 0.06256200 0.06256172
0.81120901 0.06256172 0.06256172
0.84306603 0.06256210 0.06256172
0.87506515 0.06256172 0.06256172
0.90720262 0.06256211 0.06256172
0.91886608 0.06256221 0.06256219
0.06256177 0.08497465 0.06256172
0.06256177 0.08497465 0.06256172
0.06256177 0.08497465 0.06256172
0.08497465 0.08497465 0.06256172
0.10918008 0.08497465 0.06256172
0.13435261 0.08497465 0.06256172
0.16023857 0.08497465 0.06256172
0.18670158 0.08497465 0.06256172
0.21365443 0.08497465 0.06256172
0.24103582 0.08497465 0.06256172
0.26879998 0.08497465 0.06256172
0.29691121 0.08497465 0.06256172
0.32534079 0.08497465 0.06256172
0.35406504 0.08497465 0.06256172
0.38306408 0.08497465 0.06256172
0.41232089 0.08497465 0.06256172
0.44182077 0.08497465 0.06256189
0.47155085 0.08497465 0.06256172
0.50149976 0.08497465 0.06256172
0.53165737 0.08497465 0.06256172
0.56201458 0.08497465 0.06256172
0.59256319 0.08497465 0.06256172
0.62329575 0.08497465 0.06256172
0.65420546 0.08497465 0.06256197
0.68528608 0.08497465 0.06256172
0.71653186 0.08497465 0.06256172
0.74793750 0.08497465 0.06256172
0.77949807 0.08497465 0.06256172
0.81120901 0.08497465 0.06256208
0.84306603 0.08497465 0.06256172
0.87506515 0.08497465 0.06256213
0.90720262 0.08497465 0.06256213
0.91886608 0.08497465 0.06256172
0.06256178 0.10918008 0.06256172
0.06256178 0.10918008 0.06256172
0.06256178 0.10918008 0.06256172
0.08497465 0.10918008 0.06256172
0.10918008 0.10918008 0.06256172
0.13435261 0.10918008 0.06256172
0.16023857 0.10918008 0.06256179
0.18670158 0.10918008 0.06256180
0.21365443 0.10918008 0.06256172
0.24103582 0.10918008 0.06256172
0.26879998 0.10918008 0.06256172
0.29691121 0.10918008 0.06256184
0.32534079 0.10918008 0.06256172
0.35406504 0.10918008 0.06256172
0.38306408 0.10918008 0.06256172
0.41232089 0.10918008 0.06256172
0.44182077 0.10918008 0.06256172
0.47155085 0.10918008 0.06256172
0.50149976 0.10918008 0.06256172
0.53165737 0.10918008 0.06256172
0.56201458 0.10918008 0.06256172
0.59256319 0.10918008 0.06256172
0.62329575 0.10918008 0.06256172
0.65420546 0.10918008 0.06256197
0.68528608 0.10918008 0.06256172
0.71653186 0.10918008 0.06256172
0.74793750 0.10918008 0.06256204
0.77949807 0.10918008 0.06256172
0.81120901 0.10918008 0.06256208
0.84306603 0.10918008 0.06256172
0.87506515 0.10918008 0.06256172
0.90720262 0.10918008 0.06256172
0.91886608 0.10918008 0.06256172
0.06256179 0.13435261 0.06256172
0.06256179 0.13435261 0.06256172
0.06256179 0.13435261 0.06256172
0.08497465 0.13435261 0.06256172
0.10918008 0.13435261 0.06256172
0.13435261 0.13435261 0.06256172
0.16023857 0.13435261 0.06256179
0.18670158 0.13435261 0.06256172
0.21365443 0.13435261 0.06256172
0.24103582 0.13435261 0.06256172
0.26879998 0.13435261 0.06256172
0.29691121 0.13435261 0.06256172
0.32534079 0.13435261 0.06256172
0.35406504 0.13435261 0.06256172
0.38306408 0.13435261 0.06256172
0.41232089 0.13435261 0.06256172
0.44182077 0.13435261 0.06256172
0.47155085 0.13435261 0.06256172
0.50149976 0.13435261 0.06256172
0.53165737 0.13435261 0.06256172
0.56201458 0.13435261 0.06256172
0.59256319 0.13435261 0.06256172
0.62329575 0.13435261 0.06256172
0.65420546 0.13435261 0.06256172
0.68528608 0.13435261 0.06256172
0.71653186 0.13435261 0.06256172
0.74793750 0.13435261 0.06256172
0.77949807 0.13435261 0.06256172
0.81120901 0.13435261 0.06256172
0.84306603 0.13435261 0.06256172
0.87506515 0.13435261 0.06256172
0.90720262 0.13435261 0.06256172
0.91886608 0.13435261 0.06256172
0.06256179 0.16023857 0.06256172
0.06256179 0.16023857 0.06256172
0.06256179 0.16023857 0.06256172
0.08497465 0.16023857 0.06256172
0.10918008 0.16023857 0.06256172
0.13435261 0.16023857 0.06256172
0.16023857 0.16023857 0.06256172
0.18670158 0.16023857 0.06256172
0.21365443 0.16023857 0.06256172
0.24103582 0.16023857 0.06256172
0.26879998 0.16023857 0.06256182
0.29691121 0.16023857 0.06256172
0.32534079 0.16023857 0.06256172
0.35406504 0.16023857 0.06256185
0.38306408 0.16023857 0.06256172
0.41232089 0.16023857 0.06256172
0.44182077 0.16023857 0.06256172
0.47155085 0.16023857 0.06256172
0.50149976 0.16023857 0.06256172
0.53165737 0.16023857 0.06256172
0.56201458 0.16023857 0.06256172
0.59256319 0.16023857 0.06256172
0.62329575 0.16023857 0.06256197
0.65420546 0.16023857 0.06256172
0.68528608 0.16023857 0.06256172
0.71653186 0.16023857 0.06256172
0.74793750 0.16023857 0.06256172
0.77949807 0.16023857 0.06256204
0.81120901 0.16023857 0.06256208
0.84306603 0.16023857 0.06256172
0.87506515 0.16023857 0.06256172
0.90720262 0.16023857 0.06256172
0.91886608 0.16023857 0.06256172
0.06256182 0.18670158 0.06256180
0.06256182 0.18670158 0.06256180
0.06256182 0.18670158 0.06256180
0.08497465 0.18670158 0.06256172
0.10918008 0.18670158 0.06256172
0.13435261 0.18670158 0.06256180
0.16023857 0.18670158 0.06256172
0.18670158 0.18670158 0.06256172
0.21365443 0.18670158 0.06256172
0.24103582 0.18670158 0.06256172
0.26879998 0.18670158 0.06256184
0.29691121 0.18670158 0.06256172
0.32534079 0.18670158 0.06256172
0.35406504 0.18670158 0.06256172
0.38306408 0.18670158 0.06256187
0.41232089 0.18670158 0.06256172
0.44182077 0.18670158 0.06256189
0.47155085 0.18670158 0.06256172
0.50149976 0.18670158 0.06256172
0.53165737 0.18670158 0.06256172
0.56201458 0.18670158 0.06256172
0.59256319 0.18670158 0.06256172
0.62329575 0.18670158 0.06256197
0.65420546 0.18670158 0.06256197
0.68528608 0.18670158 0.06256172
0.71653186 0.18670158 0.06256172
0.74793750 0.18670158 0.06256172
0.77949807 0.18670158 0.06256172
0.81120901 0.18670158 0.06256172
0.84306603 0.18670158 0.06256172
0.87506515 0.18670158 0.06256172
0.90720262 0.18670158 0.06256172
0.91886608 0.18670158 0.06256219
0.06256172 0.21365443 0.06256172
0.06256172 0.21365443 0.06256172
0.06256172 0.21365443 0.06256172
0.08497465 0.21365443 0.06256172
0.10918008 0.21365443 0.06256172
0.13435261 0.21365443 0.06256172
0.16023857 0.21365443 0.06256172
0.18670158 0.21365443 0.06256172
0.21365443 0.21365443 0.06256172
0.24103582 0.21365443 0.06256172
0.26879998 0.21365443 0.06256172
0.29691121 0.21365443 0.06256172
0.32534079 0.21365443 0.06256172
0.35406504 0.21365443 0.06256185
0.38306408 0.21365443 0.06256172
0.41232089 0.21365443 0.06256172
0.44182077 0.21365443 0.06256172
0.47155085 0.21365443 0.06256172
0.50149976 0.21365443 0.06256172
0.53165737 0.21365443 0.06256172
0.56201458 0.21365443 0.06256172
0.59256319 0.21365443 0.06256172
0.62329575 0.21365443 0.06256172
0.65420546 0.21365443 0.06256172
0.68528608 0.21365443 0.06256172
0.71653186 0.21365443 0.06256172
0.74793750 0.21365443 0.06256204
0.77949807 0.21365443 0.06256172
0.81120901 0.21365443 0.06256172
0.84306603 0.21365443 0.06256172
0.87506515 0.21365443 0.06256172
0.90720262 0.21365443 0.06256172
0.91886608 0.21365443 0.06256172
0.06256185 0.24103582 0.06256172
0.06256185 0.24103582 0.06256172
0.06256185 0.24103582 0.06256172
0.08497465 0.24103582 0.06256172
0.10918008 0.24103582 0.06256172
0.13435261 0.24103582 0.06256182
0.16023857 0.24103582 0.06256172
0.18670158 0.24103582 0.06256172
0.21365443 0.24103582 0.06256182
0.24103582 0.24103582 0.06256184
0.26879998 0.24103582 0.06256172
0.29691121 0.24103582 0.06256184
0.32534079 0.24103582 0.06256172
0.35406504 0.24103582 0.06256187
0.38306408 0.24103582 0.06256172
0.41232089 0.24103582 0.06256172
0.44182077 0.24103582 0.06256189
0.47155085 0.24103582 0.06256172
0.50149976 0.24103582 0.06256191
0.53165737 0.24103582 0.06256172
0.56201458 0.24103582 0.06256172
0.59256319 0.24103582 0.06256172
0.62329575 0.24103582 0.06256172
0.65420546 0.24103582 0.06256172
0.68528608 0.24103582 0.06256200
0.71653186 0.24103582 0.06256172
0.74793750 0.24103582 0.06256172
0.77949807 0.24103582 0.06256172
0.81120901 0.24103582 0.06256172
0.84306603 0.24103582 0.06256172
0.87506515 0.24103582 0.06256213
0.90720262 0.24103582 0.06256172
0.91886608 0.24103582 0.06256172
0.06256187 0.26879998 0.06256172
0.06256187 0.26879998 0.06256172
0.06256187 0.26879998 0.06256172
0.08497465 0.26879998 0.06256172
0.10918008 0.26879998 0.06256172
0.13435261 0.26879998 0.06256172
0.16023857 0.26879998 0.06256172
0.18670158 0.26879998 0.06256172
0.21365443 0.26879998 0.06256172
0.24103582 0.26879998 0.06256172
0.26879998 0.26879998 0.06256172
0.29691121 0.26879998 0.06256172
0.32534079 0.26879998 0.06256172
0.35406504 0.26879998 0.06256172
0.38306408 0.26879998 0.06256172
0.41232089 0.26879998 0.06256187
0.44182077 0.26879998 0.06256189
0.47155085 0.26879998 0.06256189
0.50149976 0.26879998 0.06256172
0.53165737 0.26879998 0.06256172
0.56201458 0.26879998 0.06256172
0.59256319 0.26879998 0.06256172
0.62329575 0.26879998 0.06256172
0.65420546 0.26879998 0.06256197
0.68528608 0.26879998 0.06256172
0.71653186 0.26879998 0.06256172
0.74793750 0.26879998 0.06256172
0.77949807 0.26879998 0.06256172
0.81120901 0.26879998 0.06256208
0.84306603 0.26879998 0.06256172
0.87506515 0.26879998 0.06256213
0.90720262 0.26879998 0.06256172
0.91886608 0.26879998 0.06256172
0.06256184 0.29691121 0.06256172
0.06256184 0.29691121 0.06256172
0.06256184 0.29691121 0.06256172
0.08497465 0.29691121 0.06256172
0.10918008 0.29691121 0.06256172
0.13435261 0.29691121 0.06256172
0.16023857 0.29691121 0.06256184
0.18670158 0.29691121 0.06256172
0.21365443 0.29691121 0.06256184
0.24103582 0.29691121 0.06256172
0.26879998 0.29691121 0.06256172
0.29691121 0.29691121 0.06256172
0.32534079 0.29691121 0.06256172
0.35406504 0.29691121 0.06256172
0.38306408 0.29691121 0.06256172
0.41232089 0.29691121 0.06256189
0.44182077 0.29691121 0.06256172
0.47155085 0.29691121 0.06256172
0.50149976 0.29691121 0.06256172
0.53165737 0.29691121 0.06256172
0.56201458 0.29691121 0.06256172
0.59256319 0.29691121 0.06256172
0.62329575 0.29691121 0.06256197
0.65420546 0.29691121 0.06256197
0.68528608 0.29691121 0.06256172
0.71653186 0.29691121 0.06256200
0.74793750 0.29691121 0.06256172
0.77949807 0.29691121 0.06256172
0.81120901 0.29691121 0.06256208
0.84306603 0.29691121 0.06256172
0.87506515 0.29691121 0.06256172
0.90720262 0.29691121 0.06256172
0.91886608 0.29691121 0.06256172
0.06256186 0.32534079 0.06256185
0.06256186 0.32534079 0.06256185
0.06256186 0.32534079 0.06256185
0.08497465 0.32534079 0.06256185
0.10918008 0.32534079 0.06256172
0.13435261 0.32534079 0.06256185
0.16023857 0.32534079 0.06256185
0.18670158 0.32534079 0.06256185
0.21365443 0.32534079 0.06256172
0.24103582 0.32534079 0.06256185
0.26879998 0.32534079 0.06256172
0.29691121 0.32534079 0.06256172
0.32534079 0.32534079 0.06256187
0.35406504 0.32534079 0.06256172
0.38306408 0.32534079 0.06256172
0.41232089 0.32534079 0.06256172
0.44182077 0.32534079 0.06256172
0.47155085 0.32534079 0.06256172
0.50149976 0.32534079 0.06256172
0.53165737 0.32534079 0.06256172
0.56201458 0.32534079 0.06256172
0.59256319 0.32534079 0.06256172
0.62329575 0.32534079 0.06256172
0.65420546 0.32534079 0.06256172
0.68528608 0.32534079 0.06256172
0.71653186 0.32534079 0.06256172
0.74793750 0.32534079 0.06256204
0.77949807 0.32534079 0.06256204
0.81120901 0.32534079 0.06256208
0.84306603 0.32534079 0.06256172
0.87506515 0.32534079 0.06256172
0.90720262 0.32534079 0.06256172
0.91886608 0.32534079 0.06256172
0.06256188 0.35406504 0.06256172
0.06256188 0.35406504 0.06256172
0.06256188 0.35406504 0.06256172
0.08497465 0.35406504 0.06256185
0.10918008 0.35406504 0.06256172
0.13435261 0.35406504 0.06256172
0.16023857 0.35406504 0.06256185
0.18670158 0.35406504 0.06256172
0.21365443 0.35406504 0.06256172
0.24103582 0.35406504 0.06256187
0.26879998 0.35406504 0.06256172
0.29691121 0.35406504 0.06256187
0.32534079 0.35406504 0.06256172
0.35406504 0.35406504 0.06256187
0.38306408 0.35406504 0.06256172
0.41232089 0.35406504 0.06256172
0.44182077 0.35406504 0.06256172
0.47155085 0.35406504 0.06256172
0.50149976 0.35406504 0.06256172
0.53165737 0.35406504 0.06256191
0.56201458 0.35406504 0.06256172
0.59256319 0.35406504 0.06256172
0.62329575 0.35406504 0.06256172
0.65420546 0.35406504 0.06256197
0.68528608 0.35406504 0.06256172
0.71653186 0.35406504 0.06256200
0.74793750 0.35406504 0.06256172
0.77949807 0.35406504 0.06256172
0.81120901 0.35406504 0.06256172
0.84306603 0.35406504 0.06256172
0.87506515 0.35406504 0.06256213
0.90720262 0.35406504 0.06256172
0.91886608 0.35406504 0.06256219
0.06256188 0.38306408 0.06256172
0.06256188 0.38306408 0.06256172
0.06256188 0.38306408 0.06256172
0.08497465 0.38306408 0.06256172
0.10918008 0.38306408 0.06256172
0.13435261 0.38306408 0.06256172
0.16023857 0.38306408 0.06256172
0.18670158 0.38306408 0.06256172
0.21365443 0.38306408 0.06256172
0.24103582 0.38306408 0.06256172
0.26879998 0.38306408 0.06256172
0.29691121 0.38306408 0.06256172
0.32534079 0.38306408 0.06256172
0.35406504 0.38306408 0.06256172
0.38306408 0.38306408 0.06256172
0.41232089 0.38306408 0.06256172
0.44182077 0.38306408 0.06256172
0.47155085 0.38306408 0.06256191
0.50149976 0.38306408 0.06256172
0.53165737 0.38306408 0.06256172
0.56201458 0.38306408 0.06256172
0.59256319 0.38306408 0.06256172
0.62329575 0.38306408 0.06256172
0.65420546 0.38306408 0.06256172
0.68528608 0.38306408 0.06256172
0.71653186 0.38306408 0.06256172
0.74793750 0.38306408 0.06256172
0.77949807 0.38306408 0.06256172
0.81120901 0.38306408 0.06256172
0.84306603 0.38306408 0.06256172
0.87506515 0.38306408 0.06256172
0.90720262 0.38306408 0.06256172
0.91886608 0.38306408 0.06256219
0.06256191 0.41232089 0.06256172
0.06256191 0.41232089 0.06256172
0.06256191 0.41232089 0.06256172
0.08497465 0.41232089 0.06256172
0.10918008 0.41232089 0.06256172
0.13435261 0.41232089 0.06256172
0.16023857 0.41232089 0.06256172
0.18670158 0.41232089 0.06256172
0.21365443 0.41232089 0.06256172
0.24103582 0.41232089 0.06256172
0.26879998 0.41232089 0.06256172
0.29691121 0.41232089 0.06256172
0.32534079 0.41232089 0.06256172
0.35406504 0.41232089 0.06256172
0.38306408 0.41232089 0.06256172
0.41232089 0.41232089 0.06256189
0.44182077 0.41232089 0.06256172
0.47155085 0.41232089 0.06256172
0.50149976 0.41232089 0.06256172
0.53165737 0.41232089 0.06256172
0.56201458 0.41232089 0.06256172
0.59256319 0.41232089 0.06256172
0.62329575 0.41232089 0.06256172
0.65420546 0.41232089 0.06256172
0.68528608 0.41232089 0.06256172
0.71653186 0.41232089 0.06256172
0.74793750 0.41232089 0.06256172
0.77949807 0.41232089 0.06256172
0.81120901 0.41232089 0.06256172
0.84306603 0.41232089 0.06256172
0.87506515 0.41232089 0.06256172
0.90720262 0.41232089 0.06256172
0.91886608 0.41232089 0.06256172
0.06256172 0.44182077 0.06256172
0.06256172 0.44182077 0.06256172
0.06256172 0.44182077 0.06256172
0.08497465 0.44182077 0.06256172
0.10918008 0.44182077 0.06256172
0.13435261 0.44182077 0.06256172
0.16023857 0.44182077 0.06256172
0.18670158 0.44182077 0.06256172
0.21365443 0.44182077 0.06256172
0.24103582 0.44182077 0.06256172
0.26879998 0.44182077 0.06256172
0.29691121 0.44182077 0.06256172
0.32534079 0.44182077 0.06256172
0.35406504 0.44182077 0.06256172
0.38306408 0.44182077 0.06256172
0.41232089 0.44182077 0.06256172
0.44182077 0.44182077 0.06256172
0.47155085 0.44182077 0.06256191
0.50149976 0.44182077 0.06256172
0.53165737 0.44182077 0.06256172
0.56201458 0.44182077 0.06256172
0.59256319 0.44182077 0.06256172
0.62329575 0.44182077 0.06256197
0.65420546 0.44182077 0.06256197
0.68528608 0.44182077 0.06256172
0.71653186 0.44182077 0.06256200
0.74793750 0.44182077 0.06256172
0.77949807 0.44182077 0.06256172
0.81120901 0.44182077 0.06256172
0.84306603 0.44182077 0.06256172
0.87506515 0.44182077 0.06256213
0.90720262 0.44182077 0.06256172
0.91886608 0.44182077 0.06256172
0.06256194 0.47155085 0.06256191
0.06256194 0.47155085 0.06256191
0.06256194 0.47155085 0.06256191
0.08497465 0.47155085 0.06256191
0.10918008 0.47155085 0.06256191
0.13435261 0.47155085 0.06256172
0.16023857 0.47155085 0.06256172
0.18670158 0.47155085 0.06256172
0.21365443 0.47155085 0.06256172
0.24103582 0.47155085 0.06256172
0.26879998 0.47155085 0.06256172
0.29691121 0.47155085 0.06256191
0.32534079 0.47155085 0.06256172
0.35406504 0.47155085 0.06256191
0.38306408 0.47155085 0.06256172
0.41232089 0.47155085 0.06256172
0.44182077 0.47155085 0.06256172
0.47155085 0.47155085 0.06256191
0.50149976 0.47155085 0.06256194
0.53165737 0.47155085 0.06256172
0.56201458 0.47155085 0.06256172
0.59256319 0.47155085 0.06256172
0.62329575 0.47155085 0.06256172
0.65420546 0.47155085 0.06256197
0.68528608 0.47155085 0.06256172
0.71653186 0.47155085 0.06256172
0.74793750 0.47155085 0.06256172
0.77949807 0.47155085 0.06256172
0.81120901 0.47155085 0.06256208
0.84306603 0.47155085 0.06256172
0.87506515 0.47155085 0.06256172
0.90720262 0.47155085 0.06256172
0.91886608 0.47155085 0.06256219
0.06256195 0.50149976 0.06256172
0.06256195 0.50149976 0.06256172
0.06256195 0.50149976 0.06256172
0.08497465 0.50149976 0.06256172
0.10918008 0.50149976 0.06256172
0.13435261 0.50149976 0.06256172
0.16023857 0.50149976 0.06256172
0.18670158 0.50149976 0.06256172
0.21365443 0.50149976 0.06256172
0.24103582 0.50149976 0.06256172
0.26879998 0.50149976 0.06256172
0.29691121 0.50149976 0.06256172
0.32534079 0.50149976 0.06256172
0.35406504 0.50149976 0.06256172
0.38306408 0.50149976 0.06256191
0.41232089 0.50149976 0.06256172
0.44182077 0.50149976 0.06256172
0.47155085 0.50149976 0.06256172
0.50149976 0.50149976 0.06256172
0.53165737 0.50149976 0.06256172
0.56201458 0.50149976 0.06256172
0.59256319 0.50149976 0.06256172
0.62329575 0.50149976 0.06256172
0.65420546 0.50149976 0.06256172
0.68528608 0.50149976 0.06256172
0.71653186 0.50149976 0.06256204
0.74793750 0.50149976 0.06256172
0.77949807 0.50149976 0.06256172
0.81120901 0.50149976 0.06256208
0.84306603 0.50149976 0.06256172
0.87506515 0.50149976 0.06256172
0.90720262 0.50149976 0.06256172
0.91886608 0.50149976 0.06256172
0.06256192 0.53165737 0.06256172
0.06256192 0.53165737 0.06256172
0.06256192 0.53165737 0.06256172
0.08497465 0.53165737 0.06256172
0.10918008 0.53165737 0.06256172
0.13435261 0.53165737 0.06256172
0.16023857 0.53165737 0.06256172
0.18670158 0.53165737 0.06256172
0.21365443 0.53165737 0.06256172
0.24103582 0.53165737 0.06256172
0.26879998 0.53165737 0.06256172
0.29691121 0.53165737 0.06256172
0.32534079 0.53165737 0.06256172
0.35406504 0.53165737 0.06256172
0.38306408 0.53165737 0.06256172
0.41232089 0.53165737 0.06256172
0.44182077 0.53165737 0.06256172
0.47155085 0.53165737 0.06256172
0.50149976 0.53165737 0.06256172
0.53165737 0.53165737 0.06256172
0.56201458 0.53165737 0.06256172
0.59256319 0.53165737 0.06256172
0.62329575 0.53165737 0.06256172
0.65420546 0.53165737 0.06256172
0.68528608 0.53165737 0.06256172
0.71653186 0.53165737 0.06256172
0.74793750 0.53165737 0.06256204
0.77949807 0.53165737 0.06256204
0.81120901 0.53165737 0.06256208
0.84306603 0.53165737 0.06256172
0.87506515 0.53165737 0.06256172
0.90720262 0.53165737 0.06256172
0.91886608 0.53165737 0.06256219
0.06256187 0.56201458 0.06256172
0.06256187 0.56201458 0.06256172
0.06256187 0.56201458 0.06256172
0.08497465 0.56201458 0.06256172
0.10918008 0.56201458 0.06256172
0.13435261 0.56201458 0.06256172
0.16023857 0.56201458 0.06256172
0.18670158 0.56201458 0.06256172
0.21365443 0.56201458 0.06256172
0.24103582 0.56201458 0.06256172
0.26879998 0.56201458 0.06256172
0.29691121 0.56201458 0.06256172
0.32534079 0.56201458 0.06256172
0.35406504 0.56201458 0.06256172
0.38306408 0.56201458 0.06256172
0.41232089 0.56201458 0.06256172
0.44182077 0.56201458 0.06256194
0.47155085 0.56201458 0.06256172
0.50149976 0.56201458 0.06256172
0.53165737 0.56201458 0.06256172
0.56201458 0.56201458 0.06256172
0.59256319 0.56201458 0.06256172
0.62329575 0.56201458 0.06256172
0.65420546 0.56201458 0.06256200
0.68528608 0.56201458 0.06256172
0.71653186 0.56201458 0.06256172
0.74793750 0.56201458 0.06256172
0.77949807 0.56201458 0.06256172
0.81120901 0.56201458 0.06256172
0.84306603 0.56201458 0.06256172
0.87506515 0.56201458 0.06256172
0.90720262 0.56201458 0.06256213
0.91886608 0.56201458 0.06256172
0.06256198 0.59256319 0.06256172
0.06256198 0.59256319 0.06256172
0.06256198 0.59256319 0.06256172
0.08497465 0.59256319 0.06256172
0.10918008 0.59256319 0.06256172
0.13435261 0.59256319 0.06256197
0.16023857 0.59256319 0.06256172
0.18670158 0.59256319 0.06256172
0.21365443 0.59256319 0.06256172
0.24103582 0.59256319 0.06256197
0.26879998 0.59256319 0.06256172
0.29691121 0.59256319 0.06256172
0.32534079 0.59256319 0.06256172
0.35406504 0.59256319 0.06256172
0.38306408 0.59256319 0.06256197
0.41232089 0.59256319 0.06256172
0.44182077 0.59256319 0.06256172
0.47155085 0.59256319 0.06256172
0.50149976 0.59256319 0.06256172
0.53165737 0.59256319 0.06256172
0.56201458 0.59256319 0.06256172
0.59256319 0.59256319 0.06256172
0.62329575 0.59256319 0.06256172
0.65420546 0.59256319 0.06256172
0.68528608 0.59256319 0.06256172
0.71653186 0.59256319 0.06256200
0.74793750 0.59256319 0.06256172
