src/ffmpeg_scripts/luts/luminance_-2p33.cube
TITLE "luminance_-2p33"
LUT_3D_SIZE 5
# PQ (EOTF Only)/Rec2020 -> PQ (EOTF Only)/Rec2020, CineEI Shift -2.33, Black Level 0.00% IRE, Input 109% -> Output 109% - Created with LUTCalc v4.01 by Ben Turley October 2020
0.06256172 0.06256172 0.06256172
0.17301417 0.06256172 0.06256172
0.36972684 0.06256189 0.06256185
0.59997014 0.06256172 0.06256172
0.85596642 0.06256200 0.06256172
0.06256180 0.17301417 0.06256172
0.17301417 0.17301417 0.06256172
0.36972684 0.17301417 0.06256185
0.59997014 0.17301417 0.06256172
0.85596642 0.17301417 0.06256172
0.06256172 0.36972684 0.06256172
0.17301417 0.36972684 0.06256172
0.36972684 0.36972684 0.06256172
0.59997014 0.36972684 0.06256172
0.85596642 0.36972684 0.06256172
0.06256201 0.59997014 0.06256172
0.17301417 0.59997014 0.06256197
0.36972684 0.59997014 0.06256172
0.59997014 0.59997014 0.06256197
0.85596642 0.59997014 0.06256213
0.06256214 0.85596642 0.06256172
0.17301417 0.85596642 0.06256213
0.36972684 0.85596642 0.06256172
0.59997014 0.85596642 0.06256213
0.85596642 0.85596642 0.06256172
0.06256180 0.06256182 0.17301417
0.17301417 0.06256182 0.17301417
0.36972684 0.06256188 0.17301417
0.59997014 0.06256194 0.17301417
0.85596642 0.06256214 0.17301417
0.06256181 0.17301417 0.17301417
0.17301417 0.17301417 0.17301417
0.36972684 0.17301417 0.17301417
0.59997014 0.17301417 0.17301417
0.85596642 0.17301417 0.17301417
0.06256189 0.36972684 0.17301417
0.17301417 0.36972684 0.17301417
0.36972684 0.36972684 0.17301417
0.59997014 0.36972684 0.17301417
0.85596642 0.36972684 0.17301417
0.06256172 0.59997014 0.17301417
0.17301417 0.59997014 0.17301417
0.36972684 0.59997014 0.17301417
0.59997014 0.59997014 0.17301417
0.85596642 0.59997014 0.17301417
0.06256172 0.85596642 0.17301417
0.17301417 0.85596642 0.17301417
0.36972684 0.85596642 0.17301417
0.59997014 0.85596642 0.17301417
0.85596642 0.85596642 0.17301417
0.06256187 0.06256191 0.36972684
0.17301417 0.06256172 0.36972684
0.36972684 0.06256172 0.36972684
0.59997014 0.06256197 0.36972684
0.85596642 0.06256213 0.36972684
0.06256172 0.17301417 0.36972684
0.17301417 0.17301417 0.36972684
0.36972684 0.17301417 0.36972684
0.59997014 0.17301417 0.36972684
0.85596642 0.17301417 0.36972684
0.06256172 0.36972684 0.36972684
0.17301417 0.36972684 0.36972684
0.36972684 0.36972684 0.36972684
0.59997014 0.36972684 0.36972684
0.85596642 0.36972684 0.36972684
0.06256197 0.59997014 0.36972684
0.17301417 0.59997014 0.36972684
0.36972684 0.59997014 0.36972684
0.59997014 0.59997014 0.36972684
0.85596642 0.59997014 0.36972684
0.06256172 0.85596642 0.36972684
0.17301417 0.85596642 0.36972684
0.36972684 0.85596642 0.36972684
0.59997014 0.85596642 0.36972684
0.85596642 0.85596642 0.36972684
0.06256172 0.06256204 0.59997014
0.17301417 0.06256172 0.59997014
0.36972684 0.06256204 0.59997014
0.59997014 0.06256172 0.59997014
0.85596642 0.06256172 0.59997014
0.06256172 0.17301417 0.59997014
0.17301417 0.17301417 0.59997014
0.36972684 0.17301417 0.59997014
0.59997014 0.17301417 0.59997014
0.85596642 0.17301417 0.59997014
0.06256172 0.36972684 0.59997014
0.17301417 0.36972684 0.59997014
0.36972684 0.36972684 0.59997014
0.59997014 0.36972684 0.59997014
0.85596642 0.36972684 0.59997014
0.06256172 0.59997014 0.59997014
0.17301417 0.59997014 0.59997014
0.36972684 0.59997014 0.59997014
0.59997014 0.59997014 0.59997014
0.85596642 0.59997014 0.59997014
0.06256213 0.85596642 0.59997014
0.17301417 0.85596642 0.59997014
0.36972684 0.85596642 0.59997014
0.59997014 0.85596642 0.59997014
0.85596642 0.85596642 0.59997014
0.06256172 0.06256235 0.85596642
0.17301417 0.06256235 0.85596642
0.36972684 0.06256227 0.85596642
0.59997014 0.06256227 0.85596642
0.85596642 0.06256227 0.85596642
0.06256172 0.17301417 0.85596642
0.17301417 0.17301417 0.85596642
0.36972684 0.17301417 0.85596642
0.59997014 0.17301417 0.85596642
0.85596642 0.17301417 0.85596642
0.06256172 0.36972684 0.85596642
0.17301417 0.36972684 0.85596642
0.36972684 0.36972684 0.85596642
0.59997014 0.36972684 0.85596642
0.85596642 0.36972684 0.85596642
0.06256172 0.59997014 0.85596642
0.17301417 0.59997014 0.85596642
0.36972684 0.59997014 0.85596642
0.59997014 0.59997014 0.85596642
0.85596642 0.59997014 0.85596642
0.06256219 0.85596642 0.85596642
0.17301417 0.85596642 0.85596642
0.36972684 0.85596642 0.85596642
0.59997014 0.85596642 0.85596642
0.85596642 0.85596642 0.85596642
