src/ffmpeg_scripts/luts/luminance_3p00.cube
TITLE "luminance_3p00"
LUT_3D_SIZE 5
# PQ (EOTF Only)/Rec2020 -> PQ (EOTF Only)/Rec2020, CineEI Shift 3.00, Black Level 0.00% IRE, Input 109% -> Output 109% - Created with LUTCalc v4.01 by Ben Turley October 2020
0.06256172 0.06256172 0.06256172
0.38841341 0.06256172 0.06256172
0.68811012 0.06256203 0.06256172
0.91886608 0.06256215 0.06256172
0.91886608 0.06256259 0.06256257
0.06256172 0.38841341 0.06256172
0.38841341 0.38841341 0.06256172
0.68811012 0.38841341 0.06256172
0.91886608 0.38841341 0.06256172
0.91886608 0.38841341 0.06256172
0.06256172 0.68811012 0.06256172
0.38841341 0.68811012 0.06256172
0.68811012 0.68811012 0.06256172
0.91886608 0.68811012 0.06256172
0.91886608 0.68811012 0.06256172
0.06256222 0.91886608 0.06256172
0.38841341 0.91886608 0.06256172
0.68811012 0.91886608 0.06256172
0.91886608 0.91886608 0.06256172
0.91886608 0.91886608 0.06256257
0.06256272 0.91886608 0.06256172
0.38841341 0.91886608 0.06256172
0.68811012 0.91886608 0.06256172
0.91886608 0.91886608 0.06256172
0.91886608 0.91886608 0.06256172
0.06256172 0.06256172 0.38841341
0.38841341 0.06256191 0.38841341
0.68811012 0.06256200 0.38841341
0.91886608 0.06256208 0.38841341
0.91886608 0.06256259 0.38841341
0.06256172 0.38841341 0.38841341
0.38841341 0.38841341 0.38841341
0.68811012 0.38841341 0.38841341
0.91886608 0.38841341 0.38841341
0.91886608 0.38841341 0.38841341
0.06256201 0.68811012 0.38841341
0.38841341 0.68811012 0.38841341
0.68811012 0.68811012 0.38841341
0.91886608 0.68811012 0.38841341
0.91886608 0.68811012 0.38841341
0.06256223 0.91886608 0.38841341
0.38841341 0.91886608 0.38841341
0.68811012 0.91886608 0.38841341
0.91886608 0.91886608 0.38841341
0.91886608 0.91886608 0.38841341
0.06256267 0.91886608 0.38841341
0.38841341 0.91886608 0.38841341
0.68811012 0.91886608 0.38841341
0.91886608 0.91886608 0.38841341
0.91886608 0.91886608 0.38841341
0.06256172 0.06256172 0.68811012
0.38841341 0.06256208 0.68811012
0.68811012 0.06256213 0.68811012
0.91886608 0.06256219 0.68811012
0.91886608 0.06256270 0.68811012
0.06256172 0.38841341 0.68811012
0.38841341 0.38841341 0.68811012
0.68811012 0.38841341 0.68811012
0.91886608 0.38841341 0.68811012
0.91886608 0.38841341 0.68811012
0.06256172 0.68811012 0.68811012
0.38841341 0.68811012 0.68811012
0.68811012 0.68811012 0.68811012
0.91886608 0.68811012 0.68811012
0.91886608 0.68811012 0.68811012
0.06256237 0.91886608 0.68811012
0.38841341 0.91886608 0.68811012
0.68811012 0.91886608 0.68811012
0.91886608 0.91886608 0.68811012
0.91886608 0.91886608 0.68811012
0.06256270 0.91886608 0.68811012
0.38841341 0.91886608 0.68811012
0.68811012 0.91886608 0.68811012
0.91886608 0.91886608 0.68811012
0.91886608 0.91886608 0.68811012
0.06256172 0.06256172 0.91886608
0.38841341 0.06256172 0.91886608
0.68811012 0.06256172 0.91886608
0.91886608 0.06256172 0.91886608
0.91886608 0.06256172 0.91886608
0.06256172 0.38841341 0.91886608
0.38841341 0.38841341 0.91886608
0.68811012 0.38841341 0.91886608
0.91886608 0.38841341 0.91886608
0.91886608 0.38841341 0.91886608
0.06256172 0.68811012 0.91886608
0.38841341 0.68811012 0.91886608
0.68811012 0.68811012 0.91886608
0.91886608 0.68811012 0.91886608
0.91886608 0.68811012 0.91886608
0.06256172 0.91886608 0.91886608
0.38841341 0.91886608 0.91886608
0.68811012 0.91886608 0.91886608
0.91886608 0.91886608 0.91886608
0.91886608 0.91886608 0.91886608
0.06256276 0.91886608 0.91886608
0.38841341 0.91886608 0.91886608
0.68811012 0.91886608 0.91886608
0.91886608 0.91886608 0.91886608
0.91886608 0.91886608 0.91886608
0.06256172 0.06256172 0.91886608
0.38841341 0.06256311 0.91886608
0.68811012 0.06256289 0.91886608
0.91886608 0.06256289 0.91886608
0.91886608 0.06256289 0.91886608
0.06256172 0.38841341 0.91886608
0.38841341 0.38841341 0.91886608
0.68811012 0.38841341 0.91886608
0.91886608 0.38841341 0.91886608
0.91886608 0.38841341 0.91886608
0.06256172 0.68811012 0.91886608
0.38841341 0.68811012 0.91886608
0.68811012 0.68811012 0.91886608
0.91886608 0.68811012 0.91886608
0.91886608 0.68811012 0.91886608
0.06256172 0.91886608 0.91886608
0.38841341 0.91886608 0.91886608
0.68811012 0.91886608 0.91886608
0.91886608 0.91886608 0.91886608
0.91886608 0.91886608 0.91886608
0.06256272 0.91886608 0.91886608
0.38841341 0.91886608 0.91886608
0.68811012 0.91886608 0.91886608
0.91886608 0.91886608 0.91886608
0.91886608 0.91886608 0.91886608
