src/ffmpeg_scripts/luts/luminance_-3p67.cube
TITLE "luminance_-3p67"
LUT_3D_SIZE 5
# PQ (EOTF Only)/Rec2020 -> PQ (EOTF Only)/Rec2020, CineEI Shift -3.67, Black Level 0.00% IRE, Input 109% -> Output 109% - Created with LUTCalc v4.01 by Ben Turley October 2020
0.06256172 0.06256172 0.06256172
0.14088619 0.06256172 0.06256172
0.30514064 0.06256182 0.06256172
0.51739665 0.06256187 0.06256172
0.77035029 0.06256205 0.06256208
0.06256179 0.14088619 0.06256172
0.14088619 0.14088619 0.06256172
0.30514064 0.14088619 0.06256184
0.51739665 0.14088619 0.06256191
0.77035029 0.14088619 0.06256172
0.06256184 0.30514064 0.06256172
0.14088619 0.30514064 0.06256172
0.30514064 0.30514064 0.06256172
0.51739665 0.30514064 0.06256172
0.77035029 0.30514064 0.06256172
0.06256185 0.51739665 0.06256172
0.14088619 0.51739665 0.06256172
0.30514064 0.51739665 0.06256191
0.51739665 0.51739665 0.06256194
0.77035029 0.51739665 0.06256204
0.06256207 0.77035029 0.06256172
0.14088619 0.77035029 0.06256204
0.30514064 0.77035029 0.06256172
0.51739665 0.77035029 0.06256204
0.77035029 0.77035029 0.06256172
0.06256172 0.06256182 0.14088619
0.14088619 0.06256181 0.14088619
0.30514064 0.06256184 0.14088619
0.51739665 0.06256191 0.14088619
0.77035029 0.06256202 0.14088619
0.06256179 0.14088619 0.14088619
0.14088619 0.14088619 0.14088619
0.30514064 0.14088619 0.14088619
0.51739665 0.14088619 0.14088619
0.77035029 0.14088619 0.14088619
0.06256187 0.30514064 0.14088619
0.14088619 0.30514064 0.14088619
0.30514064 0.30514064 0.14088619
0.51739665 0.30514064 0.14088619
0.77035029 0.30514064 0.14088619
0.06256187 0.51739665 0.14088619
0.14088619 0.51739665 0.14088619
0.30514064 0.51739665 0.14088619
0.51739665 0.51739665 0.14088619
0.77035029 0.51739665 0.14088619
0.06256206 0.77035029 0.14088619
0.14088619 0.77035029 0.14088619
0.30514064 0.77035029 0.14088619
0.51739665 0.77035029 0.14088619
0.77035029 0.77035029 0.14088619
0.06256185 0.06256189 0.30514064
0.14088619 0.06256172 0.30514064
0.30514064 0.06256172 0.30514064
0.51739665 0.06256194 0.30514064
0.77035029 0.06256210 0.30514064
0.06256172 0.14088619 0.30514064
0.14088619 0.14088619 0.30514064
0.30514064 0.14088619 0.30514064
0.51739665 0.14088619 0.30514064
0.77035029 0.14088619 0.30514064
0.06256172 0.30514064 0.30514064
0.14088619 0.30514064 0.30514064
0.30514064 0.30514064 0.30514064
0.51739665 0.30514064 0.30514064
0.77035029 0.30514064 0.30514064
0.06256198 0.51739665 0.30514064
0.14088619 0.51739665 0.30514064
0.30514064 0.51739665 0.30514064
0.51739665 0.51739665 0.30514064
0.77035029 0.51739665 0.30514064
0.06256172 0.77035029 0.30514064
0.14088619 0.77035029 0.30514064
0.30514064 0.77035029 0.30514064
0.51739665 0.77035029 0.30514064
0.77035029 0.77035029 0.30514064
0.06256172 0.06256202 0.51739665
0.14088619 0.06256172 0.51739665
0.30514064 0.06256172 0.51739665
0.51739665 0.06256172 0.51739665
0.77035029 0.06256204 0.51739665
0.06256172 0.14088619 0.51739665
0.14088619 0.14088619 0.51739665
0.30514064 0.14088619 0.51739665
0.51739665 0.14088619 0.51739665
0.77035029 0.14088619 0.51739665
0.06256172 0.30514064 0.51739665
0.14088619 0.30514064 0.51739665
0.30514064 0.30514064 0.51739665
0.51739665 0.30514064 0.51739665
0.77035029 0.30514064 0.51739665
0.06256172 0.51739665 0.51739665
0.14088619 0.51739665 0.51739665
0.30514064 0.51739665 0.51739665
0.51739665 0.51739665 0.51739665
0.77035029 0.51739665 0.51739665
0.06256208 0.77035029 0.51739665
0.14088619 0.77035029 0.51739665
0.30514064 0.77035029 0.51739665
0.51739665 0.77035029 0.51739665
0.77035029 0.77035029 0.51739665
0.06256172 0.06256219 0.77035029
0.14088619 0.06256223 0.77035029
0.30514064 0.06256223 0.77035029
0.51739665 0.06256219 0.77035029
0.77035029 0.06256219 0.77035029
0.06256208 0.14088619 0.77035029
0.14088619 0.14088619 0.77035029
0.30514064 0.14088619 0.77035029
0.51739665 0.14088619 0.77035029
0.77035029 0.14088619 0.77035029
0.06256172 0.30514064 0.77035029
0.14088619 0.30514064 0.77035029
0.30514064 0.30514064 0.77035029
0.51739665 0.30514064 0.77035029
0.77035029 0.30514064 0.77035029
0.06256172 0.51739665 0.77035029
0.14088619 0.51739665 0.77035029
0.30514064 0.51739665 0.77035029
0.51739665 0.51739665 0.77035029
0.77035029 0.51739665 0.77035029
0.06256172 0.77035029 0.77035029
0.14088619 0.77035029 0.77035029
0.30514064 0.77035029 0.77035029
0.51739665 0.77035029 0.77035029
0.77035029 0.77035029 0.77035029
