src/ffmpeg_scripts/luts/luminance_1p00.cube
TITLE "luminance_1p00"
LUT_3D_SIZE 5
# PQ (EOTF Only)/Rec2020 -> PQ (EOTF Only)/Rec2020, CineEI Shift 1.00, Black Level 0.00% IRE, Input 109% -> Output 109% - Created with LUTCalc v4.01 by Ben Turley October 2020
0.06256172 0.06256172 0.06256172
0.29138472 0.06256172 0.06256172
0.56094033 0.06256196 0.06256172
0.81454685 0.06256205 0.06256172
0.91886608 0.06256237 0.06256235
0.06256172 0.29138472 0.06256172
0.29138472 0.29138472 0.06256172
0.56094033 0.29138472 0.06256172
0.81454685 0.29138472 0.06256172
0.91886608 0.29138472 0.06256172
0.06256172 0.56094033 0.06256172
0.29138472 0.56094033 0.06256172
0.56094033 0.56094033 0.06256172
0.81454685 0.56094033 0.06256172
0.91886608 0.56094033 0.06256172
0.06256210 0.81454685 0.06256172
0.29138472 0.81454685 0.06256172
0.56094033 0.81454685 0.06256172
0.81454685 0.81454685 0.06256172
0.91886608 0.81454685 0.06256235
0.06256245 0.91886608 0.06256172
0.29138472 0.91886608 0.06256172
0.56094033 0.91886608 0.06256172
0.81454685 0.91886608 0.06256172
0.91886608 0.91886608 0.06256172
0.06256172 0.06256172 0.29138472
0.29138472 0.06256187 0.29138472
0.56094033 0.06256194 0.29138472
0.81454685 0.06256200 0.29138472
0.91886608 0.06256237 0.29138472
0.06256172 0.29138472 0.29138472
0.29138472 0.29138472 0.29138472
0.56094033 0.29138472 0.29138472
0.81454685 0.29138472 0.29138472
0.91886608 0.29138472 0.29138472
0.06256195 0.56094033 0.29138472
0.29138472 0.56094033 0.29138472
0.56094033 0.56094033 0.29138472
0.81454685 0.56094033 0.29138472
0.91886608 0.56094033 0.29138472
0.06256211 0.81454685 0.29138472
0.29138472 0.81454685 0.29138472
0.56094033 0.81454685 0.29138472
0.81454685 0.81454685 0.29138472
0.91886608 0.81454685 0.29138472
0.06256242 0.91886608 0.29138472
0.29138472 0.91886608 0.29138472
0.56094033 0.91886608 0.29138472
0.81454685 0.91886608 0.29138472
0.91886608 0.91886608 0.29138472
0.06256172 0.06256172 0.56094033
0.29138472 0.06256200 0.56094033
0.56094033 0.06256204 0.56094033
0.81454685 0.06256208 0.56094033
0.91886608 0.06256244 0.56094033
0.06256172 0.29138472 0.56094033
0.29138472 0.29138472 0.56094033
0.56094033 0.29138472 0.56094033
0.81454685 0.29138472 0.56094033
0.91886608 0.29138472 0.56094033
0.06256172 0.56094033 0.56094033
0.29138472 0.56094033 0.56094033
0.56094033 0.56094033 0.56094033
0.81454685 0.56094033 0.56094033
0.91886608 0.56094033 0.56094033
0.06256221 0.81454685 0.56094033
0.29138472 0.81454685 0.56094033
0.56094033 0.81454685 0.56094033
0.81454685 0.81454685 0.56094033
0.91886608 0.81454685 0.56094033
0.06256244 0.91886608 0.56094033
0.29138472 0.91886608 0.56094033
0.56094033 0.91886608 0.56094033
0.81454685 0.91886608 0.56094033
0.91886608 0.91886608 0.56094033
0.06256172 0.06256172 0.81454685
0.29138472 0.06256172 0.81454685
0.56094033 0.06256172 0.81454685
0.81454685 0.06256172 0.81454685
0.91886608 0.06256172 0.81454685
0.06256172 0.29138472 0.81454685
0.29138472 0.29138472 0.81454685
0.56094033 0.29138472 0.81454685
0.81454685 0.29138472 0.81454685
0.91886608 0.29138472 0.81454685
0.06256172 0.56094033 0.81454685
0.29138472 0.56094033 0.81454685
0.56094033 0.56094033 0.81454685
0.81454685 0.56094033 0.81454685
0.91886608 0.56094033 0.81454685
0.06256172 0.81454685 0.81454685
0.29138472 0.81454685 0.81454685
0.56094033 0.81454685 0.81454685
0.81454685 0.81454685 0.81454685
0.91886608 0.81454685 0.81454685
0.06256248 0.91886608 0.81454685
0.29138472 0.91886608 0.81454685
0.56094033 0.91886608 0.81454685
0.81454685 0.91886608 0.81454685
0.91886608 0.91886608 0.81454685
0.06256172 0.06256172 0.91886608
0.29138472 0.06256272 0.91886608
0.56094033 0.06256257 0.91886608
0.81454685 0.06256257 0.91886608
0.91886608 0.06256257 0.91886608
0.06256172 0.29138472 0.91886608
0.29138472 0.29138472 0.91886608
0.56094033 0.29138472 0.91886608
0.81454685 0.29138472 0.91886608
0.91886608 0.29138472 0.91886608
0.06256172 0.56094033 0.91886608
0.29138472 0.56094033 0.91886608
0.56094033 0.56094033 0.91886608
0.81454685 0.56094033 0.91886608
0.91886608 0.56094033 0.91886608
0.06256172 0.81454685 0.91886608
0.29138472 0.81454685 0.91886608
0.56094033 0.81454685 0.91886608
0.81454685 0.81454685 0.91886608
0.91886608 0.81454685 0.91886608
0.06256245 0.91886608 0.91886608
0.29138472 0.91886608 0.91886608
0.56094033 0.91886608 0.91886608
0.81454685 0.91886608 0.91886608
0.91886608 0.91886608 0.91886608
