src/ffmpeg_scripts/luts/luminance-unclipped_-3p33.cube
TITLE "luminance-unclipped_-3p33"
LUT_3D_SIZE 33
# PQ (EOTF Only)/Rec2020 -> PQ (EOTF Only)/Rec2020, CineEI Shift -3.33, Black Level -7.25% IRE, Input 109% -> Output 109% - Created with LUTCalc v4.01 by Ben Turley October 2020
0.00047898 0.00047898 0.00047898
0.00047898 0.00047898 0.00047898
0.00047898 0.00047898 0.00047898
0.01181476 0.00047898 0.00047898
0.02607272 0.00047903 0.00047898
0.04227859 0.00047898 0.00047898
0.06007344 0.00047904 0.00047904
0.07925213 0.00047905 0.00047898
0.09967767 0.00047898 0.00047898
0.12125033 0.00047898 0.00047898
0.14389343 0.00047898 0.00047898
0.16754566 0.00047907 0.00047898
0.19215660 0.00047898 0.00047909
0.21768383 0.00047907 0.00047910
0.24409107 0.00047908 0.00047898
0.27134678 0.00047898 0.00047898
0.29942330 0.00047910 0.00047914
0.32829603 0.00047898 0.00047914
0.35794298 0.00047914 0.00047914
0.38834431 0.00047916 0.00047898
0.41948202 0.00047898 0.00047898
0.45133965 0.00047921 0.00047918
0.48390212 0.00047898 0.00047898
0.51715553 0.00047898 0.00047898
0.55108700 0.00047898 0.00047898
0.58568457 0.00047898 0.00047923
0.62093711 0.00047920 0.00047898
0.65683418 0.00047923 0.00047898
0.69336602 0.00047930 0.00047898
0.73052344 0.00047898 0.00047898
0.76829779 0.00047923 0.00047898
0.80668089 0.00047898 0.00047898
0.84566501 0.00047931 0.00047935
0.00047898 0.00047898 0.00047898
0.00047898 0.00047898 0.00047898
0.00047898 0.00047898 0.00047898
0.01181476 0.00047898 0.00047898
0.02607272 0.00047903 0.00047898
0.04227859 0.00047898 0.00047898
0.06007344 0.00047904 0.00047904
0.07925213 0.00047905 0.00047898
0.09967767 0.00047898 0.00047898
0.12125033 0.00047898 0.00047898
0.14389343 0.00047898 0.00047898
0.16754566 0.00047907 0.00047898
0.19215660 0.00047898 0.00047909
0.21768383 0.00047907 0.00047910
0.24409107 0.00047908 0.00047898
0.27134678 0.00047898 0.00047898
0.29942330 0.00047910 0.00047914
0.32829603 0.00047898 0.00047914
0.35794298 0.00047914 0.00047914
0.38834431 0.00047916 0.00047898
0.41948202 0.00047898 0.00047898
0.45133965 0.00047921 0.00047918
0.48390212 0.00047898 0.00047898
0.51715553 0.00047898 0.00047898
0.55108700 0.00047898 0.00047898
0.58568457 0.00047898 0.00047923
0.62093711 0.00047920 0.00047898
0.65683418 0.00047923 0.00047898
0.69336602 0.00047930 0.00047898
0.73052344 0.00047898 0.00047898
0.76829779 0.00047923 0.00047898
0.80668089 0.00047898 0.00047898
0.84566501 0.00047931 0.00047935
0.00047898 0.00047898 0.00047898
0.00047898 0.00047898 0.00047898
0.00047898 0.00047898 0.00047898
0.01181476 0.00047898 0.00047898
0.02607272 0.00047903 0.00047898
0.04227859 0.00047898 0.00047898
0.06007344 0.00047904 0.00047904
0.07925213 0.00047905 0.00047898
0.09967767 0.00047898 0.00047898
0.12125033 0.00047898 0.00047898
0.14389343 0.00047898 0.00047898
0.16754566 0.00047907 0.00047898
0.19215660 0.00047898 0.00047909
0.21768383 0.00047907 0.00047910
0.24409107 0.00047908 0.00047898
0.27134678 0.00047898 0.00047898
0.29942330 0.00047910 0.00047914
0.32829603 0.00047898 0.00047914
0.35794298 0.00047914 0.00047914
0.38834431 0.00047916 0.00047898
0.41948202 0.00047898 0.00047898
0.45133965 0.00047921 0.00047918
0.48390212 0.00047898 0.00047898
0.51715553 0.00047898 0.00047898
0.55108700 0.00047898 0.00047898
0.58568457 0.00047898 0.00047923
0.62093711 0.00047920 0.00047898
0.65683418 0.00047923 0.00047898
0.69336602 0.00047930 0.00047898
0.73052344 0.00047898 0.00047898
0.76829779 0.00047923 0.00047898
0.80668089 0.00047898 0.00047898
0.84566501 0.00047931 0.00047935
0.00047902 0.01181476 0.00047898
0.00047902 0.01181476 0.00047898
0.00047902 0.01181476 0.00047898
0.01181476 0.01181476 0.00047898
0.02607272 0.01181476 0.00047898
0.04227859 0.01181476 0.00047898
0.06007344 0.01181476 0.00047898
0.07925213 0.01181476 0.00047898
0.09967767 0.01181476 0.00047898
0.12125033 0.01181476 0.00047907
0.14389343 0.01181476 0.00047898
0.16754566 0.01181476 0.00047898
0.19215660 0.01181476 0.00047898
0.21768383 0.01181476 0.00047898
0.24409107 0.01181476 0.00047910
0.27134678 0.01181476 0.00047898
0.29942330 0.01181476 0.00047914
0.32829603 0.01181476 0.00047898
0.35794298 0.01181476 0.00047898
0.38834431 0.01181476 0.00047898
0.41948202 0.01181476 0.00047916
0.45133965 0.01181476 0.00047898
0.48390212 0.01181476 0.00047918
0.51715553 0.01181476 0.00047898
0.55108700 0.01181476 0.00047898
0.58568457 0.01181476 0.00047898
0.62093711 0.01181476 0.00047898
0.65683418 0.01181476 0.00047898
0.69336602 0.01181476 0.00047898
0.73052344 0.01181476 0.00047898
0.76829779 0.01181476 0.00047935
0.80668089 0.01181476 0.00047898
0.84566501 0.01181476 0.00047940
0.00047904 0.02607272 0.00047898
0.00047904 0.02607272 0.00047898
0.00047904 0.02607272 0.00047898
0.01181476 0.02607272 0.00047898
0.02607272 0.02607272 0.00047898
0.04227859 0.02607272 0.00047898
0.06007344 0.02607272 0.00047906
0.07925213 0.02607272 0.00047906
0.09967767 0.02607272 0.00047898
0.12125033 0.02607272 0.00047907
0.14389343 0.02607272 0.00047898
0.16754566 0.02607272 0.00047908
0.19215660 0.02607272 0.00047898
0.21768383 0.02607272 0.00047898
0.24409107 0.02607272 0.00047910
0.27134678 0.02607272 0.00047898
0.29942330 0.02607272 0.00047898
0.32829603 0.02607272 0.00047914
0.35794298 0.02607272 0.00047898
0.38834431 0.02607272 0.00047898
0.41948202 0.02607272 0.00047898
0.45133965 0.02607272 0.00047898
0.48390212 0.02607272 0.00047898
0.51715553 0.02607272 0.00047920
0.55108700 0.02607272 0.00047898
0.58568457 0.02607272 0.00047898
0.62093711 0.02607272 0.00047923
0.65683418 0.02607272 0.00047898
0.69336602 0.02607272 0.00047927
0.73052344 0.02607272 0.00047898
0.76829779 0.02607272 0.00047898
0.80668089 0.02607272 0.00047898
0.84566501 0.02607272 0.00047898
0.00047898 0.04227859 0.00047898
0.00047898 0.04227859 0.00047898
0.00047898 0.04227859 0.00047898
0.01181476 0.04227859 0.00047898
0.02607272 0.04227859 0.00047898
0.04227859 0.04227859 0.00047898
0.06007344 0.04227859 0.00047905
0.07925213 0.04227859 0.00047906
0.09967767 0.04227859 0.00047907
0.12125033 0.04227859 0.00047907
0.14389343 0.04227859 0.00047898
0.16754566 0.04227859 0.00047898
0.19215660 0.04227859 0.00047898
0.21768383 0.04227859 0.00047898
0.24409107 0.04227859 0.00047898
0.27134678 0.04227859 0.00047898
0.29942330 0.04227859 0.00047898
0.32829603 0.04227859 0.00047898
0.35794298 0.04227859 0.00047898
0.38834431 0.04227859 0.00047898
0.41948202 0.04227859 0.00047916
0.45133965 0.04227859 0.00047918
0.48390212 0.04227859 0.00047898
0.51715553 0.04227859 0.00047898
0.55108700 0.04227859 0.00047898
0.58568457 0.04227859 0.00047898
0.62093711 0.04227859 0.00047923
0.65683418 0.04227859 0.00047898
0.69336602 0.04227859 0.00047927
0.73052344 0.04227859 0.00047898
0.76829779 0.04227859 0.00047898
0.80668089 0.04227859 0.00047898
0.84566501 0.04227859 0.00047935
0.00047903 0.06007344 0.00047898
0.00047903 0.06007344 0.00047898
0.00047903 0.06007344 0.00047898
0.01181476 0.06007344 0.00047898
0.02607272 0.06007344 0.00047898
0.04227859 0.06007344 0.00047898
0.06007344 0.06007344 0.00047898
0.07925213 0.06007344 0.00047906
0.09967767 0.06007344 0.00047898
0.12125033 0.06007344 0.00047907
0.14389343 0.06007344 0.00047898
0.16754566 0.06007344 0.00047898
0.19215660 0.06007344 0.00047898
0.21768383 0.06007344 0.00047898
0.24409107 0.06007344 0.00047912
0.27134678 0.06007344 0.00047912
0.29942330 0.06007344 0.00047898
0.32829603 0.06007344 0.00047914
0.35794298 0.06007344 0.00047898
0.38834431 0.06007344 0.00047898
0.41948202 0.06007344 0.00047898
0.45133965 0.06007344 0.00047898
0.48390212 0.06007344 0.00047918
0.51715553 0.06007344 0.00047898
0.55108700 0.06007344 0.00047898
0.58568457 0.06007344 0.00047898
0.62093711 0.06007344 0.00047923
0.65683418 0.06007344 0.00047898
0.69336602 0.06007344 0.00047898
0.73052344 0.06007344 0.00047898
0.76829779 0.06007344 0.00047931
0.80668089 0.06007344 0.00047898
0.84566501 0.06007344 0.00047898
0.00047907 0.07925213 0.00047898
0.00047907 0.07925213 0.00047898
0.00047907 0.07925213 0.00047898
0.01181476 0.07925213 0.00047898
0.02607272 0.07925213 0.00047898
0.04227859 0.07925213 0.00047898
0.06007344 0.07925213 0.00047898
0.07925213 0.07925213 0.00047898
0.09967767 0.07925213 0.00047898
0.12125033 0.07925213 0.00047898
0.14389343 0.07925213 0.00047908
0.16754566 0.07925213 0.00047898
0.19215660 0.07925213 0.00047898
0.21768383 0.07925213 0.00047910
0.24409107 0.07925213 0.00047910
0.27134678 0.07925213 0.00047898
0.29942330 0.07925213 0.00047898
0.32829603 0.07925213 0.00047914
0.35794298 0.07925213 0.00047914
0.38834431 0.07925213 0.00047898
0.41948202 0.07925213 0.00047898
0.45133965 0.07925213 0.00047898
0.48390212 0.07925213 0.00047898
0.51715553 0.07925213 0.00047898
0.55108700 0.07925213 0.00047898
0.58568457 0.07925213 0.00047898
0.62093711 0.07925213 0.00047898
0.65683418 0.07925213 0.00047898
0.69336602 0.07925213 0.00047898
0.73052344 0.07925213 0.00047898
0.76829779 0.07925213 0.00047898
0.80668089 0.07925213 0.00047898
0.84566501 0.07925213 0.00047898
0.00047907 0.09967767 0.00047898
0.00047907 0.09967767 0.00047898
0.00047907 0.09967767 0.00047898
0.01181476 0.09967767 0.00047907
0.02607272 0.09967767 0.00047898
0.04227859 0.09967767 0.00047898
0.06007344 0.09967767 0.00047898
0.07925213 0.09967767 0.00047898
0.09967767 0.09967767 0.00047898
0.12125033 0.09967767 0.00047898
0.14389343 0.09967767 0.00047908
0.16754566 0.09967767 0.00047898
0.19215660 0.09967767 0.00047898
0.21768383 0.09967767 0.00047898
0.24409107 0.09967767 0.00047898
0.27134678 0.09967767 0.00047898
0.29942330 0.09967767 0.00047912
0.32829603 0.09967767 0.00047898
0.35794298 0.09967767 0.00047898
0.38834431 0.09967767 0.00047898
0.41948202 0.09967767 0.00047898
0.45133965 0.09967767 0.00047898
0.48390212 0.09967767 0.00047898
0.51715553 0.09967767 0.00047898
0.55108700 0.09967767 0.00047898
0.58568457 0.09967767 0.00047898
0.62093711 0.09967767 0.00047898
0.65683418 0.09967767 0.00047898
0.69336602 0.09967767 0.00047898
0.73052344 0.09967767 0.00047898
0.76829779 0.09967767 0.00047898
0.80668089 0.09967767 0.00047898
0.84566501 0.09967767 0.00047898
0.00047908 0.12125033 0.00047898
0.00047908 0.12125033 0.00047898
0.00047908 0.12125033 0.00047898
0.01181476 0.12125033 0.00047898
0.02607272 0.12125033 0.00047898
0.04227859 0.12125033 0.00047898
0.06007344 0.12125033 0.00047898
0.07925213 0.12125033 0.00047898
0.09967767 0.12125033 0.00047898
0.12125033 0.12125033 0.00047898
0.14389343 0.12125033 0.00047898
0.16754566 0.12125033 0.00047909
0.19215660 0.12125033 0.00047898
0.21768383 0.12125033 0.00047910
0.24409107 0.12125033 0.00047898
0.27134678 0.12125033 0.00047898
0.29942330 0.12125033 0.00047912
0.32829603 0.12125033 0.00047914
0.35794298 0.12125033 0.00047914
0.38834431 0.12125033 0.00047916
0.41948202 0.12125033 0.00047898
0.45133965 0.12125033 0.00047898
0.48390212 0.12125033 0.00047898
0.51715553 0.12125033 0.00047920
0.55108700 0.12125033 0.00047920
0.58568457 0.12125033 0.00047923
0.62093711 0.12125033 0.00047898
0.65683418 0.12125033 0.00047898
0.69336602 0.12125033 0.00047927
0.73052344 0.12125033 0.00047898
0.76829779 0.12125033 0.00047931
0.80668089 0.12125033 0.00047898
0.84566501 0.12125033 0.00047898
0.00047909 0.14389343 0.00047898
0.00047909 0.14389343 0.00047898
0.00047909 0.14389343 0.00047898
0.01181476 0.14389343 0.00047898
0.02607272 0.14389343 0.00047898
0.04227859 0.14389343 0.00047898
0.06007344 0.14389343 0.00047898
0.07925213 0.14389343 0.00047898
0.09967767 0.14389343 0.00047898
0.12125033 0.14389343 0.00047898
0.14389343 0.14389343 0.00047898
0.16754566 0.14389343 0.00047898
0.19215660 0.14389343 0.00047898
0.21768383 0.14389343 0.00047910
0.24409107 0.14389343 0.00047898
0.27134678 0.14389343 0.00047898
0.29942330 0.14389343 0.00047898
0.32829603 0.14389343 0.00047898
0.35794298 0.14389343 0.00047898
0.38834431 0.14389343 0.00047898
0.41948202 0.14389343 0.00047898
0.45133965 0.14389343 0.00047898
0.48390212 0.14389343 0.00047898
0.51715553 0.14389343 0.00047898
0.55108700 0.14389343 0.00047898
0.58568457 0.14389343 0.00047923
0.62093711 0.14389343 0.00047898
0.65683418 0.14389343 0.00047898
0.69336602 0.14389343 0.00047898
0.73052344 0.14389343 0.00047898
0.76829779 0.14389343 0.00047898
0.80668089 0.14389343 0.00047898
0.84566501 0.14389343 0.00047898
0.00047908 0.16754566 0.00047898
0.00047908 0.16754566 0.00047898
0.00047908 0.16754566 0.00047898
0.01181476 0.16754566 0.00047898
0.02607272 0.16754566 0.00047898
0.04227859 0.16754566 0.00047898
0.06007344 0.16754566 0.00047898
0.07925213 0.16754566 0.00047898
0.09967767 0.16754566 0.00047898
0.12125033 0.16754566 0.00047898
0.14389343 0.16754566 0.00047898
0.16754566 0.16754566 0.00047910
0.19215660 0.16754566 0.00047898
0.21768383 0.16754566 0.00047898
0.24409107 0.16754566 0.00047898
0.27134678 0.16754566 0.00047898
0.29942330 0.16754566 0.00047898
0.32829603 0.16754566 0.00047898
0.35794298 0.16754566 0.00047898
0.38834431 0.16754566 0.00047898
0.41948202 0.16754566 0.00047898
0.45133965 0.16754566 0.00047898
0.48390212 0.16754566 0.00047918
0.51715553 0.16754566 0.00047898
0.55108700 0.16754566 0.00047898
0.58568457 0.16754566 0.00047898
0.62093711 0.16754566 0.00047898
0.65683418 0.16754566 0.00047898
0.69336602 0.16754566 0.00047898
0.73052344 0.16754566 0.00047898
0.76829779 0.16754566 0.00047931
0.80668089 0.16754566 0.00047898
0.84566501 0.16754566 0.00047898
0.00047911 0.19215660 0.00047909
0.00047911 0.19215660 0.00047909
0.00047911 0.19215660 0.00047909
0.01181476 0.19215660 0.00047898
0.02607272 0.19215660 0.00047898
0.04227859 0.19215660 0.00047910
0.06007344 0.19215660 0.00047910
0.07925213 0.19215660 0.00047898
0.09967767 0.19215660 0.00047898
0.12125033 0.19215660 0.00047910
0.14389343 0.19215660 0.00047898
0.16754566 0.19215660 0.00047898
0.19215660 0.19215660 0.00047910
0.21768383 0.19215660 0.00047898
0.24409107 0.19215660 0.00047898
0.27134678 0.19215660 0.00047898
0.29942330 0.19215660 0.00047914
0.32829603 0.19215660 0.00047898
0.35794298 0.19215660 0.00047914
0.38834431 0.19215660 0.00047898
0.41948202 0.19215660 0.00047898
0.45133965 0.19215660 0.00047898
0.48390212 0.19215660 0.00047918
0.51715553 0.19215660 0.00047898
0.55108700 0.19215660 0.00047898
0.58568457 0.19215660 0.00047923
0.62093711 0.19215660 0.00047898
0.65683418 0.19215660 0.00047927
0.69336602 0.19215660 0.00047927
0.73052344 0.19215660 0.00047898
0.76829779 0.19215660 0.00047931
0.80668089 0.19215660 0.00047898
0.84566501 0.19215660 0.00047898
0.00047911 0.21768383 0.00047898
0.00047911 0.21768383 0.00047898
0.00047911 0.21768383 0.00047898
0.01181476 0.21768383 0.00047910
0.02607272 0.21768383 0.00047898
0.04227859 0.21768383 0.00047898
0.06007344 0.21768383 0.00047910
0.07925213 0.21768383 0.00047898
0.09967767 0.21768383 0.00047898
0.12125033 0.21768383 0.00047898
0.14389343 0.21768383 0.00047910
0.16754566 0.21768383 0.00047898
0.19215660 0.21768383 0.00047898
0.21768383 0.21768383 0.00047912
0.24409107 0.21768383 0.00047898
0.27134678 0.21768383 0.00047898
0.29942330 0.21768383 0.00047898
0.32829603 0.21768383 0.00047898
0.35794298 0.21768383 0.00047916
0.38834431 0.21768383 0.00047898
0.41948202 0.21768383 0.00047898
0.45133965 0.21768383 0.00047898
0.48390212 0.21768383 0.00047898
0.51715553 0.21768383 0.00047898
0.55108700 0.21768383 0.00047898
0.58568457 0.21768383 0.00047898
0.62093711 0.21768383 0.00047898
0.65683418 0.21768383 0.00047898
0.69336602 0.21768383 0.00047927
0.73052344 0.21768383 0.00047898
0.76829779 0.21768383 0.00047898
0.80668089 0.21768383 0.00047898
0.84566501 0.21768383 0.00047898
0.00047911 0.24409107 0.00047898
0.00047911 0.24409107 0.00047898
0.00047911 0.24409107 0.00047898
0.01181476 0.24409107 0.00047898
0.02607272 0.24409107 0.00047898
0.04227859 0.24409107 0.00047898
0.06007344 0.24409107 0.00047898
0.07925213 0.24409107 0.00047898
0.09967767 0.24409107 0.00047898
0.12125033 0.24409107 0.00047898
0.14389343 0.24409107 0.00047914
0.16754566 0.24409107 0.00047912
0.19215660 0.24409107 0.00047898
0.21768383 0.24409107 0.00047912
0.24409107 0.24409107 0.00047898
0.27134678 0.24409107 0.00047898
0.29942330 0.24409107 0.00047914
0.32829603 0.24409107 0.00047916
0.35794298 0.24409107 0.00047916
0.38834431 0.24409107 0.00047898
0.41948202 0.24409107 0.00047898
0.45133965 0.24409107 0.00047898
0.48390212 0.24409107 0.00047918
0.51715553 0.24409107 0.00047898
0.55108700 0.24409107 0.00047920
0.58568457 0.24409107 0.00047898
0.62093711 0.24409107 0.00047898
0.65683418 0.24409107 0.00047898
0.69336602 0.24409107 0.00047898
0.73052344 0.24409107 0.00047898
0.76829779 0.24409107 0.00047898
0.80668089 0.24409107 0.00047898
0.84566501 0.24409107 0.00047935
0.00047915 0.27134678 0.00047898
0.00047915 0.27134678 0.00047898
0.00047915 0.27134678 0.00047898
0.01181476 0.27134678 0.00047898
0.02607272 0.27134678 0.00047898
0.04227859 0.27134678 0.00047898
0.06007344 0.27134678 0.00047898
0.07925213 0.27134678 0.00047898
0.09967767 0.27134678 0.00047898
0.12125033 0.27134678 0.00047898
0.14389343 0.27134678 0.00047898
0.16754566 0.27134678 0.00047898
0.19215660 0.27134678 0.00047898
0.21768383 0.27134678 0.00047898
0.24409107 0.27134678 0.00047898
0.27134678 0.27134678 0.00047898
0.29942330 0.27134678 0.00047898
0.32829603 0.27134678 0.00047898
0.35794298 0.27134678 0.00047898
0.38834431 0.27134678 0.00047898
0.41948202 0.27134678 0.00047898
0.45133965 0.27134678 0.00047898
0.48390212 0.27134678 0.00047918
0.51715553 0.27134678 0.00047898
0.55108700 0.27134678 0.00047898
0.58568457 0.27134678 0.00047898
0.62093711 0.27134678 0.00047898
0.65683418 0.27134678 0.00047898
0.69336602 0.27134678 0.00047898
0.73052344 0.27134678 0.00047898
0.76829779 0.27134678 0.00047898
0.80668089 0.27134678 0.00047898
0.84566501 0.27134678 0.00047935
0.00047898 0.29942330 0.00047898
0.00047898 0.29942330 0.00047898
0.00047898 0.29942330 0.00047898
0.01181476 0.29942330 0.00047898
0.02607272 0.29942330 0.00047898
0.04227859 0.29942330 0.00047898
0.06007344 0.29942330 0.00047898
0.07925213 0.29942330 0.00047898
0.09967767 0.29942330 0.00047898
0.12125033 0.29942330 0.00047898
0.14389343 0.29942330 0.00047898
0.16754566 0.29942330 0.00047898
0.19215660 0.29942330 0.00047898
0.21768383 0.29942330 0.00047898
0.24409107 0.29942330 0.00047914
0.27134678 0.29942330 0.00047914
0.29942330 0.29942330 0.00047898
0.32829603 0.29942330 0.00047898
0.35794298 0.29942330 0.00047898
0.38834431 0.29942330 0.00047898
0.41948202 0.29942330 0.00047898
0.45133965 0.29942330 0.00047898
0.48390212 0.29942330 0.00047918
0.51715553 0.29942330 0.00047898
0.55108700 0.29942330 0.00047898
0.58568457 0.29942330 0.00047898
0.62093711 0.29942330 0.00047898
0.65683418 0.29942330 0.00047898
0.69336602 0.29942330 0.00047898
0.73052344 0.29942330 0.00047898
0.76829779 0.29942330 0.00047898
0.80668089 0.29942330 0.00047898
0.84566501 0.29942330 0.00047898
0.00047916 0.32829603 0.00047898
0.00047916 0.32829603 0.00047898
0.00047916 0.32829603 0.00047898
0.01181476 0.32829603 0.00047898
0.02607272 0.32829603 0.00047898
0.04227859 0.32829603 0.00047898
0.06007344 0.32829603 0.00047898
0.07925213 0.32829603 0.00047898
0.09967767 0.32829603 0.00047914
0.12125033 0.32829603 0.00047898
0.14389343 0.32829603 0.00047914
0.16754566 0.32829603 0.00047914
0.19215660 0.32829603 0.00047898
0.21768383 0.32829603 0.00047914
0.24409107 0.32829603 0.00047898
0.27134678 0.32829603 0.00047898
0.29942330 0.32829603 0.00047916
0.32829603 0.32829603 0.00047898
0.35794298 0.32829603 0.00047898
0.38834431 0.32829603 0.00047898
0.41948202 0.32829603 0.00047898
0.45133965 0.32829603 0.00047918
0.48390212 0.32829603 0.00047898
0.51715553 0.32829603 0.00047898
0.55108700 0.32829603 0.00047898
0.58568457 0.32829603 0.00047898
0.62093711 0.32829603 0.00047898
0.65683418 0.32829603 0.00047927
0.69336602 0.32829603 0.00047927
0.73052344 0.32829603 0.00047898
0.76829779 0.32829603 0.00047898
0.80668089 0.32829603 0.00047935
0.84566501 0.32829603 0.00047935
0.00047918 0.35794298 0.00047898
0.00047918 0.35794298 0.00047898
0.00047918 0.35794298 0.00047898
0.01181476 0.35794298 0.00047898
0.02607272 0.35794298 0.00047898
0.04227859 0.35794298 0.00047898
0.06007344 0.35794298 0.00047898
0.07925213 0.35794298 0.00047898
0.09967767 0.35794298 0.00047898
0.12125033 0.35794298 0.00047898
0.14389343 0.35794298 0.00047898
0.16754566 0.35794298 0.00047916
0.19215660 0.35794298 0.00047898
0.21768383 0.35794298 0.00047898
0.24409107 0.35794298 0.00047898
0.27134678 0.35794298 0.00047898
0.29942330 0.35794298 0.00047898
0.32829603 0.35794298 0.00047898
0.35794298 0.35794298 0.00047898
0.38834431 0.35794298 0.00047898
0.41948202 0.35794298 0.00047898
0.45133965 0.35794298 0.00047898
0.48390212 0.35794298 0.00047898
0.51715553 0.35794298 0.00047898
0.55108700 0.35794298 0.00047898
0.58568457 0.35794298 0.00047898
0.62093711 0.35794298 0.00047898
0.65683418 0.35794298 0.00047927
0.69336602 0.35794298 0.00047898
0.73052344 0.35794298 0.00047898
0.76829779 0.35794298 0.00047898
0.80668089 0.35794298 0.00047898
0.84566501 0.35794298 0.00047935
0.00047918 0.38834431 0.00047898
0.00047918 0.38834431 0.00047898
0.00047918 0.38834431 0.00047898
0.01181476 0.38834431 0.00047898
0.02607272 0.38834431 0.00047898
0.04227859 0.38834431 0.00047898
0.06007344 0.38834431 0.00047898
0.07925213 0.38834431 0.00047898
0.09967767 0.38834431 0.00047898
0.12125033 0.38834431 0.00047898
0.14389343 0.38834431 0.00047898
0.16754566 0.38834431 0.00047916
0.19215660 0.38834431 0.00047898
0.21768383 0.38834431 0.00047898
0.24409107 0.38834431 0.00047898
0.27134678 0.38834431 0.00047898
0.29942330 0.38834431 0.00047898
0.32829603 0.38834431 0.00047898
0.35794298 0.38834431 0.00047918
0.38834431 0.38834431 0.00047898
0.41948202 0.38834431 0.00047898
0.45133965 0.38834431 0.00047898
0.48390212 0.38834431 0.00047898
0.51715553 0.38834431 0.00047898
0.55108700 0.38834431 0.00047898
0.58568457 0.38834431 0.00047898
0.62093711 0.38834431 0.00047923
0.65683418 0.38834431 0.00047898
0.69336602 0.38834431 0.00047931
0.73052344 0.38834431 0.00047898
0.76829779 0.38834431 0.00047898
0.80668089 0.38834431 0.00047898
0.84566501 0.38834431 0.00047940
0.00047916 0.41948202 0.00047918
0.00047916 0.41948202 0.00047918
0.00047916 0.41948202 0.00047918
0.01181476 0.41948202 0.00047898
0.02607272 0.41948202 0.00047898
0.04227859 0.41948202 0.00047898
0.06007344 0.41948202 0.00047918
0.07925213 0.41948202 0.00047898
0.09967767 0.41948202 0.00047918
0.12125033 0.41948202 0.00047898
0.14389343 0.41948202 0.00047918
0.16754566 0.41948202 0.00047918
0.19215660 0.41948202 0.00047898
0.21768383 0.41948202 0.00047918
0.24409107 0.41948202 0.00047898
0.27134678 0.41948202 0.00047898
0.29942330 0.41948202 0.00047918
0.32829603 0.41948202 0.00047898
0.35794298 0.41948202 0.00047918
0.38834431 0.41948202 0.00047898
0.41948202 0.41948202 0.00047898
0.45133965 0.41948202 0.00047898
0.48390212 0.41948202 0.00047898
0.51715553 0.41948202 0.00047898
0.55108700 0.41948202 0.00047898
0.58568457 0.41948202 0.00047898
0.62093711 0.41948202 0.00047898
0.65683418 0.41948202 0.00047927
0.69336602 0.41948202 0.00047898
0.73052344 0.41948202 0.00047898
0.76829779 0.41948202 0.00047931
0.80668089 0.41948202 0.00047935
0.84566501 0.41948202 0.00047898
0.00047914 0.45133965 0.00047898
0.00047914 0.45133965 0.00047898
0.00047914 0.45133965 0.00047898
0.01181476 0.45133965 0.00047898
0.02607272 0.45133965 0.00047918
0.04227859 0.45133965 0.00047918
0.06007344 0.45133965 0.00047898
0.07925213 0.45133965 0.00047898
0.09967767 0.45133965 0.00047918
0.12125033 0.45133965 0.00047898
0.14389343 0.45133965 0.00047918
0.16754566 0.45133965 0.00047898
0.19215660 0.45133965 0.00047898
0.21768383 0.45133965 0.00047918
0.24409107 0.45133965 0.00047918
0.27134678 0.45133965 0.00047898
0.29942330 0.45133965 0.00047898
0.32829603 0.45133965 0.00047918
0.35794298 0.45133965 0.00047898
0.38834431 0.45133965 0.00047898
0.41948202 0.45133965 0.00047898
0.45133965 0.45133965 0.00047898
0.48390212 0.45133965 0.00047898
0.51715553 0.45133965 0.00047898
0.55108700 0.45133965 0.00047923
0.58568457 0.45133965 0.00047898
0.62093711 0.45133965 0.00047898
