src/ffmpeg_scripts/luts/luminance_4p00.cube
TITLE "luminance_4p00"
LUT_3D_SIZE 5
# PQ (EOTF Only)/Rec2020 -> PQ (EOTF Only)/Rec2020, CineEI Shift 4.00, Black Level 0.00% IRE, Input 109% -> Output 109% - Created with LUTCalc v4.01 by Ben Turley October 2020
0.06256172 0.06256172 0.06256172
0.44323389 0.06256188 0.06256172
0.75283115 0.06256206 0.06256204
0.91886608 0.06256172 0.06256172
0.91886608 0.06256285 0.06256272
0.06256172 0.44323389 0.06256172
0.44323389 0.44323389 0.06256172
0.75283115 0.44323389 0.06256172
0.91886608 0.44323389 0.06256227
0.91886608 0.44323389 0.06256172
0.06256199 0.75283115 0.06256172
0.44323389 0.75283115 0.06256172
0.75283115 0.75283115 0.06256172
0.91886608 0.75283115 0.06256172
0.91886608 0.75283115 0.06256172
0.06256228 0.91886608 0.06256172
0.44323389 0.91886608 0.06256172
0.75283115 0.91886608 0.06256172
0.91886608 0.91886608 0.06256172
0.91886608 0.91886608 0.06256272
0.06256285 0.91886608 0.06256172
0.44323389 0.91886608 0.06256172
0.75283115 0.91886608 0.06256172
0.91886608 0.91886608 0.06256172
0.91886608 0.91886608 0.06256172
0.06256172 0.06256172 0.44323389
0.44323389 0.06256194 0.44323389
0.75283115 0.06256197 0.44323389
0.91886608 0.06256225 0.44323389
0.91886608 0.06256261 0.44323389
0.06256191 0.44323389 0.44323389
0.44323389 0.44323389 0.44323389
0.75283115 0.44323389 0.44323389
0.91886608 0.44323389 0.44323389
0.91886608 0.44323389 0.44323389
0.06256203 0.75283115 0.44323389
0.44323389 0.75283115 0.44323389
0.75283115 0.75283115 0.44323389
0.91886608 0.75283115 0.44323389
0.91886608 0.75283115 0.44323389
0.06256229 0.91886608 0.44323389
0.44323389 0.91886608 0.44323389
0.75283115 0.91886608 0.44323389
0.91886608 0.91886608 0.44323389
0.91886608 0.91886608 0.44323389
0.06256280 0.91886608 0.44323389
0.44323389 0.91886608 0.44323389
0.75283115 0.91886608 0.44323389
0.91886608 0.91886608 0.44323389
0.91886608 0.91886608 0.44323389
0.06256172 0.06256213 0.75283115
0.44323389 0.06256172 0.75283115
0.75283115 0.06256213 0.75283115
0.91886608 0.06256219 0.75283115
0.91886608 0.06256296 0.75283115
0.06256172 0.44323389 0.75283115
0.44323389 0.44323389 0.75283115
0.75283115 0.44323389 0.75283115
0.91886608 0.44323389 0.75283115
0.91886608 0.44323389 0.75283115
0.06256172 0.75283115 0.75283115
0.44323389 0.75283115 0.75283115
0.75283115 0.75283115 0.75283115
0.91886608 0.75283115 0.75283115
0.91886608 0.75283115 0.75283115
0.06256238 0.91886608 0.75283115
0.44323389 0.91886608 0.75283115
0.75283115 0.91886608 0.75283115
0.91886608 0.91886608 0.75283115
0.91886608 0.91886608 0.75283115
0.06256172 0.91886608 0.75283115
0.44323389 0.91886608 0.75283115
0.75283115 0.91886608 0.75283115
0.91886608 0.91886608 0.75283115
0.91886608 0.91886608 0.75283115
0.06256172 0.06256245 0.91886608
0.44323389 0.06256245 0.91886608
0.75283115 0.06256245 0.91886608
0.91886608 0.06256245 0.91886608
0.91886608 0.06256172 0.91886608
0.06256172 0.44323389 0.91886608
0.44323389 0.44323389 0.91886608
0.75283115 0.44323389 0.91886608
0.91886608 0.44323389 0.91886608
0.91886608 0.44323389 0.91886608
0.06256172 0.75283115 0.91886608
0.44323389 0.75283115 0.91886608
0.75283115 0.75283115 0.91886608
0.91886608 0.75283115 0.91886608
0.91886608 0.75283115 0.91886608
0.06256172 0.91886608 0.91886608
0.44323389 0.91886608 0.91886608
0.75283115 0.91886608 0.91886608
0.91886608 0.91886608 0.91886608
0.91886608 0.91886608 0.91886608
0.06256287 0.91886608 0.91886608
0.44323389 0.91886608 0.91886608
0.75283115 0.91886608 0.91886608
0.91886608 0.91886608 0.91886608
0.91886608 0.91886608 0.91886608
0.06256172 0.06256337 0.91886608
0.44323389 0.06256337 0.91886608
0.75283115 0.06256337 0.91886608
0.91886608 0.06256337 0.91886608
0.91886608 0.06256172 0.91886608
0.06256172 0.44323389 0.91886608
0.44323389 0.44323389 0.91886608
0.75283115 0.44323389 0.91886608
0.91886608 0.44323389 0.91886608
0.91886608 0.44323389 0.91886608
0.06256172 0.75283115 0.91886608
0.44323389 0.75283115 0.91886608
0.75283115 0.75283115 0.91886608
0.91886608 0.75283115 0.91886608
0.91886608 0.75283115 0.91886608
0.06256172 0.91886608 0.91886608
0.44323389 0.91886608 0.91886608
0.75283115 0.91886608 0.91886608
0.91886608 0.91886608 0.91886608
0.91886608 0.91886608 0.91886608
0.06256289 0.91886608 0.91886608
0.44323389 0.91886608 0.91886608
0.75283115 0.91886608 0.91886608
0.91886608 0.91886608 0.91886608
0.91886608 0.91886608 0.91886608
