src/ffmpeg_scripts/luts/luminance_1p67.cube
TITLE "luminance_1p67"
LUT_3D_SIZE 9
# PQ (EOTF Only)/Rec2020 -> PQ (EOTF Only)/Rec2020, CineEI Shift 1.67, Black Level 0.00% IRE, Input 109% -> Output 109% - Created with LUTCalc v4.01 by Ben Turley October 2020
0.06256172 0.06256172 0.06256172
0.16033878 0.06256180 0.06256172
0.32169536 0.06256172 0.06256172
0.46677163 0.06256172 0.06256172
0.60273474 0.06256191 0.06256197
0.73236610 0.06256172 0.06256172
0.85716336 0.06256172 0.06256172
0.91886608 0.06256172 0.06256219
0.91886608 0.06256250 0.06256235
0.06256181 0.16033878 0.06256172
0.16033878 0.16033878 0.06256172
0.32169536 0.16033878 0.06256172
0.46677163 0.16033878 0.06256172
0.60273474 0.16033878 0.06256172
0.73236610 0.16033878 0.06256172
0.85716336 0.16033878 0.06256172
0.91886608 0.16033878 0.06256219
0.91886608 0.16033878 0.06256172
0.06256172 0.32169536 0.06256172
0.16033878 0.32169536 0.06256172
0.32169536 0.32169536 0.06256172
0.46677163 0.32169536 0.06256172
0.60273474 0.32169536 0.06256194
0.73236610 0.32169536 0.06256172
0.85716336 0.32169536 0.06256172
0.91886608 0.32169536 0.06256172
0.91886608 0.32169536 0.06256172
0.06256192 0.46677163 0.06256191
0.16033878 0.46677163 0.06256172
0.32169536 0.46677163 0.06256172
0.46677163 0.46677163 0.06256194
0.60273474 0.46677163 0.06256172
0.73236610 0.46677163 0.06256172
0.85716336 0.46677163 0.06256172
0.91886608 0.46677163 0.06256219
0.91886608 0.46677163 0.06256172
0.06256172 0.60273474 0.06256172
0.16033878 0.60273474 0.06256172
0.32169536 0.60273474 0.06256172
0.46677163 0.60273474 0.06256172
0.60273474 0.60273474 0.06256172
0.73236610 0.60273474 0.06256172
0.85716336 0.60273474 0.06256208
0.91886608 0.60273474 0.06256172
0.91886608 0.60273474 0.06256172
0.06256202 0.73236610 0.06256172
0.16033878 0.73236610 0.06256172
0.32169536 0.73236610 0.06256172
0.46677163 0.73236610 0.06256172
0.60273474 0.73236610 0.06256204
0.73236610 0.73236610 0.06256172
0.85716336 0.73236610 0.06256213
0.91886608 0.73236610 0.06256172
0.91886608 0.73236610 0.06256172
0.06256172 0.85716336 0.06256213
0.16033878 0.85716336 0.06256172
0.32169536 0.85716336 0.06256172
0.46677163 0.85716336 0.06256172
0.60273474 0.85716336 0.06256172
0.73236610 0.85716336 0.06256172
0.85716336 0.85716336 0.06256172
0.91886608 0.85716336 0.06256227
0.91886608 0.85716336 0.06256235
0.06256223 0.91886608 0.06256172
0.16033878 0.91886608 0.06256172
0.32169536 0.91886608 0.06256172
0.46677163 0.91886608 0.06256172
0.60273474 0.91886608 0.06256172
0.73236610 0.91886608 0.06256172
0.85716336 0.91886608 0.06256172
0.91886608 0.91886608 0.06256172
0.91886608 0.91886608 0.06256172
0.06256248 0.91886608 0.06256245
0.16033878 0.91886608 0.06256245
0.32169536 0.91886608 0.06256172
0.46677163 0.91886608 0.06256245
0.60273474 0.91886608 0.06256172
0.73236610 0.91886608 0.06256172
0.85716336 0.91886608 0.06256172
0.91886608 0.91886608 0.06256245
0.91886608 0.91886608 0.06256172
0.06256172 0.06256182 0.16033878
0.16033878 0.06256181 0.16033878
0.32169536 0.06256172 0.16033878
0.46677163 0.06256185 0.16033878
0.60273474 0.06256172 0.16033878
0.73236610 0.06256172 0.16033878
0.85716336 0.06256212 0.16033878
0.91886608 0.06256225 0.16033878
0.91886608 0.06256235 0.16033878
0.06256172 0.16033878 0.16033878
0.16033878 0.16033878 0.16033878
0.32169536 0.16033878 0.16033878
0.46677163 0.16033878 0.16033878
0.60273474 0.16033878 0.16033878
0.73236610 0.16033878 0.16033878
0.85716336 0.16033878 0.16033878
0.91886608 0.16033878 0.16033878
0.91886608 0.16033878 0.16033878
0.06256187 0.32169536 0.16033878
0.16033878 0.32169536 0.16033878
0.32169536 0.32169536 0.16033878
0.46677163 0.32169536 0.16033878
0.60273474 0.32169536 0.16033878
0.73236610 0.32169536 0.16033878
0.85716336 0.32169536 0.16033878
0.91886608 0.32169536 0.16033878
0.91886608 0.32169536 0.16033878
0.06256189 0.46677163 0.16033878
0.16033878 0.46677163 0.16033878
0.32169536 0.46677163 0.16033878
0.46677163 0.46677163 0.16033878
0.60273474 0.46677163 0.16033878
0.73236610 0.46677163 0.16033878
0.85716336 0.46677163 0.16033878
0.91886608 0.46677163 0.16033878
0.91886608 0.46677163 0.16033878
0.06256172 0.60273474 0.16033878
0.16033878 0.60273474 0.16033878
0.32169536 0.60273474 0.16033878
0.46677163 0.60273474 0.16033878
0.60273474 0.60273474 0.16033878
0.73236610 0.60273474 0.16033878
0.85716336 0.60273474 0.16033878
0.91886608 0.60273474 0.16033878
0.91886608 0.60273474 0.16033878
0.06256195 0.73236610 0.16033878
0.16033878 0.73236610 0.16033878
0.32169536 0.73236610 0.16033878
0.46677163 0.73236610 0.16033878
0.60273474 0.73236610 0.16033878
0.73236610 0.73236610 0.16033878
0.85716336 0.73236610 0.16033878
0.91886608 0.73236610 0.16033878
0.91886608 0.73236610 0.16033878
0.06256172 0.85716336 0.16033878
0.16033878 0.85716336 0.16033878
0.32169536 0.85716336 0.16033878
0.46677163 0.85716336 0.16033878
0.60273474 0.85716336 0.16033878
0.73236610 0.85716336 0.16033878
0.85716336 0.85716336 0.16033878
0.91886608 0.85716336 0.16033878
0.91886608 0.85716336 0.16033878
0.06256227 0.91886608 0.16033878
0.16033878 0.91886608 0.16033878
0.32169536 0.91886608 0.16033878
0.46677163 0.91886608 0.16033878
0.60273474 0.91886608 0.16033878
0.73236610 0.91886608 0.16033878
0.85716336 0.91886608 0.16033878
0.91886608 0.91886608 0.16033878
0.91886608 0.91886608 0.16033878
0.06256259 0.91886608 0.16033878
0.16033878 0.91886608 0.16033878
0.32169536 0.91886608 0.16033878
0.46677163 0.91886608 0.16033878
0.60273474 0.91886608 0.16033878
0.73236610 0.91886608 0.16033878
0.85716336 0.91886608 0.16033878
0.91886608 0.91886608 0.16033878
0.91886608 0.91886608 0.16033878
0.06256172 0.06256189 0.32169536
0.16033878 0.06256189 0.32169536
0.32169536 0.06256172 0.32169536
0.46677163 0.06256189 0.32169536
0.60273474 0.06256197 0.32169536
0.73236610 0.06256198 0.32169536
0.85716336 0.06256172 0.32169536
0.91886608 0.06256213 0.32169536
0.91886608 0.06256235 0.32169536
0.06256185 0.16033878 0.32169536
0.16033878 0.16033878 0.32169536
0.32169536 0.16033878 0.32169536
0.46677163 0.16033878 0.32169536
0.60273474 0.16033878 0.32169536
0.73236610 0.16033878 0.32169536
0.85716336 0.16033878 0.32169536
0.91886608 0.16033878 0.32169536
0.91886608 0.16033878 0.32169536
0.06256187 0.32169536 0.32169536
0.16033878 0.32169536 0.32169536
0.32169536 0.32169536 0.32169536
0.46677163 0.32169536 0.32169536
0.60273474 0.32169536 0.32169536
0.73236610 0.32169536 0.32169536
0.85716336 0.32169536 0.32169536
0.91886608 0.32169536 0.32169536
0.91886608 0.32169536 0.32169536
0.06256194 0.46677163 0.32169536
0.16033878 0.46677163 0.32169536
0.32169536 0.46677163 0.32169536
0.46677163 0.46677163 0.32169536
0.60273474 0.46677163 0.32169536
0.73236610 0.46677163 0.32169536
0.85716336 0.46677163 0.32169536
0.91886608 0.46677163 0.32169536
0.91886608 0.46677163 0.32169536
0.06256200 0.60273474 0.32169536
0.16033878 0.60273474 0.32169536
0.32169536 0.60273474 0.32169536
0.46677163 0.60273474 0.32169536
0.60273474 0.60273474 0.32169536
0.73236610 0.60273474 0.32169536
0.85716336 0.60273474 0.32169536
0.91886608 0.60273474 0.32169536
0.91886608 0.60273474 0.32169536
0.06256209 0.73236610 0.32169536
0.16033878 0.73236610 0.32169536
0.32169536 0.73236610 0.32169536
0.46677163 0.73236610 0.32169536
0.60273474 0.73236610 0.32169536
0.73236610 0.73236610 0.32169536
0.85716336 0.73236610 0.32169536
0.91886608 0.73236610 0.32169536
0.91886608 0.73236610 0.32169536
0.06256220 0.85716336 0.32169536
0.16033878 0.85716336 0.32169536
0.32169536 0.85716336 0.32169536
0.46677163 0.85716336 0.32169536
0.60273474 0.85716336 0.32169536
0.73236610 0.85716336 0.32169536
0.85716336 0.85716336 0.32169536
0.91886608 0.85716336 0.32169536
0.91886608 0.85716336 0.32169536
0.06256236 0.91886608 0.32169536
0.16033878 0.91886608 0.32169536
0.32169536 0.91886608 0.32169536
0.46677163 0.91886608 0.32169536
0.60273474 0.91886608 0.32169536
0.73236610 0.91886608 0.32169536
0.85716336 0.91886608 0.32169536
0.91886608 0.91886608 0.32169536
0.91886608 0.91886608 0.32169536
0.06256172 0.91886608 0.32169536
0.16033878 0.91886608 0.32169536
0.32169536 0.91886608 0.32169536
0.46677163 0.91886608 0.32169536
0.60273474 0.91886608 0.32169536
0.73236610 0.91886608 0.32169536
0.85716336 0.91886608 0.32169536
0.91886608 0.91886608 0.32169536
0.91886608 0.91886608 0.32169536
0.06256172 0.06256197 0.46677163
0.16033878 0.06256197 0.46677163
0.32169536 0.06256197 0.46677163
0.46677163 0.06256197 0.46677163
0.60273474 0.06256200 0.46677163
0.73236610 0.06256172 0.46677163
0.85716336 0.06256212 0.46677163
0.91886608 0.06256172 0.46677163
0.91886608 0.06256227 0.46677163
0.06256172 0.16033878 0.46677163
0.16033878 0.16033878 0.46677163
0.32169536 0.16033878 0.46677163
0.46677163 0.16033878 0.46677163
0.60273474 0.16033878 0.46677163
0.73236610 0.16033878 0.46677163
0.85716336 0.16033878 0.46677163
0.91886608 0.16033878 0.46677163
0.91886608 0.16033878 0.46677163
0.06256172 0.32169536 0.46677163
0.16033878 0.32169536 0.46677163
0.32169536 0.32169536 0.46677163
0.46677163 0.32169536 0.46677163
0.60273474 0.32169536 0.46677163
0.73236610 0.32169536 0.46677163
0.85716336 0.32169536 0.46677163
0.91886608 0.32169536 0.46677163
0.91886608 0.32169536 0.46677163
0.06256194 0.46677163 0.46677163
0.16033878 0.46677163 0.46677163
0.32169536 0.46677163 0.46677163
0.46677163 0.46677163 0.46677163
0.60273474 0.46677163 0.46677163
0.73236610 0.46677163 0.46677163
0.85716336 0.46677163 0.46677163
0.91886608 0.46677163 0.46677163
0.91886608 0.46677163 0.46677163
0.06256172 0.60273474 0.46677163
0.16033878 0.60273474 0.46677163
0.32169536 0.60273474 0.46677163
0.46677163 0.60273474 0.46677163
0.60273474 0.60273474 0.46677163
0.73236610 0.60273474 0.46677163
0.85716336 0.60273474 0.46677163
0.91886608 0.60273474 0.46677163
0.91886608 0.60273474 0.46677163
0.06256172 0.73236610 0.46677163
0.16033878 0.73236610 0.46677163
0.32169536 0.73236610 0.46677163
0.46677163 0.73236610 0.46677163
0.60273474 0.73236610 0.46677163
0.73236610 0.73236610 0.46677163
0.85716336 0.73236610 0.46677163
0.91886608 0.73236610 0.46677163
0.91886608 0.73236610 0.46677163
0.06256223 0.85716336 0.46677163
0.16033878 0.85716336 0.46677163
0.32169536 0.85716336 0.46677163
0.46677163 0.85716336 0.46677163
0.60273474 0.85716336 0.46677163
0.73236610 0.85716336 0.46677163
0.85716336 0.85716336 0.46677163
0.91886608 0.85716336 0.46677163
0.91886608 0.85716336 0.46677163
0.06256234 0.91886608 0.46677163
0.16033878 0.91886608 0.46677163
0.32169536 0.91886608 0.46677163
0.46677163 0.91886608 0.46677163
0.60273474 0.91886608 0.46677163
0.73236610 0.91886608 0.46677163
0.85716336 0.91886608 0.46677163
0.91886608 0.91886608 0.46677163
0.91886608 0.91886608 0.46677163
0.06256244 0.91886608 0.46677163
0.16033878 0.91886608 0.46677163
0.32169536 0.91886608 0.46677163
0.46677163 0.91886608 0.46677163
0.60273474 0.91886608 0.46677163
0.73236610 0.91886608 0.46677163
0.85716336 0.91886608 0.46677163
0.91886608 0.91886608 0.46677163
0.91886608 0.91886608 0.46677163
0.06256197 0.06256204 0.60273474
0.16033878 0.06256204 0.60273474
0.32169536 0.06256204 0.60273474
0.46677163 0.06256204 0.60273474
0.60273474 0.06256204 0.60273474
0.73236610 0.06256172 0.60273474
0.85716336 0.06256211 0.60273474
0.91886608 0.06256208 0.60273474
0.91886608 0.06256259 0.60273474
0.06256172 0.16033878 0.60273474
0.16033878 0.16033878 0.60273474
0.32169536 0.16033878 0.60273474
0.46677163 0.16033878 0.60273474
0.60273474 0.16033878 0.60273474
0.73236610 0.16033878 0.60273474
0.85716336 0.16033878 0.60273474
0.91886608 0.16033878 0.60273474
0.91886608 0.16033878 0.60273474
0.06256172 0.32169536 0.60273474
0.16033878 0.32169536 0.60273474
0.32169536 0.32169536 0.60273474
0.46677163 0.32169536 0.60273474
0.60273474 0.32169536 0.60273474
0.73236610 0.32169536 0.60273474
0.85716336 0.32169536 0.60273474
0.91886608 0.32169536 0.60273474
0.91886608 0.32169536 0.60273474
0.06256197 0.46677163 0.60273474
0.16033878 0.46677163 0.60273474
0.32169536 0.46677163 0.60273474
0.46677163 0.46677163 0.60273474
0.60273474 0.46677163 0.60273474
0.73236610 0.46677163 0.60273474
0.85716336 0.46677163 0.60273474
0.91886608 0.46677163 0.60273474
0.91886608 0.46677163 0.60273474
0.06256172 0.60273474 0.60273474
0.16033878 0.60273474 0.60273474
0.32169536 0.60273474 0.60273474
0.46677163 0.60273474 0.60273474
0.60273474 0.60273474 0.60273474
0.73236610 0.60273474 0.60273474
0.85716336 0.60273474 0.60273474
0.91886608 0.60273474 0.60273474
0.91886608 0.60273474 0.60273474
0.06256172 0.73236610 0.60273474
0.16033878 0.73236610 0.60273474
0.32169536 0.73236610 0.60273474
0.46677163 0.73236610 0.60273474
0.60273474 0.73236610 0.60273474
0.73236610 0.73236610 0.60273474
0.85716336 0.73236610 0.60273474
0.91886608 0.73236610 0.60273474
0.91886608 0.73236610 0.60273474
0.06256216 0.85716336 0.60273474
0.16033878 0.85716336 0.60273474
0.32169536 0.85716336 0.60273474
0.46677163 0.85716336 0.60273474
0.60273474 0.85716336 0.60273474
0.73236610 0.85716336 0.60273474
0.85716336 0.85716336 0.60273474
0.91886608 0.85716336 0.60273474
0.91886608 0.85716336 0.60273474
0.06256235 0.91886608 0.60273474
0.16033878 0.91886608 0.60273474
0.32169536 0.91886608 0.60273474
0.46677163 0.91886608 0.60273474
0.60273474 0.91886608 0.60273474
0.73236610 0.91886608 0.60273474
0.85716336 0.91886608 0.60273474
0.91886608 0.91886608 0.60273474
0.91886608 0.91886608 0.60273474
0.06256233 0.91886608 0.60273474
0.16033878 0.91886608 0.60273474
0.32169536 0.91886608 0.60273474
0.46677163 0.91886608 0.60273474
0.60273474 0.91886608 0.60273474
0.73236610 0.91886608 0.60273474
0.85716336 0.91886608 0.60273474
0.91886608 0.91886608 0.60273474
0.91886608 0.91886608 0.60273474
0.06256172 0.06256219 0.73236610
0.16033878 0.06256219 0.73236610
0.32169536 0.06256219 0.73236610
0.46677163 0.06256219 0.73236610
0.60273474 0.06256223 0.73236610
0.73236610 0.06256213 0.73236610
0.85716336 0.06256219 0.73236610
0.91886608 0.06256172 0.73236610
0.91886608 0.06256172 0.73236610
0.06256172 0.16033878 0.73236610
0.16033878 0.16033878 0.73236610
0.32169536 0.16033878 0.73236610
0.46677163 0.16033878 0.73236610
0.60273474 0.16033878 0.73236610
0.73236610 0.16033878 0.73236610
0.85716336 0.16033878 0.73236610
0.91886608 0.16033878 0.73236610
0.91886608 0.16033878 0.73236610
0.06256172 0.32169536 0.73236610
0.16033878 0.32169536 0.73236610
0.32169536 0.32169536 0.73236610
0.46677163 0.32169536 0.73236610
0.60273474 0.32169536 0.73236610
0.73236610 0.32169536 0.73236610
0.85716336 0.32169536 0.73236610
0.91886608 0.32169536 0.73236610
0.91886608 0.32169536 0.73236610
0.06256172 0.46677163 0.73236610
0.16033878 0.46677163 0.73236610
0.32169536 0.46677163 0.73236610
0.46677163 0.46677163 0.73236610
0.60273474 0.46677163 0.73236610
0.73236610 0.46677163 0.73236610
0.85716336 0.46677163 0.73236610
0.91886608 0.46677163 0.73236610
0.91886608 0.46677163 0.73236610
0.06256204 0.60273474 0.73236610
0.16033878 0.60273474 0.73236610
0.32169536 0.60273474 0.73236610
0.46677163 0.60273474 0.73236610
0.60273474 0.60273474 0.73236610
0.73236610 0.60273474 0.73236610
0.85716336 0.60273474 0.73236610
0.91886608 0.60273474 0.73236610
0.91886608 0.60273474 0.73236610
0.06256172 0.73236610 0.73236610
0.16033878 0.73236610 0.73236610
0.32169536 0.73236610 0.73236610
0.46677163 0.73236610 0.73236610
0.60273474 0.73236610 0.73236610
0.73236610 0.73236610 0.73236610
0.85716336 0.73236610 0.73236610
0.91886608 0.73236610 0.73236610
0.91886608 0.73236610 0.73236610
0.06256213 0.85716336 0.73236610
0.16033878 0.85716336 0.73236610
0.32169536 0.85716336 0.73236610
0.46677163 0.85716336 0.73236610
0.60273474 0.85716336 0.73236610
0.73236610 0.85716336 0.73236610
0.85716336 0.85716336 0.73236610
0.91886608 0.85716336 0.73236610
0.91886608 0.85716336 0.73236610
0.06256172 0.91886608 0.73236610
0.16033878 0.91886608 0.73236610
0.32169536 0.91886608 0.73236610
0.46677163 0.91886608 0.73236610
0.60273474 0.91886608 0.73236610
0.73236610 0.91886608 0.73236610
0.85716336 0.91886608 0.73236610
0.91886608 0.91886608 0.73236610
0.91886608 0.91886608 0.73236610
0.06256255 0.91886608 0.73236610
0.16033878 0.91886608 0.73236610
0.32169536 0.91886608 0.73236610
0.46677163 0.91886608 0.73236610
0.60273474 0.91886608 0.73236610
0.73236610 0.91886608 0.73236610
0.85716336 0.91886608 0.73236610
0.91886608 0.91886608 0.73236610
0.91886608 0.91886608 0.73236610
0.06256172 0.06256172 0.85716336
0.16033878 0.06256227 0.85716336
0.32169536 0.06256172 0.85716336
0.46677163 0.06256172 0.85716336
0.60273474 0.06256172 0.85716336
0.73236610 0.06256172 0.85716336
0.85716336 0.06256227 0.85716336
0.91886608 0.06256172 0.85716336
0.91886608 0.06256172 0.85716336
0.06256172 0.16033878 0.85716336
0.16033878 0.16033878 0.85716336
0.32169536 0.16033878 0.85716336
0.46677163 0.16033878 0.85716336
0.60273474 0.16033878 0.85716336
0.73236610 0.16033878 0.85716336
0.85716336 0.16033878 0.85716336
0.91886608 0.16033878 0.85716336
0.91886608 0.16033878 0.85716336
0.06256172 0.32169536 0.85716336
0.16033878 0.32169536 0.85716336
0.32169536 0.32169536 0.85716336
0.46677163 0.32169536 0.85716336
0.60273474 0.32169536 0.85716336
0.73236610 0.32169536 0.85716336
0.85716336 0.32169536 0.85716336
0.91886608 0.32169536 0.85716336
0.91886608 0.32169536 0.85716336
0.06256172 0.46677163 0.85716336
0.16033878 0.46677163 0.85716336
0.32169536 0.46677163 0.85716336
0.46677163 0.46677163 0.85716336
0.60273474 0.46677163 0.85716336
0.73236610 0.46677163 0.85716336
0.85716336 0.46677163 0.85716336
0.91886608 0.46677163 0.85716336
0.91886608 0.46677163 0.85716336
0.06256172 0.60273474 0.85716336
0.16033878 0.60273474 0.85716336
0.32169536 0.60273474 0.85716336
0.46677163 0.60273474 0.85716336
0.60273474 0.60273474 0.85716336
0.73236610 0.60273474 0.85716336
0.85716336 0.60273474 0.85716336
0.91886608 0.60273474 0.85716336
0.91886608 0.60273474 0.85716336
0.06256172 0.73236610 0.85716336
0.16033878 0.73236610 0.85716336
0.32169536 0.73236610 0.85716336
0.46677163 0.73236610 0.85716336
0.60273474 0.73236610 0.85716336
0.73236610 0.73236610 0.85716336
0.85716336 0.73236610 0.85716336
0.91886608 0.73236610 0.85716336
0.91886608 0.73236610 0.85716336
0.06256172 0.85716336 0.85716336
0.16033878 0.85716336 0.85716336
0.32169536 0.85716336 0.85716336
0.46677163 0.85716336 0.85716336
0.60273474 0.85716336 0.85716336
0.73236610 0.85716336 0.85716336
0.85716336 0.85716336 0.85716336
0.91886608 0.85716336 0.85716336
0.91886608 0.85716336 0.85716336
0.06256172 0.91886608 0.85716336
0.16033878 0.91886608 0.85716336
0.32169536 0.91886608 0.85716336
0.46677163 0.91886608 0.85716336
0.60273474 0.91886608 0.85716336
0.73236610 0.91886608 0.85716336
0.85716336 0.91886608 0.85716336
0.91886608 0.91886608 0.85716336
0.91886608 0.91886608 0.85716336
0.06256250 0.91886608 0.85716336
0.16033878 0.91886608 0.85716336
0.32169536 0.91886608 0.85716336
0.46677163 0.91886608 0.85716336
0.60273474 0.91886608 0.85716336
0.73236610 0.91886608 0.85716336
0.85716336 0.91886608 0.85716336
0.91886608 0.91886608 0.85716336
0.91886608 0.91886608 0.85716336
0.06256172 0.06256257 0.91886608
0.16033878 0.06256257 0.91886608
0.32169536 0.06256245 0.91886608
0.46677163 0.06256172 0.91886608
0.60273474 0.06256172 0.91886608
0.73236610 0.06256245 0.91886608
0.85716336 0.06256245 0.91886608
0.91886608 0.06256245 0.91886608
0.91886608 0.06256265 0.91886608
0.06256172 0.16033878 0.91886608
0.16033878 0.16033878 0.91886608
0.32169536 0.16033878 0.91886608
0.46677163 0.16033878 0.91886608
0.60273474 0.16033878 0.91886608
0.73236610 0.16033878 0.91886608
0.85716336 0.16033878 0.91886608
0.91886608 0.16033878 0.91886608
0.91886608 0.16033878 0.91886608
0.06256172 0.32169536 0.91886608
0.16033878 0.32169536 0.91886608
0.32169536 0.32169536 0.91886608
0.46677163 0.32169536 0.91886608
0.60273474 0.32169536 0.91886608
0.73236610 0.32169536 0.91886608
0.85716336 0.32169536 0.91886608
0.91886608 0.32169536 0.91886608
0.91886608 0.32169536 0.91886608
0.06256172 0.46677163 0.91886608
0.16033878 0.46677163 0.91886608
0.32169536 0.46677163 0.91886608
0.46677163 0.46677163 0.91886608
0.60273474 0.46677163 0.91886608
0.73236610 0.46677163 0.91886608
0.85716336 0.46677163 0.91886608
0.91886608 0.46677163 0.91886608
0.91886608 0.46677163 0.91886608
0.06256172 0.60273474 0.91886608
0.16033878 0.60273474 0.91886608
0.32169536 0.60273474 0.91886608
0.46677163 0.60273474 0.91886608
0.60273474 0.60273474 0.91886608
0.73236610 0.60273474 0.91886608
0.85716336 0.60273474 0.91886608
0.91886608 0.60273474 0.91886608
0.91886608 0.60273474 0.91886608
0.06256227 0.73236610 0.91886608
0.16033878 0.73236610 0.91886608
0.32169536 0.73236610 0.91886608
0.46677163 0.73236610 0.91886608
0.60273474 0.73236610 0.91886608
0.73236610 0.73236610 0.91886608
0.85716336 0.73236610 0.91886608
0.91886608 0.73236610 0.91886608
0.91886608 0.73236610 0.91886608
0.06256172 0.85716336 0.91886608
0.16033878 0.85716336 0.91886608
0.32169536 0.85716336 0.91886608
0.46677163 0.85716336 0.91886608
0.60273474 0.85716336 0.91886608
0.73236610 0.85716336 0.91886608
0.85716336 0.85716336 0.91886608
0.91886608 0.85716336 0.91886608
0.91886608 0.85716336 0.91886608
0.06256172 0.91886608 0.91886608
0.16033878 0.91886608 0.91886608
0.32169536 0.91886608 0.91886608
0.46677163 0.91886608 0.91886608
0.60273474 0.91886608 0.91886608
0.73236610 0.91886608 0.91886608
0.85716336 0.91886608 0.91886608
0.91886608 0.91886608 0.91886608
0.91886608 0.91886608 0.91886608
0.06256245 0.91886608 0.91886608
0.16033878 0.91886608 0.91886608
0.32169536 0.91886608 0.91886608
0.46677163 0.91886608 0.91886608
0.60273474 0.91886608 0.91886608
0.73236610 0.91886608 0.91886608
0.85716336 0.91886608 0.91886608
0.91886608 0.91886608 0.91886608
0.91886608 0.91886608 0.91886608
0.06256172 0.06256272 0.91886608
0.16033878 0.06256272 0.91886608
0.32169536 0.06256272 0.91886608
0.46677163 0.06256272 0.91886608
0.60273474 0.06256272 0.91886608
0.73236610 0.06256172 0.91886608
0.85716336 0.06256272 0.91886608
0.91886608 0.06256272 0.91886608
0.91886608 0.06256172 0.91886608
0.06256245 0.16033878 0.91886608
0.16033878 0.16033878 0.91886608
0.32169536 0.16033878 0.91886608
0.46677163 0.16033878 0.91886608
0.60273474 0.16033878 0.91886608
0.73236610 0.16033878 0.91886608
0.85716336 0.16033878 0.91886608
0.91886608 0.16033878 0.91886608
0.91886608 0.16033878 0.91886608
0.06256257 0.32169536 0.91886608
0.16033878 0.32169536 0.91886608
0.32169536 0.32169536 0.91886608
0.46677163 0.32169536 0.91886608
0.60273474 0.32169536 0.91886608
0.73236610 0.32169536 0.91886608
0.85716336 0.32169536 0.91886608
0.91886608 0.32169536 0.91886608
0.91886608 0.32169536 0.91886608
0.06256172 0.46677163 0.91886608
0.16033878 0.46677163 0.91886608
0.32169536 0.46677163 0.91886608
0.46677163 0.46677163 0.91886608
0.60273474 0.46677163 0.91886608
0.73236610 0.46677163 0.91886608
0.85716336 0.46677163 0.91886608
0.91886608 0.46677163 0.91886608
0.91886608 0.46677163 0.91886608
0.06256172 0.60273474 0.91886608
0.16033878 0.60273474 0.91886608
0.32169536 0.60273474 0.91886608
0.46677163 0.60273474 0.91886608
0.60273474 0.60273474 0.91886608
0.73236610 0.60273474 0.91886608
0.85716336 0.60273474 0.91886608
0.91886608 0.60273474 0.91886608
0.91886608 0.60273474 0.91886608
0.06256172 0.73236610 0.91886608
0.16033878 0.73236610 0.91886608
0.32169536 0.73236610 0.91886608
0.46677163 0.73236610 0.91886608
0.60273474 0.73236610 0.91886608
0.73236610 0.73236610 0.91886608
0.85716336 0.73236610 0.91886608
0.91886608 0.73236610 0.91886608
0.91886608 0.73236610 0.91886608
0.06256245 0.85716336 0.91886608
0.16033878 0.85716336 0.91886608
0.32169536 0.85716336 0.91886608
0.46677163 0.85716336 0.91886608
0.60273474 0.85716336 0.91886608
0.73236610 0.85716336 0.91886608
0.85716336 0.85716336 0.91886608
0.91886608 0.85716336 0.91886608
0.91886608 0.85716336 0.91886608
0.06256245 0.91886608 0.91886608
0.16033878 0.91886608 0.91886608
0.32169536 0.91886608 0.91886608
0.46677163 0.91886608 0.91886608
0.60273474 0.91886608 0.91886608
0.73236610 0.91886608 0.91886608
0.85716336 0.91886608 0.91886608
0.91886608 0.91886608 0.91886608
0.91886608 0.91886608 0.91886608
0.06256245 0.91886608 0.91886608
0.16033878 0.91886608 0.91886608
0.32169536 0.91886608 0.91886608
0.46677163 0.91886608 0.91886608
0.60273474 0.91886608 0.91886608
0.73236610 0.91886608 0.91886608
0.85716336 0.91886608 0.91886608
0.91886608 0.91886608 0.91886608
0.91886608 0.91886608 0.91886608
