src/ffmpeg_scripts/luts/luminance_-2p00.cube
TITLE "luminance_-2p00"
LUT_3D_SIZE 33
# PQ (EOTF Only)/Rec2020 -> PQ (EOTF Only)/Rec2020, CineEI Shift -2.00, Black Level 0.00% IRE, Input 109% -> Output 109% - Created with LUTCalc v4.01 by Ben Turley October 2020
0.06256172 0.06256172 0.06256172
0.06256172 0.06256172 0.06256172
0.06256172 0.06256172 0.06256172
0.07842107 0.06256175 0.06256172
0.09678047 0.06256172 0.06256172
0.11662753 0.06256172 0.06256172
0.13762039 0.06256179 0.06256179
0.15956957 0.06256172 0.06256172
0.18235122 0.06256172 0.06256172
0.20587673 0.06256172 0.06256172
0.23007890 0.06256172 0.06256172
0.25490465 0.06256183 0.06256172
0.28031079 0.06256172 0.06256172
0.30626133 0.06256172 0.06256184
0.33272574 0.06256172 0.06256172
0.35967770 0.06256172 0.06256172
0.38709426 0.06256188 0.06256187
0.41495517 0.06256172 0.06256187
0.44324243 0.06256172 0.06256172
0.47193988 0.06256190 0.06256172
0.50103293 0.06256188 0.06256172
0.53050835 0.06256172 0.06256172
0.56035402 0.06256192 0.06256172
0.59055884 0.06256172 0.06256172
0.62111258 0.06256172 0.06256172
0.65200577 0.06256172 0.06256197
0.68322960 0.06256172 0.06256172
0.71477589 0.06256172 0.06256172
0.74663698 0.06256203 0.06256172
0.77880568 0.06256172 0.06256172
0.81127528 0.06256197 0.06256172
0.84403941 0.06256200 0.06256208
0.87709209 0.06256213 0.06256213
0.06256172 0.06256172 0.06256172
0.06256172 0.06256172 0.06256172
0.06256172 0.06256172 0.06256172
0.07842107 0.06256175 0.06256172
0.09678047 0.06256172 0.06256172
0.11662753 0.06256172 0.06256172
0.13762039 0.06256179 0.06256179
0.15956957 0.06256172 0.06256172
0.18235122 0.06256172 0.06256172
0.20587673 0.06256172 0.06256172
0.23007890 0.06256172 0.06256172
0.25490465 0.06256183 0.06256172
0.28031079 0.06256172 0.06256172
0.30626133 0.06256172 0.06256184
0.33272574 0.06256172 0.06256172
0.35967770 0.06256172 0.06256172
0.38709426 0.06256188 0.06256187
0.41495517 0.06256172 0.06256187
0.44324243 0.06256172 0.06256172
0.47193988 0.06256190 0.06256172
0.50103293 0.06256188 0.06256172
0.53050835 0.06256172 0.06256172
0.56035402 0.06256192 0.06256172
0.59055884 0.06256172 0.06256172
0.62111258 0.06256172 0.06256172
0.65200577 0.06256172 0.06256197
0.68322960 0.06256172 0.06256172
0.71477589 0.06256172 0.06256172
0.74663698 0.06256203 0.06256172
0.77880568 0.06256172 0.06256172
0.81127528 0.06256197 0.06256172
0.84403941 0.06256200 0.06256208
0.87709209 0.06256213 0.06256213
0.06256172 0.06256172 0.06256172
0.06256172 0.06256172 0.06256172
0.06256172 0.06256172 0.06256172
0.07842107 0.06256175 0.06256172
0.09678047 0.06256172 0.06256172
0.11662753 0.06256172 0.06256172
0.13762039 0.06256179 0.06256179
0.15956957 0.06256172 0.06256172
0.18235122 0.06256172 0.06256172
0.20587673 0.06256172 0.06256172
0.23007890 0.06256172 0.06256172
0.25490465 0.06256183 0.06256172
0.28031079 0.06256172 0.06256172
0.30626133 0.06256172 0.06256184
0.33272574 0.06256172 0.06256172
0.35967770 0.06256172 0.06256172
0.38709426 0.06256188 0.06256187
0.41495517 0.06256172 0.06256187
0.44324243 0.06256172 0.06256172
0.47193988 0.06256190 0.06256172
0.50103293 0.06256188 0.06256172
0.53050835 0.06256172 0.06256172
0.56035402 0.06256192 0.06256172
0.59055884 0.06256172 0.06256172
0.62111258 0.06256172 0.06256172
0.65200577 0.06256172 0.06256197
0.68322960 0.06256172 0.06256172
0.71477589 0.06256172 0.06256172
0.74663698 0.06256203 0.06256172
0.77880568 0.06256172 0.06256172
0.81127528 0.06256197 0.06256172
0.84403941 0.06256200 0.06256208
0.87709209 0.06256213 0.06256213
0.06256176 0.07842107 0.06256172
0.06256176 0.07842107 0.06256172
0.06256176 0.07842107 0.06256172
0.07842107 0.07842107 0.06256172
0.09678047 0.07842107 0.06256172
0.11662753 0.07842107 0.06256172
0.13762039 0.07842107 0.06256172
0.15956957 0.07842107 0.06256172
0.18235122 0.07842107 0.06256180
0.20587673 0.07842107 0.06256172
0.23007890 0.07842107 0.06256172
0.25490465 0.07842107 0.06256172
0.28031079 0.07842107 0.06256172
0.30626133 0.07842107 0.06256184
0.33272574 0.07842107 0.06256172
0.35967770 0.07842107 0.06256185
0.38709426 0.07842107 0.06256187
0.41495517 0.07842107 0.06256172
0.44324243 0.07842107 0.06256172
0.47193988 0.07842107 0.06256172
0.50103293 0.07842107 0.06256172
0.53050835 0.07842107 0.06256191
0.56035402 0.07842107 0.06256172
0.59055884 0.07842107 0.06256194
0.62111258 0.07842107 0.06256172
0.65200577 0.07842107 0.06256172
0.68322960 0.07842107 0.06256172
0.71477589 0.07842107 0.06256172
0.74663698 0.07842107 0.06256204
0.77880568 0.07842107 0.06256172
0.81127528 0.07842107 0.06256208
0.84403941 0.07842107 0.06256172
0.87709209 0.07842107 0.06256172
0.06256178 0.09678047 0.06256172
0.06256178 0.09678047 0.06256172
0.06256178 0.09678047 0.06256172
0.07842107 0.09678047 0.06256172
0.09678047 0.09678047 0.06256172
0.11662753 0.09678047 0.06256172
0.13762039 0.09678047 0.06256179
0.15956957 0.09678047 0.06256179
0.18235122 0.09678047 0.06256172
0.20587673 0.09678047 0.06256180
0.23007890 0.09678047 0.06256172
0.25490465 0.09678047 0.06256182
0.28031079 0.09678047 0.06256172
0.30626133 0.09678047 0.06256184
0.33272574 0.09678047 0.06256185
0.35967770 0.09678047 0.06256172
0.38709426 0.09678047 0.06256172
0.41495517 0.09678047 0.06256187
0.44324243 0.09678047 0.06256172
0.47193988 0.09678047 0.06256172
0.50103293 0.09678047 0.06256172
0.53050835 0.09678047 0.06256172
0.56035402 0.09678047 0.06256172
0.59055884 0.09678047 0.06256172
0.62111258 0.09678047 0.06256172
0.65200577 0.09678047 0.06256172
0.68322960 0.09678047 0.06256200
0.71477589 0.09678047 0.06256200
0.74663698 0.09678047 0.06256172
0.77880568 0.09678047 0.06256172
0.81127528 0.09678047 0.06256172
0.84403941 0.09678047 0.06256172
0.87709209 0.09678047 0.06256172
0.06256178 0.11662753 0.06256172
0.06256178 0.11662753 0.06256172
0.06256178 0.11662753 0.06256172
0.07842107 0.11662753 0.06256178
0.09678047 0.11662753 0.06256172
0.11662753 0.11662753 0.06256172
0.13762039 0.11662753 0.06256179
0.15956957 0.11662753 0.06256179
0.18235122 0.11662753 0.06256172
0.20587673 0.11662753 0.06256181
0.23007890 0.11662753 0.06256172
0.25490465 0.11662753 0.06256172
0.28031079 0.11662753 0.06256172
0.30626133 0.11662753 0.06256184
0.33272574 0.11662753 0.06256185
0.35967770 0.11662753 0.06256172
0.38709426 0.11662753 0.06256187
0.41495517 0.11662753 0.06256187
0.44324243 0.11662753 0.06256172
0.47193988 0.11662753 0.06256172
0.50103293 0.11662753 0.06256172
0.53050835 0.11662753 0.06256172
0.56035402 0.11662753 0.06256172
0.59055884 0.11662753 0.06256172
0.62111258 0.11662753 0.06256172
0.65200577 0.11662753 0.06256197
0.68322960 0.11662753 0.06256172
0.71477589 0.11662753 0.06256172
0.74663698 0.11662753 0.06256204
0.77880568 0.11662753 0.06256172
0.81127528 0.11662753 0.06256172
0.84403941 0.11662753 0.06256172
0.87709209 0.11662753 0.06256172
0.06256178 0.13762039 0.06256172
0.06256178 0.13762039 0.06256172
0.06256178 0.13762039 0.06256172
0.07842107 0.13762039 0.06256172
0.09678047 0.13762039 0.06256172
0.11662753 0.13762039 0.06256172
0.13762039 0.13762039 0.06256172
0.15956957 0.13762039 0.06256172
0.18235122 0.13762039 0.06256172
0.20587673 0.13762039 0.06256172
0.23007890 0.13762039 0.06256172
0.25490465 0.13762039 0.06256172
0.28031079 0.13762039 0.06256172
0.30626133 0.13762039 0.06256172
0.33272574 0.13762039 0.06256172
0.35967770 0.13762039 0.06256172
0.38709426 0.13762039 0.06256172
0.41495517 0.13762039 0.06256172
0.44324243 0.13762039 0.06256172
0.47193988 0.13762039 0.06256172
0.50103293 0.13762039 0.06256172
0.53050835 0.13762039 0.06256172
0.56035402 0.13762039 0.06256194
0.59055884 0.13762039 0.06256172
0.62111258 0.13762039 0.06256172
0.65200577 0.13762039 0.06256172
0.68322960 0.13762039 0.06256172
0.71477589 0.13762039 0.06256200
0.74663698 0.13762039 0.06256204
0.77880568 0.13762039 0.06256172
0.81127528 0.13762039 0.06256208
0.84403941 0.13762039 0.06256172
0.87709209 0.13762039 0.06256172
0.06256180 0.15956957 0.06256172
0.06256180 0.15956957 0.06256172
0.06256180 0.15956957 0.06256172
0.07842107 0.15956957 0.06256172
0.09678047 0.15956957 0.06256172
0.11662753 0.15956957 0.06256172
0.13762039 0.15956957 0.06256172
0.15956957 0.15956957 0.06256172
0.18235122 0.15956957 0.06256172
0.20587673 0.15956957 0.06256172
0.23007890 0.15956957 0.06256182
0.25490465 0.15956957 0.06256172
0.28031079 0.15956957 0.06256172
0.30626133 0.15956957 0.06256172
0.33272574 0.15956957 0.06256185
0.35967770 0.15956957 0.06256172
0.38709426 0.15956957 0.06256187
0.41495517 0.15956957 0.06256172
0.44324243 0.15956957 0.06256172
0.47193988 0.15956957 0.06256189
0.50103293 0.15956957 0.06256172
0.53050835 0.15956957 0.06256172
0.56035402 0.15956957 0.06256194
0.59055884 0.15956957 0.06256194
0.62111258 0.15956957 0.06256172
0.65200577 0.15956957 0.06256197
0.68322960 0.15956957 0.06256172
0.71477589 0.15956957 0.06256172
0.74663698 0.15956957 0.06256172
0.77880568 0.15956957 0.06256172
0.81127528 0.15956957 0.06256208
0.84403941 0.15956957 0.06256172
0.87709209 0.15956957 0.06256213
0.06256172 0.18235122 0.06256172
0.06256172 0.18235122 0.06256172
0.06256172 0.18235122 0.06256172
0.07842107 0.18235122 0.06256180
0.09678047 0.18235122 0.06256172
0.11662753 0.18235122 0.06256180
0.13762039 0.18235122 0.06256172
0.15956957 0.18235122 0.06256172
0.18235122 0.18235122 0.06256172
0.20587673 0.18235122 0.06256172
0.23007890 0.18235122 0.06256172
0.25490465 0.18235122 0.06256182
0.28031079 0.18235122 0.06256172
0.30626133 0.18235122 0.06256172
0.33272574 0.18235122 0.06256172
0.35967770 0.18235122 0.06256172
0.38709426 0.18235122 0.06256187
0.41495517 0.18235122 0.06256187
0.44324243 0.18235122 0.06256172
0.47193988 0.18235122 0.06256172
0.50103293 0.18235122 0.06256172
0.53050835 0.18235122 0.06256172
0.56035402 0.18235122 0.06256172
0.59055884 0.18235122 0.06256172
0.62111258 0.18235122 0.06256172
0.65200577 0.18235122 0.06256172
0.68322960 0.18235122 0.06256200
0.71477589 0.18235122 0.06256172
0.74663698 0.18235122 0.06256172
0.77880568 0.18235122 0.06256172
0.81127528 0.18235122 0.06256172
0.84403941 0.18235122 0.06256172
0.87709209 0.18235122 0.06256172
0.06256183 0.20587673 0.06256172
0.06256183 0.20587673 0.06256172
0.06256183 0.20587673 0.06256172
0.07842107 0.20587673 0.06256172
0.09678047 0.20587673 0.06256172
0.11662753 0.20587673 0.06256172
0.13762039 0.20587673 0.06256172
0.15956957 0.20587673 0.06256172
0.18235122 0.20587673 0.06256172
0.20587673 0.20587673 0.06256172
0.23007890 0.20587673 0.06256182
0.25490465 0.20587673 0.06256172
0.28031079 0.20587673 0.06256172
0.30626133 0.20587673 0.06256172
0.33272574 0.20587673 0.06256172
0.35967770 0.20587673 0.06256172
0.38709426 0.20587673 0.06256187
0.41495517 0.20587673 0.06256172
0.44324243 0.20587673 0.06256189
0.47193988 0.20587673 0.06256172
0.50103293 0.20587673 0.06256172
0.53050835 0.20587673 0.06256172
0.56035402 0.20587673 0.06256172
0.59055884 0.20587673 0.06256194
0.62111258 0.20587673 0.06256172
0.65200577 0.20587673 0.06256197
0.68322960 0.20587673 0.06256172
0.71477589 0.20587673 0.06256200
0.74663698 0.20587673 0.06256172
0.77880568 0.20587673 0.06256172
0.81127528 0.20587673 0.06256208
0.84403941 0.20587673 0.06256172
0.87709209 0.20587673 0.06256172
0.06256184 0.23007890 0.06256172
0.06256184 0.23007890 0.06256172
0.06256184 0.23007890 0.06256172
0.07842107 0.23007890 0.06256172
0.09678047 0.23007890 0.06256172
0.11662753 0.23007890 0.06256172
0.13762039 0.23007890 0.06256172
0.15956957 0.23007890 0.06256172
0.18235122 0.23007890 0.06256172
0.20587673 0.23007890 0.06256172
0.23007890 0.23007890 0.06256172
0.25490465 0.23007890 0.06256172
0.28031079 0.23007890 0.06256172
0.30626133 0.23007890 0.06256172
0.33272574 0.23007890 0.06256172
0.35967770 0.23007890 0.06256172
0.38709426 0.23007890 0.06256172
0.41495517 0.23007890 0.06256172
0.44324243 0.23007890 0.06256172
0.47193988 0.23007890 0.06256172
0.50103293 0.23007890 0.06256172
0.53050835 0.23007890 0.06256172
0.56035402 0.23007890 0.06256172
0.59055884 0.23007890 0.06256194
0.62111258 0.23007890 0.06256172
0.65200577 0.23007890 0.06256172
0.68322960 0.23007890 0.06256172
0.71477589 0.23007890 0.06256172
0.74663698 0.23007890 0.06256204
0.77880568 0.23007890 0.06256172
0.81127528 0.23007890 0.06256172
0.84403941 0.23007890 0.06256172
0.87709209 0.23007890 0.06256172
0.06256185 0.25490465 0.06256172
0.06256185 0.25490465 0.06256172
0.06256185 0.25490465 0.06256172
0.07842107 0.25490465 0.06256172
0.09678047 0.25490465 0.06256172
0.11662753 0.25490465 0.06256172
0.13762039 0.25490465 0.06256172
0.15956957 0.25490465 0.06256172
0.18235122 0.25490465 0.06256172
0.20587673 0.25490465 0.06256172
0.23007890 0.25490465 0.06256172
0.25490465 0.25490465 0.06256172
0.28031079 0.25490465 0.06256172
0.30626133 0.25490465 0.06256172
0.33272574 0.25490465 0.06256185
0.35967770 0.25490465 0.06256172
0.38709426 0.25490465 0.06256172
0.41495517 0.25490465 0.06256187
0.44324243 0.25490465 0.06256172
0.47193988 0.25490465 0.06256172
0.50103293 0.25490465 0.06256172
0.53050835 0.25490465 0.06256172
0.56035402 0.25490465 0.06256172
0.59055884 0.25490465 0.06256194
0.62111258 0.25490465 0.06256172
0.65200577 0.25490465 0.06256197
0.68322960 0.25490465 0.06256172
0.71477589 0.25490465 0.06256200
0.74663698 0.25490465 0.06256204
0.77880568 0.25490465 0.06256172
0.81127528 0.25490465 0.06256208
0.84403941 0.25490465 0.06256172
0.87709209 0.25490465 0.06256172
0.06256185 0.28031079 0.06256172
0.06256185 0.28031079 0.06256172
0.06256185 0.28031079 0.06256172
0.07842107 0.28031079 0.06256172
0.09678047 0.28031079 0.06256172
0.11662753 0.28031079 0.06256172
0.13762039 0.28031079 0.06256172
0.15956957 0.28031079 0.06256172
0.18235122 0.28031079 0.06256172
0.20587673 0.28031079 0.06256184
0.23007890 0.28031079 0.06256172
0.25490465 0.28031079 0.06256172
0.28031079 0.28031079 0.06256185
0.30626133 0.28031079 0.06256172
0.33272574 0.28031079 0.06256172
0.35967770 0.28031079 0.06256172
0.38709426 0.28031079 0.06256187
0.41495517 0.28031079 0.06256187
0.44324243 0.28031079 0.06256172
0.47193988 0.28031079 0.06256172
0.50103293 0.28031079 0.06256172
0.53050835 0.28031079 0.06256172
0.56035402 0.28031079 0.06256172
0.59055884 0.28031079 0.06256172
0.62111258 0.28031079 0.06256172
0.65200577 0.28031079 0.06256197
0.68322960 0.28031079 0.06256172
0.71477589 0.28031079 0.06256200
0.74663698 0.28031079 0.06256204
0.77880568 0.28031079 0.06256172
0.81127528 0.28031079 0.06256172
0.84403941 0.28031079 0.06256172
0.87709209 0.28031079 0.06256172
0.06256186 0.30626133 0.06256172
0.06256186 0.30626133 0.06256172
0.06256186 0.30626133 0.06256172
0.07842107 0.30626133 0.06256184
0.09678047 0.30626133 0.06256172
0.11662753 0.30626133 0.06256172
0.13762039 0.30626133 0.06256184
0.15956957 0.30626133 0.06256172
0.18235122 0.30626133 0.06256172
0.20587673 0.30626133 0.06256185
0.23007890 0.30626133 0.06256185
0.25490465 0.30626133 0.06256172
0.28031079 0.30626133 0.06256172
0.30626133 0.30626133 0.06256185
0.33272574 0.30626133 0.06256172
0.35967770 0.30626133 0.06256172
0.38709426 0.30626133 0.06256187
0.41495517 0.30626133 0.06256172
0.44324243 0.30626133 0.06256172
0.47193988 0.30626133 0.06256172
0.50103293 0.30626133 0.06256172
0.53050835 0.30626133 0.06256172
0.56035402 0.30626133 0.06256172
0.59055884 0.30626133 0.06256194
0.62111258 0.30626133 0.06256172
0.65200577 0.30626133 0.06256172
0.68322960 0.30626133 0.06256172
0.71477589 0.30626133 0.06256172
0.74663698 0.30626133 0.06256204
0.77880568 0.30626133 0.06256172
0.81127528 0.30626133 0.06256208
0.84403941 0.30626133 0.06256172
0.87709209 0.30626133 0.06256213
0.06256172 0.33272574 0.06256185
0.06256172 0.33272574 0.06256185
0.06256172 0.33272574 0.06256185
0.07842107 0.33272574 0.06256172
0.09678047 0.33272574 0.06256185
0.11662753 0.33272574 0.06256172
0.13762039 0.33272574 0.06256172
0.15956957 0.33272574 0.06256172
0.18235122 0.33272574 0.06256172
0.20587673 0.33272574 0.06256185
0.23007890 0.33272574 0.06256172
0.25490465 0.33272574 0.06256185
0.28031079 0.33272574 0.06256172
0.30626133 0.33272574 0.06256187
0.33272574 0.33272574 0.06256172
0.35967770 0.33272574 0.06256172
0.38709426 0.33272574 0.06256187
0.41495517 0.33272574 0.06256172
0.44324243 0.33272574 0.06256189
0.47193988 0.33272574 0.06256172
0.50103293 0.33272574 0.06256172
0.53050835 0.33272574 0.06256172
0.56035402 0.33272574 0.06256172
0.59055884 0.33272574 0.06256172
0.62111258 0.33272574 0.06256172
0.65200577 0.33272574 0.06256172
0.68322960 0.33272574 0.06256172
0.71477589 0.33272574 0.06256200
0.74663698 0.33272574 0.06256172
0.77880568 0.33272574 0.06256172
0.81127528 0.33272574 0.06256172
0.84403941 0.33272574 0.06256172
0.87709209 0.33272574 0.06256213
0.06256189 0.35967770 0.06256172
0.06256189 0.35967770 0.06256172
0.06256189 0.35967770 0.06256172
0.07842107 0.35967770 0.06256172
0.09678047 0.35967770 0.06256172
0.11662753 0.35967770 0.06256187
0.13762039 0.35967770 0.06256172
0.15956957 0.35967770 0.06256172
0.18235122 0.35967770 0.06256172
0.20587673 0.35967770 0.06256172
0.23007890 0.35967770 0.06256172
0.25490465 0.35967770 0.06256172
0.28031079 0.35967770 0.06256172
0.30626133 0.35967770 0.06256172
0.33272574 0.35967770 0.06256172
0.35967770 0.35967770 0.06256187
0.38709426 0.35967770 0.06256172
0.41495517 0.35967770 0.06256172
0.44324243 0.35967770 0.06256172
0.47193988 0.35967770 0.06256172
0.50103293 0.35967770 0.06256172
0.53050835 0.35967770 0.06256172
0.56035402 0.35967770 0.06256172
0.59055884 0.35967770 0.06256172
0.62111258 0.35967770 0.06256197
0.65200577 0.35967770 0.06256197
0.68322960 0.35967770 0.06256172
0.71477589 0.35967770 0.06256172
0.74663698 0.35967770 0.06256172
0.77880568 0.35967770 0.06256172
0.81127528 0.35967770 0.06256172
0.84403941 0.35967770 0.06256172
0.87709209 0.35967770 0.06256172
0.06256172 0.38709426 0.06256172
0.06256172 0.38709426 0.06256172
0.06256172 0.38709426 0.06256172
0.07842107 0.38709426 0.06256172
0.09678047 0.38709426 0.06256187
0.11662753 0.38709426 0.06256172
0.13762039 0.38709426 0.06256172
0.15956957 0.38709426 0.06256172
0.18235122 0.38709426 0.06256187
0.20587673 0.38709426 0.06256172
0.23007890 0.38709426 0.06256172
0.25490465 0.38709426 0.06256172
0.28031079 0.38709426 0.06256172
0.30626133 0.38709426 0.06256172
0.33272574 0.38709426 0.06256187
0.35967770 0.38709426 0.06256189
0.38709426 0.38709426 0.06256172
0.41495517 0.38709426 0.06256189
0.44324243 0.38709426 0.06256172
0.47193988 0.38709426 0.06256172
0.50103293 0.38709426 0.06256172
0.53050835 0.38709426 0.06256172
0.56035402 0.38709426 0.06256194
0.59055884 0.38709426 0.06256172
0.62111258 0.38709426 0.06256172
0.65200577 0.38709426 0.06256197
0.68322960 0.38709426 0.06256172
0.71477589 0.38709426 0.06256172
0.74663698 0.38709426 0.06256172
0.77880568 0.38709426 0.06256172
0.81127528 0.38709426 0.06256208
0.84403941 0.38709426 0.06256172
0.87709209 0.38709426 0.06256172
0.06256191 0.41495517 0.06256189
0.06256191 0.41495517 0.06256189
0.06256191 0.41495517 0.06256189
0.07842107 0.41495517 0.06256189
0.09678047 0.41495517 0.06256189
0.11662753 0.41495517 0.06256172
0.13762039 0.41495517 0.06256172
0.15956957 0.41495517 0.06256172
0.18235122 0.41495517 0.06256172
0.20587673 0.41495517 0.06256172
0.23007890 0.41495517 0.06256189
0.25490465 0.41495517 0.06256189
0.28031079 0.41495517 0.06256172
0.30626133 0.41495517 0.06256189
0.33272574 0.41495517 0.06256172
0.35967770 0.41495517 0.06256172
0.38709426 0.41495517 0.06256172
0.41495517 0.41495517 0.06256172
0.44324243 0.41495517 0.06256172
0.47193988 0.41495517 0.06256172
0.50103293 0.41495517 0.06256172
0.53050835 0.41495517 0.06256172
0.56035402 0.41495517 0.06256172
0.59055884 0.41495517 0.06256172
0.62111258 0.41495517 0.06256172
0.65200577 0.41495517 0.06256172
0.68322960 0.41495517 0.06256172
0.71477589 0.41495517 0.06256200
0.74663698 0.41495517 0.06256204
0.77880568 0.41495517 0.06256172
0.81127528 0.41495517 0.06256172
0.84403941 0.41495517 0.06256172
0.87709209 0.41495517 0.06256213
0.06256192 0.44324243 0.06256172
0.06256192 0.44324243 0.06256172
0.06256192 0.44324243 0.06256172
0.07842107 0.44324243 0.06256189
0.09678047 0.44324243 0.06256172
0.11662753 0.44324243 0.06256172
0.13762039 0.44324243 0.06256172
0.15956957 0.44324243 0.06256172
0.18235122 0.44324243 0.06256172
0.20587673 0.44324243 0.06256172
0.23007890 0.44324243 0.06256172
0.25490465 0.44324243 0.06256172
0.28031079 0.44324243 0.06256172
0.30626133 0.44324243 0.06256172
0.33272574 0.44324243 0.06256189
0.35967770 0.44324243 0.06256172
0.38709426 0.44324243 0.06256172
0.41495517 0.44324243 0.06256172
0.44324243 0.44324243 0.06256172
0.47193988 0.44324243 0.06256172
0.50103293 0.44324243 0.06256172
0.53050835 0.44324243 0.06256172
0.56035402 0.44324243 0.06256194
0.59055884 0.44324243 0.06256172
0.62111258 0.44324243 0.06256172
0.65200577 0.44324243 0.06256172
0.68322960 0.44324243 0.06256172
0.71477589 0.44324243 0.06256200
0.74663698 0.44324243 0.06256172
0.77880568 0.44324243 0.06256172
0.81127528 0.44324243 0.06256172
0.84403941 0.44324243 0.06256172
0.87709209 0.44324243 0.06256172
0.06256190 0.47193988 0.06256172
0.06256190 0.47193988 0.06256172
0.06256190 0.47193988 0.06256172
0.07842107 0.47193988 0.06256172
0.09678047 0.47193988 0.06256172
0.11662753 0.47193988 0.06256172
0.13762039 0.47193988 0.06256172
0.15956957 0.47193988 0.06256172
0.18235122 0.47193988 0.06256172
0.20587673 0.47193988 0.06256172
0.23007890 0.47193988 0.06256172
0.25490465 0.47193988 0.06256172
0.28031079 0.47193988 0.06256172
0.30626133 0.47193988 0.06256172
0.33272574 0.47193988 0.06256172
0.35967770 0.47193988 0.06256172
0.38709426 0.47193988 0.06256191
0.41495517 0.47193988 0.06256172
0.44324243 0.47193988 0.06256194
0.47193988 0.47193988 0.06256172
0.50103293 0.47193988 0.06256172
0.53050835 0.47193988 0.06256172
0.56035402 0.47193988 0.06256194
0.59055884 0.47193988 0.06256172
0.62111258 0.47193988 0.06256172
0.65200577 0.47193988 0.06256172
0.68322960 0.47193988 0.06256172
0.71477589 0.47193988 0.06256172
0.74663698 0.47193988 0.06256172
0.77880568 0.47193988 0.06256172
0.81127528 0.47193988 0.06256172
0.84403941 0.47193988 0.06256172
0.87709209 0.47193988 0.06256172
0.06256172 0.50103293 0.06256172
0.06256172 0.50103293 0.06256172
0.06256172 0.50103293 0.06256172
0.07842107 0.50103293 0.06256172
0.09678047 0.50103293 0.06256191
0.11662753 0.50103293 0.06256191
0.13762039 0.50103293 0.06256191
0.15956957 0.50103293 0.06256172
0.18235122 0.50103293 0.06256191
0.20587673 0.50103293 0.06256191
0.23007890 0.50103293 0.06256172
0.25490465 0.50103293 0.06256191
0.28031079 0.50103293 0.06256172
0.30626133 0.50103293 0.06256172
0.33272574 0.50103293 0.06256172
0.35967770 0.50103293 0.06256172
0.38709426 0.50103293 0.06256191
0.41495517 0.50103293 0.06256172
0.44324243 0.50103293 0.06256172
0.47193988 0.50103293 0.06256172
0.50103293 0.50103293 0.06256172
0.53050835 0.50103293 0.06256172
0.56035402 0.50103293 0.06256172
0.59055884 0.50103293 0.06256172
0.62111258 0.50103293 0.06256197
0.65200577 0.50103293 0.06256172
0.68322960 0.50103293 0.06256172
0.71477589 0.50103293 0.06256172
0.74663698 0.50103293 0.06256172
0.77880568 0.50103293 0.06256172
0.81127528 0.50103293 0.06256172
0.84403941 0.50103293 0.06256208
0.87709209 0.50103293 0.06256172
0.06256194 0.53050835 0.06256172
0.06256194 0.53050835 0.06256172
0.06256194 0.53050835 0.06256172
0.07842107 0.53050835 0.06256172
0.09678047 0.53050835 0.06256172
0.11662753 0.53050835 0.06256194
0.13762039 0.53050835 0.06256172
0.15956957 0.53050835 0.06256172
0.18235122 0.53050835 0.06256172
0.20587673 0.53050835 0.06256194
0.23007890 0.53050835 0.06256172
0.25490465 0.53050835 0.06256172
0.28031079 0.53050835 0.06256172
0.30626133 0.53050835 0.06256172
0.33272574 0.53050835 0.06256194
0.35967770 0.53050835 0.06256172
0.38709426 0.53050835 0.06256172
0.41495517 0.53050835 0.06256172
0.44324243 0.53050835 0.06256172
0.47193988 0.53050835 0.06256172
0.50103293 0.53050835 0.06256172
0.53050835 0.53050835 0.06256172
0.56035402 0.53050835 0.06256172
0.59055884 0.53050835 0.06256172
0.62111258 0.53050835 0.06256172
0.65200577 0.53050835 0.06256197
0.68322960 0.53050835 0.06256172
