src/ffmpeg_scripts/luts/luminance_2p67.cube
TITLE "luminance_2p67"
LUT_3D_SIZE 9
# PQ (EOTF Only)/Rec2020 -> PQ (EOTF Only)/Rec2020, CineEI Shift 2.67, Black Level 0.00% IRE, Input 109% -> Output 109% - Created with LUTCalc v4.01 by Ben Turley October 2020
0.06256172 0.06256172 0.06256172
0.18761955 0.06256181 0.06256172
0.37101146 0.06256172 0.06256172
0.52624221 0.06256172 0.06256191
0.66661318 0.06256194 0.06256200
0.79702534 0.06256172 0.06256172
0.91886608 0.06256172 0.06256172
0.91886608 0.06256233 0.06256172
0.91886608 0.06256235 0.06256245
0.06256182 0.18761955 0.06256172
0.18761955 0.18761955 0.06256172
0.37101146 0.18761955 0.06256172
0.52624221 0.18761955 0.06256172
0.66661318 0.18761955 0.06256172
0.79702534 0.18761955 0.06256172
0.91886608 0.18761955 0.06256172
0.91886608 0.18761955 0.06256227
0.91886608 0.18761955 0.06256172
0.06256187 0.37101146 0.06256172
0.18761955 0.37101146 0.06256172
0.37101146 0.37101146 0.06256172
0.52624221 0.37101146 0.06256172
0.66661318 0.37101146 0.06256197
0.79702534 0.37101146 0.06256172
0.91886608 0.37101146 0.06256172
0.91886608 0.37101146 0.06256172
0.91886608 0.37101146 0.06256172
0.06256195 0.52624221 0.06256191
0.18761955 0.52624221 0.06256172
0.37101146 0.52624221 0.06256172
0.52624221 0.52624221 0.06256194
0.66661318 0.52624221 0.06256200
0.79702534 0.52624221 0.06256172
0.91886608 0.52624221 0.06256172
0.91886608 0.52624221 0.06256227
0.91886608 0.52624221 0.06256172
0.06256172 0.66661318 0.06256172
0.18761955 0.66661318 0.06256172
0.37101146 0.66661318 0.06256172
0.52624221 0.66661318 0.06256172
0.66661318 0.66661318 0.06256172
0.79702534 0.66661318 0.06256172
0.91886608 0.66661318 0.06256172
0.91886608 0.66661318 0.06256172
0.91886608 0.66661318 0.06256172
0.06256205 0.79702534 0.06256208
0.18761955 0.79702534 0.06256172
0.37101146 0.79702534 0.06256208
0.52624221 0.79702534 0.06256172
0.66661318 0.79702534 0.06256208
0.79702534 0.79702534 0.06256172
0.91886608 0.79702534 0.06256172
0.91886608 0.79702534 0.06256172
0.91886608 0.79702534 0.06256172
0.06256172 0.91886608 0.06256172
0.18761955 0.91886608 0.06256172
0.37101146 0.91886608 0.06256172
0.52624221 0.91886608 0.06256219
0.66661318 0.91886608 0.06256172
0.79702534 0.91886608 0.06256219
0.91886608 0.91886608 0.06256172
0.91886608 0.91886608 0.06256172
0.91886608 0.91886608 0.06256245
0.06256230 0.91886608 0.06256172
0.18761955 0.91886608 0.06256172
0.37101146 0.91886608 0.06256172
0.52624221 0.91886608 0.06256172
0.66661318 0.91886608 0.06256172
0.79702534 0.91886608 0.06256172
0.91886608 0.91886608 0.06256172
0.91886608 0.91886608 0.06256172
0.91886608 0.91886608 0.06256172
0.06256259 0.91886608 0.06256257
0.18761955 0.91886608 0.06256257
0.37101146 0.91886608 0.06256172
0.52624221 0.91886608 0.06256172
0.66661318 0.91886608 0.06256172
0.79702534 0.91886608 0.06256172
0.91886608 0.91886608 0.06256172
0.91886608 0.91886608 0.06256257
0.91886608 0.91886608 0.06256172
0.06256172 0.06256184 0.18761955
0.18761955 0.06256182 0.18761955
0.37101146 0.06256172 0.18761955
0.52624221 0.06256172 0.18761955
0.66661318 0.06256198 0.18761955
0.79702534 0.06256172 0.18761955
0.91886608 0.06256172 0.18761955
0.91886608 0.06256233 0.18761955
0.91886608 0.06256241 0.18761955
0.06256182 0.18761955 0.18761955
0.18761955 0.18761955 0.18761955
0.37101146 0.18761955 0.18761955
0.52624221 0.18761955 0.18761955
0.66661318 0.18761955 0.18761955
0.79702534 0.18761955 0.18761955
0.91886608 0.18761955 0.18761955
0.91886608 0.18761955 0.18761955
0.91886608 0.18761955 0.18761955
0.06256188 0.37101146 0.18761955
0.18761955 0.37101146 0.18761955
0.37101146 0.37101146 0.18761955
0.52624221 0.37101146 0.18761955
0.66661318 0.37101146 0.18761955
0.79702534 0.37101146 0.18761955
0.91886608 0.37101146 0.18761955
0.91886608 0.37101146 0.18761955
0.91886608 0.37101146 0.18761955
0.06256191 0.52624221 0.18761955
0.18761955 0.52624221 0.18761955
0.37101146 0.52624221 0.18761955
0.52624221 0.52624221 0.18761955
0.66661318 0.52624221 0.18761955
0.79702534 0.52624221 0.18761955
0.91886608 0.52624221 0.18761955
0.91886608 0.52624221 0.18761955
0.91886608 0.52624221 0.18761955
0.06256172 0.66661318 0.18761955
0.18761955 0.66661318 0.18761955
0.37101146 0.66661318 0.18761955
0.52624221 0.66661318 0.18761955
0.66661318 0.66661318 0.18761955
0.79702534 0.66661318 0.18761955
0.91886608 0.66661318 0.18761955
0.91886608 0.66661318 0.18761955
0.91886608 0.66661318 0.18761955
0.06256214 0.79702534 0.18761955
0.18761955 0.79702534 0.18761955
0.37101146 0.79702534 0.18761955
0.52624221 0.79702534 0.18761955
0.66661318 0.79702534 0.18761955
0.79702534 0.79702534 0.18761955
0.91886608 0.79702534 0.18761955
0.91886608 0.79702534 0.18761955
0.91886608 0.79702534 0.18761955
0.06256172 0.91886608 0.18761955
0.18761955 0.91886608 0.18761955
0.37101146 0.91886608 0.18761955
0.52624221 0.91886608 0.18761955
0.66661318 0.91886608 0.18761955
0.79702534 0.91886608 0.18761955
0.91886608 0.91886608 0.18761955
0.91886608 0.91886608 0.18761955
0.91886608 0.91886608 0.18761955
0.06256234 0.91886608 0.18761955
0.18761955 0.91886608 0.18761955
0.37101146 0.91886608 0.18761955
0.52624221 0.91886608 0.18761955
0.66661318 0.91886608 0.18761955
0.79702534 0.91886608 0.18761955
0.91886608 0.91886608 0.18761955
0.91886608 0.91886608 0.18761955
0.91886608 0.91886608 0.18761955
0.06256231 0.91886608 0.18761955
0.18761955 0.91886608 0.18761955
0.37101146 0.91886608 0.18761955
0.52624221 0.91886608 0.18761955
0.66661318 0.91886608 0.18761955
0.79702534 0.91886608 0.18761955
0.91886608 0.91886608 0.18761955
0.91886608 0.91886608 0.18761955
0.91886608 0.91886608 0.18761955
0.06256172 0.06256191 0.37101146
0.18761955 0.06256191 0.37101146
0.37101146 0.06256191 0.37101146
0.52624221 0.06256172 0.37101146
0.66661318 0.06256200 0.37101146
0.79702534 0.06256210 0.37101146
0.91886608 0.06256172 0.37101146
0.91886608 0.06256237 0.37101146
0.91886608 0.06256241 0.37101146
0.06256172 0.18761955 0.37101146
0.18761955 0.18761955 0.37101146
0.37101146 0.18761955 0.37101146
0.52624221 0.18761955 0.37101146
0.66661318 0.18761955 0.37101146
0.79702534 0.18761955 0.37101146
0.91886608 0.18761955 0.37101146
0.91886608 0.18761955 0.37101146
0.91886608 0.18761955 0.37101146
0.06256172 0.37101146 0.37101146
0.18761955 0.37101146 0.37101146
0.37101146 0.37101146 0.37101146
0.52624221 0.37101146 0.37101146
0.66661318 0.37101146 0.37101146
0.79702534 0.37101146 0.37101146
0.91886608 0.37101146 0.37101146
0.91886608 0.37101146 0.37101146
0.91886608 0.37101146 0.37101146
0.06256172 0.52624221 0.37101146
0.18761955 0.52624221 0.37101146
0.37101146 0.52624221 0.37101146
0.52624221 0.52624221 0.37101146
0.66661318 0.52624221 0.37101146
0.79702534 0.52624221 0.37101146
0.91886608 0.52624221 0.37101146
0.91886608 0.52624221 0.37101146
0.91886608 0.52624221 0.37101146
0.06256204 0.66661318 0.37101146
0.18761955 0.66661318 0.37101146
0.37101146 0.66661318 0.37101146
0.52624221 0.66661318 0.37101146
0.66661318 0.66661318 0.37101146
0.79702534 0.66661318 0.37101146
0.91886608 0.66661318 0.37101146
0.91886608 0.66661318 0.37101146
0.91886608 0.66661318 0.37101146
0.06256214 0.79702534 0.37101146
0.18761955 0.79702534 0.37101146
0.37101146 0.79702534 0.37101146
0.52624221 0.79702534 0.37101146
0.66661318 0.79702534 0.37101146
0.79702534 0.79702534 0.37101146
0.91886608 0.79702534 0.37101146
0.91886608 0.79702534 0.37101146
0.91886608 0.79702534 0.37101146
0.06256235 0.91886608 0.37101146
0.18761955 0.91886608 0.37101146
0.37101146 0.91886608 0.37101146
0.52624221 0.91886608 0.37101146
0.66661318 0.91886608 0.37101146
0.79702534 0.91886608 0.37101146
0.91886608 0.91886608 0.37101146
0.91886608 0.91886608 0.37101146
0.91886608 0.91886608 0.37101146
0.06256208 0.91886608 0.37101146
0.18761955 0.91886608 0.37101146
0.37101146 0.91886608 0.37101146
0.52624221 0.91886608 0.37101146
0.66661318 0.91886608 0.37101146
0.79702534 0.91886608 0.37101146
0.91886608 0.91886608 0.37101146
0.91886608 0.91886608 0.37101146
0.91886608 0.91886608 0.37101146
0.06256172 0.91886608 0.37101146
0.18761955 0.91886608 0.37101146
0.37101146 0.91886608 0.37101146
0.52624221 0.91886608 0.37101146
0.66661318 0.91886608 0.37101146
0.79702534 0.91886608 0.37101146
0.91886608 0.91886608 0.37101146
0.91886608 0.91886608 0.37101146
0.91886608 0.91886608 0.37101146
0.06256172 0.06256200 0.52624221
0.18761955 0.06256200 0.52624221
0.37101146 0.06256200 0.52624221
0.52624221 0.06256172 0.52624221
0.66661318 0.06256172 0.52624221
0.79702534 0.06256208 0.52624221
0.91886608 0.06256172 0.52624221
0.91886608 0.06256172 0.52624221
0.91886608 0.06256227 0.52624221
0.06256172 0.18761955 0.52624221
0.18761955 0.18761955 0.52624221
0.37101146 0.18761955 0.52624221
0.52624221 0.18761955 0.52624221
0.66661318 0.18761955 0.52624221
0.79702534 0.18761955 0.52624221
0.91886608 0.18761955 0.52624221
0.91886608 0.18761955 0.52624221
0.91886608 0.18761955 0.52624221
0.06256172 0.37101146 0.52624221
0.18761955 0.37101146 0.52624221
0.37101146 0.37101146 0.52624221
0.52624221 0.37101146 0.52624221
0.66661318 0.37101146 0.52624221
0.79702534 0.37101146 0.52624221
0.91886608 0.37101146 0.52624221
0.91886608 0.37101146 0.52624221
0.91886608 0.37101146 0.52624221
0.06256194 0.52624221 0.52624221
0.18761955 0.52624221 0.52624221
0.37101146 0.52624221 0.52624221
0.52624221 0.52624221 0.52624221
0.66661318 0.52624221 0.52624221
0.79702534 0.52624221 0.52624221
0.91886608 0.52624221 0.52624221
0.91886608 0.52624221 0.52624221
0.91886608 0.52624221 0.52624221
0.06256172 0.66661318 0.52624221
0.18761955 0.66661318 0.52624221
0.37101146 0.66661318 0.52624221
0.52624221 0.66661318 0.52624221
0.66661318 0.66661318 0.52624221
0.79702534 0.66661318 0.52624221
0.91886608 0.66661318 0.52624221
0.91886608 0.66661318 0.52624221
0.91886608 0.66661318 0.52624221
0.06256208 0.79702534 0.52624221
0.18761955 0.79702534 0.52624221
0.37101146 0.79702534 0.52624221
0.52624221 0.79702534 0.52624221
0.66661318 0.79702534 0.52624221
0.79702534 0.79702534 0.52624221
0.91886608 0.79702534 0.52624221
0.91886608 0.79702534 0.52624221
0.91886608 0.79702534 0.52624221
0.06256230 0.91886608 0.52624221
0.18761955 0.91886608 0.52624221
0.37101146 0.91886608 0.52624221
0.52624221 0.91886608 0.52624221
0.66661318 0.91886608 0.52624221
0.79702534 0.91886608 0.52624221
0.91886608 0.91886608 0.52624221
0.91886608 0.91886608 0.52624221
0.91886608 0.91886608 0.52624221
0.06256172 0.91886608 0.52624221
0.18761955 0.91886608 0.52624221
0.37101146 0.91886608 0.52624221
0.52624221 0.91886608 0.52624221
0.66661318 0.91886608 0.52624221
0.79702534 0.91886608 0.52624221
0.91886608 0.91886608 0.52624221
0.91886608 0.91886608 0.52624221
0.91886608 0.91886608 0.52624221
0.06256255 0.91886608 0.52624221
0.18761955 0.91886608 0.52624221
0.37101146 0.91886608 0.52624221
0.52624221 0.91886608 0.52624221
0.66661318 0.91886608 0.52624221
0.79702534 0.91886608 0.52624221
0.91886608 0.91886608 0.52624221
0.91886608 0.91886608 0.52624221
0.91886608 0.91886608 0.52624221
0.06256172 0.06256213 0.66661318
0.18761955 0.06256172 0.66661318
0.37101146 0.06256172 0.66661318
0.52624221 0.06256208 0.66661318
0.66661318 0.06256208 0.66661318
0.79702534 0.06256172 0.66661318
0.91886608 0.06256208 0.66661318
0.91886608 0.06256213 0.66661318
0.91886608 0.06256259 0.66661318
0.06256200 0.18761955 0.66661318
0.18761955 0.18761955 0.66661318
0.37101146 0.18761955 0.66661318
0.52624221 0.18761955 0.66661318
0.66661318 0.18761955 0.66661318
0.79702534 0.18761955 0.66661318
0.91886608 0.18761955 0.66661318
0.91886608 0.18761955 0.66661318
0.91886608 0.18761955 0.66661318
0.06256172 0.37101146 0.66661318
0.18761955 0.37101146 0.66661318
0.37101146 0.37101146 0.66661318
0.52624221 0.37101146 0.66661318
0.66661318 0.37101146 0.66661318
0.79702534 0.37101146 0.66661318
0.91886608 0.37101146 0.66661318
0.91886608 0.37101146 0.66661318
0.91886608 0.37101146 0.66661318
0.06256172 0.52624221 0.66661318
0.18761955 0.52624221 0.66661318
0.37101146 0.52624221 0.66661318
0.52624221 0.52624221 0.66661318
0.66661318 0.52624221 0.66661318
0.79702534 0.52624221 0.66661318
0.91886608 0.52624221 0.66661318
0.91886608 0.52624221 0.66661318
0.91886608 0.52624221 0.66661318
0.06256172 0.66661318 0.66661318
0.18761955 0.66661318 0.66661318
0.37101146 0.66661318 0.66661318
0.52624221 0.66661318 0.66661318
0.66661318 0.66661318 0.66661318
0.79702534 0.66661318 0.66661318
0.91886608 0.66661318 0.66661318
0.91886608 0.66661318 0.66661318
0.91886608 0.66661318 0.66661318
0.06256172 0.79702534 0.66661318
0.18761955 0.79702534 0.66661318
0.37101146 0.79702534 0.66661318
0.52624221 0.79702534 0.66661318
0.66661318 0.79702534 0.66661318
0.79702534 0.79702534 0.66661318
0.91886608 0.79702534 0.66661318
0.91886608 0.79702534 0.66661318
0.91886608 0.79702534 0.66661318
0.06256172 0.91886608 0.66661318
0.18761955 0.91886608 0.66661318
0.37101146 0.91886608 0.66661318
0.52624221 0.91886608 0.66661318
0.66661318 0.91886608 0.66661318
0.79702534 0.91886608 0.66661318
0.91886608 0.91886608 0.66661318
0.91886608 0.91886608 0.66661318
0.91886608 0.91886608 0.66661318
0.06256244 0.91886608 0.66661318
0.18761955 0.91886608 0.66661318
0.37101146 0.91886608 0.66661318
0.52624221 0.91886608 0.66661318
0.66661318 0.91886608 0.66661318
0.79702534 0.91886608 0.66661318
0.91886608 0.91886608 0.66661318
0.91886608 0.91886608 0.66661318
0.91886608 0.91886608 0.66661318
0.06256172 0.91886608 0.66661318
0.18761955 0.91886608 0.66661318
0.37101146 0.91886608 0.66661318
0.52624221 0.91886608 0.66661318
0.66661318 0.91886608 0.66661318
0.79702534 0.91886608 0.66661318
0.91886608 0.91886608 0.66661318
0.91886608 0.91886608 0.66661318
0.91886608 0.91886608 0.66661318
0.06256208 0.06256219 0.79702534
0.18761955 0.06256227 0.79702534
0.37101146 0.06256219 0.79702534
0.52624221 0.06256227 0.79702534
0.66661318 0.06256227 0.79702534
0.79702534 0.06256219 0.79702534
0.91886608 0.06256227 0.79702534
0.91886608 0.06256219 0.79702534
0.91886608 0.06256172 0.79702534
0.06256172 0.18761955 0.79702534
0.18761955 0.18761955 0.79702534
0.37101146 0.18761955 0.79702534
0.52624221 0.18761955 0.79702534
0.66661318 0.18761955 0.79702534
0.79702534 0.18761955 0.79702534
0.91886608 0.18761955 0.79702534
0.91886608 0.18761955 0.79702534
0.91886608 0.18761955 0.79702534
0.06256208 0.37101146 0.79702534
0.18761955 0.37101146 0.79702534
0.37101146 0.37101146 0.79702534
0.52624221 0.37101146 0.79702534
0.66661318 0.37101146 0.79702534
0.79702534 0.37101146 0.79702534
0.91886608 0.37101146 0.79702534
0.91886608 0.37101146 0.79702534
0.91886608 0.37101146 0.79702534
0.06256172 0.52624221 0.79702534
0.18761955 0.52624221 0.79702534
0.37101146 0.52624221 0.79702534
0.52624221 0.52624221 0.79702534
0.66661318 0.52624221 0.79702534
0.79702534 0.52624221 0.79702534
0.91886608 0.52624221 0.79702534
0.91886608 0.52624221 0.79702534
0.91886608 0.52624221 0.79702534
0.06256172 0.66661318 0.79702534
0.18761955 0.66661318 0.79702534
0.37101146 0.66661318 0.79702534
0.52624221 0.66661318 0.79702534
0.66661318 0.66661318 0.79702534
0.79702534 0.66661318 0.79702534
0.91886608 0.66661318 0.79702534
0.91886608 0.66661318 0.79702534
0.91886608 0.66661318 0.79702534
0.06256172 0.79702534 0.79702534
0.18761955 0.79702534 0.79702534
0.37101146 0.79702534 0.79702534
0.52624221 0.79702534 0.79702534
0.66661318 0.79702534 0.79702534
0.79702534 0.79702534 0.79702534
0.91886608 0.79702534 0.79702534
0.91886608 0.79702534 0.79702534
0.91886608 0.79702534 0.79702534
0.06256219 0.91886608 0.79702534
0.18761955 0.91886608 0.79702534
0.37101146 0.91886608 0.79702534
0.52624221 0.91886608 0.79702534
0.66661318 0.91886608 0.79702534
0.79702534 0.91886608 0.79702534
0.91886608 0.91886608 0.79702534
0.91886608 0.91886608 0.79702534
0.91886608 0.91886608 0.79702534
0.06256172 0.91886608 0.79702534
0.18761955 0.91886608 0.79702534
0.37101146 0.91886608 0.79702534
0.52624221 0.91886608 0.79702534
0.66661318 0.91886608 0.79702534
0.79702534 0.91886608 0.79702534
0.91886608 0.91886608 0.79702534
0.91886608 0.91886608 0.79702534
0.91886608 0.91886608 0.79702534
0.06256268 0.91886608 0.79702534
0.18761955 0.91886608 0.79702534
0.37101146 0.91886608 0.79702534
0.52624221 0.91886608 0.79702534
0.66661318 0.91886608 0.79702534
0.79702534 0.91886608 0.79702534
0.91886608 0.91886608 0.79702534
0.91886608 0.91886608 0.79702534
0.91886608 0.91886608 0.79702534
0.06256172 0.06256235 0.91886608
0.18761955 0.06256235 0.91886608
0.37101146 0.06256172 0.91886608
0.52624221 0.06256235 0.91886608
0.66661318 0.06256235 0.91886608
0.79702534 0.06256235 0.91886608
0.91886608 0.06256235 0.91886608
0.91886608 0.06256172 0.91886608
0.91886608 0.06256172 0.91886608
0.06256172 0.18761955 0.91886608
0.18761955 0.18761955 0.91886608
0.37101146 0.18761955 0.91886608
0.52624221 0.18761955 0.91886608
0.66661318 0.18761955 0.91886608
0.79702534 0.18761955 0.91886608
0.91886608 0.18761955 0.91886608
0.91886608 0.18761955 0.91886608
0.91886608 0.18761955 0.91886608
0.06256172 0.37101146 0.91886608
0.18761955 0.37101146 0.91886608
0.37101146 0.37101146 0.91886608
0.52624221 0.37101146 0.91886608
0.66661318 0.37101146 0.91886608
0.79702534 0.37101146 0.91886608
0.91886608 0.37101146 0.91886608
0.91886608 0.37101146 0.91886608
0.91886608 0.37101146 0.91886608
0.06256172 0.52624221 0.91886608
0.18761955 0.52624221 0.91886608
0.37101146 0.52624221 0.91886608
0.52624221 0.52624221 0.91886608
0.66661318 0.52624221 0.91886608
0.79702534 0.52624221 0.91886608
0.91886608 0.52624221 0.91886608
0.91886608 0.52624221 0.91886608
0.91886608 0.52624221 0.91886608
0.06256172 0.66661318 0.91886608
0.18761955 0.66661318 0.91886608
0.37101146 0.66661318 0.91886608
0.52624221 0.66661318 0.91886608
0.66661318 0.66661318 0.91886608
0.79702534 0.66661318 0.91886608
0.91886608 0.66661318 0.91886608
0.91886608 0.66661318 0.91886608
0.91886608 0.66661318 0.91886608
0.06256172 0.79702534 0.91886608
0.18761955 0.79702534 0.91886608
0.37101146 0.79702534 0.91886608
0.52624221 0.79702534 0.91886608
0.66661318 0.79702534 0.91886608
0.79702534 0.79702534 0.91886608
0.91886608 0.79702534 0.91886608
0.91886608 0.79702534 0.91886608
0.91886608 0.79702534 0.91886608
0.06256172 0.91886608 0.91886608
0.18761955 0.91886608 0.91886608
0.37101146 0.91886608 0.91886608
0.52624221 0.91886608 0.91886608
0.66661318 0.91886608 0.91886608
0.79702534 0.91886608 0.91886608
0.91886608 0.91886608 0.91886608
0.91886608 0.91886608 0.91886608
0.91886608 0.91886608 0.91886608
0.06256172 0.91886608 0.91886608
0.18761955 0.91886608 0.91886608
0.37101146 0.91886608 0.91886608
0.52624221 0.91886608 0.91886608
0.66661318 0.91886608 0.91886608
0.79702534 0.91886608 0.91886608
0.91886608 0.91886608 0.91886608
0.91886608 0.91886608 0.91886608
0.91886608 0.91886608 0.91886608
0.06256259 0.91886608 0.91886608
0.18761955 0.91886608 0.91886608
0.37101146 0.91886608 0.91886608
0.52624221 0.91886608 0.91886608
0.66661318 0.91886608 0.91886608
0.79702534 0.91886608 0.91886608
0.91886608 0.91886608 0.91886608
0.91886608 0.91886608 0.91886608
0.91886608 0.91886608 0.91886608
0.06256172 0.06256272 0.91886608
0.18761955 0.06256272 0.91886608
0.37101146 0.06256172 0.91886608
0.52624221 0.06256272 0.91886608
0.66661318 0.06256172 0.91886608
0.79702534 0.06256257 0.91886608
0.91886608 0.06256257 0.91886608
0.91886608 0.06256272 0.91886608
0.91886608 0.06256257 0.91886608
0.06256172 0.18761955 0.91886608
0.18761955 0.18761955 0.91886608
0.37101146 0.18761955 0.91886608
0.52624221 0.18761955 0.91886608
0.66661318 0.18761955 0.91886608
0.79702534 0.18761955 0.91886608
0.91886608 0.18761955 0.91886608
0.91886608 0.18761955 0.91886608
0.91886608 0.18761955 0.91886608
0.06256172 0.37101146 0.91886608
0.18761955 0.37101146 0.91886608
0.37101146 0.37101146 0.91886608
0.52624221 0.37101146 0.91886608
0.66661318 0.37101146 0.91886608
0.79702534 0.37101146 0.91886608
0.91886608 0.37101146 0.91886608
0.91886608 0.37101146 0.91886608
0.91886608 0.37101146 0.91886608
0.06256172 0.52624221 0.91886608
0.18761955 0.52624221 0.91886608
0.37101146 0.52624221 0.91886608
0.52624221 0.52624221 0.91886608
0.66661318 0.52624221 0.91886608
0.79702534 0.52624221 0.91886608
0.91886608 0.52624221 0.91886608
0.91886608 0.52624221 0.91886608
0.91886608 0.52624221 0.91886608
0.06256172 0.66661318 0.91886608
0.18761955 0.66661318 0.91886608
0.37101146 0.66661318 0.91886608
0.52624221 0.66661318 0.91886608
0.66661318 0.66661318 0.91886608
0.79702534 0.66661318 0.91886608
0.91886608 0.66661318 0.91886608
0.91886608 0.66661318 0.91886608
0.91886608 0.66661318 0.91886608
0.06256235 0.79702534 0.91886608
0.18761955 0.79702534 0.91886608
0.37101146 0.79702534 0.91886608
0.52624221 0.79702534 0.91886608
0.66661318 0.79702534 0.91886608
0.79702534 0.79702534 0.91886608
0.91886608 0.79702534 0.91886608
0.91886608 0.79702534 0.91886608
0.91886608 0.79702534 0.91886608
0.06256172 0.91886608 0.91886608
0.18761955 0.91886608 0.91886608
0.37101146 0.91886608 0.91886608
0.52624221 0.91886608 0.91886608
0.66661318 0.91886608 0.91886608
0.79702534 0.91886608 0.91886608
0.91886608 0.91886608 0.91886608
0.91886608 0.91886608 0.91886608
0.91886608 0.91886608 0.91886608
0.06256172 0.91886608 0.91886608
0.18761955 0.91886608 0.91886608
0.37101146 0.91886608 0.91886608
0.52624221 0.91886608 0.91886608
0.66661318 0.91886608 0.91886608
0.79702534 0.91886608 0.91886608
0.91886608 0.91886608 0.91886608
0.91886608 0.91886608 0.91886608
0.91886608 0.91886608 0.91886608
0.06256277 0.91886608 0.91886608
0.18761955 0.91886608 0.91886608
0.37101146 0.91886608 0.91886608
0.52624221 0.91886608 0.91886608
0.66661318 0.91886608 0.91886608
0.79702534 0.91886608 0.91886608
0.91886608 0.91886608 0.91886608
0.91886608 0.91886608 0.91886608
0.91886608 0.91886608 0.91886608
0.06256172 0.06256289 0.91886608
0.18761955 0.06256172 0.91886608
0.37101146 0.06256289 0.91886608
0.52624221 0.06256289 0.91886608
0.66661318 0.06256311 0.91886608
0.79702534 0.06256289 0.91886608
0.91886608 0.06256289 0.91886608
0.91886608 0.06256289 0.91886608
0.91886608 0.06256289 0.91886608
0.06256257 0.18761955 0.91886608
0.18761955 0.18761955 0.91886608
0.37101146 0.18761955 0.91886608
0.52624221 0.18761955 0.91886608
0.66661318 0.18761955 0.91886608
0.79702534 0.18761955 0.91886608
0.91886608 0.18761955 0.91886608
0.91886608 0.18761955 0.91886608
0.91886608 0.18761955 0.91886608
0.06256257 0.37101146 0.91886608
0.18761955 0.37101146 0.91886608
0.37101146 0.37101146 0.91886608
0.52624221 0.37101146 0.91886608
0.66661318 0.37101146 0.91886608
0.79702534 0.37101146 0.91886608
0.91886608 0.37101146 0.91886608
0.91886608 0.37101146 0.91886608
0.91886608 0.37101146 0.91886608
0.06256257 0.52624221 0.91886608
0.18761955 0.52624221 0.91886608
0.37101146 0.52624221 0.91886608
0.52624221 0.52624221 0.91886608
0.66661318 0.52624221 0.91886608
0.79702534 0.52624221 0.91886608
0.91886608 0.52624221 0.91886608
0.91886608 0.52624221 0.91886608
0.91886608 0.52624221 0.91886608
0.06256172 0.66661318 0.91886608
0.18761955 0.66661318 0.91886608
0.37101146 0.66661318 0.91886608
0.52624221 0.66661318 0.91886608
0.66661318 0.66661318 0.91886608
0.79702534 0.66661318 0.91886608
0.91886608 0.66661318 0.91886608
0.91886608 0.66661318 0.91886608
0.91886608 0.66661318 0.91886608
0.06256172 0.79702534 0.91886608
0.18761955 0.79702534 0.91886608
0.37101146 0.79702534 0.91886608
0.52624221 0.79702534 0.91886608
0.66661318 0.79702534 0.91886608
0.79702534 0.79702534 0.91886608
0.91886608 0.79702534 0.91886608
0.91886608 0.79702534 0.91886608
0.91886608 0.79702534 0.91886608
0.06256257 0.91886608 0.91886608
0.18761955 0.91886608 0.91886608
0.37101146 0.91886608 0.91886608
0.52624221 0.91886608 0.91886608
0.66661318 0.91886608 0.91886608
0.79702534 0.91886608 0.91886608
0.91886608 0.91886608 0.91886608
0.91886608 0.91886608 0.91886608
0.91886608 0.91886608 0.91886608
0.06256257 0.91886608 0.91886608
0.18761955 0.91886608 0.91886608
0.37101146 0.91886608 0.91886608
0.52624221 0.91886608 0.91886608
0.66661318 0.91886608 0.91886608
0.79702534 0.91886608 0.91886608
0.91886608 0.91886608 0.91886608
0.91886608 0.91886608 0.91886608
0.91886608 0.91886608 0.91886608
0.06256257 0.91886608 0.91886608
0.18761955 0.91886608 0.91886608
0.37101146 0.91886608 0.91886608
0.52624221 0.91886608 0.91886608
0.66661318 0.91886608 0.91886608
0.79702534 0.91886608 0.91886608
0.91886608 0.91886608 0.91886608
0.91886608 0.91886608 0.91886608
0.91886608 0.91886608 0.91886608
