src/ffmpeg_scripts/luts/luminance_3p67.cube
TITLE "luminance_3p67"
LUT_3D_SIZE 33
# PQ (EOTF Only)/Rec2020 -> PQ (EOTF Only)/Rec2020, CineEI Shift 3.67, Black Level 0.00% IRE, Input 109% -> Output 109% - Created with LUTCalc v4.01 by Ben Turley October 2020
0.06256172 0.06256172 0.06256172
0.06256172 0.06256172 0.06256172
0.06256172 0.06256172 0.06256172
0.15331637 0.06256179 0.06256172
0.21982327 0.06256172 0.06256172
0.27759639 0.06256172 0.06256172
0.33004785 0.06256182 0.06256172
0.37873558 0.06256172 0.06256172
0.42454652 0.06256172 0.06256172
0.46804954 0.06256187 0.06256172
0.50963839 0.06256192 0.06256172
0.54960050 0.06256189 0.06256172
0.58815416 0.06256172 0.06256194
0.62547025 0.06256172 0.06256172
0.66168589 0.06256172 0.06256172
0.69691323 0.06256172 0.06256172
0.73124562 0.06256208 0.06256200
0.76476177 0.06256172 0.06256172
0.79752890 0.06256172 0.06256172
0.82960500 0.06256208 0.06256172
0.86104053 0.06256204 0.06256172
0.89187980 0.06256172 0.06256172
0.91886608 0.06256215 0.06256172
0.91886608 0.06256172 0.06256172
0.91886608 0.06256172 0.06256172
0.91886608 0.06256172 0.06256172
0.91886608 0.06256172 0.06256172
0.91886608 0.06256172 0.06256172
0.91886608 0.06256238 0.06256172
0.91886608 0.06256172 0.06256172
0.91886608 0.06256172 0.06256172
0.91886608 0.06256267 0.06256172
0.91886608 0.06256235 0.06256172
0.06256172 0.06256172 0.06256172
0.06256172 0.06256172 0.06256172
0.06256172 0.06256172 0.06256172
0.15331637 0.06256179 0.06256172
0.21982327 0.06256172 0.06256172
0.27759639 0.06256172 0.06256172
0.33004785 0.06256182 0.06256172
0.37873558 0.06256172 0.06256172
0.42454652 0.06256172 0.06256172
0.46804954 0.06256187 0.06256172
0.50963839 0.06256192 0.06256172
0.54960050 0.06256189 0.06256172
0.58815416 0.06256172 0.06256194
0.62547025 0.06256172 0.06256172
0.66168589 0.06256172 0.06256172
0.69691323 0.06256172 0.06256172
0.73124562 0.06256208 0.06256200
0.76476177 0.06256172 0.06256172
0.79752890 0.06256172 0.06256172
0.82960500 0.06256208 0.06256172
0.86104053 0.06256204 0.06256172
0.89187980 0.06256172 0.06256172
0.91886608 0.06256215 0.06256172
0.91886608 0.06256172 0.06256172
0.91886608 0.06256172 0.06256172
0.91886608 0.06256172 0.06256172
0.91886608 0.06256172 0.06256172
0.91886608 0.06256172 0.06256172
0.91886608 0.06256238 0.06256172
0.91886608 0.06256172 0.06256172
0.91886608 0.06256172 0.06256172
0.91886608 0.06256267 0.06256172
0.91886608 0.06256235 0.06256172
0.06256172 0.06256172 0.06256172
0.06256172 0.06256172 0.06256172
0.06256172 0.06256172 0.06256172
0.15331637 0.06256179 0.06256172
0.21982327 0.06256172 0.06256172
0.27759639 0.06256172 0.06256172
0.33004785 0.06256182 0.06256172
0.37873558 0.06256172 0.06256172
0.42454652 0.06256172 0.06256172
0.46804954 0.06256187 0.06256172
0.50963839 0.06256192 0.06256172
0.54960050 0.06256189 0.06256172
0.58815416 0.06256172 0.06256194
0.62547025 0.06256172 0.06256172
0.66168589 0.06256172 0.06256172
0.69691323 0.06256172 0.06256172
0.73124562 0.06256208 0.06256200
0.76476177 0.06256172 0.06256172
0.79752890 0.06256172 0.06256172
0.82960500 0.06256208 0.06256172
0.86104053 0.06256204 0.06256172
0.89187980 0.06256172 0.06256172
0.91886608 0.06256215 0.06256172
0.91886608 0.06256172 0.06256172
0.91886608 0.06256172 0.06256172
0.91886608 0.06256172 0.06256172
0.91886608 0.06256172 0.06256172
0.91886608 0.06256172 0.06256172
0.91886608 0.06256238 0.06256172
0.91886608 0.06256172 0.06256172
0.91886608 0.06256172 0.06256172
0.91886608 0.06256267 0.06256172
0.91886608 0.06256235 0.06256172
0.06256180 0.15331637 0.06256179
0.06256180 0.15331637 0.06256179
0.06256180 0.15331637 0.06256179
0.15331637 0.15331637 0.06256172
0.21982327 0.15331637 0.06256172
0.27759639 0.15331637 0.06256172
0.33004785 0.15331637 0.06256172
0.37873558 0.15331637 0.06256185
0.42454652 0.15331637 0.06256172
0.46804954 0.15331637 0.06256172
0.50963839 0.15331637 0.06256172
0.54960050 0.15331637 0.06256191
0.58815416 0.15331637 0.06256172
0.62547025 0.15331637 0.06256197
0.66168589 0.15331637 0.06256197
0.69691323 0.15331637 0.06256172
0.73124562 0.15331637 0.06256204
0.76476177 0.15331637 0.06256172
0.79752890 0.15331637 0.06256172
0.82960500 0.15331637 0.06256172
0.86104053 0.15331637 0.06256208
0.89187980 0.15331637 0.06256172
0.91886608 0.15331637 0.06256213
0.91886608 0.15331637 0.06256172
0.91886608 0.15331637 0.06256172
0.91886608 0.15331637 0.06256172
0.91886608 0.15331637 0.06256172
0.91886608 0.15331637 0.06256172
0.91886608 0.15331637 0.06256172
0.91886608 0.15331637 0.06256172
0.91886608 0.15331637 0.06256265
0.91886608 0.15331637 0.06256257
0.91886608 0.15331637 0.06256272
0.06256183 0.21982327 0.06256172
0.06256183 0.21982327 0.06256172
0.06256183 0.21982327 0.06256172
0.15331637 0.21982327 0.06256172
0.21982327 0.21982327 0.06256172
0.27759639 0.21982327 0.06256172
0.33004785 0.21982327 0.06256185
0.37873558 0.21982327 0.06256172
0.42454652 0.21982327 0.06256172
0.46804954 0.21982327 0.06256172
0.50963839 0.21982327 0.06256191
0.54960050 0.21982327 0.06256191
0.58815416 0.21982327 0.06256172
0.62547025 0.21982327 0.06256172
0.66168589 0.21982327 0.06256172
0.69691323 0.21982327 0.06256172
0.73124562 0.21982327 0.06256172
0.76476177 0.21982327 0.06256204
0.79752890 0.21982327 0.06256172
0.82960500 0.21982327 0.06256172
0.86104053 0.21982327 0.06256172
0.89187980 0.21982327 0.06256172
0.91886608 0.21982327 0.06256172
0.91886608 0.21982327 0.06256172
0.91886608 0.21982327 0.06256219
0.91886608 0.21982327 0.06256172
0.91886608 0.21982327 0.06256227
0.91886608 0.21982327 0.06256235
0.91886608 0.21982327 0.06256235
0.91886608 0.21982327 0.06256172
0.91886608 0.21982327 0.06256172
0.91886608 0.21982327 0.06256172
0.91886608 0.21982327 0.06256257
0.06256172 0.27759639 0.06256184
0.06256172 0.27759639 0.06256184
0.06256172 0.27759639 0.06256184
0.15331637 0.27759639 0.06256172
0.21982327 0.27759639 0.06256184
0.27759639 0.27759639 0.06256172
0.33004785 0.27759639 0.06256172
0.37873558 0.27759639 0.06256172
0.42454652 0.27759639 0.06256172
0.46804954 0.27759639 0.06256189
0.50963839 0.27759639 0.06256191
0.54960050 0.27759639 0.06256172
0.58815416 0.27759639 0.06256172
0.62547025 0.27759639 0.06256172
0.66168589 0.27759639 0.06256172
0.69691323 0.27759639 0.06256172
0.73124562 0.27759639 0.06256172
0.76476177 0.27759639 0.06256172
0.79752890 0.27759639 0.06256172
0.82960500 0.27759639 0.06256172
0.86104053 0.27759639 0.06256172
0.89187980 0.27759639 0.06256172
0.91886608 0.27759639 0.06256172
0.91886608 0.27759639 0.06256172
0.91886608 0.27759639 0.06256172
0.91886608 0.27759639 0.06256172
0.91886608 0.27759639 0.06256227
0.91886608 0.27759639 0.06256172
0.91886608 0.27759639 0.06256235
0.91886608 0.27759639 0.06256172
0.91886608 0.27759639 0.06256172
0.91886608 0.27759639 0.06256172
0.91886608 0.27759639 0.06256257
0.06256172 0.33004785 0.06256172
0.06256172 0.33004785 0.06256172
0.06256172 0.33004785 0.06256172
0.15331637 0.33004785 0.06256172
0.21982327 0.33004785 0.06256172
0.27759639 0.33004785 0.06256172
0.33004785 0.33004785 0.06256172
0.37873558 0.33004785 0.06256187
0.42454652 0.33004785 0.06256172
0.46804954 0.33004785 0.06256189
0.50963839 0.33004785 0.06256172
0.54960050 0.33004785 0.06256172
0.58815416 0.33004785 0.06256194
0.62547025 0.33004785 0.06256172
0.66168589 0.33004785 0.06256172
0.69691323 0.33004785 0.06256172
0.73124562 0.33004785 0.06256172
0.76476177 0.33004785 0.06256172
0.79752890 0.33004785 0.06256172
0.82960500 0.33004785 0.06256172
0.86104053 0.33004785 0.06256208
0.89187980 0.33004785 0.06256172
0.91886608 0.33004785 0.06256213
0.91886608 0.33004785 0.06256219
0.91886608 0.33004785 0.06256172
0.91886608 0.33004785 0.06256172
0.91886608 0.33004785 0.06256172
0.91886608 0.33004785 0.06256172
0.91886608 0.33004785 0.06256235
0.91886608 0.33004785 0.06256172
0.91886608 0.33004785 0.06256245
0.91886608 0.33004785 0.06256172
0.91886608 0.33004785 0.06256172
0.06256189 0.37873558 0.06256172
0.06256189 0.37873558 0.06256172
0.06256189 0.37873558 0.06256172
0.15331637 0.37873558 0.06256172
0.21982327 0.37873558 0.06256172
0.27759639 0.37873558 0.06256172
0.33004785 0.37873558 0.06256172
0.37873558 0.37873558 0.06256172
0.42454652 0.37873558 0.06256172
0.46804954 0.37873558 0.06256172
0.50963839 0.37873558 0.06256172
0.54960050 0.37873558 0.06256172
0.58815416 0.37873558 0.06256172
0.62547025 0.37873558 0.06256172
0.66168589 0.37873558 0.06256197
0.69691323 0.37873558 0.06256172
0.73124562 0.37873558 0.06256200
0.76476177 0.37873558 0.06256204
0.79752890 0.37873558 0.06256204
0.82960500 0.37873558 0.06256172
0.86104053 0.37873558 0.06256172
0.89187980 0.37873558 0.06256172
0.91886608 0.37873558 0.06256219
0.91886608 0.37873558 0.06256172
0.91886608 0.37873558 0.06256172
0.91886608 0.37873558 0.06256227
0.91886608 0.37873558 0.06256172
0.91886608 0.37873558 0.06256172
0.91886608 0.37873558 0.06256172
0.91886608 0.37873558 0.06256172
0.91886608 0.37873558 0.06256245
0.91886608 0.37873558 0.06256172
0.91886608 0.37873558 0.06256172
0.06256189 0.42454652 0.06256172
0.06256189 0.42454652 0.06256172
0.06256189 0.42454652 0.06256172
0.15331637 0.42454652 0.06256189
0.21982327 0.42454652 0.06256172
0.27759639 0.42454652 0.06256172
0.33004785 0.42454652 0.06256189
0.37873558 0.42454652 0.06256172
0.42454652 0.42454652 0.06256172
0.46804954 0.42454652 0.06256172
0.50963839 0.42454652 0.06256191
0.54960050 0.42454652 0.06256194
0.58815416 0.42454652 0.06256172
0.62547025 0.42454652 0.06256197
0.66168589 0.42454652 0.06256172
0.69691323 0.42454652 0.06256172
0.73124562 0.42454652 0.06256200
0.76476177 0.42454652 0.06256204
0.79752890 0.42454652 0.06256172
0.82960500 0.42454652 0.06256172
0.86104053 0.42454652 0.06256172
0.89187980 0.42454652 0.06256172
0.91886608 0.42454652 0.06256213
0.91886608 0.42454652 0.06256172
0.91886608 0.42454652 0.06256172
0.91886608 0.42454652 0.06256227
0.91886608 0.42454652 0.06256172
0.91886608 0.42454652 0.06256235
0.91886608 0.42454652 0.06256235
0.91886608 0.42454652 0.06256172
0.91886608 0.42454652 0.06256172
0.91886608 0.42454652 0.06256172
0.91886608 0.42454652 0.06256172
0.06256192 0.46804954 0.06256172
0.06256192 0.46804954 0.06256172
0.06256192 0.46804954 0.06256172
0.15331637 0.46804954 0.06256172
0.21982327 0.46804954 0.06256172
0.27759639 0.46804954 0.06256172
0.33004785 0.46804954 0.06256172
0.37873558 0.46804954 0.06256172
0.42454652 0.46804954 0.06256172
0.46804954 0.46804954 0.06256172
0.50963839 0.46804954 0.06256172
0.54960050 0.46804954 0.06256194
0.58815416 0.46804954 0.06256194
0.62547025 0.46804954 0.06256172
0.66168589 0.46804954 0.06256172
0.69691323 0.46804954 0.06256172
0.73124562 0.46804954 0.06256172
0.76476177 0.46804954 0.06256172
0.79752890 0.46804954 0.06256204
0.82960500 0.46804954 0.06256172
0.86104053 0.46804954 0.06256208
0.89187980 0.46804954 0.06256172
0.91886608 0.46804954 0.06256172
0.91886608 0.46804954 0.06256172
0.91886608 0.46804954 0.06256172
0.91886608 0.46804954 0.06256227
0.91886608 0.46804954 0.06256172
0.91886608 0.46804954 0.06256172
0.91886608 0.46804954 0.06256235
0.91886608 0.46804954 0.06256172
0.91886608 0.46804954 0.06256172
0.91886608 0.46804954 0.06256172
0.91886608 0.46804954 0.06256172
0.06256197 0.50963839 0.06256172
0.06256197 0.50963839 0.06256172
0.06256197 0.50963839 0.06256172
0.15331637 0.50963839 0.06256172
0.21982327 0.50963839 0.06256172
0.27759639 0.50963839 0.06256172
0.33004785 0.50963839 0.06256172
0.37873558 0.50963839 0.06256172
0.42454652 0.50963839 0.06256172
0.46804954 0.50963839 0.06256172
0.50963839 0.50963839 0.06256172
0.54960050 0.50963839 0.06256172
0.58815416 0.50963839 0.06256172
0.62547025 0.50963839 0.06256172
0.66168589 0.50963839 0.06256172
0.69691323 0.50963839 0.06256172
0.73124562 0.50963839 0.06256172
0.76476177 0.50963839 0.06256204
0.79752890 0.50963839 0.06256172
0.82960500 0.50963839 0.06256172
0.86104053 0.50963839 0.06256172
0.89187980 0.50963839 0.06256172
0.91886608 0.50963839 0.06256172
0.91886608 0.50963839 0.06256172
0.91886608 0.50963839 0.06256172
0.91886608 0.50963839 0.06256172
0.91886608 0.50963839 0.06256172
0.91886608 0.50963839 0.06256172
0.91886608 0.50963839 0.06256172
0.91886608 0.50963839 0.06256172
0.91886608 0.50963839 0.06256172
0.91886608 0.50963839 0.06256172
0.91886608 0.50963839 0.06256257
0.06256191 0.54960050 0.06256172
0.06256191 0.54960050 0.06256172
0.06256191 0.54960050 0.06256172
0.15331637 0.54960050 0.06256172
0.21982327 0.54960050 0.06256172
0.27759639 0.54960050 0.06256172
0.33004785 0.54960050 0.06256172
0.37873558 0.54960050 0.06256172
0.42454652 0.54960050 0.06256172
0.46804954 0.54960050 0.06256172
0.50963839 0.54960050 0.06256172
0.54960050 0.54960050 0.06256172
0.58815416 0.54960050 0.06256172
0.62547025 0.54960050 0.06256172
0.66168589 0.54960050 0.06256172
0.69691323 0.54960050 0.06256172
0.73124562 0.54960050 0.06256172
0.76476177 0.54960050 0.06256172
0.79752890 0.54960050 0.06256172
0.82960500 0.54960050 0.06256172
0.86104053 0.54960050 0.06256208
0.89187980 0.54960050 0.06256172
0.91886608 0.54960050 0.06256213
0.91886608 0.54960050 0.06256172
0.91886608 0.54960050 0.06256172
0.91886608 0.54960050 0.06256172
0.91886608 0.54960050 0.06256172
0.91886608 0.54960050 0.06256172
0.91886608 0.54960050 0.06256172
0.91886608 0.54960050 0.06256172
0.91886608 0.54960050 0.06256257
0.91886608 0.54960050 0.06256257
0.91886608 0.54960050 0.06256172
0.06256172 0.58815416 0.06256194
0.06256172 0.58815416 0.06256194
0.06256172 0.58815416 0.06256194
0.15331637 0.58815416 0.06256194
0.21982327 0.58815416 0.06256194
0.27759639 0.58815416 0.06256197
0.33004785 0.58815416 0.06256172
0.37873558 0.58815416 0.06256197
0.42454652 0.58815416 0.06256172
0.46804954 0.58815416 0.06256172
0.50963839 0.58815416 0.06256172
0.54960050 0.58815416 0.06256172
0.58815416 0.58815416 0.06256197
0.62547025 0.58815416 0.06256172
0.66168589 0.58815416 0.06256200
0.69691323 0.58815416 0.06256172
0.73124562 0.58815416 0.06256172
0.76476177 0.58815416 0.06256204
0.79752890 0.58815416 0.06256172
0.82960500 0.58815416 0.06256172
0.86104053 0.58815416 0.06256172
0.89187980 0.58815416 0.06256172
0.91886608 0.58815416 0.06256213
0.91886608 0.58815416 0.06256172
0.91886608 0.58815416 0.06256172
0.91886608 0.58815416 0.06256172
0.91886608 0.58815416 0.06256172
0.91886608 0.58815416 0.06256172
0.91886608 0.58815416 0.06256245
0.91886608 0.58815416 0.06256172
0.91886608 0.58815416 0.06256245
0.91886608 0.58815416 0.06256172
0.91886608 0.58815416 0.06256172
0.06256197 0.62547025 0.06256172
0.06256197 0.62547025 0.06256172
0.06256197 0.62547025 0.06256172
0.15331637 0.62547025 0.06256172
0.21982327 0.62547025 0.06256172
0.27759639 0.62547025 0.06256172
0.33004785 0.62547025 0.06256197
0.37873558 0.62547025 0.06256172
0.42454652 0.62547025 0.06256172
0.46804954 0.62547025 0.06256172
0.50963839 0.62547025 0.06256197
0.54960050 0.62547025 0.06256172
0.58815416 0.62547025 0.06256172
0.62547025 0.62547025 0.06256172
0.66168589 0.62547025 0.06256172
0.69691323 0.62547025 0.06256172
0.73124562 0.62547025 0.06256204
0.76476177 0.62547025 0.06256172
0.79752890 0.62547025 0.06256208
0.82960500 0.62547025 0.06256172
0.86104053 0.62547025 0.06256172
0.89187980 0.62547025 0.06256172
0.91886608 0.62547025 0.06256172
0.91886608 0.62547025 0.06256219
0.91886608 0.62547025 0.06256172
0.91886608 0.62547025 0.06256172
0.91886608 0.62547025 0.06256172
0.91886608 0.62547025 0.06256172
0.91886608 0.62547025 0.06256235
0.91886608 0.62547025 0.06256172
0.91886608 0.62547025 0.06256245
0.91886608 0.62547025 0.06256172
0.91886608 0.62547025 0.06256172
0.06256197 0.66168589 0.06256200
0.06256197 0.66168589 0.06256200
0.06256197 0.66168589 0.06256200
0.15331637 0.66168589 0.06256172
0.21982327 0.66168589 0.06256172
0.27759639 0.66168589 0.06256172
0.33004785 0.66168589 0.06256200
0.37873558 0.66168589 0.06256172
0.42454652 0.66168589 0.06256200
0.46804954 0.66168589 0.06256172
0.50963839 0.66168589 0.06256200
0.54960050 0.66168589 0.06256172
0.58815416 0.66168589 0.06256172
0.62547025 0.66168589 0.06256200
0.66168589 0.66168589 0.06256172
0.69691323 0.66168589 0.06256204
0.73124562 0.66168589 0.06256172
0.76476177 0.66168589 0.06256208
0.79752890 0.66168589 0.06256172
0.82960500 0.66168589 0.06256172
0.86104053 0.66168589 0.06256172
0.89187980 0.66168589 0.06256172
0.91886608 0.66168589 0.06256172
0.91886608 0.66168589 0.06256172
0.91886608 0.66168589 0.06256219
0.91886608 0.66168589 0.06256172
0.91886608 0.66168589 0.06256172
0.91886608 0.66168589 0.06256235
0.91886608 0.66168589 0.06256172
0.91886608 0.66168589 0.06256172
0.91886608 0.66168589 0.06256245
0.91886608 0.66168589 0.06256172
0.91886608 0.66168589 0.06256257
0.06256202 0.69691323 0.06256172
0.06256202 0.69691323 0.06256172
0.06256202 0.69691323 0.06256172
0.15331637 0.69691323 0.06256172
0.21982327 0.69691323 0.06256172
0.27759639 0.69691323 0.06256172
0.33004785 0.69691323 0.06256172
0.37873558 0.69691323 0.06256172
0.42454652 0.69691323 0.06256172
0.46804954 0.69691323 0.06256172
0.50963839 0.69691323 0.06256172
0.54960050 0.69691323 0.06256172
0.58815416 0.69691323 0.06256172
0.62547025 0.69691323 0.06256172
0.66168589 0.69691323 0.06256172
0.69691323 0.69691323 0.06256204
0.73124562 0.69691323 0.06256172
0.76476177 0.69691323 0.06256172
0.79752890 0.69691323 0.06256208
0.82960500 0.69691323 0.06256172
0.86104053 0.69691323 0.06256172
0.89187980 0.69691323 0.06256172
0.91886608 0.69691323 0.06256213
0.91886608 0.69691323 0.06256172
0.91886608 0.69691323 0.06256219
0.91886608 0.69691323 0.06256172
0.91886608 0.69691323 0.06256172
0.91886608 0.69691323 0.06256235
0.91886608 0.69691323 0.06256172
0.91886608 0.69691323 0.06256245
0.91886608 0.69691323 0.06256172
0.91886608 0.69691323 0.06256172
0.91886608 0.69691323 0.06256257
0.06256172 0.73124562 0.06256172
0.06256172 0.73124562 0.06256172
0.06256172 0.73124562 0.06256172
0.15331637 0.73124562 0.06256172
0.21982327 0.73124562 0.06256204
0.27759639 0.73124562 0.06256204
0.33004785 0.73124562 0.06256172
0.37873558 0.73124562 0.06256172
0.42454652 0.73124562 0.06256172
0.46804954 0.73124562 0.06256172
0.50963839 0.73124562 0.06256172
0.54960050 0.73124562 0.06256172
0.58815416 0.73124562 0.06256172
0.62547025 0.73124562 0.06256172
0.66168589 0.73124562 0.06256172
0.69691323 0.73124562 0.06256172
0.73124562 0.73124562 0.06256172
0.76476177 0.73124562 0.06256208
0.79752890 0.73124562 0.06256172
0.82960500 0.73124562 0.06256172
0.86104053 0.73124562 0.06256172
0.89187980 0.73124562 0.06256172
0.91886608 0.73124562 0.06256213
0.91886608 0.73124562 0.06256172
0.91886608 0.73124562 0.06256172
0.91886608 0.73124562 0.06256227
0.91886608 0.73124562 0.06256172
0.91886608 0.73124562 0.06256172
0.91886608 0.73124562 0.06256172
0.91886608 0.73124562 0.06256172
0.91886608 0.73124562 0.06256172
0.91886608 0.73124562 0.06256257
0.91886608 0.73124562 0.06256172
0.06256199 0.76476177 0.06256172
0.06256199 0.76476177 0.06256172
0.06256199 0.76476177 0.06256172
0.15331637 0.76476177 0.06256172
0.21982327 0.76476177 0.06256172
0.27759639 0.76476177 0.06256172
0.33004785 0.76476177 0.06256172
0.37873558 0.76476177 0.06256172
0.42454652 0.76476177 0.06256204
0.46804954 0.76476177 0.06256172
0.50963839 0.76476177 0.06256204
0.54960050 0.76476177 0.06256204
0.58815416 0.76476177 0.06256172
0.62547025 0.76476177 0.06256204
0.66168589 0.76476177 0.06256172
0.69691323 0.76476177 0.06256172
0.73124562 0.76476177 0.06256172
0.76476177 0.76476177 0.06256208
0.79752890 0.76476177 0.06256172
0.82960500 0.76476177 0.06256172
0.86104053 0.76476177 0.06256172
0.89187980 0.76476177 0.06256172
0.91886608 0.76476177 0.06256172
0.91886608 0.76476177 0.06256172
0.91886608 0.76476177 0.06256172
0.91886608 0.76476177 0.06256172
0.91886608 0.76476177 0.06256172
0.91886608 0.76476177 0.06256172
0.91886608 0.76476177 0.06256245
0.91886608 0.76476177 0.06256172
0.91886608 0.76476177 0.06256172
0.91886608 0.76476177 0.06256257
0.91886608 0.76476177 0.06256257
0.06256214 0.79752890 0.06256172
0.06256214 0.79752890 0.06256172
0.06256214 0.79752890 0.06256172
0.15331637 0.79752890 0.06256172
0.21982327 0.79752890 0.06256172
0.27759639 0.79752890 0.06256172
0.33004785 0.79752890 0.06256172
0.37873558 0.79752890 0.06256208
0.42454652 0.79752890 0.06256172
0.46804954 0.79752890 0.06256172
0.50963839 0.79752890 0.06256172
0.54960050 0.79752890 0.06256172
0.58815416 0.79752890 0.06256172
0.62547025 0.79752890 0.06256172
0.66168589 0.79752890 0.06256172
0.69691323 0.79752890 0.06256208
0.73124562 0.79752890 0.06256172
0.76476177 0.79752890 0.06256172
0.79752890 0.79752890 0.06256172
0.82960500 0.79752890 0.06256172
0.86104053 0.79752890 0.06256172
0.89187980 0.79752890 0.06256172
0.91886608 0.79752890 0.06256172
0.91886608 0.79752890 0.06256219
0.91886608 0.79752890 0.06256172
0.91886608 0.79752890 0.06256227
0.91886608 0.79752890 0.06256172
0.91886608 0.79752890 0.06256172
0.91886608 0.79752890 0.06256172
0.91886608 0.79752890 0.06256172
0.91886608 0.79752890 0.06256172
0.91886608 0.79752890 0.06256172
0.91886608 0.79752890 0.06256172
0.06256214 0.82960500 0.06256172
0.06256214 0.82960500 0.06256172
0.06256214 0.82960500 0.06256172
0.15331637 0.82960500 0.06256172
0.21982327 0.82960500 0.06256172
0.27759639 0.82960500 0.06256172
0.33004785 0.82960500 0.06256172
0.37873558 0.82960500 0.06256172
0.42454652 0.82960500 0.06256172
0.46804954 0.82960500 0.06256208
0.50963839 0.82960500 0.06256172
0.54960050 0.82960500 0.06256172
0.58815416 0.82960500 0.06256172
0.62547025 0.82960500 0.06256172
0.66168589 0.82960500 0.06256172
0.69691323 0.82960500 0.06256172
0.73124562 0.82960500 0.06256172
0.76476177 0.82960500 0.06256172
0.79752890 0.82960500 0.06256213
0.82960500 0.82960500 0.06256172
0.86104053 0.82960500 0.06256172
0.89187980 0.82960500 0.06256172
0.91886608 0.82960500 0.06256172
0.91886608 0.82960500 0.06256172
0.91886608 0.82960500 0.06256172
0.91886608 0.82960500 0.06256172
0.91886608 0.82960500 0.06256172
0.91886608 0.82960500 0.06256235
0.91886608 0.82960500 0.06256235
0.91886608 0.82960500 0.06256172
0.91886608 0.82960500 0.06256172
0.91886608 0.82960500 0.06256172
0.91886608 0.82960500 0.06256272
0.06256209 0.86104053 0.06256172
0.06256209 0.86104053 0.06256172
0.06256209 0.86104053 0.06256172
0.15331637 0.86104053 0.06256213
0.21982327 0.86104053 0.06256172
0.27759639 0.86104053 0.06256213
0.33004785 0.86104053 0.06256213
0.37873558 0.86104053 0.06256172
0.42454652 0.86104053 0.06256213
0.46804954 0.86104053 0.06256172
0.50963839 0.86104053 0.06256172
0.54960050 0.86104053 0.06256213
0.58815416 0.86104053 0.06256172
0.62547025 0.86104053 0.06256213
0.66168589 0.86104053 0.06256172
0.69691323 0.86104053 0.06256172
0.73124562 0.86104053 0.06256172
0.76476177 0.86104053 0.06256172
0.79752890 0.86104053 0.06256172
0.82960500 0.86104053 0.06256172
0.86104053 0.86104053 0.06256172
0.89187980 0.86104053 0.06256172
0.91886608 0.86104053 0.06256172
0.91886608 0.86104053 0.06256172
0.91886608 0.86104053 0.06256172
0.91886608 0.86104053 0.06256172
0.91886608 0.86104053 0.06256227
0.91886608 0.86104053 0.06256172
0.91886608 0.86104053 0.06256172
0.91886608 0.86104053 0.06256172
0.91886608 0.86104053 0.06256172
0.91886608 0.86104053 0.06256172
0.91886608 0.86104053 0.06256172
0.06256220 0.89187980 0.06256172
0.06256220 0.89187980 0.06256172
0.06256220 0.89187980 0.06256172
0.15331637 0.89187980 0.06256172
0.21982327 0.89187980 0.06256172
0.27759639 0.89187980 0.06256172
0.33004785 0.89187980 0.06256172
0.37873558 0.89187980 0.06256172
0.42454652 0.89187980 0.06256213
0.46804954 0.89187980 0.06256172
0.50963839 0.89187980 0.06256213
0.54960050 0.89187980 0.06256172
0.58815416 0.89187980 0.06256213
0.62547025 0.89187980 0.06256172
0.66168589 0.89187980 0.06256213
0.69691323 0.89187980 0.06256172
0.73124562 0.89187980 0.06256172
0.76476177 0.89187980 0.06256172
0.79752890 0.89187980 0.06256172
0.82960500 0.89187980 0.06256172
0.86104053 0.89187980 0.06256172
0.89187980 0.89187980 0.06256172
0.91886608 0.89187980 0.06256172
0.91886608 0.89187980 0.06256172
0.91886608 0.89187980 0.06256172
0.91886608 0.89187980 0.06256172
0.91886608 0.89187980 0.06256172
