src/ffmpeg_scripts/luts/luminance-unclipped_-2p33.cube
TITLE "luminance-unclipped_-2p33"
LUT_3D_SIZE 33
# PQ (EOTF Only)/Rec2020 -> PQ (EOTF Only)/Rec2020, CineEI Shift -2.33, Black Level -7.25% IRE, Input 109% -> Output 109% - Created with LUTCalc v4.01 by Ben Turley October 2020
0.00047898 0.00047898 0.00047898
0.00047898 0.00047898 0.00047898
0.00047898 0.00047898 0.00047898
0.01680346 0.00047903 0.00047898
0.03611815 0.00047898 0.00047898
0.05726549 0.00047898 0.00047898
0.07984481 0.00047904 0.00047898
0.10363201 0.00047898 0.00047898
0.12847967 0.00047898 0.00047898
0.15428176 0.00047907 0.00047898
0.18095750 0.00047910 0.00047898
0.20844288 0.00047908 0.00047898
0.23668559 0.00047898 0.00047910
0.26564194 0.00047898 0.00047898
0.29527475 0.00047898 0.00047898
0.32555189 0.00047898 0.00047898
0.35644528 0.00047918 0.00047914
0.38793008 0.00047898 0.00047898
0.41998418 0.00047898 0.00047898
0.45258767 0.00047918 0.00047898
0.48572258 0.00047916 0.00047898
0.51937253 0.00047898 0.00047898
0.55352254 0.00047921 0.00047898
0.58815884 0.00047898 0.00047898
0.62326872 0.00047898 0.00047898
0.65884042 0.00047898 0.00047898
0.69486297 0.00047898 0.00047898
0.73132616 0.00047898 0.00047898
0.76822043 0.00047932 0.00047898
0.80553681 0.00047898 0.00047898
0.84326687 0.00047898 0.00047898
0.88140266 0.00047944 0.00047898
0.91886608 0.00047931 0.00047898
0.00047898 0.00047898 0.00047898
0.00047898 0.00047898 0.00047898
0.00047898 0.00047898 0.00047898
0.01680346 0.00047903 0.00047898
0.03611815 0.00047898 0.00047898
0.05726549 0.00047898 0.00047898
0.07984481 0.00047904 0.00047898
0.10363201 0.00047898 0.00047898
0.12847967 0.00047898 0.00047898
0.15428176 0.00047907 0.00047898
0.18095750 0.00047910 0.00047898
0.20844288 0.00047908 0.00047898
0.23668559 0.00047898 0.00047910
0.26564194 0.00047898 0.00047898
0.29527475 0.00047898 0.00047898
0.32555189 0.00047898 0.00047898
0.35644528 0.00047918 0.00047914
0.38793008 0.00047898 0.00047898
0.41998418 0.00047898 0.00047898
0.45258767 0.00047918 0.00047898
0.48572258 0.00047916 0.00047898
0.51937253 0.00047898 0.00047898
0.55352254 0.00047921 0.00047898
0.58815884 0.00047898 0.00047898
0.62326872 0.00047898 0.00047898
0.65884042 0.00047898 0.00047898
0.69486297 0.00047898 0.00047898
0.73132616 0.00047898 0.00047898
0.76822043 0.00047932 0.00047898
0.80553681 0.00047898 0.00047898
0.84326687 0.00047898 0.00047898
0.88140266 0.00047944 0.00047898
0.91886608 0.00047931 0.00047898
0.00047898 0.00047898 0.00047898
0.00047898 0.00047898 0.00047898
0.00047898 0.00047898 0.00047898
0.01680346 0.00047903 0.00047898
0.03611815 0.00047898 0.00047898
0.05726549 0.00047898 0.00047898
0.07984481 0.00047904 0.00047898
0.10363201 0.00047898 0.00047898
0.12847967 0.00047898 0.00047898
0.15428176 0.00047907 0.00047898
0.18095750 0.00047910 0.00047898
0.20844288 0.00047908 0.00047898
0.23668559 0.00047898 0.00047910
0.26564194 0.00047898 0.00047898
0.29527475 0.00047898 0.00047898
0.32555189 0.00047898 0.00047898
0.35644528 0.00047918 0.00047914
0.38793008 0.00047898 0.00047898
0.41998418 0.00047898 0.00047898
0.45258767 0.00047918 0.00047898
0.48572258 0.00047916 0.00047898
0.51937253 0.00047898 0.00047898
0.55352254 0.00047921 0.00047898
0.58815884 0.00047898 0.00047898
0.62326872 0.00047898 0.00047898
0.65884042 0.00047898 0.00047898
0.69486297 0.00047898 0.00047898
0.73132616 0.00047898 0.00047898
0.76822043 0.00047932 0.00047898
0.80553681 0.00047898 0.00047898
0.84326687 0.00047898 0.00047898
0.88140266 0.00047944 0.00047898
0.91886608 0.00047931 0.00047898
0.00047903 0.01680346 0.00047903
0.00047903 0.01680346 0.00047903
0.00047903 0.01680346 0.00047903
0.01680346 0.01680346 0.00047898
0.03611815 0.01680346 0.00047898
0.05726549 0.01680346 0.00047898
0.07984481 0.01680346 0.00047898
0.10363201 0.01680346 0.00047906
0.12847967 0.01680346 0.00047898
0.15428176 0.01680346 0.00047898
0.18095750 0.01680346 0.00047898
0.20844288 0.01680346 0.00047909
0.23668559 0.01680346 0.00047898
0.26564194 0.01680346 0.00047912
0.29527475 0.01680346 0.00047912
0.32555189 0.01680346 0.00047898
0.35644528 0.01680346 0.00047916
0.38793008 0.01680346 0.00047898
0.41998418 0.01680346 0.00047898
0.45258767 0.01680346 0.00047898
0.48572258 0.01680346 0.00047918
0.51937253 0.01680346 0.00047898
0.55352254 0.01680346 0.00047920
0.58815884 0.01680346 0.00047898
0.62326872 0.01680346 0.00047898
0.65884042 0.01680346 0.00047898
0.69486297 0.01680346 0.00047898
0.73132616 0.01680346 0.00047898
0.76822043 0.01680346 0.00047898
0.80553681 0.01680346 0.00047898
0.84326687 0.01680346 0.00047944
0.88140266 0.01680346 0.00047940
0.91886608 0.01680346 0.00047946
0.00047905 0.03611815 0.00047898
0.00047905 0.03611815 0.00047898
0.00047905 0.03611815 0.00047898
0.01680346 0.03611815 0.00047898
0.03611815 0.03611815 0.00047898
0.05726549 0.03611815 0.00047898
0.07984481 0.03611815 0.00047906
0.10363201 0.03611815 0.00047898
0.12847967 0.03611815 0.00047898
0.15428176 0.03611815 0.00047898
0.18095750 0.03611815 0.00047909
0.20844288 0.03611815 0.00047909
0.23668559 0.03611815 0.00047898
0.26564194 0.03611815 0.00047898
0.29527475 0.03611815 0.00047898
0.32555189 0.03611815 0.00047898
0.35644528 0.03611815 0.00047898
0.38793008 0.03611815 0.00047916
0.41998418 0.03611815 0.00047898
0.45258767 0.03611815 0.00047898
0.48572258 0.03611815 0.00047898
0.51937253 0.03611815 0.00047898
0.55352254 0.03611815 0.00047898
0.58815884 0.03611815 0.00047898
0.62326872 0.03611815 0.00047923
0.65884042 0.03611815 0.00047898
0.69486297 0.03611815 0.00047927
0.73132616 0.03611815 0.00047931
0.76822043 0.03611815 0.00047931
0.80553681 0.03611815 0.00047898
0.84326687 0.03611815 0.00047898
0.88140266 0.03611815 0.00047898
0.91886608 0.03611815 0.00047940
0.00047898 0.05726549 0.00047905
0.00047898 0.05726549 0.00047905
0.00047898 0.05726549 0.00047905
0.01680346 0.05726549 0.00047898
0.03611815 0.05726549 0.00047905
0.05726549 0.05726549 0.00047898
0.07984481 0.05726549 0.00047898
0.10363201 0.05726549 0.00047898
0.12847967 0.05726549 0.00047898
0.15428176 0.05726549 0.00047908
0.18095750 0.05726549 0.00047909
0.20844288 0.05726549 0.00047898
0.23668559 0.05726549 0.00047898
0.26564194 0.05726549 0.00047898
0.29527475 0.05726549 0.00047898
0.32555189 0.05726549 0.00047898
0.35644528 0.05726549 0.00047898
0.38793008 0.05726549 0.00047898
0.41998418 0.05726549 0.00047898
0.45258767 0.05726549 0.00047898
0.48572258 0.05726549 0.00047898
0.51937253 0.05726549 0.00047898
0.55352254 0.05726549 0.00047898
0.58815884 0.05726549 0.00047898
0.62326872 0.05726549 0.00047898
0.65884042 0.05726549 0.00047898
0.69486297 0.05726549 0.00047927
0.73132616 0.05726549 0.00047898
0.76822043 0.05726549 0.00047931
0.80553681 0.05726549 0.00047898
0.84326687 0.05726549 0.00047898
0.88140266 0.05726549 0.00047898
0.91886608 0.05726549 0.00047940
0.00047898 0.07984481 0.00047898
0.00047898 0.07984481 0.00047898
0.00047898 0.07984481 0.00047898
0.01680346 0.07984481 0.00047898
0.03611815 0.07984481 0.00047898
0.05726549 0.07984481 0.00047898
0.07984481 0.07984481 0.00047898
0.10363201 0.07984481 0.00047907
0.12847967 0.07984481 0.00047898
0.15428176 0.07984481 0.00047908
0.18095750 0.07984481 0.00047898
0.20844288 0.07984481 0.00047898
0.23668559 0.07984481 0.00047910
0.26564194 0.07984481 0.00047898
0.29527475 0.07984481 0.00047898
0.32555189 0.07984481 0.00047898
0.35644528 0.07984481 0.00047898
0.38793008 0.07984481 0.00047898
0.41998418 0.07984481 0.00047898
0.45258767 0.07984481 0.00047898
0.48572258 0.07984481 0.00047918
0.51937253 0.07984481 0.00047898
0.55352254 0.07984481 0.00047920
0.58815884 0.07984481 0.00047923
0.62326872 0.07984481 0.00047898
0.65884042 0.07984481 0.00047898
0.69486297 0.07984481 0.00047898
0.73132616 0.07984481 0.00047898
0.76822043 0.07984481 0.00047931
0.80553681 0.07984481 0.00047898
0.84326687 0.07984481 0.00047935
0.88140266 0.07984481 0.00047898
0.91886608 0.07984481 0.00047898
0.00047908 0.10363201 0.00047898
0.00047908 0.10363201 0.00047898
0.00047908 0.10363201 0.00047898
0.01680346 0.10363201 0.00047898
0.03611815 0.10363201 0.00047898
0.05726549 0.10363201 0.00047898
0.07984481 0.10363201 0.00047898
0.10363201 0.10363201 0.00047898
0.12847967 0.10363201 0.00047898
0.15428176 0.10363201 0.00047898
0.18095750 0.10363201 0.00047898
0.20844288 0.10363201 0.00047898
0.23668559 0.10363201 0.00047898
0.26564194 0.10363201 0.00047898
0.29527475 0.10363201 0.00047912
0.32555189 0.10363201 0.00047898
0.35644528 0.10363201 0.00047914
0.38793008 0.10363201 0.00047916
0.41998418 0.10363201 0.00047916
0.45258767 0.10363201 0.00047898
0.48572258 0.10363201 0.00047898
0.51937253 0.10363201 0.00047898
0.55352254 0.10363201 0.00047923
0.58815884 0.10363201 0.00047898
0.62326872 0.10363201 0.00047898
0.65884042 0.10363201 0.00047927
0.69486297 0.10363201 0.00047898
0.73132616 0.10363201 0.00047898
0.76822043 0.10363201 0.00047898
0.80553681 0.10363201 0.00047898
0.84326687 0.10363201 0.00047935
0.88140266 0.10363201 0.00047898
0.91886608 0.10363201 0.00047898
0.00047908 0.12847967 0.00047898
0.00047908 0.12847967 0.00047898
0.00047908 0.12847967 0.00047898
0.01680346 0.12847967 0.00047908
0.03611815 0.12847967 0.00047898
0.05726549 0.12847967 0.00047898
0.07984481 0.12847967 0.00047908
0.10363201 0.12847967 0.00047898
0.12847967 0.12847967 0.00047898
0.15428176 0.12847967 0.00047898
0.18095750 0.12847967 0.00047909
0.20844288 0.12847967 0.00047910
0.23668559 0.12847967 0.00047898
0.26564194 0.12847967 0.00047912
0.29527475 0.12847967 0.00047898
0.32555189 0.12847967 0.00047898
0.35644528 0.12847967 0.00047914
0.38793008 0.12847967 0.00047916
0.41998418 0.12847967 0.00047898
0.45258767 0.12847967 0.00047898
0.48572258 0.12847967 0.00047898
0.51937253 0.12847967 0.00047898
0.55352254 0.12847967 0.00047920
0.58815884 0.12847967 0.00047898
0.62326872 0.12847967 0.00047898
0.65884042 0.12847967 0.00047927
0.69486297 0.12847967 0.00047898
0.73132616 0.12847967 0.00047931
0.76822043 0.12847967 0.00047931
0.80553681 0.12847967 0.00047898
0.84326687 0.12847967 0.00047898
0.88140266 0.12847967 0.00047898
0.91886608 0.12847967 0.00047898
0.00047910 0.15428176 0.00047898
0.00047910 0.15428176 0.00047898
0.00047910 0.15428176 0.00047898
0.01680346 0.15428176 0.00047898
0.03611815 0.15428176 0.00047898
0.05726549 0.15428176 0.00047898
0.07984481 0.15428176 0.00047898
0.10363201 0.15428176 0.00047898
0.12847967 0.15428176 0.00047898
0.15428176 0.15428176 0.00047898
0.18095750 0.15428176 0.00047898
0.20844288 0.15428176 0.00047910
0.23668559 0.15428176 0.00047910
0.26564194 0.15428176 0.00047898
0.29527475 0.15428176 0.00047898
0.32555189 0.15428176 0.00047898
0.35644528 0.15428176 0.00047898
0.38793008 0.15428176 0.00047898
0.41998418 0.15428176 0.00047916
0.45258767 0.15428176 0.00047898
0.48572258 0.15428176 0.00047918
0.51937253 0.15428176 0.00047898
0.55352254 0.15428176 0.00047898
0.58815884 0.15428176 0.00047898
0.62326872 0.15428176 0.00047898
0.65884042 0.15428176 0.00047927
0.69486297 0.15428176 0.00047898
0.73132616 0.15428176 0.00047898
0.76822043 0.15428176 0.00047931
0.80553681 0.15428176 0.00047898
0.84326687 0.15428176 0.00047898
0.88140266 0.15428176 0.00047898
0.91886608 0.15428176 0.00047898
0.00047912 0.18095750 0.00047898
0.00047912 0.18095750 0.00047898
0.00047912 0.18095750 0.00047898
0.01680346 0.18095750 0.00047898
0.03611815 0.18095750 0.00047898
0.05726549 0.18095750 0.00047898
0.07984481 0.18095750 0.00047898
0.10363201 0.18095750 0.00047898
0.12847967 0.18095750 0.00047898
0.15428176 0.18095750 0.00047898
0.18095750 0.18095750 0.00047898
0.20844288 0.18095750 0.00047898
0.23668559 0.18095750 0.00047898
0.26564194 0.18095750 0.00047898
0.29527475 0.18095750 0.00047898
0.32555189 0.18095750 0.00047898
0.35644528 0.18095750 0.00047898
0.38793008 0.18095750 0.00047916
0.41998418 0.18095750 0.00047898
0.45258767 0.18095750 0.00047898
0.48572258 0.18095750 0.00047898
0.51937253 0.18095750 0.00047898
0.55352254 0.18095750 0.00047898
0.58815884 0.18095750 0.00047898
0.62326872 0.18095750 0.00047898
0.65884042 0.18095750 0.00047898
0.69486297 0.18095750 0.00047898
0.73132616 0.18095750 0.00047898
0.76822043 0.18095750 0.00047898
0.80553681 0.18095750 0.00047898
0.84326687 0.18095750 0.00047898
0.88140266 0.18095750 0.00047898
0.91886608 0.18095750 0.00047940
0.00047909 0.20844288 0.00047898
0.00047909 0.20844288 0.00047898
0.00047909 0.20844288 0.00047898
0.01680346 0.20844288 0.00047898
0.03611815 0.20844288 0.00047898
0.05726549 0.20844288 0.00047898
0.07984481 0.20844288 0.00047898
0.10363201 0.20844288 0.00047898
0.12847967 0.20844288 0.00047898
0.15428176 0.20844288 0.00047898
0.18095750 0.20844288 0.00047898
0.20844288 0.20844288 0.00047898
0.23668559 0.20844288 0.00047898
0.26564194 0.20844288 0.00047898
0.29527475 0.20844288 0.00047898
0.32555189 0.20844288 0.00047898
0.35644528 0.20844288 0.00047898
0.38793008 0.20844288 0.00047898
0.41998418 0.20844288 0.00047898
0.45258767 0.20844288 0.00047898
0.48572258 0.20844288 0.00047918
0.51937253 0.20844288 0.00047898
0.55352254 0.20844288 0.00047920
0.58815884 0.20844288 0.00047898
0.62326872 0.20844288 0.00047898
0.65884042 0.20844288 0.00047898
0.69486297 0.20844288 0.00047898
0.73132616 0.20844288 0.00047898
0.76822043 0.20844288 0.00047898
0.80553681 0.20844288 0.00047898
0.84326687 0.20844288 0.00047940
0.88140266 0.20844288 0.00047940
0.91886608 0.20844288 0.00047898
0.00047898 0.23668559 0.00047910
0.00047898 0.23668559 0.00047910
0.00047898 0.23668559 0.00047910
0.01680346 0.23668559 0.00047910
0.03611815 0.23668559 0.00047910
0.05726549 0.23668559 0.00047912
0.07984481 0.23668559 0.00047898
0.10363201 0.23668559 0.00047912
0.12847967 0.23668559 0.00047898
0.15428176 0.23668559 0.00047898
0.18095750 0.23668559 0.00047898
0.20844288 0.23668559 0.00047898
0.23668559 0.23668559 0.00047912
0.26564194 0.23668559 0.00047898
0.29527475 0.23668559 0.00047914
0.32555189 0.23668559 0.00047898
0.35644528 0.23668559 0.00047898
0.38793008 0.23668559 0.00047916
0.41998418 0.23668559 0.00047898
0.45258767 0.23668559 0.00047898
0.48572258 0.23668559 0.00047898
0.51937253 0.23668559 0.00047898
0.55352254 0.23668559 0.00047920
0.58815884 0.23668559 0.00047898
0.62326872 0.23668559 0.00047898
0.65884042 0.23668559 0.00047898
0.69486297 0.23668559 0.00047898
0.73132616 0.23668559 0.00047898
0.76822043 0.23668559 0.00047935
0.80553681 0.23668559 0.00047898
0.84326687 0.23668559 0.00047935
0.88140266 0.23668559 0.00047898
0.91886608 0.23668559 0.00047898
0.00047912 0.26564194 0.00047898
0.00047912 0.26564194 0.00047898
0.00047912 0.26564194 0.00047898
0.01680346 0.26564194 0.00047898
0.03611815 0.26564194 0.00047898
0.05726549 0.26564194 0.00047898
0.07984481 0.26564194 0.00047912
0.10363201 0.26564194 0.00047898
0.12847967 0.26564194 0.00047898
0.15428176 0.26564194 0.00047898
0.18095750 0.26564194 0.00047912
0.20844288 0.26564194 0.00047898
0.23668559 0.26564194 0.00047898
0.26564194 0.26564194 0.00047898
0.29527475 0.26564194 0.00047898
0.32555189 0.26564194 0.00047898
0.35644528 0.26564194 0.00047916
0.38793008 0.26564194 0.00047898
0.41998418 0.26564194 0.00047918
0.45258767 0.26564194 0.00047898
0.48572258 0.26564194 0.00047898
0.51937253 0.26564194 0.00047898
0.55352254 0.26564194 0.00047898
0.58815884 0.26564194 0.00047923
0.62326872 0.26564194 0.00047898
0.65884042 0.26564194 0.00047898
0.69486297 0.26564194 0.00047898
0.73132616 0.26564194 0.00047898
0.76822043 0.26564194 0.00047931
0.80553681 0.26564194 0.00047898
0.84326687 0.26564194 0.00047935
0.88140266 0.26564194 0.00047898
0.91886608 0.26564194 0.00047898
0.00047912 0.29527475 0.00047914
0.00047912 0.29527475 0.00047914
0.00047912 0.29527475 0.00047914
0.01680346 0.29527475 0.00047898
0.03611815 0.29527475 0.00047898
0.05726549 0.29527475 0.00047898
0.07984481 0.29527475 0.00047914
0.10363201 0.29527475 0.00047898
0.12847967 0.29527475 0.00047914
0.15428176 0.29527475 0.00047898
0.18095750 0.29527475 0.00047914
0.20844288 0.29527475 0.00047898
0.23668559 0.29527475 0.00047898
0.26564194 0.29527475 0.00047914
0.29527475 0.29527475 0.00047898
0.32555189 0.29527475 0.00047916
0.35644528 0.29527475 0.00047898
0.38793008 0.29527475 0.00047918
0.41998418 0.29527475 0.00047898
0.45258767 0.29527475 0.00047898
0.48572258 0.29527475 0.00047898
0.51937253 0.29527475 0.00047898
0.55352254 0.29527475 0.00047898
0.58815884 0.29527475 0.00047898
0.62326872 0.29527475 0.00047923
0.65884042 0.29527475 0.00047898
0.69486297 0.29527475 0.00047898
0.73132616 0.29527475 0.00047931
0.76822043 0.29527475 0.00047898
0.80553681 0.29527475 0.00047898
0.84326687 0.29527475 0.00047935
0.88140266 0.29527475 0.00047898
0.91886608 0.29527475 0.00047940
0.00047915 0.32555189 0.00047898
0.00047915 0.32555189 0.00047898
0.00047915 0.32555189 0.00047898
0.01680346 0.32555189 0.00047898
0.03611815 0.32555189 0.00047898
0.05726549 0.32555189 0.00047898
0.07984481 0.32555189 0.00047898
0.10363201 0.32555189 0.00047898
0.12847967 0.32555189 0.00047898
0.15428176 0.32555189 0.00047898
0.18095750 0.32555189 0.00047898
0.20844288 0.32555189 0.00047898
0.23668559 0.32555189 0.00047898
0.26564194 0.32555189 0.00047898
0.29527475 0.32555189 0.00047898
0.32555189 0.32555189 0.00047916
0.35644528 0.32555189 0.00047898
0.38793008 0.32555189 0.00047898
0.41998418 0.32555189 0.00047918
0.45258767 0.32555189 0.00047898
0.48572258 0.32555189 0.00047898
0.51937253 0.32555189 0.00047898
0.55352254 0.32555189 0.00047920
0.58815884 0.32555189 0.00047898
0.62326872 0.32555189 0.00047923
0.65884042 0.32555189 0.00047898
0.69486297 0.32555189 0.00047898
0.73132616 0.32555189 0.00047931
0.76822043 0.32555189 0.00047898
0.80553681 0.32555189 0.00047935
0.84326687 0.32555189 0.00047898
0.88140266 0.32555189 0.00047898
0.91886608 0.32555189 0.00047940
0.00047898 0.35644528 0.00047898
0.00047898 0.35644528 0.00047898
0.00047898 0.35644528 0.00047898
0.01680346 0.35644528 0.00047898
0.03611815 0.35644528 0.00047916
0.05726549 0.35644528 0.00047916
0.07984481 0.35644528 0.00047898
0.10363201 0.35644528 0.00047898
0.12847967 0.35644528 0.00047898
0.15428176 0.35644528 0.00047898
0.18095750 0.35644528 0.00047898
0.20844288 0.35644528 0.00047898
0.23668559 0.35644528 0.00047898
0.26564194 0.35644528 0.00047898
0.29527475 0.35644528 0.00047898
0.32555189 0.35644528 0.00047898
0.35644528 0.35644528 0.00047898
0.38793008 0.35644528 0.00047918
0.41998418 0.35644528 0.00047898
0.45258767 0.35644528 0.00047898
0.48572258 0.35644528 0.00047898
0.51937253 0.35644528 0.00047898
0.55352254 0.35644528 0.00047920
0.58815884 0.35644528 0.00047898
0.62326872 0.35644528 0.00047898
0.65884042 0.35644528 0.00047927
0.69486297 0.35644528 0.00047898
0.73132616 0.35644528 0.00047898
0.76822043 0.35644528 0.00047898
0.80553681 0.35644528 0.00047898
0.84326687 0.35644528 0.00047898
0.88140266 0.35644528 0.00047940
0.91886608 0.35644528 0.00047898
0.00047913 0.38793008 0.00047898
0.00047913 0.38793008 0.00047898
0.00047913 0.38793008 0.00047898
0.01680346 0.38793008 0.00047898
0.03611815 0.38793008 0.00047898
0.05726549 0.38793008 0.00047898
0.07984481 0.38793008 0.00047898
0.10363201 0.38793008 0.00047898
0.12847967 0.38793008 0.00047916
0.15428176 0.38793008 0.00047898
0.18095750 0.38793008 0.00047916
0.20844288 0.38793008 0.00047916
0.23668559 0.38793008 0.00047898
0.26564194 0.38793008 0.00047916
0.29527475 0.38793008 0.00047898
0.32555189 0.38793008 0.00047898
0.35644528 0.38793008 0.00047898
0.38793008 0.38793008 0.00047918
0.41998418 0.38793008 0.00047898
0.45258767 0.38793008 0.00047898
0.48572258 0.38793008 0.00047898
0.51937253 0.38793008 0.00047898
0.55352254 0.38793008 0.00047898
0.58815884 0.38793008 0.00047898
0.62326872 0.38793008 0.00047898
0.65884042 0.38793008 0.00047898
0.69486297 0.38793008 0.00047898
0.73132616 0.38793008 0.00047898
0.76822043 0.38793008 0.00047935
0.80553681 0.38793008 0.00047898
0.84326687 0.38793008 0.00047898
0.88140266 0.38793008 0.00047940
0.91886608 0.38793008 0.00047940
0.00047921 0.41998418 0.00047898
0.00047921 0.41998418 0.00047898
0.00047921 0.41998418 0.00047898
0.01680346 0.41998418 0.00047898
0.03611815 0.41998418 0.00047898
0.05726549 0.41998418 0.00047898
0.07984481 0.41998418 0.00047898
0.10363201 0.41998418 0.00047918
0.12847967 0.41998418 0.00047898
0.15428176 0.41998418 0.00047898
0.18095750 0.41998418 0.00047898
0.20844288 0.41998418 0.00047898
0.23668559 0.41998418 0.00047898
0.26564194 0.41998418 0.00047898
0.29527475 0.41998418 0.00047898
0.32555189 0.41998418 0.00047918
0.35644528 0.41998418 0.00047898
0.38793008 0.41998418 0.00047898
0.41998418 0.41998418 0.00047898
0.45258767 0.41998418 0.00047898
0.48572258 0.41998418 0.00047898
0.51937253 0.41998418 0.00047898
0.55352254 0.41998418 0.00047898
0.58815884 0.41998418 0.00047923
0.62326872 0.41998418 0.00047898
0.65884042 0.41998418 0.00047927
0.69486297 0.41998418 0.00047898
0.73132616 0.41998418 0.00047898
0.76822043 0.41998418 0.00047898
0.80553681 0.41998418 0.00047898
0.84326687 0.41998418 0.00047898
0.88140266 0.41998418 0.00047898
0.91886608 0.41998418 0.00047898
0.00047921 0.45258767 0.00047898
0.00047921 0.45258767 0.00047898
0.00047921 0.45258767 0.00047898
0.01680346 0.45258767 0.00047898
0.03611815 0.45258767 0.00047898
0.05726549 0.45258767 0.00047898
0.07984481 0.45258767 0.00047898
0.10363201 0.45258767 0.00047898
0.12847967 0.45258767 0.00047898
0.15428176 0.45258767 0.00047918
0.18095750 0.45258767 0.00047898
0.20844288 0.45258767 0.00047898
0.23668559 0.45258767 0.00047898
0.26564194 0.45258767 0.00047898
0.29527475 0.45258767 0.00047898
0.32555189 0.45258767 0.00047898
0.35644528 0.45258767 0.00047898
0.38793008 0.45258767 0.00047898
0.41998418 0.45258767 0.00047920
0.45258767 0.45258767 0.00047898
0.48572258 0.45258767 0.00047898
0.51937253 0.45258767 0.00047898
0.55352254 0.45258767 0.00047898
0.58815884 0.45258767 0.00047898
0.62326872 0.45258767 0.00047898
0.65884042 0.45258767 0.00047898
0.69486297 0.45258767 0.00047898
0.73132616 0.45258767 0.00047931
0.76822043 0.45258767 0.00047931
0.80553681 0.45258767 0.00047898
0.84326687 0.45258767 0.00047898
0.88140266 0.45258767 0.00047898
0.91886608 0.45258767 0.00047946
0.00047918 0.48572258 0.00047898
0.00047918 0.48572258 0.00047898
0.00047918 0.48572258 0.00047898
0.01680346 0.48572258 0.00047920
0.03611815 0.48572258 0.00047898
0.05726549 0.48572258 0.00047920
0.07984481 0.48572258 0.00047920
0.10363201 0.48572258 0.00047898
0.12847967 0.48572258 0.00047920
0.15428176 0.48572258 0.00047898
0.18095750 0.48572258 0.00047898
0.20844288 0.48572258 0.00047920
0.23668559 0.48572258 0.00047898
0.26564194 0.48572258 0.00047920
0.29527475 0.48572258 0.00047898
0.32555189 0.48572258 0.00047898
0.35644528 0.48572258 0.00047898
0.38793008 0.48572258 0.00047898
0.41998418 0.48572258 0.00047898
0.45258767 0.48572258 0.00047898
0.48572258 0.48572258 0.00047898
0.51937253 0.48572258 0.00047898
0.55352254 0.48572258 0.00047898
0.58815884 0.48572258 0.00047898
0.62326872 0.48572258 0.00047898
0.65884042 0.48572258 0.00047898
0.69486297 0.48572258 0.00047927
0.73132616 0.48572258 0.00047898
0.76822043 0.48572258 0.00047898
0.80553681 0.48572258 0.00047898
0.84326687 0.48572258 0.00047898
0.88140266 0.48572258 0.00047898
0.91886608 0.48572258 0.00047898
0.00047923 0.51937253 0.00047898
0.00047923 0.51937253 0.00047898
0.00047923 0.51937253 0.00047898
0.01680346 0.51937253 0.00047898
0.03611815 0.51937253 0.00047898
0.05726549 0.51937253 0.00047898
0.07984481 0.51937253 0.00047898
0.10363201 0.51937253 0.00047898
0.12847967 0.51937253 0.00047920
0.15428176 0.51937253 0.00047898
0.18095750 0.51937253 0.00047920
0.20844288 0.51937253 0.00047898
0.23668559 0.51937253 0.00047920
0.26564194 0.51937253 0.00047898
0.29527475 0.51937253 0.00047920
0.32555189 0.51937253 0.00047898
0.35644528 0.51937253 0.00047898
0.38793008 0.51937253 0.00047898
0.41998418 0.51937253 0.00047898
0.45258767 0.51937253 0.00047898
0.48572258 0.51937253 0.00047898
0.51937253 0.51937253 0.00047898
0.55352254 0.51937253 0.00047898
0.58815884 0.51937253 0.00047898
0.62326872 0.51937253 0.00047898
0.65884042 0.51937253 0.00047898
0.69486297 0.51937253 0.00047898
