src/ffmpeg_scripts/luts/luminance_2p67.cube
TITLE "luminance_2p67"
LUT_3D_SIZE 33
# PQ (EOTF Only)/Rec2020 -> PQ (EOTF Only)/Rec2020, CineEI Shift 2.67, Black Level 0.00% IRE, Input 109% -> Output 109% - Created with LUTCalc v4.01 by Ben Turley October 2020
0.06256172 0.06256172 0.06256172
0.06256172 0.06256172 0.06256172
0.06256172 0.06256172 0.06256172
0.13195645 0.06256172 0.06256172
0.18761955 0.06256181 0.06256172
0.23781397 0.06256172 0.06256172
0.28454456 0.06256182 0.06256182
0.32875936 0.06256184 0.06256172
0.37101146 0.06256172 0.06256172
0.41166240 0.06256172 0.06256172
0.45096638 0.06256172 0.06256172
0.48911149 0.06256188 0.06256172
0.52624221 0.06256172 0.06256191
0.56247288 0.06256187 0.06256194
0.59789605 0.06256189 0.06256172
0.63258814 0.06256172 0.06256172
0.66661318 0.06256194 0.06256200
0.70002561 0.06256172 0.06256200
0.73287221 0.06256200 0.06256200
0.76519360 0.06256205 0.06256172
0.79702534 0.06256172 0.06256172
0.82839882 0.06256214 0.06256208
0.85934192 0.06256172 0.06256172
0.88987957 0.06256172 0.06256172
0.91886608 0.06256172 0.06256172
0.91886608 0.06256172 0.06256219
0.91886608 0.06256213 0.06256172
0.91886608 0.06256219 0.06256172
0.91886608 0.06256233 0.06256172
0.91886608 0.06256172 0.06256172
0.91886608 0.06256219 0.06256172
0.91886608 0.06256172 0.06256172
0.91886608 0.06256235 0.06256245
0.06256172 0.06256172 0.06256172
0.06256172 0.06256172 0.06256172
0.06256172 0.06256172 0.06256172
0.13195645 0.06256172 0.06256172
0.18761955 0.06256181 0.06256172
0.23781397 0.06256172 0.06256172
0.28454456 0.06256182 0.06256182
0.32875936 0.06256184 0.06256172
0.37101146 0.06256172 0.06256172
0.41166240 0.06256172 0.06256172
0.45096638 0.06256172 0.06256172
0.48911149 0.06256188 0.06256172
0.52624221 0.06256172 0.06256191
0.56247288 0.06256187 0.06256194
0.59789605 0.06256189 0.06256172
0.63258814 0.06256172 0.06256172
0.66661318 0.06256194 0.06256200
0.70002561 0.06256172 0.06256200
0.73287221 0.06256200 0.06256200
0.76519360 0.06256205 0.06256172
0.79702534 0.06256172 0.06256172
0.82839882 0.06256214 0.06256208
0.85934192 0.06256172 0.06256172
0.88987957 0.06256172 0.06256172
0.91886608 0.06256172 0.06256172
0.91886608 0.06256172 0.06256219
0.91886608 0.06256213 0.06256172
0.91886608 0.06256219 0.06256172
0.91886608 0.06256233 0.06256172
0.91886608 0.06256172 0.06256172
0.91886608 0.06256219 0.06256172
0.91886608 0.06256172 0.06256172
0.91886608 0.06256235 0.06256245
0.06256172 0.06256172 0.06256172
0.06256172 0.06256172 0.06256172
0.06256172 0.06256172 0.06256172
0.13195645 0.06256172 0.06256172
0.18761955 0.06256181 0.06256172
0.23781397 0.06256172 0.06256172
0.28454456 0.06256182 0.06256182
0.32875936 0.06256184 0.06256172
0.37101146 0.06256172 0.06256172
0.41166240 0.06256172 0.06256172
0.45096638 0.06256172 0.06256172
0.48911149 0.06256188 0.06256172
0.52624221 0.06256172 0.06256191
0.56247288 0.06256187 0.06256194
0.59789605 0.06256189 0.06256172
0.63258814 0.06256172 0.06256172
0.66661318 0.06256194 0.06256200
0.70002561 0.06256172 0.06256200
0.73287221 0.06256200 0.06256200
0.76519360 0.06256205 0.06256172
0.79702534 0.06256172 0.06256172
0.82839882 0.06256214 0.06256208
0.85934192 0.06256172 0.06256172
0.88987957 0.06256172 0.06256172
0.91886608 0.06256172 0.06256172
0.91886608 0.06256172 0.06256219
0.91886608 0.06256213 0.06256172
0.91886608 0.06256219 0.06256172
0.91886608 0.06256233 0.06256172
0.91886608 0.06256172 0.06256172
0.91886608 0.06256219 0.06256172
0.91886608 0.06256172 0.06256172
0.91886608 0.06256235 0.06256245
0.06256179 0.13195645 0.06256172
0.06256179 0.13195645 0.06256172
0.06256179 0.13195645 0.06256172
0.13195645 0.13195645 0.06256172
0.18761955 0.13195645 0.06256172
0.23781397 0.13195645 0.06256172
0.28454456 0.13195645 0.06256172
0.32875936 0.13195645 0.06256172
0.37101146 0.13195645 0.06256172
0.41166240 0.13195645 0.06256187
0.45096638 0.13195645 0.06256172
0.48911149 0.13195645 0.06256172
0.52624221 0.13195645 0.06256172
0.56247288 0.13195645 0.06256172
0.59789605 0.13195645 0.06256194
0.63258814 0.13195645 0.06256172
0.66661318 0.13195645 0.06256200
0.70002561 0.13195645 0.06256172
0.73287221 0.13195645 0.06256172
0.76519360 0.13195645 0.06256172
0.79702534 0.13195645 0.06256204
0.82839882 0.13195645 0.06256172
0.85934192 0.13195645 0.06256208
0.88987957 0.13195645 0.06256172
0.91886608 0.13195645 0.06256172
0.91886608 0.13195645 0.06256172
0.91886608 0.13195645 0.06256172
0.91886608 0.13195645 0.06256172
0.91886608 0.13195645 0.06256172
0.91886608 0.13195645 0.06256172
0.91886608 0.13195645 0.06256245
0.91886608 0.13195645 0.06256172
0.91886608 0.13195645 0.06256257
0.06256182 0.18761955 0.06256172
0.06256182 0.18761955 0.06256172
0.06256182 0.18761955 0.06256172
0.13195645 0.18761955 0.06256172
0.18761955 0.18761955 0.06256172
0.23781397 0.18761955 0.06256172
0.28454456 0.18761955 0.06256185
0.32875936 0.18761955 0.06256185
0.37101146 0.18761955 0.06256172
0.41166240 0.18761955 0.06256187
0.45096638 0.18761955 0.06256172
0.48911149 0.18761955 0.06256189
0.52624221 0.18761955 0.06256172
0.56247288 0.18761955 0.06256172
0.59789605 0.18761955 0.06256194
0.63258814 0.18761955 0.06256172
0.66661318 0.18761955 0.06256172
0.70002561 0.18761955 0.06256200
0.73287221 0.18761955 0.06256172
0.76519360 0.18761955 0.06256172
0.79702534 0.18761955 0.06256172
0.82839882 0.18761955 0.06256172
0.85934192 0.18761955 0.06256172
0.88987957 0.18761955 0.06256213
0.91886608 0.18761955 0.06256172
0.91886608 0.18761955 0.06256172
0.91886608 0.18761955 0.06256219
0.91886608 0.18761955 0.06256172
0.91886608 0.18761955 0.06256227
0.91886608 0.18761955 0.06256172
0.91886608 0.18761955 0.06256172
0.91886608 0.18761955 0.06256172
0.91886608 0.18761955 0.06256172
0.06256172 0.23781397 0.06256172
0.06256172 0.23781397 0.06256172
0.06256172 0.23781397 0.06256172
0.13195645 0.23781397 0.06256172
0.18761955 0.23781397 0.06256172
0.23781397 0.23781397 0.06256172
0.28454456 0.23781397 0.06256184
0.32875936 0.23781397 0.06256185
0.37101146 0.23781397 0.06256187
0.41166240 0.23781397 0.06256187
0.45096638 0.23781397 0.06256172
0.48911149 0.23781397 0.06256172
0.52624221 0.23781397 0.06256172
0.56247288 0.23781397 0.06256172
0.59789605 0.23781397 0.06256172
0.63258814 0.23781397 0.06256172
0.66661318 0.23781397 0.06256172
0.70002561 0.23781397 0.06256172
0.73287221 0.23781397 0.06256172
0.76519360 0.23781397 0.06256172
0.79702534 0.23781397 0.06256204
0.82839882 0.23781397 0.06256208
0.85934192 0.23781397 0.06256172
0.88987957 0.23781397 0.06256172
0.91886608 0.23781397 0.06256172
0.91886608 0.23781397 0.06256172
0.91886608 0.23781397 0.06256219
0.91886608 0.23781397 0.06256172
0.91886608 0.23781397 0.06256227
0.91886608 0.23781397 0.06256172
0.91886608 0.23781397 0.06256172
0.91886608 0.23781397 0.06256172
0.91886608 0.23781397 0.06256245
0.06256179 0.28454456 0.06256172
0.06256179 0.28454456 0.06256172
0.06256179 0.28454456 0.06256172
0.13195645 0.28454456 0.06256172
0.18761955 0.28454456 0.06256172
0.23781397 0.28454456 0.06256172
0.28454456 0.28454456 0.06256172
0.32875936 0.28454456 0.06256185
0.37101146 0.28454456 0.06256172
0.41166240 0.28454456 0.06256187
0.45096638 0.28454456 0.06256172
0.48911149 0.28454456 0.06256172
0.52624221 0.28454456 0.06256172
0.56247288 0.28454456 0.06256172
0.59789605 0.28454456 0.06256197
0.63258814 0.28454456 0.06256197
0.66661318 0.28454456 0.06256172
0.70002561 0.28454456 0.06256200
0.73287221 0.28454456 0.06256172
0.76519360 0.28454456 0.06256172
0.79702534 0.28454456 0.06256172
0.82839882 0.28454456 0.06256172
0.85934192 0.28454456 0.06256208
0.88987957 0.28454456 0.06256172
0.91886608 0.28454456 0.06256172
0.91886608 0.28454456 0.06256172
0.91886608 0.28454456 0.06256219
0.91886608 0.28454456 0.06256172
0.91886608 0.28454456 0.06256172
0.91886608 0.28454456 0.06256172
0.91886608 0.28454456 0.06256235
0.91886608 0.28454456 0.06256172
0.91886608 0.28454456 0.06256172
0.06256187 0.32875936 0.06256172
0.06256187 0.32875936 0.06256172
0.06256187 0.32875936 0.06256172
0.13195645 0.32875936 0.06256172
0.18761955 0.32875936 0.06256172
0.23781397 0.32875936 0.06256172
0.28454456 0.32875936 0.06256172
0.32875936 0.32875936 0.06256172
0.37101146 0.32875936 0.06256172
0.41166240 0.32875936 0.06256172
0.45096638 0.32875936 0.06256189
0.48911149 0.32875936 0.06256172
0.52624221 0.32875936 0.06256172
0.56247288 0.32875936 0.06256194
0.59789605 0.32875936 0.06256194
0.63258814 0.32875936 0.06256172
0.66661318 0.32875936 0.06256172
0.70002561 0.32875936 0.06256200
0.73287221 0.32875936 0.06256200
0.76519360 0.32875936 0.06256172
0.79702534 0.32875936 0.06256172
0.82839882 0.32875936 0.06256172
0.85934192 0.32875936 0.06256172
0.88987957 0.32875936 0.06256172
0.91886608 0.32875936 0.06256172
0.91886608 0.32875936 0.06256172
0.91886608 0.32875936 0.06256172
0.91886608 0.32875936 0.06256172
0.91886608 0.32875936 0.06256172
0.91886608 0.32875936 0.06256172
0.91886608 0.32875936 0.06256172
0.91886608 0.32875936 0.06256172
0.91886608 0.32875936 0.06256172
0.06256187 0.37101146 0.06256172
0.06256187 0.37101146 0.06256172
0.06256187 0.37101146 0.06256172
0.13195645 0.37101146 0.06256187
0.18761955 0.37101146 0.06256172
0.23781397 0.37101146 0.06256172
0.28454456 0.37101146 0.06256172
0.32875936 0.37101146 0.06256172
0.37101146 0.37101146 0.06256172
0.41166240 0.37101146 0.06256172
0.45096638 0.37101146 0.06256189
0.48911149 0.37101146 0.06256172
0.52624221 0.37101146 0.06256172
0.56247288 0.37101146 0.06256172
0.59789605 0.37101146 0.06256172
0.63258814 0.37101146 0.06256172
0.66661318 0.37101146 0.06256197
0.70002561 0.37101146 0.06256172
0.73287221 0.37101146 0.06256172
0.76519360 0.37101146 0.06256172
0.79702534 0.37101146 0.06256172
0.82839882 0.37101146 0.06256172
0.85934192 0.37101146 0.06256172
0.88987957 0.37101146 0.06256172
0.91886608 0.37101146 0.06256172
0.91886608 0.37101146 0.06256172
0.91886608 0.37101146 0.06256172
0.91886608 0.37101146 0.06256172
0.91886608 0.37101146 0.06256172
0.91886608 0.37101146 0.06256172
0.91886608 0.37101146 0.06256172
0.91886608 0.37101146 0.06256172
0.91886608 0.37101146 0.06256172
0.06256190 0.41166240 0.06256172
0.06256190 0.41166240 0.06256172
0.06256190 0.41166240 0.06256172
0.13195645 0.41166240 0.06256172
0.18761955 0.41166240 0.06256172
0.23781397 0.41166240 0.06256172
0.28454456 0.41166240 0.06256172
0.32875936 0.41166240 0.06256172
0.37101146 0.41166240 0.06256172
0.41166240 0.41166240 0.06256172
0.45096638 0.41166240 0.06256172
0.48911149 0.41166240 0.06256191
0.52624221 0.41166240 0.06256172
0.56247288 0.41166240 0.06256194
0.59789605 0.41166240 0.06256172
0.63258814 0.41166240 0.06256172
0.66661318 0.41166240 0.06256197
0.70002561 0.41166240 0.06256200
0.73287221 0.41166240 0.06256200
0.76519360 0.41166240 0.06256204
0.79702534 0.41166240 0.06256172
0.82839882 0.41166240 0.06256172
0.85934192 0.41166240 0.06256172
0.88987957 0.41166240 0.06256213
0.91886608 0.41166240 0.06256213
0.91886608 0.41166240 0.06256219
0.91886608 0.41166240 0.06256172
0.91886608 0.41166240 0.06256172
0.91886608 0.41166240 0.06256227
0.91886608 0.41166240 0.06256172
0.91886608 0.41166240 0.06256235
0.91886608 0.41166240 0.06256172
0.91886608 0.41166240 0.06256172
0.06256192 0.45096638 0.06256172
0.06256192 0.45096638 0.06256172
0.06256192 0.45096638 0.06256172
0.13195645 0.45096638 0.06256172
0.18761955 0.45096638 0.06256172
0.23781397 0.45096638 0.06256172
0.28454456 0.45096638 0.06256172
0.32875936 0.45096638 0.06256172
0.37101146 0.45096638 0.06256172
0.41166240 0.45096638 0.06256172
0.45096638 0.45096638 0.06256172
0.48911149 0.45096638 0.06256172
0.52624221 0.45096638 0.06256172
0.56247288 0.45096638 0.06256194
0.59789605 0.45096638 0.06256172
0.63258814 0.45096638 0.06256172
0.66661318 0.45096638 0.06256172
0.70002561 0.45096638 0.06256172
0.73287221 0.45096638 0.06256172
0.76519360 0.45096638 0.06256172
0.79702534 0.45096638 0.06256172
0.82839882 0.45096638 0.06256172
0.85934192 0.45096638 0.06256172
0.88987957 0.45096638 0.06256172
0.91886608 0.45096638 0.06256172
0.91886608 0.45096638 0.06256219
0.91886608 0.45096638 0.06256172
0.91886608 0.45096638 0.06256172
0.91886608 0.45096638 0.06256172
0.91886608 0.45096638 0.06256172
0.91886608 0.45096638 0.06256172
0.91886608 0.45096638 0.06256172
0.91886608 0.45096638 0.06256172
0.06256189 0.48911149 0.06256172
0.06256189 0.48911149 0.06256172
0.06256189 0.48911149 0.06256172
0.13195645 0.48911149 0.06256172
0.18761955 0.48911149 0.06256172
0.23781397 0.48911149 0.06256172
0.28454456 0.48911149 0.06256172
0.32875936 0.48911149 0.06256172
0.37101146 0.48911149 0.06256172
0.41166240 0.48911149 0.06256172
0.45096638 0.48911149 0.06256172
0.48911149 0.48911149 0.06256194
0.52624221 0.48911149 0.06256172
0.56247288 0.48911149 0.06256172
0.59789605 0.48911149 0.06256172
0.63258814 0.48911149 0.06256172
0.66661318 0.48911149 0.06256172
0.70002561 0.48911149 0.06256172
0.73287221 0.48911149 0.06256172
0.76519360 0.48911149 0.06256172
0.79702534 0.48911149 0.06256172
0.82839882 0.48911149 0.06256172
0.85934192 0.48911149 0.06256208
0.88987957 0.48911149 0.06256172
0.91886608 0.48911149 0.06256172
0.91886608 0.48911149 0.06256172
0.91886608 0.48911149 0.06256172
0.91886608 0.48911149 0.06256172
0.91886608 0.48911149 0.06256172
0.91886608 0.48911149 0.06256172
0.91886608 0.48911149 0.06256235
0.91886608 0.48911149 0.06256172
0.91886608 0.48911149 0.06256172
0.06256195 0.52624221 0.06256191
0.06256195 0.52624221 0.06256191
0.06256195 0.52624221 0.06256191
0.13195645 0.52624221 0.06256172
0.18761955 0.52624221 0.06256172
0.23781397 0.52624221 0.06256194
0.28454456 0.52624221 0.06256194
0.32875936 0.52624221 0.06256172
0.37101146 0.52624221 0.06256172
0.41166240 0.52624221 0.06256194
0.45096638 0.52624221 0.06256172
0.48911149 0.52624221 0.06256172
0.52624221 0.52624221 0.06256194
0.56247288 0.52624221 0.06256172
0.59789605 0.52624221 0.06256172
0.63258814 0.52624221 0.06256172
0.66661318 0.52624221 0.06256200
0.70002561 0.52624221 0.06256172
0.73287221 0.52624221 0.06256200
0.76519360 0.52624221 0.06256172
0.79702534 0.52624221 0.06256172
0.82839882 0.52624221 0.06256172
0.85934192 0.52624221 0.06256208
0.88987957 0.52624221 0.06256172
0.91886608 0.52624221 0.06256172
0.91886608 0.52624221 0.06256219
0.91886608 0.52624221 0.06256172
0.91886608 0.52624221 0.06256227
0.91886608 0.52624221 0.06256227
0.91886608 0.52624221 0.06256172
0.91886608 0.52624221 0.06256235
0.91886608 0.52624221 0.06256172
0.91886608 0.52624221 0.06256172
0.06256195 0.56247288 0.06256172
0.06256195 0.56247288 0.06256172
0.06256195 0.56247288 0.06256172
0.13195645 0.56247288 0.06256194
0.18761955 0.56247288 0.06256172
0.23781397 0.56247288 0.06256172
0.28454456 0.56247288 0.06256194
0.32875936 0.56247288 0.06256172
0.37101146 0.56247288 0.06256172
0.41166240 0.56247288 0.06256172
0.45096638 0.56247288 0.06256194
0.48911149 0.56247288 0.06256172
0.52624221 0.56247288 0.06256172
0.56247288 0.56247288 0.06256197
0.59789605 0.56247288 0.06256172
0.63258814 0.56247288 0.06256172
0.66661318 0.56247288 0.06256172
0.70002561 0.56247288 0.06256172
0.73287221 0.56247288 0.06256204
0.76519360 0.56247288 0.06256172
0.79702534 0.56247288 0.06256172
0.82839882 0.56247288 0.06256172
0.85934192 0.56247288 0.06256172
0.88987957 0.56247288 0.06256172
0.91886608 0.56247288 0.06256172
0.91886608 0.56247288 0.06256172
0.91886608 0.56247288 0.06256172
0.91886608 0.56247288 0.06256172
0.91886608 0.56247288 0.06256227
0.91886608 0.56247288 0.06256172
0.91886608 0.56247288 0.06256172
0.91886608 0.56247288 0.06256172
0.91886608 0.56247288 0.06256172
0.06256195 0.59789605 0.06256172
0.06256195 0.59789605 0.06256172
0.06256195 0.59789605 0.06256172
0.13195645 0.59789605 0.06256172
0.18761955 0.59789605 0.06256172
0.23781397 0.59789605 0.06256172
0.28454456 0.59789605 0.06256172
0.32875936 0.59789605 0.06256172
0.37101146 0.59789605 0.06256172
0.41166240 0.59789605 0.06256172
0.45096638 0.59789605 0.06256200
0.48911149 0.59789605 0.06256197
0.52624221 0.59789605 0.06256172
0.56247288 0.59789605 0.06256197
0.59789605 0.59789605 0.06256172
0.63258814 0.59789605 0.06256172
0.66661318 0.59789605 0.06256200
0.70002561 0.59789605 0.06256204
0.73287221 0.59789605 0.06256204
0.76519360 0.59789605 0.06256172
0.79702534 0.59789605 0.06256172
0.82839882 0.59789605 0.06256172
0.85934192 0.59789605 0.06256208
0.88987957 0.59789605 0.06256172
0.91886608 0.59789605 0.06256213
0.91886608 0.59789605 0.06256172
0.91886608 0.59789605 0.06256172
0.91886608 0.59789605 0.06256172
0.91886608 0.59789605 0.06256172
0.91886608 0.59789605 0.06256172
0.91886608 0.59789605 0.06256172
0.91886608 0.59789605 0.06256172
0.91886608 0.59789605 0.06256245
0.06256203 0.63258814 0.06256172
0.06256203 0.63258814 0.06256172
0.06256203 0.63258814 0.06256172
0.13195645 0.63258814 0.06256172
0.18761955 0.63258814 0.06256172
0.23781397 0.63258814 0.06256172
0.28454456 0.63258814 0.06256172
0.32875936 0.63258814 0.06256172
0.37101146 0.63258814 0.06256172
0.41166240 0.63258814 0.06256172
0.45096638 0.63258814 0.06256172
0.48911149 0.63258814 0.06256172
0.52624221 0.63258814 0.06256172
0.56247288 0.63258814 0.06256172
0.59789605 0.63258814 0.06256172
0.63258814 0.63258814 0.06256172
0.66661318 0.63258814 0.06256172
0.70002561 0.63258814 0.06256172
0.73287221 0.63258814 0.06256172
0.76519360 0.63258814 0.06256172
0.79702534 0.63258814 0.06256172
0.82839882 0.63258814 0.06256172
0.85934192 0.63258814 0.06256208
0.88987957 0.63258814 0.06256172
0.91886608 0.63258814 0.06256172
0.91886608 0.63258814 0.06256172
0.91886608 0.63258814 0.06256172
0.91886608 0.63258814 0.06256172
0.91886608 0.63258814 0.06256172
0.91886608 0.63258814 0.06256172
0.91886608 0.63258814 0.06256172
0.91886608 0.63258814 0.06256172
0.91886608 0.63258814 0.06256245
0.06256172 0.66661318 0.06256172
0.06256172 0.66661318 0.06256172
0.06256172 0.66661318 0.06256172
0.13195645 0.66661318 0.06256172
0.18761955 0.66661318 0.06256172
0.23781397 0.66661318 0.06256172
0.28454456 0.66661318 0.06256172
0.32875936 0.66661318 0.06256172
0.37101146 0.66661318 0.06256172
0.41166240 0.66661318 0.06256172
0.45096638 0.66661318 0.06256172
0.48911149 0.66661318 0.06256172
0.52624221 0.66661318 0.06256172
0.56247288 0.66661318 0.06256172
0.59789605 0.66661318 0.06256200
0.63258814 0.66661318 0.06256200
0.66661318 0.66661318 0.06256172
0.70002561 0.66661318 0.06256172
0.73287221 0.66661318 0.06256172
0.76519360 0.66661318 0.06256172
0.79702534 0.66661318 0.06256172
0.82839882 0.66661318 0.06256172
0.85934192 0.66661318 0.06256208
0.88987957 0.66661318 0.06256172
0.91886608 0.66661318 0.06256172
0.91886608 0.66661318 0.06256172
0.91886608 0.66661318 0.06256172
0.91886608 0.66661318 0.06256172
0.91886608 0.66661318 0.06256172
0.91886608 0.66661318 0.06256172
0.91886608 0.66661318 0.06256172
0.91886608 0.66661318 0.06256172
0.91886608 0.66661318 0.06256172
0.06256205 0.70002561 0.06256172
0.06256205 0.70002561 0.06256172
0.06256205 0.70002561 0.06256172
0.13195645 0.70002561 0.06256172
0.18761955 0.70002561 0.06256172
0.23781397 0.70002561 0.06256172
0.28454456 0.70002561 0.06256172
0.32875936 0.70002561 0.06256172
0.37101146 0.70002561 0.06256200
0.41166240 0.70002561 0.06256172
0.45096638 0.70002561 0.06256200
0.48911149 0.70002561 0.06256200
0.52624221 0.70002561 0.06256172
0.56247288 0.70002561 0.06256200
0.59789605 0.70002561 0.06256172
0.63258814 0.70002561 0.06256172
0.66661318 0.70002561 0.06256204
0.70002561 0.70002561 0.06256172
0.73287221 0.70002561 0.06256172
0.76519360 0.70002561 0.06256172
0.79702534 0.70002561 0.06256172
0.82839882 0.70002561 0.06256208
0.85934192 0.70002561 0.06256172
0.88987957 0.70002561 0.06256172
0.91886608 0.70002561 0.06256172
0.91886608 0.70002561 0.06256172
0.91886608 0.70002561 0.06256172
0.91886608 0.70002561 0.06256227
0.91886608 0.70002561 0.06256227
0.91886608 0.70002561 0.06256172
0.91886608 0.70002561 0.06256172
0.91886608 0.70002561 0.06256245
0.91886608 0.70002561 0.06256245
0.06256209 0.73287221 0.06256172
0.06256209 0.73287221 0.06256172
0.06256209 0.73287221 0.06256172
0.13195645 0.73287221 0.06256172
0.18761955 0.73287221 0.06256172
0.23781397 0.73287221 0.06256172
0.28454456 0.73287221 0.06256172
0.32875936 0.73287221 0.06256172
0.37101146 0.73287221 0.06256172
0.41166240 0.73287221 0.06256172
0.45096638 0.73287221 0.06256172
0.48911149 0.73287221 0.06256204
0.52624221 0.73287221 0.06256172
0.56247288 0.73287221 0.06256172
0.59789605 0.73287221 0.06256172
0.63258814 0.73287221 0.06256172
0.66661318 0.73287221 0.06256172
0.70002561 0.73287221 0.06256172
0.73287221 0.73287221 0.06256172
0.76519360 0.73287221 0.06256172
0.79702534 0.73287221 0.06256172
0.82839882 0.73287221 0.06256172
0.85934192 0.73287221 0.06256172
0.88987957 0.73287221 0.06256172
0.91886608 0.73287221 0.06256172
0.91886608 0.73287221 0.06256172
0.91886608 0.73287221 0.06256172
0.91886608 0.73287221 0.06256227
0.91886608 0.73287221 0.06256172
0.91886608 0.73287221 0.06256172
0.91886608 0.73287221 0.06256172
0.91886608 0.73287221 0.06256172
0.91886608 0.73287221 0.06256245
0.06256209 0.76519360 0.06256172
0.06256209 0.76519360 0.06256172
0.06256209 0.76519360 0.06256172
0.13195645 0.76519360 0.06256172
0.18761955 0.76519360 0.06256172
0.23781397 0.76519360 0.06256172
0.28454456 0.76519360 0.06256172
0.32875936 0.76519360 0.06256172
0.37101146 0.76519360 0.06256172
0.41166240 0.76519360 0.06256172
0.45096638 0.76519360 0.06256172
0.48911149 0.76519360 0.06256204
0.52624221 0.76519360 0.06256172
0.56247288 0.76519360 0.06256172
0.59789605 0.76519360 0.06256172
0.63258814 0.76519360 0.06256172
0.66661318 0.76519360 0.06256172
0.70002561 0.76519360 0.06256172
0.73287221 0.76519360 0.06256208
0.76519360 0.76519360 0.06256172
0.79702534 0.76519360 0.06256172
0.82839882 0.76519360 0.06256172
0.85934192 0.76519360 0.06256172
0.88987957 0.76519360 0.06256172
0.91886608 0.76519360 0.06256172
0.91886608 0.76519360 0.06256172
0.91886608 0.76519360 0.06256219
0.91886608 0.76519360 0.06256172
0.91886608 0.76519360 0.06256235
0.91886608 0.76519360 0.06256172
0.91886608 0.76519360 0.06256172
0.91886608 0.76519360 0.06256172
0.91886608 0.76519360 0.06256257
0.06256205 0.79702534 0.06256208
0.06256205 0.79702534 0.06256208
0.06256205 0.79702534 0.06256208
0.13195645 0.79702534 0.06256172
0.18761955 0.79702534 0.06256172
0.23781397 0.79702534 0.06256172
0.28454456 0.79702534 0.06256208
0.32875936 0.79702534 0.06256172
0.37101146 0.79702534 0.06256208
0.41166240 0.79702534 0.06256172
0.45096638 0.79702534 0.06256208
0.48911149 0.79702534 0.06256208
0.52624221 0.79702534 0.06256172
0.56247288 0.79702534 0.06256208
0.59789605 0.79702534 0.06256172
0.63258814 0.79702534 0.06256172
0.66661318 0.79702534 0.06256208
0.70002561 0.79702534 0.06256172
0.73287221 0.79702534 0.06256208
0.76519360 0.79702534 0.06256172
0.79702534 0.79702534 0.06256172
0.82839882 0.79702534 0.06256172
0.85934192 0.79702534 0.06256172
0.88987957 0.79702534 0.06256172
0.91886608 0.79702534 0.06256172
0.91886608 0.79702534 0.06256172
0.91886608 0.79702534 0.06256172
0.91886608 0.79702534 0.06256227
0.91886608 0.79702534 0.06256172
0.91886608 0.79702534 0.06256172
0.91886608 0.79702534 0.06256235
0.91886608 0.79702534 0.06256245
0.91886608 0.79702534 0.06256172
0.06256200 0.82839882 0.06256172
0.06256200 0.82839882 0.06256172
0.06256200 0.82839882 0.06256172
0.13195645 0.82839882 0.06256172
0.18761955 0.82839882 0.06256208
0.23781397 0.82839882 0.06256208
0.28454456 0.82839882 0.06256172
0.32875936 0.82839882 0.06256172
0.37101146 0.82839882 0.06256208
0.41166240 0.82839882 0.06256172
0.45096638 0.82839882 0.06256208
0.48911149 0.82839882 0.06256172
0.52624221 0.82839882 0.06256172
0.56247288 0.82839882 0.06256208
0.59789605 0.82839882 0.06256208
0.63258814 0.82839882 0.06256172
0.66661318 0.82839882 0.06256172
0.70002561 0.82839882 0.06256208
0.73287221 0.82839882 0.06256172
0.76519360 0.82839882 0.06256172
0.79702534 0.82839882 0.06256172
0.82839882 0.82839882 0.06256172
0.85934192 0.82839882 0.06256172
0.88987957 0.82839882 0.06256172
0.91886608 0.82839882 0.06256219
0.91886608 0.82839882 0.06256172
0.91886608 0.82839882 0.06256172
