src/ffmpeg_scripts/luts/luminance-unclipped_2p00.cube
TITLE "luminance-unclipped_2p00"
LUT_3D_SIZE 5
# PQ (EOTF Only)/Rec2020 -> PQ (EOTF Only)/Rec2020, CineEI Shift 2.00, Black Level -7.25% IRE, Input 109% -> Output 109% - Created with LUTCalc v4.01 by Ben Turley October 2020
0.00047898 0.00047898 0.00047898
0.31925506 0.00047898 0.00047898
0.65099763 0.00047927 0.00047927
0.91886608 0.00047898 0.00047898
0.91886608 0.00047967 0.00047898
0.00047898 0.31925506 0.00047898
0.31925506 0.31925506 0.00047898
0.65099763 0.31925506 0.00047898
0.91886608 0.31925506 0.00047898
0.91886608 0.31925506 0.00047898
0.00047925 0.65099763 0.00047898
0.31925506 0.65099763 0.00047898
0.65099763 0.65099763 0.00047898
0.91886608 0.65099763 0.00047898
0.91886608 0.65099763 0.00047898
0.00047950 0.91886608 0.00047898
0.31925506 0.91886608 0.00047898
0.65099763 0.91886608 0.00047898
0.91886608 0.91886608 0.00047898
0.91886608 0.91886608 0.00047983
0.00047997 0.91886608 0.00047898
0.31925506 0.91886608 0.00047983
0.65099763 0.91886608 0.00047898
0.91886608 0.91886608 0.00047898
0.91886608 0.91886608 0.00047898
0.00047898 0.00047918 0.31925506
0.31925506 0.00047918 0.31925506
0.65099763 0.00047923 0.31925506
0.91886608 0.00047940 0.31925506
0.91886608 0.00047961 0.31925506
0.00047898 0.31925506 0.31925506
0.31925506 0.31925506 0.31925506
0.65099763 0.31925506 0.31925506
0.91886608 0.31925506 0.31925506
0.91886608 0.31925506 0.31925506
0.00047928 0.65099763 0.31925506
0.31925506 0.65099763 0.31925506
0.65099763 0.65099763 0.31925506
0.91886608 0.65099763 0.31925506
0.91886608 0.65099763 0.31925506
0.00047951 0.91886608 0.31925506
0.31925506 0.91886608 0.31925506
0.65099763 0.91886608 0.31925506
0.91886608 0.91886608 0.31925506
0.91886608 0.91886608 0.31925506
0.00047994 0.91886608 0.31925506
0.31925506 0.91886608 0.31925506
0.65099763 0.91886608 0.31925506
0.91886608 0.91886608 0.31925506
0.91886608 0.91886608 0.31925506
0.00047898 0.00047935 0.65099763
0.31925506 0.00047935 0.65099763
0.65099763 0.00047935 0.65099763
0.91886608 0.00047946 0.65099763
0.91886608 0.00047998 0.65099763
0.00047898 0.31925506 0.65099763
0.31925506 0.31925506 0.65099763
0.65099763 0.31925506 0.65099763
0.91886608 0.31925506 0.65099763
0.91886608 0.31925506 0.65099763
0.00047898 0.65099763 0.65099763
0.31925506 0.65099763 0.65099763
0.65099763 0.65099763 0.65099763
0.91886608 0.65099763 0.65099763
0.91886608 0.65099763 0.65099763
0.00047959 0.91886608 0.65099763
0.31925506 0.91886608 0.65099763
0.65099763 0.91886608 0.65099763
0.91886608 0.91886608 0.65099763
0.91886608 0.91886608 0.65099763
0.00047898 0.91886608 0.65099763
0.31925506 0.91886608 0.65099763
0.65099763 0.91886608 0.65099763
0.91886608 0.91886608 0.65099763
0.91886608 0.91886608 0.65099763
0.00047898 0.00047961 0.91886608
0.31925506 0.00047961 0.91886608
0.65099763 0.00047961 0.91886608
0.91886608 0.00047961 0.91886608
0.91886608 0.00047898 0.91886608
0.00047898 0.31925506 0.91886608
0.31925506 0.31925506 0.91886608
0.65099763 0.31925506 0.91886608
0.91886608 0.31925506 0.91886608
0.91886608 0.31925506 0.91886608
0.00047898 0.65099763 0.91886608
0.31925506 0.65099763 0.91886608
0.65099763 0.65099763 0.91886608
0.91886608 0.65099763 0.91886608
0.91886608 0.65099763 0.91886608
0.00047898 0.91886608 0.91886608
0.31925506 0.91886608 0.91886608
0.65099763 0.91886608 0.91886608
0.91886608 0.91886608 0.91886608
0.91886608 0.91886608 0.91886608
0.00047975 0.91886608 0.91886608
0.31925506 0.91886608 0.91886608
0.65099763 0.91886608 0.91886608
0.91886608 0.91886608 0.91886608
0.91886608 0.91886608 0.91886608
0.00047898 0.00048014 0.91886608
0.31925506 0.00048014 0.91886608
0.65099763 0.00048034 0.91886608
0.91886608 0.00048034 0.91886608
0.91886608 0.00047898 0.91886608
0.00047898 0.31925506 0.91886608
0.31925506 0.31925506 0.91886608
0.65099763 0.31925506 0.91886608
0.91886608 0.31925506 0.91886608
0.91886608 0.31925506 0.91886608
0.00047898 0.65099763 0.91886608
0.31925506 0.65099763 0.91886608
0.65099763 0.65099763 0.91886608
0.91886608 0.65099763 0.91886608
0.91886608 0.65099763 0.91886608
0.00047997 0.91886608 0.91886608
0.31925506 0.91886608 0.91886608
0.65099763 0.91886608 0.91886608
0.91886608 0.91886608 0.91886608
0.91886608 0.91886608 0.91886608
0.00047997 0.91886608 0.91886608
0.31925506 0.91886608 0.91886608
0.65099763 0.91886608 0.91886608
0.91886608 0.91886608 0.91886608
0.91886608 0.91886608 0.91886608
