src/ffmpeg_scripts/luts/luminance_-1p00.cube
TITLE "luminance_-1p00"
LUT_3D_SIZE 9
# PQ (EOTF Only)/Rec2020 -> PQ (EOTF Only)/Rec2020, CineEI Shift -1.00, Black Level 0.00% IRE, Input 109% -> Output 109% - Created with LUTCalc v4.01 by Ben Turley October 2020
0.06256172 0.06256172 0.06256172
0.10918008 0.06256176 0.06256172
0.21365443 0.06256172 0.06256172
0.32534079 0.06256172 0.06256172
0.44182077 0.06256191 0.06256172
0.56201458 0.06256192 0.06256172
0.68528608 0.06256198 0.06256172
0.81120901 0.06256172 0.06256172
0.91886608 0.06256221 0.06256219
0.06256178 0.10918008 0.06256172
0.10918008 0.10918008 0.06256172
0.21365443 0.10918008 0.06256172
0.32534079 0.10918008 0.06256172
0.44182077 0.10918008 0.06256172
0.56201458 0.10918008 0.06256172
0.68528608 0.10918008 0.06256172
0.81120901 0.10918008 0.06256208
0.91886608 0.10918008 0.06256172
0.06256172 0.21365443 0.06256172
0.10918008 0.21365443 0.06256172
0.21365443 0.21365443 0.06256172
0.32534079 0.21365443 0.06256172
0.44182077 0.21365443 0.06256172
0.56201458 0.21365443 0.06256172
0.68528608 0.21365443 0.06256172
0.81120901 0.21365443 0.06256172
0.91886608 0.21365443 0.06256172
0.06256186 0.32534079 0.06256185
0.10918008 0.32534079 0.06256172
0.21365443 0.32534079 0.06256172
0.32534079 0.32534079 0.06256187
0.44182077 0.32534079 0.06256172
0.56201458 0.32534079 0.06256172
0.68528608 0.32534079 0.06256172
0.81120901 0.32534079 0.06256208
0.91886608 0.32534079 0.06256172
0.06256172 0.44182077 0.06256172
0.10918008 0.44182077 0.06256172
0.21365443 0.44182077 0.06256172
0.32534079 0.44182077 0.06256172
0.44182077 0.44182077 0.06256172
0.56201458 0.44182077 0.06256172
0.68528608 0.44182077 0.06256172
0.81120901 0.44182077 0.06256172
0.91886608 0.44182077 0.06256172
0.06256187 0.56201458 0.06256172
0.10918008 0.56201458 0.06256172
0.21365443 0.56201458 0.06256172
0.32534079 0.56201458 0.06256172
0.44182077 0.56201458 0.06256194
0.56201458 0.56201458 0.06256172
0.68528608 0.56201458 0.06256172
0.81120901 0.56201458 0.06256172
0.91886608 0.56201458 0.06256172
0.06256201 0.68528608 0.06256172
0.10918008 0.68528608 0.06256172
0.21365443 0.68528608 0.06256172
0.32534079 0.68528608 0.06256172
0.44182077 0.68528608 0.06256172
0.56201458 0.68528608 0.06256200
0.68528608 0.68528608 0.06256172
0.81120901 0.68528608 0.06256208
0.91886608 0.68528608 0.06256219
0.06256219 0.81120901 0.06256172
0.10918008 0.81120901 0.06256172
0.21365443 0.81120901 0.06256172
0.32534079 0.81120901 0.06256172
0.44182077 0.81120901 0.06256172
0.56201458 0.81120901 0.06256172
0.68528608 0.81120901 0.06256172
0.81120901 0.81120901 0.06256172
0.91886608 0.81120901 0.06256172
0.06256227 0.91886608 0.06256172
0.10918008 0.91886608 0.06256172
0.21365443 0.91886608 0.06256172
0.32534079 0.91886608 0.06256172
0.44182077 0.91886608 0.06256172
0.56201458 0.91886608 0.06256172
0.68528608 0.91886608 0.06256172
0.81120901 0.91886608 0.06256172
0.91886608 0.91886608 0.06256172
0.06256172 0.06256180 0.10918008
0.10918008 0.06256179 0.10918008
0.21365443 0.06256172 0.10918008
0.32534079 0.06256172 0.10918008
0.44182077 0.06256192 0.10918008
0.56201458 0.06256172 0.10918008
0.68528608 0.06256194 0.10918008
0.81120901 0.06256202 0.10918008
0.91886608 0.06256213 0.10918008
0.06256179 0.10918008 0.10918008
0.10918008 0.10918008 0.10918008
0.21365443 0.10918008 0.10918008
0.32534079 0.10918008 0.10918008
0.44182077 0.10918008 0.10918008
0.56201458 0.10918008 0.10918008
0.68528608 0.10918008 0.10918008
0.81120901 0.10918008 0.10918008
0.91886608 0.10918008 0.10918008
0.06256182 0.21365443 0.10918008
0.10918008 0.21365443 0.10918008
0.21365443 0.21365443 0.10918008
0.32534079 0.21365443 0.10918008
0.44182077 0.21365443 0.10918008
0.56201458 0.21365443 0.10918008
0.68528608 0.21365443 0.10918008
0.81120901 0.21365443 0.10918008
0.91886608 0.21365443 0.10918008
0.06256186 0.32534079 0.10918008
0.10918008 0.32534079 0.10918008
0.21365443 0.32534079 0.10918008
0.32534079 0.32534079 0.10918008
0.44182077 0.32534079 0.10918008
0.56201458 0.32534079 0.10918008
0.68528608 0.32534079 0.10918008
0.81120901 0.32534079 0.10918008
0.91886608 0.32534079 0.10918008
0.06256191 0.44182077 0.10918008
0.10918008 0.44182077 0.10918008
0.21365443 0.44182077 0.10918008
0.32534079 0.44182077 0.10918008
0.44182077 0.44182077 0.10918008
0.56201458 0.44182077 0.10918008
0.68528608 0.44182077 0.10918008
0.81120901 0.44182077 0.10918008
0.91886608 0.44182077 0.10918008
0.06256195 0.56201458 0.10918008
0.10918008 0.56201458 0.10918008
0.21365443 0.56201458 0.10918008
0.32534079 0.56201458 0.10918008
0.44182077 0.56201458 0.10918008
0.56201458 0.56201458 0.10918008
0.68528608 0.56201458 0.10918008
0.81120901 0.56201458 0.10918008
0.91886608 0.56201458 0.10918008
0.06256203 0.68528608 0.10918008
0.10918008 0.68528608 0.10918008
0.21365443 0.68528608 0.10918008
0.32534079 0.68528608 0.10918008
0.44182077 0.68528608 0.10918008
0.56201458 0.68528608 0.10918008
0.68528608 0.68528608 0.10918008
0.81120901 0.68528608 0.10918008
0.91886608 0.68528608 0.10918008
0.06256215 0.81120901 0.10918008
0.10918008 0.81120901 0.10918008
0.21365443 0.81120901 0.10918008
0.32534079 0.81120901 0.10918008
0.44182077 0.81120901 0.10918008
0.56201458 0.81120901 0.10918008
0.68528608 0.81120901 0.10918008
0.81120901 0.81120901 0.10918008
0.91886608 0.81120901 0.10918008
0.06256224 0.91886608 0.10918008
0.10918008 0.91886608 0.10918008
0.21365443 0.91886608 0.10918008
0.32534079 0.91886608 0.10918008
0.44182077 0.91886608 0.10918008
0.56201458 0.91886608 0.10918008
0.68528608 0.91886608 0.10918008
0.81120901 0.91886608 0.10918008
0.91886608 0.91886608 0.10918008
0.06256172 0.06256172 0.21365443
0.10918008 0.06256172 0.21365443
0.21365443 0.06256184 0.21365443
0.32534079 0.06256172 0.21365443
0.44182077 0.06256189 0.21365443
0.56201458 0.06256193 0.21365443
0.68528608 0.06256194 0.21365443
0.81120901 0.06256172 0.21365443
0.91886608 0.06256221 0.21365443
0.06256172 0.10918008 0.21365443
0.10918008 0.10918008 0.21365443
0.21365443 0.10918008 0.21365443
0.32534079 0.10918008 0.21365443
0.44182077 0.10918008 0.21365443
0.56201458 0.10918008 0.21365443
0.68528608 0.10918008 0.21365443
0.81120901 0.10918008 0.21365443
0.91886608 0.10918008 0.21365443
0.06256172 0.21365443 0.21365443
0.10918008 0.21365443 0.21365443
0.21365443 0.21365443 0.21365443
0.32534079 0.21365443 0.21365443
0.44182077 0.21365443 0.21365443
0.56201458 0.21365443 0.21365443
0.68528608 0.21365443 0.21365443
0.81120901 0.21365443 0.21365443
0.91886608 0.21365443 0.21365443
0.06256187 0.32534079 0.21365443
0.10918008 0.32534079 0.21365443
0.21365443 0.32534079 0.21365443
0.32534079 0.32534079 0.21365443
0.44182077 0.32534079 0.21365443
0.56201458 0.32534079 0.21365443
0.68528608 0.32534079 0.21365443
0.81120901 0.32534079 0.21365443
0.91886608 0.32534079 0.21365443
0.06256190 0.44182077 0.21365443
0.10918008 0.44182077 0.21365443
0.21365443 0.44182077 0.21365443
0.32534079 0.44182077 0.21365443
0.44182077 0.44182077 0.21365443
0.56201458 0.44182077 0.21365443
0.68528608 0.44182077 0.21365443
0.81120901 0.44182077 0.21365443
0.91886608 0.44182077 0.21365443
0.06256198 0.56201458 0.21365443
0.10918008 0.56201458 0.21365443
0.21365443 0.56201458 0.21365443
0.32534079 0.56201458 0.21365443
0.44182077 0.56201458 0.21365443
0.56201458 0.56201458 0.21365443
0.68528608 0.56201458 0.21365443
0.81120901 0.56201458 0.21365443
0.91886608 0.56201458 0.21365443
0.06256202 0.68528608 0.21365443
0.10918008 0.68528608 0.21365443
0.21365443 0.68528608 0.21365443
0.32534079 0.68528608 0.21365443
0.44182077 0.68528608 0.21365443
0.56201458 0.68528608 0.21365443
0.68528608 0.68528608 0.21365443
0.81120901 0.68528608 0.21365443
0.91886608 0.68528608 0.21365443
0.06256221 0.81120901 0.21365443
0.10918008 0.81120901 0.21365443
0.21365443 0.81120901 0.21365443
0.32534079 0.81120901 0.21365443
0.44182077 0.81120901 0.21365443
0.56201458 0.81120901 0.21365443
0.68528608 0.81120901 0.21365443
0.81120901 0.81120901 0.21365443
0.91886608 0.81120901 0.21365443
0.06256224 0.91886608 0.21365443
0.10918008 0.91886608 0.21365443
0.21365443 0.91886608 0.21365443
0.32534079 0.91886608 0.21365443
0.44182077 0.91886608 0.21365443
0.56201458 0.91886608 0.21365443
0.68528608 0.91886608 0.21365443
0.81120901 0.91886608 0.21365443
0.91886608 0.91886608 0.21365443
0.06256172 0.06256189 0.32534079
0.10918008 0.06256172 0.32534079
0.21365443 0.06256172 0.32534079
0.32534079 0.06256191 0.32534079
0.44182077 0.06256172 0.32534079
0.56201458 0.06256197 0.32534079
0.68528608 0.06256194 0.32534079
0.81120901 0.06256172 0.32534079
0.91886608 0.06256218 0.32534079
0.06256172 0.10918008 0.32534079
0.10918008 0.10918008 0.32534079
0.21365443 0.10918008 0.32534079
0.32534079 0.10918008 0.32534079
0.44182077 0.10918008 0.32534079
0.56201458 0.10918008 0.32534079
0.68528608 0.10918008 0.32534079
0.81120901 0.10918008 0.32534079
0.91886608 0.10918008 0.32534079
0.06256172 0.21365443 0.32534079
0.10918008 0.21365443 0.32534079
0.21365443 0.21365443 0.32534079
0.32534079 0.21365443 0.32534079
0.44182077 0.21365443 0.32534079
0.56201458 0.21365443 0.32534079
0.68528608 0.21365443 0.32534079
0.81120901 0.21365443 0.32534079
0.91886608 0.21365443 0.32534079
0.06256187 0.32534079 0.32534079
0.10918008 0.32534079 0.32534079
0.21365443 0.32534079 0.32534079
0.32534079 0.32534079 0.32534079
0.44182077 0.32534079 0.32534079
0.56201458 0.32534079 0.32534079
0.68528608 0.32534079 0.32534079
0.81120901 0.32534079 0.32534079
0.91886608 0.32534079 0.32534079
0.06256190 0.44182077 0.32534079
0.10918008 0.44182077 0.32534079
0.21365443 0.44182077 0.32534079
0.32534079 0.44182077 0.32534079
0.44182077 0.44182077 0.32534079
0.56201458 0.44182077 0.32534079
0.68528608 0.44182077 0.32534079
0.81120901 0.44182077 0.32534079
0.91886608 0.44182077 0.32534079
0.06256193 0.56201458 0.32534079
0.10918008 0.56201458 0.32534079
0.21365443 0.56201458 0.32534079
0.32534079 0.56201458 0.32534079
0.44182077 0.56201458 0.32534079
0.56201458 0.56201458 0.32534079
0.68528608 0.56201458 0.32534079
0.81120901 0.56201458 0.32534079
0.91886608 0.56201458 0.32534079
0.06256202 0.68528608 0.32534079
0.10918008 0.68528608 0.32534079
0.21365443 0.68528608 0.32534079
0.32534079 0.68528608 0.32534079
0.44182077 0.68528608 0.32534079
0.56201458 0.68528608 0.32534079
0.68528608 0.68528608 0.32534079
0.81120901 0.68528608 0.32534079
0.91886608 0.68528608 0.32534079
0.06256217 0.81120901 0.32534079
0.10918008 0.81120901 0.32534079
0.21365443 0.81120901 0.32534079
0.32534079 0.81120901 0.32534079
0.44182077 0.81120901 0.32534079
0.56201458 0.81120901 0.32534079
0.68528608 0.81120901 0.32534079
0.81120901 0.81120901 0.32534079
0.91886608 0.81120901 0.32534079
0.06256225 0.91886608 0.32534079
0.10918008 0.91886608 0.32534079
0.21365443 0.91886608 0.32534079
0.32534079 0.91886608 0.32534079
0.44182077 0.91886608 0.32534079
0.56201458 0.91886608 0.32534079
0.68528608 0.91886608 0.32534079
0.81120901 0.91886608 0.32534079
0.91886608 0.91886608 0.32534079
0.06256172 0.06256172 0.44182077
0.10918008 0.06256194 0.44182077
0.21365443 0.06256194 0.44182077
0.32534079 0.06256172 0.44182077
0.44182077 0.06256197 0.44182077
0.56201458 0.06256172 0.44182077
0.68528608 0.06256200 0.44182077
0.81120901 0.06256206 0.44182077
0.91886608 0.06256226 0.44182077
0.06256172 0.10918008 0.44182077
0.10918008 0.10918008 0.44182077
0.21365443 0.10918008 0.44182077
0.32534079 0.10918008 0.44182077
0.44182077 0.10918008 0.44182077
0.56201458 0.10918008 0.44182077
0.68528608 0.10918008 0.44182077
0.81120901 0.10918008 0.44182077
0.91886608 0.10918008 0.44182077
0.06256172 0.21365443 0.44182077
0.10918008 0.21365443 0.44182077
0.21365443 0.21365443 0.44182077
0.32534079 0.21365443 0.44182077
0.44182077 0.21365443 0.44182077
0.56201458 0.21365443 0.44182077
0.68528608 0.21365443 0.44182077
0.81120901 0.21365443 0.44182077
0.91886608 0.21365443 0.44182077
0.06256172 0.32534079 0.44182077
0.10918008 0.32534079 0.44182077
0.21365443 0.32534079 0.44182077
0.32534079 0.32534079 0.44182077
0.44182077 0.32534079 0.44182077
0.56201458 0.32534079 0.44182077
0.68528608 0.32534079 0.44182077
0.81120901 0.32534079 0.44182077
0.91886608 0.32534079 0.44182077
0.06256172 0.44182077 0.44182077
0.10918008 0.44182077 0.44182077
0.21365443 0.44182077 0.44182077
0.32534079 0.44182077 0.44182077
0.44182077 0.44182077 0.44182077
0.56201458 0.44182077 0.44182077
0.68528608 0.44182077 0.44182077
0.81120901 0.44182077 0.44182077
0.91886608 0.44182077 0.44182077
0.06256198 0.56201458 0.44182077
0.10918008 0.56201458 0.44182077
0.21365443 0.56201458 0.44182077
0.32534079 0.56201458 0.44182077
0.44182077 0.56201458 0.44182077
0.56201458 0.56201458 0.44182077
0.68528608 0.56201458 0.44182077
0.81120901 0.56201458 0.44182077
0.91886608 0.56201458 0.44182077
0.06256209 0.68528608 0.44182077
0.10918008 0.68528608 0.44182077
0.21365443 0.68528608 0.44182077
0.32534079 0.68528608 0.44182077
0.44182077 0.68528608 0.44182077
0.56201458 0.68528608 0.44182077
0.68528608 0.68528608 0.44182077
0.81120901 0.68528608 0.44182077
0.91886608 0.68528608 0.44182077
0.06256217 0.81120901 0.44182077
0.10918008 0.81120901 0.44182077
0.21365443 0.81120901 0.44182077
0.32534079 0.81120901 0.44182077
0.44182077 0.81120901 0.44182077
0.56201458 0.81120901 0.44182077
0.68528608 0.81120901 0.44182077
0.81120901 0.81120901 0.44182077
0.91886608 0.81120901 0.44182077
0.06256226 0.91886608 0.44182077
0.10918008 0.91886608 0.44182077
0.21365443 0.91886608 0.44182077
0.32534079 0.91886608 0.44182077
0.44182077 0.91886608 0.44182077
0.56201458 0.91886608 0.44182077
0.68528608 0.91886608 0.44182077
0.81120901 0.91886608 0.44182077
0.91886608 0.91886608 0.44182077
0.06256172 0.06256200 0.56201458
0.10918008 0.06256200 0.56201458
0.21365443 0.06256204 0.56201458
0.32534079 0.06256200 0.56201458
0.44182077 0.06256204 0.56201458
0.56201458 0.06256206 0.56201458
0.68528608 0.06256172 0.56201458
0.81120901 0.06256204 0.56201458
0.91886608 0.06256172 0.56201458
0.06256172 0.10918008 0.56201458
0.10918008 0.10918008 0.56201458
0.21365443 0.10918008 0.56201458
0.32534079 0.10918008 0.56201458
0.44182077 0.10918008 0.56201458
0.56201458 0.10918008 0.56201458
0.68528608 0.10918008 0.56201458
0.81120901 0.10918008 0.56201458
0.91886608 0.10918008 0.56201458
0.06256197 0.21365443 0.56201458
0.10918008 0.21365443 0.56201458
0.21365443 0.21365443 0.56201458
0.32534079 0.21365443 0.56201458
0.44182077 0.21365443 0.56201458
0.56201458 0.21365443 0.56201458
0.68528608 0.21365443 0.56201458
0.81120901 0.21365443 0.56201458
0.91886608 0.21365443 0.56201458
0.06256172 0.32534079 0.56201458
0.10918008 0.32534079 0.56201458
0.21365443 0.32534079 0.56201458
0.32534079 0.32534079 0.56201458
0.44182077 0.32534079 0.56201458
0.56201458 0.32534079 0.56201458
0.68528608 0.32534079 0.56201458
0.81120901 0.32534079 0.56201458
0.91886608 0.32534079 0.56201458
0.06256172 0.44182077 0.56201458
0.10918008 0.44182077 0.56201458
0.21365443 0.44182077 0.56201458
0.32534079 0.44182077 0.56201458
0.44182077 0.44182077 0.56201458
0.56201458 0.44182077 0.56201458
0.68528608 0.44182077 0.56201458
0.81120901 0.44182077 0.56201458
0.91886608 0.44182077 0.56201458
0.06256197 0.56201458 0.56201458
0.10918008 0.56201458 0.56201458
0.21365443 0.56201458 0.56201458
0.32534079 0.56201458 0.56201458
0.44182077 0.56201458 0.56201458
0.56201458 0.56201458 0.56201458
0.68528608 0.56201458 0.56201458
0.81120901 0.56201458 0.56201458
0.91886608 0.56201458 0.56201458
0.06256206 0.68528608 0.56201458
0.10918008 0.68528608 0.56201458
0.21365443 0.68528608 0.56201458
0.32534079 0.68528608 0.56201458
0.44182077 0.68528608 0.56201458
0.56201458 0.68528608 0.56201458
0.68528608 0.68528608 0.56201458
0.81120901 0.68528608 0.56201458
0.91886608 0.68528608 0.56201458
0.06256216 0.81120901 0.56201458
0.10918008 0.81120901 0.56201458
0.21365443 0.81120901 0.56201458
0.32534079 0.81120901 0.56201458
0.44182077 0.81120901 0.56201458
0.56201458 0.81120901 0.56201458
0.68528608 0.81120901 0.56201458
0.81120901 0.81120901 0.56201458
0.91886608 0.81120901 0.56201458
0.06256236 0.91886608 0.56201458
0.10918008 0.91886608 0.56201458
0.21365443 0.91886608 0.56201458
0.32534079 0.91886608 0.56201458
0.44182077 0.91886608 0.56201458
0.56201458 0.91886608 0.56201458
0.68528608 0.91886608 0.56201458
0.81120901 0.91886608 0.56201458
0.91886608 0.91886608 0.56201458
0.06256172 0.06256172 0.68528608
0.10918008 0.06256172 0.68528608
0.21365443 0.06256172 0.68528608
0.32534079 0.06256208 0.68528608
0.44182077 0.06256172 0.68528608
0.56201458 0.06256172 0.68528608
0.68528608 0.06256172 0.68528608
0.81120901 0.06256172 0.68528608
0.91886608 0.06256172 0.68528608
0.06256172 0.10918008 0.68528608
0.10918008 0.10918008 0.68528608
0.21365443 0.10918008 0.68528608
0.32534079 0.10918008 0.68528608
0.44182077 0.10918008 0.68528608
0.56201458 0.10918008 0.68528608
0.68528608 0.10918008 0.68528608
0.81120901 0.10918008 0.68528608
0.91886608 0.10918008 0.68528608
0.06256172 0.21365443 0.68528608
0.10918008 0.21365443 0.68528608
0.21365443 0.21365443 0.68528608
0.32534079 0.21365443 0.68528608
0.44182077 0.21365443 0.68528608
0.56201458 0.21365443 0.68528608
0.68528608 0.21365443 0.68528608
0.81120901 0.21365443 0.68528608
0.91886608 0.21365443 0.68528608
0.06256172 0.32534079 0.68528608
0.10918008 0.32534079 0.68528608
0.21365443 0.32534079 0.68528608
0.32534079 0.32534079 0.68528608
0.44182077 0.32534079 0.68528608
0.56201458 0.32534079 0.68528608
0.68528608 0.32534079 0.68528608
0.81120901 0.32534079 0.68528608
0.91886608 0.32534079 0.68528608
0.06256172 0.44182077 0.68528608
0.10918008 0.44182077 0.68528608
0.21365443 0.44182077 0.68528608
0.32534079 0.44182077 0.68528608
0.44182077 0.44182077 0.68528608
0.56201458 0.44182077 0.68528608
0.68528608 0.44182077 0.68528608
0.81120901 0.44182077 0.68528608
0.91886608 0.44182077 0.68528608
0.06256172 0.56201458 0.68528608
0.10918008 0.56201458 0.68528608
0.21365443 0.56201458 0.68528608
0.32534079 0.56201458 0.68528608
0.44182077 0.56201458 0.68528608
0.56201458 0.56201458 0.68528608
0.68528608 0.56201458 0.68528608
0.81120901 0.56201458 0.68528608
0.91886608 0.56201458 0.68528608
0.06256172 0.68528608 0.68528608
0.10918008 0.68528608 0.68528608
0.21365443 0.68528608 0.68528608
0.32534079 0.68528608 0.68528608
0.44182077 0.68528608 0.68528608
0.56201458 0.68528608 0.68528608
0.68528608 0.68528608 0.68528608
0.81120901 0.68528608 0.68528608
0.91886608 0.68528608 0.68528608
0.06256213 0.81120901 0.68528608
0.10918008 0.81120901 0.68528608
0.21365443 0.81120901 0.68528608
0.32534079 0.81120901 0.68528608
0.44182077 0.81120901 0.68528608
0.56201458 0.81120901 0.68528608
0.68528608 0.81120901 0.68528608
0.81120901 0.81120901 0.68528608
0.91886608 0.81120901 0.68528608
0.06256229 0.91886608 0.68528608
0.10918008 0.91886608 0.68528608
0.21365443 0.91886608 0.68528608
0.32534079 0.91886608 0.68528608
0.44182077 0.91886608 0.68528608
0.56201458 0.91886608 0.68528608
0.68528608 0.91886608 0.68528608
0.81120901 0.91886608 0.68528608
0.91886608 0.91886608 0.68528608
0.06256172 0.06256227 0.81120901
0.10918008 0.06256219 0.81120901
0.21365443 0.06256219 0.81120901
0.32534079 0.06256227 0.81120901
0.44182077 0.06256172 0.81120901
0.56201458 0.06256172 0.81120901
0.68528608 0.06256219 0.81120901
0.81120901 0.06256227 0.81120901
0.91886608 0.06256227 0.81120901
0.06256172 0.10918008 0.81120901
0.10918008 0.10918008 0.81120901
0.21365443 0.10918008 0.81120901
0.32534079 0.10918008 0.81120901
0.44182077 0.10918008 0.81120901
0.56201458 0.10918008 0.81120901
0.68528608 0.10918008 0.81120901
0.81120901 0.10918008 0.81120901
0.91886608 0.10918008 0.81120901
0.06256172 0.21365443 0.81120901
0.10918008 0.21365443 0.81120901
0.21365443 0.21365443 0.81120901
0.32534079 0.21365443 0.81120901
0.44182077 0.21365443 0.81120901
0.56201458 0.21365443 0.81120901
0.68528608 0.21365443 0.81120901
0.81120901 0.21365443 0.81120901
0.91886608 0.21365443 0.81120901
0.06256172 0.32534079 0.81120901
0.10918008 0.32534079 0.81120901
0.21365443 0.32534079 0.81120901
0.32534079 0.32534079 0.81120901
0.44182077 0.32534079 0.81120901
0.56201458 0.32534079 0.81120901
0.68528608 0.32534079 0.81120901
0.81120901 0.32534079 0.81120901
0.91886608 0.32534079 0.81120901
0.06256172 0.44182077 0.81120901
0.10918008 0.44182077 0.81120901
0.21365443 0.44182077 0.81120901
0.32534079 0.44182077 0.81120901
0.44182077 0.44182077 0.81120901
0.56201458 0.44182077 0.81120901
0.68528608 0.44182077 0.81120901
0.81120901 0.44182077 0.81120901
0.91886608 0.44182077 0.81120901
0.06256172 0.56201458 0.81120901
0.10918008 0.56201458 0.81120901
0.21365443 0.56201458 0.81120901
0.32534079 0.56201458 0.81120901
0.44182077 0.56201458 0.81120901
0.56201458 0.56201458 0.81120901
0.68528608 0.56201458 0.81120901
0.81120901 0.56201458 0.81120901
0.91886608 0.56201458 0.81120901
0.06256172 0.68528608 0.81120901
0.10918008 0.68528608 0.81120901
0.21365443 0.68528608 0.81120901
0.32534079 0.68528608 0.81120901
0.44182077 0.68528608 0.81120901
0.56201458 0.68528608 0.81120901
0.68528608 0.68528608 0.81120901
0.81120901 0.68528608 0.81120901
0.91886608 0.68528608 0.81120901
0.06256172 0.81120901 0.81120901
0.10918008 0.81120901 0.81120901
0.21365443 0.81120901 0.81120901
0.32534079 0.81120901 0.81120901
0.44182077 0.81120901 0.81120901
0.56201458 0.81120901 0.81120901
0.68528608 0.81120901 0.81120901
0.81120901 0.81120901 0.81120901
0.91886608 0.81120901 0.81120901
0.06256237 0.91886608 0.81120901
0.10918008 0.91886608 0.81120901
0.21365443 0.91886608 0.81120901
0.32534079 0.91886608 0.81120901
0.44182077 0.91886608 0.81120901
0.56201458 0.91886608 0.81120901
0.68528608 0.91886608 0.81120901
0.81120901 0.91886608 0.81120901
0.91886608 0.91886608 0.81120901
0.06256172 0.06256172 0.91886608
0.10918008 0.06256172 0.91886608
0.21365443 0.06256245 0.91886608
0.32534079 0.06256235 0.91886608
0.44182077 0.06256235 0.91886608
0.56201458 0.06256235 0.91886608
0.68528608 0.06256235 0.91886608
0.81120901 0.06256235 0.91886608
0.91886608 0.06256235 0.91886608
0.06256172 0.10918008 0.91886608
0.10918008 0.10918008 0.91886608
0.21365443 0.10918008 0.91886608
0.32534079 0.10918008 0.91886608
0.44182077 0.10918008 0.91886608
0.56201458 0.10918008 0.91886608
0.68528608 0.10918008 0.91886608
0.81120901 0.10918008 0.91886608
0.91886608 0.10918008 0.91886608
0.06256172 0.21365443 0.91886608
0.10918008 0.21365443 0.91886608
0.21365443 0.21365443 0.91886608
0.32534079 0.21365443 0.91886608
0.44182077 0.21365443 0.91886608
0.56201458 0.21365443 0.91886608
0.68528608 0.21365443 0.91886608
0.81120901 0.21365443 0.91886608
0.91886608 0.21365443 0.91886608
0.06256227 0.32534079 0.91886608
0.10918008 0.32534079 0.91886608
0.21365443 0.32534079 0.91886608
0.32534079 0.32534079 0.91886608
0.44182077 0.32534079 0.91886608
0.56201458 0.32534079 0.91886608
0.68528608 0.32534079 0.91886608
0.81120901 0.32534079 0.91886608
0.91886608 0.32534079 0.91886608
0.06256172 0.44182077 0.91886608
0.10918008 0.44182077 0.91886608
0.21365443 0.44182077 0.91886608
0.32534079 0.44182077 0.91886608
0.44182077 0.44182077 0.91886608
0.56201458 0.44182077 0.91886608
0.68528608 0.44182077 0.91886608
0.81120901 0.44182077 0.91886608
0.91886608 0.44182077 0.91886608
0.06256172 0.56201458 0.91886608
0.10918008 0.56201458 0.91886608
0.21365443 0.56201458 0.91886608
0.32534079 0.56201458 0.91886608
0.44182077 0.56201458 0.91886608
0.56201458 0.56201458 0.91886608
0.68528608 0.56201458 0.91886608
0.81120901 0.56201458 0.91886608
0.91886608 0.56201458 0.91886608
0.06256172 0.68528608 0.91886608
0.10918008 0.68528608 0.91886608
0.21365443 0.68528608 0.91886608
0.32534079 0.68528608 0.91886608
0.44182077 0.68528608 0.91886608
0.56201458 0.68528608 0.91886608
0.68528608 0.68528608 0.91886608
0.81120901 0.68528608 0.91886608
0.91886608 0.68528608 0.91886608
0.06256172 0.81120901 0.91886608
0.10918008 0.81120901 0.91886608
0.21365443 0.81120901 0.91886608
0.32534079 0.81120901 0.91886608
0.44182077 0.81120901 0.91886608
0.56201458 0.81120901 0.91886608
0.68528608 0.81120901 0.91886608
0.81120901 0.81120901 0.91886608
0.91886608 0.81120901 0.91886608
0.06256227 0.91886608 0.91886608
0.10918008 0.91886608 0.91886608
0.21365443 0.91886608 0.91886608
0.32534079 0.91886608 0.91886608
0.44182077 0.91886608 0.91886608
0.56201458 0.91886608 0.91886608
0.68528608 0.91886608 0.91886608
0.81120901 0.91886608 0.91886608
0.91886608 0.91886608 0.91886608
