src/ffmpeg_scripts/luts/luminance_-1p67.cube
TITLE "luminance_-1p67"
LUT_3D_SIZE 5
# PQ (EOTF Only)/Rec2020 -> PQ (EOTF Only)/Rec2020, CineEI Shift -1.67, Black Level 0.00% IRE, Input 109% -> Output 109% - Created with LUTCalc v4.01 by Ben Turley October 2020
0.06256172 0.06256172 0.06256172
0.19223202 0.06256179 0.06256172
0.40491336 0.06256172 0.06256172
0.64239808 0.06256172 0.06256172
0.89806460 0.06256211 0.06256213
0.06256181 0.19223202 0.06256172
0.19223202 0.19223202 0.06256172
0.40491336 0.19223202 0.06256187
0.64239808 0.19223202 0.06256197
0.89806460 0.19223202 0.06256172
0.06256172 0.40491336 0.06256172
0.19223202 0.40491336 0.06256172
0.40491336 0.40491336 0.06256172
0.64239808 0.40491336 0.06256172
0.89806460 0.40491336 0.06256172
0.06256200 0.64239808 0.06256172
0.19223202 0.64239808 0.06256172
0.40491336 0.64239808 0.06256172
0.64239808 0.64239808 0.06256172
0.89806460 0.64239808 0.06256219
0.06256217 0.89806460 0.06256172
0.19223202 0.89806460 0.06256213
0.40491336 0.89806460 0.06256172
0.64239808 0.89806460 0.06256213
0.89806460 0.89806460 0.06256172
0.06256172 0.06256184 0.19223202
0.19223202 0.06256172 0.19223202
0.40491336 0.06256185 0.19223202
0.64239808 0.06256172 0.19223202
0.89806460 0.06256204 0.19223202
0.06256172 0.19223202 0.19223202
0.19223202 0.19223202 0.19223202
0.40491336 0.19223202 0.19223202
0.64239808 0.19223202 0.19223202
0.89806460 0.19223202 0.19223202
0.06256187 0.40491336 0.19223202
0.19223202 0.40491336 0.19223202
0.40491336 0.40491336 0.19223202
0.64239808 0.40491336 0.19223202
0.89806460 0.40491336 0.19223202
0.06256172 0.64239808 0.19223202
0.19223202 0.64239808 0.19223202
0.40491336 0.64239808 0.19223202
0.64239808 0.64239808 0.19223202
0.89806460 0.64239808 0.19223202
0.06256215 0.89806460 0.19223202
0.19223202 0.89806460 0.19223202
0.40491336 0.89806460 0.19223202
0.64239808 0.89806460 0.19223202
0.89806460 0.89806460 0.19223202
0.06256172 0.06256194 0.40491336
0.19223202 0.06256172 0.40491336
0.40491336 0.06256194 0.40491336
0.64239808 0.06256172 0.40491336
0.89806460 0.06256208 0.40491336
0.06256172 0.19223202 0.40491336
0.19223202 0.19223202 0.40491336
0.40491336 0.19223202 0.40491336
0.64239808 0.19223202 0.40491336
0.89806460 0.19223202 0.40491336
0.06256172 0.40491336 0.40491336
0.19223202 0.40491336 0.40491336
0.40491336 0.40491336 0.40491336
0.64239808 0.40491336 0.40491336
0.89806460 0.40491336 0.40491336
0.06256201 0.64239808 0.40491336
0.19223202 0.64239808 0.40491336
0.40491336 0.64239808 0.40491336
0.64239808 0.64239808 0.40491336
0.89806460 0.64239808 0.40491336
0.06256172 0.89806460 0.40491336
0.19223202 0.89806460 0.40491336
0.40491336 0.89806460 0.40491336
0.64239808 0.89806460 0.40491336
0.89806460 0.89806460 0.40491336
0.06256172 0.06256204 0.64239808
0.19223202 0.06256172 0.64239808
0.40491336 0.06256204 0.64239808
0.64239808 0.06256208 0.64239808
0.89806460 0.06256172 0.64239808
0.06256172 0.19223202 0.64239808
0.19223202 0.19223202 0.64239808
0.40491336 0.19223202 0.64239808
0.64239808 0.19223202 0.64239808
0.89806460 0.19223202 0.64239808
0.06256172 0.40491336 0.64239808
0.19223202 0.40491336 0.64239808
0.40491336 0.40491336 0.64239808
0.64239808 0.40491336 0.64239808
0.89806460 0.40491336 0.64239808
0.06256172 0.64239808 0.64239808
0.19223202 0.64239808 0.64239808
0.40491336 0.64239808 0.64239808
0.64239808 0.64239808 0.64239808
0.89806460 0.64239808 0.64239808
0.06256217 0.89806460 0.64239808
0.19223202 0.89806460 0.64239808
0.40491336 0.89806460 0.64239808
0.64239808 0.89806460 0.64239808
0.89806460 0.89806460 0.64239808
0.06256219 0.06256235 0.89806460
0.19223202 0.06256235 0.89806460
0.40491336 0.06256241 0.89806460
0.64239808 0.06256227 0.89806460
0.89806460 0.06256235 0.89806460
0.06256172 0.19223202 0.89806460
0.19223202 0.19223202 0.89806460
0.40491336 0.19223202 0.89806460
0.64239808 0.19223202 0.89806460
0.89806460 0.19223202 0.89806460
0.06256172 0.40491336 0.89806460
0.19223202 0.40491336 0.89806460
0.40491336 0.40491336 0.89806460
0.64239808 0.40491336 0.89806460
0.89806460 0.40491336 0.89806460
0.06256172 0.64239808 0.89806460
0.19223202 0.64239808 0.89806460
0.40491336 0.64239808 0.89806460
0.64239808 0.64239808 0.89806460
0.89806460 0.64239808 0.89806460
0.06256219 0.89806460 0.89806460
0.19223202 0.89806460 0.89806460
0.40491336 0.89806460 0.89806460
0.64239808 0.89806460 0.89806460
0.89806460 0.89806460 0.89806460
