src/ffmpeg_scripts/luts/luminance-unclipped_-3p00.cube
TITLE "luminance-unclipped_-3p00"
LUT_3D_SIZE 5
# PQ (EOTF Only)/Rec2020 -> PQ (EOTF Only)/Rec2020, CineEI Shift -3.00, Black Level -7.25% IRE, Input 109% -> Output 109% - Created with LUTCalc v4.01 by Ben Turley October 2020
0.00047898 0.00047898 0.00047898
0.10868243 0.00047898 0.00047898
0.31785113 0.00047915 0.00047898
0.57489434 0.00047921 0.00047898
0.87053471 0.00047941 0.00047940
0.00047898 0.10868243 0.00047898
0.10868243 0.10868243 0.00047898
0.31785113 0.10868243 0.00047898
0.57489434 0.10868243 0.00047898
0.87053471 0.10868243 0.00047898
0.00047898 0.31785113 0.00047898
0.10868243 0.31785113 0.00047898
0.31785113 0.31785113 0.00047898
0.57489434 0.31785113 0.00047898
0.87053471 0.31785113 0.00047898
0.00047925 0.57489434 0.00047898
0.10868243 0.57489434 0.00047898
0.31785113 0.57489434 0.00047898
0.57489434 0.57489434 0.00047898
0.87053471 0.57489434 0.00047940
0.00047946 0.87053471 0.00047898
0.10868243 0.87053471 0.00047898
0.31785113 0.87053471 0.00047898
0.57489434 0.87053471 0.00047898
0.87053471 0.87053471 0.00047898
0.00047898 0.00047898 0.10868243
0.10868243 0.00047909 0.10868243
0.31785113 0.00047914 0.10868243
0.57489434 0.00047918 0.10868243
0.87053471 0.00047941 0.10868243
0.00047898 0.10868243 0.10868243
0.10868243 0.10868243 0.10868243
0.31785113 0.10868243 0.10868243
0.57489434 0.10868243 0.10868243
0.87053471 0.10868243 0.10868243
0.00047914 0.31785113 0.10868243
0.10868243 0.31785113 0.10868243
0.31785113 0.31785113 0.10868243
0.57489434 0.31785113 0.10868243
0.87053471 0.31785113 0.10868243
0.00047925 0.57489434 0.10868243
0.10868243 0.57489434 0.10868243
0.31785113 0.57489434 0.10868243
0.57489434 0.57489434 0.10868243
0.87053471 0.57489434 0.10868243
0.00047944 0.87053471 0.10868243
0.10868243 0.87053471 0.10868243
0.31785113 0.87053471 0.10868243
0.57489434 0.87053471 0.10868243
0.87053471 0.87053471 0.10868243
0.00047898 0.00047898 0.31785113
0.10868243 0.00047918 0.31785113
0.31785113 0.00047920 0.31785113
0.57489434 0.00047923 0.31785113
0.87053471 0.00047946 0.31785113
0.00047898 0.10868243 0.31785113
0.10868243 0.10868243 0.31785113
0.31785113 0.10868243 0.31785113
0.57489434 0.10868243 0.31785113
0.87053471 0.10868243 0.31785113
0.00047898 0.31785113 0.31785113
0.10868243 0.31785113 0.31785113
0.31785113 0.31785113 0.31785113
0.57489434 0.31785113 0.31785113
0.87053471 0.31785113 0.31785113
0.00047932 0.57489434 0.31785113
0.10868243 0.57489434 0.31785113
0.31785113 0.57489434 0.31785113
0.57489434 0.57489434 0.31785113
0.87053471 0.57489434 0.31785113
0.00047946 0.87053471 0.31785113
0.10868243 0.87053471 0.31785113
0.31785113 0.87053471 0.31785113
0.57489434 0.87053471 0.31785113
0.87053471 0.87053471 0.31785113
0.00047898 0.00047898 0.57489434
0.10868243 0.00047898 0.57489434
0.31785113 0.00047898 0.57489434
0.57489434 0.00047898 0.57489434
0.87053471 0.00047898 0.57489434
0.00047898 0.10868243 0.57489434
0.10868243 0.10868243 0.57489434
0.31785113 0.10868243 0.57489434
0.57489434 0.10868243 0.57489434
0.87053471 0.10868243 0.57489434
0.00047898 0.31785113 0.57489434
0.10868243 0.31785113 0.57489434
0.31785113 0.31785113 0.57489434
0.57489434 0.31785113 0.57489434
0.87053471 0.31785113 0.57489434
0.00047898 0.57489434 0.57489434
0.10868243 0.57489434 0.57489434
0.31785113 0.57489434 0.57489434
0.57489434 0.57489434 0.57489434
0.87053471 0.57489434 0.57489434
0.00047948 0.87053471 0.57489434
0.10868243 0.87053471 0.57489434
0.31785113 0.87053471 0.57489434
0.57489434 0.87053471 0.57489434
0.87053471 0.87053471 0.57489434
0.00047898 0.00047898 0.87053471
0.10868243 0.00047961 0.87053471
0.31785113 0.00047953 0.87053471
0.57489434 0.00047953 0.87053471
0.87053471 0.00047953 0.87053471
0.00047898 0.10868243 0.87053471
0.10868243 0.10868243 0.87053471
0.31785113 0.10868243 0.87053471
0.57489434 0.10868243 0.87053471
0.87053471 0.10868243 0.87053471
0.00047898 0.31785113 0.87053471
0.10868243 0.31785113 0.87053471
0.31785113 0.31785113 0.87053471
0.57489434 0.31785113 0.87053471
0.87053471 0.31785113 0.87053471
0.00047898 0.57489434 0.87053471
0.10868243 0.57489434 0.87053471
0.31785113 0.57489434 0.87053471
0.57489434 0.57489434 0.87053471
0.87053471 0.57489434 0.87053471
0.00047946 0.87053471 0.87053471
0.10868243 0.87053471 0.87053471
0.31785113 0.87053471 0.87053471
0.57489434 0.87053471 0.87053471
0.87053471 0.87053471 0.87053471
