src/ffmpeg_scripts/luts/luminance-unclipped_3p00.cube
TITLE "luminance-unclipped_3p00"
LUT_3D_SIZE 9
# PQ (EOTF Only)/Rec2020 -> PQ (EOTF Only)/Rec2020, CineEI Shift 3.00, Black Level -7.25% IRE, Input 109% -> Output 109% - Created with LUTCalc v4.01 by Ben Turley October 2020
0.00047898 0.00047898 0.00047898
0.15720037 0.00047906 0.00047898
0.37810069 0.00047898 0.00047898
0.56147170 0.00047898 0.00047898
0.72541203 0.00047934 0.00047898
0.87647847 0.00047937 0.00047898
0.91886608 0.00047948 0.00047898
0.91886608 0.00047898 0.00047898
0.91886608 0.00047999 0.00047997
0.00047910 0.15720037 0.00047898
0.15720037 0.15720037 0.00047898
0.37810069 0.15720037 0.00047898
0.56147170 0.15720037 0.00047898
0.72541203 0.15720037 0.00047898
0.87647847 0.15720037 0.00047898
0.91886608 0.15720037 0.00047898
0.91886608 0.15720037 0.00047971
0.91886608 0.15720037 0.00047898
0.00047898 0.37810069 0.00047898
0.15720037 0.37810069 0.00047898
0.37810069 0.37810069 0.00047898
0.56147170 0.37810069 0.00047898
0.72541203 0.37810069 0.00047898
0.87647847 0.37810069 0.00047898
0.91886608 0.37810069 0.00047898
0.91886608 0.37810069 0.00047898
0.91886608 0.37810069 0.00047898
0.00047926 0.56147170 0.00047923
0.15720037 0.56147170 0.00047898
0.37810069 0.56147170 0.00047898
0.56147170 0.56147170 0.00047927
0.72541203 0.56147170 0.00047898
0.87647847 0.56147170 0.00047898
0.91886608 0.56147170 0.00047898
0.91886608 0.56147170 0.00047971
0.91886608 0.56147170 0.00047898
0.00047898 0.72541203 0.00047898
0.15720037 0.72541203 0.00047898
0.37810069 0.72541203 0.00047898
0.56147170 0.72541203 0.00047898
0.72541203 0.72541203 0.00047898
0.87647847 0.72541203 0.00047898
0.91886608 0.72541203 0.00047898
0.91886608 0.72541203 0.00047898
0.91886608 0.72541203 0.00047898
0.00047927 0.87647847 0.00047898
0.15720037 0.87647847 0.00047898
0.37810069 0.87647847 0.00047898
0.56147170 0.87647847 0.00047898
0.72541203 0.87647847 0.00047940
0.87647847 0.87647847 0.00047898
0.91886608 0.87647847 0.00047898
0.91886608 0.87647847 0.00047898
0.91886608 0.87647847 0.00047898
0.00047956 0.91886608 0.00047898
0.15720037 0.91886608 0.00047898
0.37810069 0.91886608 0.00047898
0.56147170 0.91886608 0.00047898
0.72541203 0.91886608 0.00047898
0.87647847 0.91886608 0.00047953
0.91886608 0.91886608 0.00047898
0.91886608 0.91886608 0.00047971
0.91886608 0.91886608 0.00047997
0.00047996 0.91886608 0.00047898
0.15720037 0.91886608 0.00047898
0.37810069 0.91886608 0.00047898
0.56147170 0.91886608 0.00047898
0.72541203 0.91886608 0.00047898
0.87647847 0.91886608 0.00047898
0.91886608 0.91886608 0.00047898
0.91886608 0.91886608 0.00047898
0.91886608 0.91886608 0.00047898
0.00048014 0.91886608 0.00047898
0.15720037 0.91886608 0.00047898
0.37810069 0.91886608 0.00047898
0.56147170 0.91886608 0.00047898
0.72541203 0.91886608 0.00047898
0.87647847 0.91886608 0.00047898
0.91886608 0.91886608 0.00047898
0.91886608 0.91886608 0.00047898
0.91886608 0.91886608 0.00047898
0.00047898 0.00047914 0.15720037
0.15720037 0.00047912 0.15720037
0.37810069 0.00047898 0.15720037
0.56147170 0.00047898 0.15720037
0.72541203 0.00047936 0.15720037
0.87647847 0.00047898 0.15720037
0.91886608 0.00047940 0.15720037
0.91886608 0.00047958 0.15720037
0.91886608 0.00047983 0.15720037
0.00047910 0.15720037 0.15720037
0.15720037 0.15720037 0.15720037
0.37810069 0.15720037 0.15720037
0.56147170 0.15720037 0.15720037
0.72541203 0.15720037 0.15720037
0.87647847 0.15720037 0.15720037
0.91886608 0.15720037 0.15720037
0.91886608 0.15720037 0.15720037
0.91886608 0.15720037 0.15720037
0.00047916 0.37810069 0.15720037
0.15720037 0.37810069 0.15720037
0.37810069 0.37810069 0.15720037
0.56147170 0.37810069 0.15720037
0.72541203 0.37810069 0.15720037
0.87647847 0.37810069 0.15720037
0.91886608 0.37810069 0.15720037
0.91886608 0.37810069 0.15720037
0.91886608 0.37810069 0.15720037
0.00047925 0.56147170 0.15720037
0.15720037 0.56147170 0.15720037
0.37810069 0.56147170 0.15720037
0.56147170 0.56147170 0.15720037
0.72541203 0.56147170 0.15720037
0.87647847 0.56147170 0.15720037
0.91886608 0.56147170 0.15720037
0.91886608 0.56147170 0.15720037
0.91886608 0.56147170 0.15720037
0.00047936 0.72541203 0.15720037
0.15720037 0.72541203 0.15720037
0.37810069 0.72541203 0.15720037
0.56147170 0.72541203 0.15720037
0.72541203 0.72541203 0.15720037
0.87647847 0.72541203 0.15720037
0.91886608 0.72541203 0.15720037
0.91886608 0.72541203 0.15720037
0.91886608 0.72541203 0.15720037
0.00047944 0.87647847 0.15720037
0.15720037 0.87647847 0.15720037
0.37810069 0.87647847 0.15720037
0.56147170 0.87647847 0.15720037
0.72541203 0.87647847 0.15720037
0.87647847 0.87647847 0.15720037
0.91886608 0.87647847 0.15720037
0.91886608 0.87647847 0.15720037
0.91886608 0.87647847 0.15720037
0.00047959 0.91886608 0.15720037
0.15720037 0.91886608 0.15720037
0.37810069 0.91886608 0.15720037
0.56147170 0.91886608 0.15720037
0.72541203 0.91886608 0.15720037
0.87647847 0.91886608 0.15720037
0.91886608 0.91886608 0.15720037
0.91886608 0.91886608 0.15720037
0.91886608 0.91886608 0.15720037
0.00047988 0.91886608 0.15720037
0.15720037 0.91886608 0.15720037
0.37810069 0.91886608 0.15720037
0.56147170 0.91886608 0.15720037
0.72541203 0.91886608 0.15720037
0.87647847 0.91886608 0.15720037
0.91886608 0.91886608 0.15720037
0.91886608 0.91886608 0.15720037
0.91886608 0.91886608 0.15720037
0.00048008 0.91886608 0.15720037
0.15720037 0.91886608 0.15720037
0.37810069 0.91886608 0.15720037
0.56147170 0.91886608 0.15720037
0.72541203 0.91886608 0.15720037
0.87647847 0.91886608 0.15720037
0.91886608 0.91886608 0.15720037
0.91886608 0.91886608 0.15720037
0.91886608 0.91886608 0.15720037
0.00047898 0.00047898 0.37810069
0.15720037 0.00047898 0.37810069
0.37810069 0.00047920 0.37810069
0.56147170 0.00047898 0.37810069
0.72541203 0.00047931 0.37810069
0.87647847 0.00047938 0.37810069
0.91886608 0.00047940 0.37810069
0.91886608 0.00047898 0.37810069
0.91886608 0.00047999 0.37810069
0.00047898 0.15720037 0.37810069
0.15720037 0.15720037 0.37810069
0.37810069 0.15720037 0.37810069
0.56147170 0.15720037 0.37810069
0.72541203 0.15720037 0.37810069
0.87647847 0.15720037 0.37810069
0.91886608 0.15720037 0.37810069
0.91886608 0.15720037 0.37810069
0.91886608 0.15720037 0.37810069
0.00047898 0.37810069 0.37810069
0.15720037 0.37810069 0.37810069
0.37810069 0.37810069 0.37810069
0.56147170 0.37810069 0.37810069
0.72541203 0.37810069 0.37810069
0.87647847 0.37810069 0.37810069
0.91886608 0.37810069 0.37810069
0.91886608 0.37810069 0.37810069
0.91886608 0.37810069 0.37810069
0.00047926 0.56147170 0.37810069
0.15720037 0.56147170 0.37810069
0.37810069 0.56147170 0.37810069
0.56147170 0.56147170 0.37810069
0.72541203 0.56147170 0.37810069
0.87647847 0.56147170 0.37810069
0.91886608 0.56147170 0.37810069
0.91886608 0.56147170 0.37810069
0.91886608 0.56147170 0.37810069
0.00047932 0.72541203 0.37810069
0.15720037 0.72541203 0.37810069
0.37810069 0.72541203 0.37810069
0.56147170 0.72541203 0.37810069
0.72541203 0.72541203 0.37810069
0.87647847 0.72541203 0.37810069
0.91886608 0.72541203 0.37810069
0.91886608 0.72541203 0.37810069
0.91886608 0.72541203 0.37810069
0.00047949 0.87647847 0.37810069
0.15720037 0.87647847 0.37810069
0.37810069 0.87647847 0.37810069
0.56147170 0.87647847 0.37810069
0.72541203 0.87647847 0.37810069
0.87647847 0.87647847 0.37810069
0.91886608 0.87647847 0.37810069
0.91886608 0.87647847 0.37810069
0.91886608 0.87647847 0.37810069
0.00047958 0.91886608 0.37810069
0.15720037 0.91886608 0.37810069
0.37810069 0.91886608 0.37810069
0.56147170 0.91886608 0.37810069
0.72541203 0.91886608 0.37810069
0.87647847 0.91886608 0.37810069
0.91886608 0.91886608 0.37810069
0.91886608 0.91886608 0.37810069
0.91886608 0.91886608 0.37810069
0.00047999 0.91886608 0.37810069
0.15720037 0.91886608 0.37810069
0.37810069 0.91886608 0.37810069
0.56147170 0.91886608 0.37810069
0.72541203 0.91886608 0.37810069
0.87647847 0.91886608 0.37810069
0.91886608 0.91886608 0.37810069
0.91886608 0.91886608 0.37810069
0.91886608 0.91886608 0.37810069
0.00048008 0.91886608 0.37810069
0.15720037 0.91886608 0.37810069
0.37810069 0.91886608 0.37810069
0.56147170 0.91886608 0.37810069
0.72541203 0.91886608 0.37810069
0.87647847 0.91886608 0.37810069
0.91886608 0.91886608 0.37810069
0.91886608 0.91886608 0.37810069
0.91886608 0.91886608 0.37810069
0.00047898 0.00047931 0.56147170
0.15720037 0.00047898 0.56147170
0.37810069 0.00047898 0.56147170
0.56147170 0.00047935 0.56147170
0.72541203 0.00047898 0.56147170
0.87647847 0.00047946 0.56147170
0.91886608 0.00047940 0.56147170
0.91886608 0.00047898 0.56147170
0.91886608 0.00047994 0.56147170
0.00047898 0.15720037 0.56147170
0.15720037 0.15720037 0.56147170
0.37810069 0.15720037 0.56147170
0.56147170 0.15720037 0.56147170
0.72541203 0.15720037 0.56147170
0.87647847 0.15720037 0.56147170
0.91886608 0.15720037 0.56147170
0.91886608 0.15720037 0.56147170
0.91886608 0.15720037 0.56147170
0.00047898 0.37810069 0.56147170
0.15720037 0.37810069 0.56147170
0.37810069 0.37810069 0.56147170
0.56147170 0.37810069 0.56147170
0.72541203 0.37810069 0.56147170
0.87647847 0.37810069 0.56147170
0.91886608 0.37810069 0.56147170
0.91886608 0.37810069 0.56147170
0.91886608 0.37810069 0.56147170
0.00047927 0.56147170 0.56147170
0.15720037 0.56147170 0.56147170
0.37810069 0.56147170 0.56147170
0.56147170 0.56147170 0.56147170
0.72541203 0.56147170 0.56147170
0.87647847 0.56147170 0.56147170
0.91886608 0.56147170 0.56147170
0.91886608 0.56147170 0.56147170
0.91886608 0.56147170 0.56147170
0.00047933 0.72541203 0.56147170
0.15720037 0.72541203 0.56147170
0.37810069 0.72541203 0.56147170
0.56147170 0.72541203 0.56147170
0.72541203 0.72541203 0.56147170
0.87647847 0.72541203 0.56147170
0.91886608 0.72541203 0.56147170
0.91886608 0.72541203 0.56147170
0.91886608 0.72541203 0.56147170
0.00047939 0.87647847 0.56147170
0.15720037 0.87647847 0.56147170
0.37810069 0.87647847 0.56147170
0.56147170 0.87647847 0.56147170
0.72541203 0.87647847 0.56147170
0.87647847 0.87647847 0.56147170
0.91886608 0.87647847 0.56147170
0.91886608 0.87647847 0.56147170
0.91886608 0.87647847 0.56147170
0.00047958 0.91886608 0.56147170
0.15720037 0.91886608 0.56147170
0.37810069 0.91886608 0.56147170
0.56147170 0.91886608 0.56147170
0.72541203 0.91886608 0.56147170
0.87647847 0.91886608 0.56147170
0.91886608 0.91886608 0.56147170
0.91886608 0.91886608 0.56147170
0.91886608 0.91886608 0.56147170
0.00047991 0.91886608 0.56147170
0.15720037 0.91886608 0.56147170
0.37810069 0.91886608 0.56147170
0.56147170 0.91886608 0.56147170
0.72541203 0.91886608 0.56147170
0.87647847 0.91886608 0.56147170
0.91886608 0.91886608 0.56147170
0.91886608 0.91886608 0.56147170
0.91886608 0.91886608 0.56147170
0.00048009 0.91886608 0.56147170
0.15720037 0.91886608 0.56147170
0.37810069 0.91886608 0.56147170
0.56147170 0.91886608 0.56147170
0.72541203 0.91886608 0.56147170
0.87647847 0.91886608 0.56147170
0.91886608 0.91886608 0.56147170
0.91886608 0.91886608 0.56147170
0.91886608 0.91886608 0.56147170
0.00047898 0.00047898 0.72541203
0.15720037 0.00047940 0.72541203
0.37810069 0.00047940 0.72541203
0.56147170 0.00047898 0.72541203
0.72541203 0.00047946 0.72541203
0.87647847 0.00047898 0.72541203
0.91886608 0.00047953 0.72541203
0.91886608 0.00047967 0.72541203
0.91886608 0.00048012 0.72541203
0.00047898 0.15720037 0.72541203
0.15720037 0.15720037 0.72541203
0.37810069 0.15720037 0.72541203
0.56147170 0.15720037 0.72541203
0.72541203 0.15720037 0.72541203
0.87647847 0.15720037 0.72541203
0.91886608 0.15720037 0.72541203
0.91886608 0.15720037 0.72541203
0.91886608 0.15720037 0.72541203
0.00047898 0.37810069 0.72541203
0.15720037 0.37810069 0.72541203
0.37810069 0.37810069 0.72541203
0.56147170 0.37810069 0.72541203
0.72541203 0.37810069 0.72541203
0.87647847 0.37810069 0.72541203
0.91886608 0.37810069 0.72541203
0.91886608 0.37810069 0.72541203
0.91886608 0.37810069 0.72541203
0.00047898 0.56147170 0.72541203
0.15720037 0.56147170 0.72541203
0.37810069 0.56147170 0.72541203
0.56147170 0.56147170 0.72541203
0.72541203 0.56147170 0.72541203
0.87647847 0.56147170 0.72541203
0.91886608 0.56147170 0.72541203
0.91886608 0.56147170 0.72541203
0.91886608 0.56147170 0.72541203
0.00047898 0.72541203 0.72541203
0.15720037 0.72541203 0.72541203
0.37810069 0.72541203 0.72541203
0.56147170 0.72541203 0.72541203
0.72541203 0.72541203 0.72541203
0.87647847 0.72541203 0.72541203
0.91886608 0.72541203 0.72541203
0.91886608 0.72541203 0.72541203
0.91886608 0.72541203 0.72541203
0.00047948 0.87647847 0.72541203
0.15720037 0.87647847 0.72541203
0.37810069 0.87647847 0.72541203
0.56147170 0.87647847 0.72541203
0.72541203 0.87647847 0.72541203
0.87647847 0.87647847 0.72541203
0.91886608 0.87647847 0.72541203
0.91886608 0.87647847 0.72541203
0.91886608 0.87647847 0.72541203
0.00047974 0.91886608 0.72541203
0.15720037 0.91886608 0.72541203
0.37810069 0.91886608 0.72541203
0.56147170 0.91886608 0.72541203
0.72541203 0.91886608 0.72541203
0.87647847 0.91886608 0.72541203
0.91886608 0.91886608 0.72541203
0.91886608 0.91886608 0.72541203
0.91886608 0.91886608 0.72541203
0.00047992 0.91886608 0.72541203
0.15720037 0.91886608 0.72541203
0.37810069 0.91886608 0.72541203
0.56147170 0.91886608 0.72541203
0.72541203 0.91886608 0.72541203
0.87647847 0.91886608 0.72541203
0.91886608 0.91886608 0.72541203
0.91886608 0.91886608 0.72541203
0.91886608 0.91886608 0.72541203
0.00048012 0.91886608 0.72541203
0.15720037 0.91886608 0.72541203
0.37810069 0.91886608 0.72541203
0.56147170 0.91886608 0.72541203
0.72541203 0.91886608 0.72541203
0.87647847 0.91886608 0.72541203
0.91886608 0.91886608 0.72541203
0.91886608 0.91886608 0.72541203
0.91886608 0.91886608 0.72541203
0.00047898 0.00047953 0.87647847
0.15720037 0.00047953 0.87647847
0.37810069 0.00047961 0.87647847
0.56147170 0.00047953 0.87647847
0.72541203 0.00047961 0.87647847
0.87647847 0.00047967 0.87647847
0.91886608 0.00047898 0.87647847
0.91886608 0.00047961 0.87647847
0.91886608 0.00047898 0.87647847
0.00047898 0.15720037 0.87647847
0.15720037 0.15720037 0.87647847
0.37810069 0.15720037 0.87647847
0.56147170 0.15720037 0.87647847
0.72541203 0.15720037 0.87647847
0.87647847 0.15720037 0.87647847
0.91886608 0.15720037 0.87647847
0.91886608 0.15720037 0.87647847
0.91886608 0.15720037 0.87647847
0.00047946 0.37810069 0.87647847
0.15720037 0.37810069 0.87647847
0.37810069 0.37810069 0.87647847
0.56147170 0.37810069 0.87647847
0.72541203 0.37810069 0.87647847
0.87647847 0.37810069 0.87647847
0.91886608 0.37810069 0.87647847
0.91886608 0.37810069 0.87647847
0.91886608 0.37810069 0.87647847
0.00047898 0.56147170 0.87647847
0.15720037 0.56147170 0.87647847
0.37810069 0.56147170 0.87647847
0.56147170 0.56147170 0.87647847
0.72541203 0.56147170 0.87647847
0.87647847 0.56147170 0.87647847
0.91886608 0.56147170 0.87647847
0.91886608 0.56147170 0.87647847
0.91886608 0.56147170 0.87647847
0.00047898 0.72541203 0.87647847
0.15720037 0.72541203 0.87647847
0.37810069 0.72541203 0.87647847
0.56147170 0.72541203 0.87647847
0.72541203 0.72541203 0.87647847
0.87647847 0.72541203 0.87647847
0.91886608 0.72541203 0.87647847
0.91886608 0.72541203 0.87647847
0.91886608 0.72541203 0.87647847
0.00047946 0.87647847 0.87647847
0.15720037 0.87647847 0.87647847
0.37810069 0.87647847 0.87647847
0.56147170 0.87647847 0.87647847
0.72541203 0.87647847 0.87647847
0.87647847 0.87647847 0.87647847
0.91886608 0.87647847 0.87647847
0.91886608 0.87647847 0.87647847
0.91886608 0.87647847 0.87647847
0.00047967 0.91886608 0.87647847
0.15720037 0.91886608 0.87647847
0.37810069 0.91886608 0.87647847
0.56147170 0.91886608 0.87647847
0.72541203 0.91886608 0.87647847
0.87647847 0.91886608 0.87647847
0.91886608 0.91886608 0.87647847
0.91886608 0.91886608 0.87647847
0.91886608 0.91886608 0.87647847
0.00047989 0.91886608 0.87647847
0.15720037 0.91886608 0.87647847
0.37810069 0.91886608 0.87647847
0.56147170 0.91886608 0.87647847
0.72541203 0.91886608 0.87647847
0.87647847 0.91886608 0.87647847
0.91886608 0.91886608 0.87647847
0.91886608 0.91886608 0.87647847
0.91886608 0.91886608 0.87647847
0.00048036 0.91886608 0.87647847
0.15720037 0.91886608 0.87647847
0.37810069 0.91886608 0.87647847
0.56147170 0.91886608 0.87647847
0.72541203 0.91886608 0.87647847
0.87647847 0.91886608 0.87647847
0.91886608 0.91886608 0.87647847
0.91886608 0.91886608 0.87647847
0.91886608 0.91886608 0.87647847
0.00047898 0.00047898 0.91886608
0.15720037 0.00047898 0.91886608
0.37810069 0.00047898 0.91886608
0.56147170 0.00047971 0.91886608
0.72541203 0.00047898 0.91886608
0.87647847 0.00047898 0.91886608
0.91886608 0.00047898 0.91886608
0.91886608 0.00047898 0.91886608
0.91886608 0.00047898 0.91886608
0.00047898 0.15720037 0.91886608
0.15720037 0.15720037 0.91886608
0.37810069 0.15720037 0.91886608
0.56147170 0.15720037 0.91886608
0.72541203 0.15720037 0.91886608
0.87647847 0.15720037 0.91886608
0.91886608 0.15720037 0.91886608
0.91886608 0.15720037 0.91886608
0.91886608 0.15720037 0.91886608
0.00047898 0.37810069 0.91886608
0.15720037 0.37810069 0.91886608
0.37810069 0.37810069 0.91886608
0.56147170 0.37810069 0.91886608
0.72541203 0.37810069 0.91886608
0.87647847 0.37810069 0.91886608
0.91886608 0.37810069 0.91886608
0.91886608 0.37810069 0.91886608
0.91886608 0.37810069 0.91886608
0.00047898 0.56147170 0.91886608
0.15720037 0.56147170 0.91886608
0.37810069 0.56147170 0.91886608
0.56147170 0.56147170 0.91886608
0.72541203 0.56147170 0.91886608
0.87647847 0.56147170 0.91886608
0.91886608 0.56147170 0.91886608
0.91886608 0.56147170 0.91886608
0.91886608 0.56147170 0.91886608
0.00047898 0.72541203 0.91886608
0.15720037 0.72541203 0.91886608
0.37810069 0.72541203 0.91886608
0.56147170 0.72541203 0.91886608
0.72541203 0.72541203 0.91886608
0.87647847 0.72541203 0.91886608
0.91886608 0.72541203 0.91886608
0.91886608 0.72541203 0.91886608
0.91886608 0.72541203 0.91886608
0.00047898 0.87647847 0.91886608
0.15720037 0.87647847 0.91886608
0.37810069 0.87647847 0.91886608
0.56147170 0.87647847 0.91886608
0.72541203 0.87647847 0.91886608
0.87647847 0.87647847 0.91886608
0.91886608 0.87647847 0.91886608
0.91886608 0.87647847 0.91886608
0.91886608 0.87647847 0.91886608
0.00047898 0.91886608 0.91886608
0.15720037 0.91886608 0.91886608
0.37810069 0.91886608 0.91886608
0.56147170 0.91886608 0.91886608
0.72541203 0.91886608 0.91886608
0.87647847 0.91886608 0.91886608
0.91886608 0.91886608 0.91886608
0.91886608 0.91886608 0.91886608
0.91886608 0.91886608 0.91886608
0.00047983 0.91886608 0.91886608
0.15720037 0.91886608 0.91886608
0.37810069 0.91886608 0.91886608
0.56147170 0.91886608 0.91886608
0.72541203 0.91886608 0.91886608
0.87647847 0.91886608 0.91886608
0.91886608 0.91886608 0.91886608
0.91886608 0.91886608 0.91886608
0.91886608 0.91886608 0.91886608
0.00048018 0.91886608 0.91886608
0.15720037 0.91886608 0.91886608
0.37810069 0.91886608 0.91886608
0.56147170 0.91886608 0.91886608
0.72541203 0.91886608 0.91886608
0.87647847 0.91886608 0.91886608
0.91886608 0.91886608 0.91886608
0.91886608 0.91886608 0.91886608
0.91886608 0.91886608 0.91886608
0.00047898 0.00048014 0.91886608
0.15720037 0.00047997 0.91886608
0.37810069 0.00047997 0.91886608
0.56147170 0.00048014 0.91886608
0.72541203 0.00047898 0.91886608
0.87647847 0.00047898 0.91886608
0.91886608 0.00047997 0.91886608
0.91886608 0.00048014 0.91886608
0.91886608 0.00048014 0.91886608
0.00047898 0.15720037 0.91886608
0.15720037 0.15720037 0.91886608
0.37810069 0.15720037 0.91886608
0.56147170 0.15720037 0.91886608
0.72541203 0.15720037 0.91886608
0.87647847 0.15720037 0.91886608
0.91886608 0.15720037 0.91886608
0.91886608 0.15720037 0.91886608
0.91886608 0.15720037 0.91886608
0.00047898 0.37810069 0.91886608
0.15720037 0.37810069 0.91886608
0.37810069 0.37810069 0.91886608
0.56147170 0.37810069 0.91886608
0.72541203 0.37810069 0.91886608
0.87647847 0.37810069 0.91886608
0.91886608 0.37810069 0.91886608
0.91886608 0.37810069 0.91886608
0.91886608 0.37810069 0.91886608
0.00047898 0.56147170 0.91886608
0.15720037 0.56147170 0.91886608
0.37810069 0.56147170 0.91886608
0.56147170 0.56147170 0.91886608
0.72541203 0.56147170 0.91886608
0.87647847 0.56147170 0.91886608
0.91886608 0.56147170 0.91886608
0.91886608 0.56147170 0.91886608
0.91886608 0.56147170 0.91886608
0.00047898 0.72541203 0.91886608
0.15720037 0.72541203 0.91886608
0.37810069 0.72541203 0.91886608
0.56147170 0.72541203 0.91886608
0.72541203 0.72541203 0.91886608
0.87647847 0.72541203 0.91886608
0.91886608 0.72541203 0.91886608
0.91886608 0.72541203 0.91886608
0.91886608 0.72541203 0.91886608
0.00047898 0.87647847 0.91886608
0.15720037 0.87647847 0.91886608
0.37810069 0.87647847 0.91886608
0.56147170 0.87647847 0.91886608
0.72541203 0.87647847 0.91886608
0.87647847 0.87647847 0.91886608
0.91886608 0.87647847 0.91886608
0.91886608 0.87647847 0.91886608
0.91886608 0.87647847 0.91886608
0.00047898 0.91886608 0.91886608
0.15720037 0.91886608 0.91886608
0.37810069 0.91886608 0.91886608
0.56147170 0.91886608 0.91886608
0.72541203 0.91886608 0.91886608
0.87647847 0.91886608 0.91886608
0.91886608 0.91886608 0.91886608
0.91886608 0.91886608 0.91886608
0.91886608 0.91886608 0.91886608
0.00047898 0.91886608 0.91886608
0.15720037 0.91886608 0.91886608
0.37810069 0.91886608 0.91886608
0.56147170 0.91886608 0.91886608
0.72541203 0.91886608 0.91886608
0.87647847 0.91886608 0.91886608
0.91886608 0.91886608 0.91886608
0.91886608 0.91886608 0.91886608
0.91886608 0.91886608 0.91886608
0.00048038 0.91886608 0.91886608
0.15720037 0.91886608 0.91886608
0.37810069 0.91886608 0.91886608
0.56147170 0.91886608 0.91886608
0.72541203 0.91886608 0.91886608
0.87647847 0.91886608 0.91886608
0.91886608 0.91886608 0.91886608
0.91886608 0.91886608 0.91886608
0.91886608 0.91886608 0.91886608
0.00047898 0.00047898 0.91886608
0.15720037 0.00047898 0.91886608
0.37810069 0.00048059 0.91886608
0.56147170 0.00048034 0.91886608
0.72541203 0.00048034 0.91886608
0.87647847 0.00048034 0.91886608
0.91886608 0.00048034 0.91886608
0.91886608 0.00048034 0.91886608
0.91886608 0.00048034 0.91886608
0.00047898 0.15720037 0.91886608
0.15720037 0.15720037 0.91886608
0.37810069 0.15720037 0.91886608
0.56147170 0.15720037 0.91886608
0.72541203 0.15720037 0.91886608
0.87647847 0.15720037 0.91886608
0.91886608 0.15720037 0.91886608
0.91886608 0.15720037 0.91886608
0.91886608 0.15720037 0.91886608
0.00047898 0.37810069 0.91886608
0.15720037 0.37810069 0.91886608
0.37810069 0.37810069 0.91886608
0.56147170 0.37810069 0.91886608
0.72541203 0.37810069 0.91886608
0.87647847 0.37810069 0.91886608
0.91886608 0.37810069 0.91886608
0.91886608 0.37810069 0.91886608
0.91886608 0.37810069 0.91886608
0.00048014 0.56147170 0.91886608
0.15720037 0.56147170 0.91886608
0.37810069 0.56147170 0.91886608
0.56147170 0.56147170 0.91886608
0.72541203 0.56147170 0.91886608
0.87647847 0.56147170 0.91886608
0.91886608 0.56147170 0.91886608
0.91886608 0.56147170 0.91886608
0.91886608 0.56147170 0.91886608
0.00047898 0.72541203 0.91886608
0.15720037 0.72541203 0.91886608
0.37810069 0.72541203 0.91886608
0.56147170 0.72541203 0.91886608
0.72541203 0.72541203 0.91886608
0.87647847 0.72541203 0.91886608
0.91886608 0.72541203 0.91886608
0.91886608 0.72541203 0.91886608
0.91886608 0.72541203 0.91886608
0.00047898 0.87647847 0.91886608
0.15720037 0.87647847 0.91886608
0.37810069 0.87647847 0.91886608
0.56147170 0.87647847 0.91886608
0.72541203 0.87647847 0.91886608
0.87647847 0.87647847 0.91886608
0.91886608 0.87647847 0.91886608
0.91886608 0.87647847 0.91886608
0.91886608 0.87647847 0.91886608
0.00047898 0.91886608 0.91886608
0.15720037 0.91886608 0.91886608
0.37810069 0.91886608 0.91886608
0.56147170 0.91886608 0.91886608
0.72541203 0.91886608 0.91886608
0.87647847 0.91886608 0.91886608
0.91886608 0.91886608 0.91886608
0.91886608 0.91886608 0.91886608
0.91886608 0.91886608 0.91886608
0.00047898 0.91886608 0.91886608
0.15720037 0.91886608 0.91886608
0.37810069 0.91886608 0.91886608
0.56147170 0.91886608 0.91886608
0.72541203 0.91886608 0.91886608
0.87647847 0.91886608 0.91886608
0.91886608 0.91886608 0.91886608
0.91886608 0.91886608 0.91886608
0.91886608 0.91886608 0.91886608
0.00048014 0.91886608 0.91886608
0.15720037 0.91886608 0.91886608
0.37810069 0.91886608 0.91886608
0.56147170 0.91886608 0.91886608
0.72541203 0.91886608 0.91886608
0.87647847 0.91886608 0.91886608
0.91886608 0.91886608 0.91886608
0.91886608 0.91886608 0.91886608
0.91886608 0.91886608 0.91886608
