src/ffmpeg_scripts/luts/luminance_0p33.cube
TITLE "luminance_0p33"
LUT_3D_SIZE 33
# PQ (EOTF Only)/Rec2020 -> PQ (EOTF Only)/Rec2020, CineEI Shift 0.33, Black Level 0.00% IRE, Input 109% -> Output 109% - Created with LUTCalc v4.01 by Ben Turley October 2020
0.06256172 0.06256172 0.06256172
0.06256172 0.06256172 0.06256172
0.06256172 0.06256172 0.06256172
0.09725627 0.06256172 0.06256172
0.13112353 0.06256178 0.06256172
0.16455071 0.06256172 0.06256172
0.19767118 0.06256172 0.06256180
0.23055350 0.06256181 0.06256181
0.26324006 0.06256181 0.06256172
0.29575990 0.06256183 0.06256184
0.32813425 0.06256185 0.06256184
0.36037934 0.06256187 0.06256172
0.39250800 0.06256172 0.06256172
0.42453066 0.06256172 0.06256172
0.45645598 0.06256172 0.06256172
0.48829124 0.06256172 0.06256172
0.52004267 0.06256187 0.06256191
0.55171567 0.06256172 0.06256172
0.58331497 0.06256195 0.06256194
0.61484473 0.06256194 0.06256172
0.64630864 0.06256172 0.06256172
0.67771003 0.06256197 0.06256172
0.70905187 0.06256203 0.06256172
0.74033688 0.06256172 0.06256172
0.77156751 0.06256172 0.06256172
0.80274601 0.06256206 0.06256204
0.83387445 0.06256172 0.06256172
0.86495472 0.06256172 0.06256172
0.89598860 0.06256172 0.06256172
0.91886608 0.06256172 0.06256172
0.91886608 0.06256172 0.06256219
0.91886608 0.06256172 0.06256172
0.91886608 0.06256227 0.06256227
0.06256172 0.06256172 0.06256172
0.06256172 0.06256172 0.06256172
0.06256172 0.06256172 0.06256172
0.09725627 0.06256172 0.06256172
0.13112353 0.06256178 0.06256172
0.16455071 0.06256172 0.06256172
0.19767118 0.06256172 0.06256180
0.23055350 0.06256181 0.06256181
0.26324006 0.06256181 0.06256172
0.29575990 0.06256183 0.06256184
0.32813425 0.06256185 0.06256184
0.36037934 0.06256187 0.06256172
0.39250800 0.06256172 0.06256172
0.42453066 0.06256172 0.06256172
0.45645598 0.06256172 0.06256172
0.48829124 0.06256172 0.06256172
0.52004267 0.06256187 0.06256191
0.55171567 0.06256172 0.06256172
0.58331497 0.06256195 0.06256194
0.61484473 0.06256194 0.06256172
0.64630864 0.06256172 0.06256172
0.67771003 0.06256197 0.06256172
0.70905187 0.06256203 0.06256172
0.74033688 0.06256172 0.06256172
0.77156751 0.06256172 0.06256172
0.80274601 0.06256206 0.06256204
0.83387445 0.06256172 0.06256172
0.86495472 0.06256172 0.06256172
0.89598860 0.06256172 0.06256172
0.91886608 0.06256172 0.06256172
0.91886608 0.06256172 0.06256219
0.91886608 0.06256172 0.06256172
0.91886608 0.06256227 0.06256227
0.06256172 0.06256172 0.06256172
0.06256172 0.06256172 0.06256172
0.06256172 0.06256172 0.06256172
0.09725627 0.06256172 0.06256172
0.13112353 0.06256178 0.06256172
0.16455071 0.06256172 0.06256172
0.19767118 0.06256172 0.06256180
0.23055350 0.06256181 0.06256181
0.26324006 0.06256181 0.06256172
0.29575990 0.06256183 0.06256184
0.32813425 0.06256185 0.06256184
0.36037934 0.06256187 0.06256172
0.39250800 0.06256172 0.06256172
0.42453066 0.06256172 0.06256172
0.45645598 0.06256172 0.06256172
0.48829124 0.06256172 0.06256172
0.52004267 0.06256187 0.06256191
0.55171567 0.06256172 0.06256172
0.58331497 0.06256195 0.06256194
0.61484473 0.06256194 0.06256172
0.64630864 0.06256172 0.06256172
0.67771003 0.06256197 0.06256172
0.70905187 0.06256203 0.06256172
0.74033688 0.06256172 0.06256172
0.77156751 0.06256172 0.06256172
0.80274601 0.06256206 0.06256204
0.83387445 0.06256172 0.06256172
0.86495472 0.06256172 0.06256172
0.89598860 0.06256172 0.06256172
0.91886608 0.06256172 0.06256172
0.91886608 0.06256172 0.06256219
0.91886608 0.06256172 0.06256172
0.91886608 0.06256227 0.06256227
0.06256178 0.09725627 0.06256172
0.06256178 0.09725627 0.06256172
0.06256178 0.09725627 0.06256172
0.09725627 0.09725627 0.06256172
0.13112353 0.09725627 0.06256172
0.16455071 0.09725627 0.06256172
0.19767118 0.09725627 0.06256180
0.23055350 0.09725627 0.06256181
0.26324006 0.09725627 0.06256172
0.29575990 0.09725627 0.06256172
0.32813425 0.09725627 0.06256172
0.36037934 0.09725627 0.06256172
0.39250800 0.09725627 0.06256172
0.42453066 0.09725627 0.06256172
0.45645598 0.09725627 0.06256172
0.48829124 0.09725627 0.06256172
0.52004267 0.09725627 0.06256191
0.55171567 0.09725627 0.06256172
0.58331497 0.09725627 0.06256172
0.61484473 0.09725627 0.06256172
0.64630864 0.09725627 0.06256197
0.67771003 0.09725627 0.06256197
0.70905187 0.09725627 0.06256172
0.74033688 0.09725627 0.06256172
0.77156751 0.09725627 0.06256172
0.80274601 0.09725627 0.06256172
0.83387445 0.09725627 0.06256172
0.86495472 0.09725627 0.06256172
0.89598860 0.09725627 0.06256172
0.91886608 0.09725627 0.06256213
0.91886608 0.09725627 0.06256219
0.91886608 0.09725627 0.06256172
0.91886608 0.09725627 0.06256172
0.06256181 0.13112353 0.06256172
0.06256181 0.13112353 0.06256172
0.06256181 0.13112353 0.06256172
0.09725627 0.13112353 0.06256172
0.13112353 0.13112353 0.06256172
0.16455071 0.13112353 0.06256172
0.19767118 0.13112353 0.06256180
0.23055350 0.13112353 0.06256181
0.26324006 0.13112353 0.06256172
0.29575990 0.13112353 0.06256172
0.32813425 0.13112353 0.06256172
0.36037934 0.13112353 0.06256172
0.39250800 0.13112353 0.06256187
0.42453066 0.13112353 0.06256187
0.45645598 0.13112353 0.06256189
0.48829124 0.13112353 0.06256172
0.52004267 0.13112353 0.06256172
0.55171567 0.13112353 0.06256191
0.58331497 0.13112353 0.06256172
0.61484473 0.13112353 0.06256172
0.64630864 0.13112353 0.06256172
0.67771003 0.13112353 0.06256172
0.70905187 0.13112353 0.06256172
0.74033688 0.13112353 0.06256172
0.77156751 0.13112353 0.06256172
0.80274601 0.13112353 0.06256172
0.83387445 0.13112353 0.06256172
0.86495472 0.13112353 0.06256208
0.89598860 0.13112353 0.06256219
0.91886608 0.13112353 0.06256172
0.91886608 0.13112353 0.06256219
0.91886608 0.13112353 0.06256172
0.91886608 0.13112353 0.06256227
0.06256178 0.16455071 0.06256172
0.06256178 0.16455071 0.06256172
0.06256178 0.16455071 0.06256172
0.09725627 0.16455071 0.06256172
0.13112353 0.16455071 0.06256172
0.16455071 0.16455071 0.06256172
0.19767118 0.16455071 0.06256182
0.23055350 0.16455071 0.06256172
0.26324006 0.16455071 0.06256172
0.29575990 0.16455071 0.06256184
0.32813425 0.16455071 0.06256185
0.36037934 0.16455071 0.06256172
0.39250800 0.16455071 0.06256172
0.42453066 0.16455071 0.06256172
0.45645598 0.16455071 0.06256189
0.48829124 0.16455071 0.06256172
0.52004267 0.16455071 0.06256172
0.55171567 0.16455071 0.06256172
0.58331497 0.16455071 0.06256172
0.61484473 0.16455071 0.06256172
0.64630864 0.16455071 0.06256172
0.67771003 0.16455071 0.06256172
0.70905187 0.16455071 0.06256172
0.74033688 0.16455071 0.06256172
0.77156751 0.16455071 0.06256172
0.80274601 0.16455071 0.06256204
0.83387445 0.16455071 0.06256208
0.86495472 0.16455071 0.06256172
0.89598860 0.16455071 0.06256213
0.91886608 0.16455071 0.06256172
0.91886608 0.16455071 0.06256172
0.91886608 0.16455071 0.06256172
0.91886608 0.16455071 0.06256227
0.06256181 0.19767118 0.06256172
0.06256181 0.19767118 0.06256172
0.06256181 0.19767118 0.06256172
0.09725627 0.19767118 0.06256172
0.13112353 0.19767118 0.06256172
0.16455071 0.19767118 0.06256172
0.19767118 0.19767118 0.06256181
0.23055350 0.19767118 0.06256172
0.26324006 0.19767118 0.06256172
0.29575990 0.19767118 0.06256172
0.32813425 0.19767118 0.06256172
0.36037934 0.19767118 0.06256172
0.39250800 0.19767118 0.06256172
0.42453066 0.19767118 0.06256187
0.45645598 0.19767118 0.06256189
0.48829124 0.19767118 0.06256172
0.52004267 0.19767118 0.06256172
0.55171567 0.19767118 0.06256172
0.58331497 0.19767118 0.06256172
0.61484473 0.19767118 0.06256172
0.64630864 0.19767118 0.06256172
0.67771003 0.19767118 0.06256172
0.70905187 0.19767118 0.06256200
0.74033688 0.19767118 0.06256200
0.77156751 0.19767118 0.06256172
0.80274601 0.19767118 0.06256204
0.83387445 0.19767118 0.06256172
0.86495472 0.19767118 0.06256213
0.89598860 0.19767118 0.06256213
0.91886608 0.19767118 0.06256172
0.91886608 0.19767118 0.06256172
0.91886608 0.19767118 0.06256172
0.91886608 0.19767118 0.06256172
0.06256184 0.23055350 0.06256172
0.06256184 0.23055350 0.06256172
0.06256184 0.23055350 0.06256172
0.09725627 0.23055350 0.06256172
0.13112353 0.23055350 0.06256172
0.16455071 0.23055350 0.06256172
0.19767118 0.23055350 0.06256172
0.23055350 0.23055350 0.06256172
0.26324006 0.23055350 0.06256172
0.29575990 0.23055350 0.06256172
0.32813425 0.23055350 0.06256185
0.36037934 0.23055350 0.06256172
0.39250800 0.23055350 0.06256172
0.42453066 0.23055350 0.06256172
0.45645598 0.23055350 0.06256189
0.48829124 0.23055350 0.06256172
0.52004267 0.23055350 0.06256172
0.55171567 0.23055350 0.06256172
0.58331497 0.23055350 0.06256194
0.61484473 0.23055350 0.06256194
0.64630864 0.23055350 0.06256172
0.67771003 0.23055350 0.06256172
0.70905187 0.23055350 0.06256172
0.74033688 0.23055350 0.06256200
0.77156751 0.23055350 0.06256172
0.80274601 0.23055350 0.06256172
0.83387445 0.23055350 0.06256172
0.86495472 0.23055350 0.06256172
0.89598860 0.23055350 0.06256172
0.91886608 0.23055350 0.06256172
0.91886608 0.23055350 0.06256172
0.91886608 0.23055350 0.06256172
0.91886608 0.23055350 0.06256172
0.06256172 0.26324006 0.06256172
0.06256172 0.26324006 0.06256172
0.06256172 0.26324006 0.06256172
0.09725627 0.26324006 0.06256172
0.13112353 0.26324006 0.06256172
0.16455071 0.26324006 0.06256184
0.19767118 0.26324006 0.06256172
0.23055350 0.26324006 0.06256172
0.26324006 0.26324006 0.06256172
0.29575990 0.26324006 0.06256172
0.32813425 0.26324006 0.06256172
0.36037934 0.26324006 0.06256172
0.39250800 0.26324006 0.06256172
0.42453066 0.26324006 0.06256187
0.45645598 0.26324006 0.06256189
0.48829124 0.26324006 0.06256172
0.52004267 0.26324006 0.06256191
0.55171567 0.26324006 0.06256194
0.58331497 0.26324006 0.06256172
0.61484473 0.26324006 0.06256172
0.64630864 0.26324006 0.06256172
0.67771003 0.26324006 0.06256172
0.70905187 0.26324006 0.06256172
0.74033688 0.26324006 0.06256172
0.77156751 0.26324006 0.06256172
0.80274601 0.26324006 0.06256204
0.83387445 0.26324006 0.06256172
0.86495472 0.26324006 0.06256208
0.89598860 0.26324006 0.06256172
0.91886608 0.26324006 0.06256172
0.91886608 0.26324006 0.06256172
0.91886608 0.26324006 0.06256172
0.91886608 0.26324006 0.06256172
0.06256185 0.29575990 0.06256172
0.06256185 0.29575990 0.06256172
0.06256185 0.29575990 0.06256172
0.09725627 0.29575990 0.06256172
0.13112353 0.29575990 0.06256172
0.16455071 0.29575990 0.06256172
0.19767118 0.29575990 0.06256172
0.23055350 0.29575990 0.06256172
0.26324006 0.29575990 0.06256185
0.29575990 0.29575990 0.06256172
0.32813425 0.29575990 0.06256185
0.36037934 0.29575990 0.06256187
0.39250800 0.29575990 0.06256187
0.42453066 0.29575990 0.06256189
0.45645598 0.29575990 0.06256172
0.48829124 0.29575990 0.06256172
0.52004267 0.29575990 0.06256191
0.55171567 0.29575990 0.06256172
0.58331497 0.29575990 0.06256172
0.61484473 0.29575990 0.06256172
0.64630864 0.29575990 0.06256172
0.67771003 0.29575990 0.06256172
0.70905187 0.29575990 0.06256172
0.74033688 0.29575990 0.06256200
0.77156751 0.29575990 0.06256204
0.80274601 0.29575990 0.06256204
0.83387445 0.29575990 0.06256172
0.86495472 0.29575990 0.06256172
0.89598860 0.29575990 0.06256213
0.91886608 0.29575990 0.06256172
0.91886608 0.29575990 0.06256172
0.91886608 0.29575990 0.06256172
0.91886608 0.29575990 0.06256172
0.06256187 0.32813425 0.06256172
0.06256187 0.32813425 0.06256172
0.06256187 0.32813425 0.06256172
0.09725627 0.32813425 0.06256172
0.13112353 0.32813425 0.06256172
0.16455071 0.32813425 0.06256172
0.19767118 0.32813425 0.06256172
0.23055350 0.32813425 0.06256172
0.26324006 0.32813425 0.06256172
0.29575990 0.32813425 0.06256172
0.32813425 0.32813425 0.06256172
0.36037934 0.32813425 0.06256172
0.39250800 0.32813425 0.06256172
0.42453066 0.32813425 0.06256172
0.45645598 0.32813425 0.06256172
0.48829124 0.32813425 0.06256172
0.52004267 0.32813425 0.06256172
0.55171567 0.32813425 0.06256194
0.58331497 0.32813425 0.06256172
0.61484473 0.32813425 0.06256172
0.64630864 0.32813425 0.06256172
0.67771003 0.32813425 0.06256172
0.70905187 0.32813425 0.06256200
0.74033688 0.32813425 0.06256200
0.77156751 0.32813425 0.06256172
0.80274601 0.32813425 0.06256204
0.83387445 0.32813425 0.06256172
0.86495472 0.32813425 0.06256172
0.89598860 0.32813425 0.06256172
0.91886608 0.32813425 0.06256172
0.91886608 0.32813425 0.06256172
0.91886608 0.32813425 0.06256172
0.91886608 0.32813425 0.06256172
0.06256191 0.36037934 0.06256172
0.06256191 0.36037934 0.06256172
0.06256191 0.36037934 0.06256172
0.09725627 0.36037934 0.06256172
0.13112353 0.36037934 0.06256172
0.16455071 0.36037934 0.06256172
0.19767118 0.36037934 0.06256172
0.23055350 0.36037934 0.06256172
0.26324006 0.36037934 0.06256172
0.29575990 0.36037934 0.06256172
0.32813425 0.36037934 0.06256172
0.36037934 0.36037934 0.06256187
0.39250800 0.36037934 0.06256172
0.42453066 0.36037934 0.06256172
0.45645598 0.36037934 0.06256189
0.48829124 0.36037934 0.06256172
0.52004267 0.36037934 0.06256172
0.55171567 0.36037934 0.06256172
0.58331497 0.36037934 0.06256172
0.61484473 0.36037934 0.06256172
0.64630864 0.36037934 0.06256197
0.67771003 0.36037934 0.06256172
0.70905187 0.36037934 0.06256172
0.74033688 0.36037934 0.06256200
0.77156751 0.36037934 0.06256172
0.80274601 0.36037934 0.06256204
0.83387445 0.36037934 0.06256172
0.86495472 0.36037934 0.06256172
0.89598860 0.36037934 0.06256172
0.91886608 0.36037934 0.06256172
0.91886608 0.36037934 0.06256172
0.91886608 0.36037934 0.06256172
0.91886608 0.36037934 0.06256172
0.06256186 0.39250800 0.06256187
0.06256186 0.39250800 0.06256187
0.06256186 0.39250800 0.06256187
0.09725627 0.39250800 0.06256187
0.13112353 0.39250800 0.06256187
0.16455071 0.39250800 0.06256187
0.19767118 0.39250800 0.06256172
0.23055350 0.39250800 0.06256172
0.26324006 0.39250800 0.06256172
0.29575990 0.39250800 0.06256187
0.32813425 0.39250800 0.06256172
0.36037934 0.39250800 0.06256172
0.39250800 0.39250800 0.06256172
0.42453066 0.39250800 0.06256172
0.45645598 0.39250800 0.06256172
0.48829124 0.39250800 0.06256172
0.52004267 0.39250800 0.06256191
0.55171567 0.39250800 0.06256172
0.58331497 0.39250800 0.06256172
0.61484473 0.39250800 0.06256172
0.64630864 0.39250800 0.06256172
0.67771003 0.39250800 0.06256172
0.70905187 0.39250800 0.06256200
0.74033688 0.39250800 0.06256172
0.77156751 0.39250800 0.06256172
0.80274601 0.39250800 0.06256172
0.83387445 0.39250800 0.06256208
0.86495472 0.39250800 0.06256208
0.89598860 0.39250800 0.06256172
0.91886608 0.39250800 0.06256172
0.91886608 0.39250800 0.06256172
0.91886608 0.39250800 0.06256172
0.91886608 0.39250800 0.06256227
0.06256184 0.42453066 0.06256172
0.06256184 0.42453066 0.06256172
0.06256184 0.42453066 0.06256172
0.09725627 0.42453066 0.06256172
0.13112353 0.42453066 0.06256172
0.16455071 0.42453066 0.06256172
0.19767118 0.42453066 0.06256189
0.23055350 0.42453066 0.06256172
0.26324006 0.42453066 0.06256172
0.29575990 0.42453066 0.06256172
0.32813425 0.42453066 0.06256189
0.36037934 0.42453066 0.06256172
0.39250800 0.42453066 0.06256172
0.42453066 0.42453066 0.06256172
0.45645598 0.42453066 0.06256172
0.48829124 0.42453066 0.06256172
0.52004267 0.42453066 0.06256191
0.55171567 0.42453066 0.06256172
0.58331497 0.42453066 0.06256194
0.61484473 0.42453066 0.06256172
0.64630864 0.42453066 0.06256172
0.67771003 0.42453066 0.06256172
0.70905187 0.42453066 0.06256172
0.74033688 0.42453066 0.06256172
0.77156751 0.42453066 0.06256172
0.80274601 0.42453066 0.06256172
0.83387445 0.42453066 0.06256172
0.86495472 0.42453066 0.06256172
0.89598860 0.42453066 0.06256172
0.91886608 0.42453066 0.06256172
0.91886608 0.42453066 0.06256172
0.91886608 0.42453066 0.06256172
0.91886608 0.42453066 0.06256227
0.06256188 0.45645598 0.06256172
0.06256188 0.45645598 0.06256172
0.06256188 0.45645598 0.06256172
0.09725627 0.45645598 0.06256172
0.13112353 0.45645598 0.06256172
0.16455071 0.45645598 0.06256172
0.19767118 0.45645598 0.06256172
0.23055350 0.45645598 0.06256172
0.26324006 0.45645598 0.06256172
0.29575990 0.45645598 0.06256172
0.32813425 0.45645598 0.06256189
0.36037934 0.45645598 0.06256172
0.39250800 0.45645598 0.06256172
0.42453066 0.45645598 0.06256172
0.45645598 0.45645598 0.06256172
0.48829124 0.45645598 0.06256191
0.52004267 0.45645598 0.06256172
0.55171567 0.45645598 0.06256194
0.58331497 0.45645598 0.06256172
0.61484473 0.45645598 0.06256172
0.64630864 0.45645598 0.06256172
0.67771003 0.45645598 0.06256172
0.70905187 0.45645598 0.06256172
0.74033688 0.45645598 0.06256172
0.77156751 0.45645598 0.06256172
0.80274601 0.45645598 0.06256172
0.83387445 0.45645598 0.06256172
0.86495472 0.45645598 0.06256172
0.89598860 0.45645598 0.06256213
0.91886608 0.45645598 0.06256172
0.91886608 0.45645598 0.06256172
0.91886608 0.45645598 0.06256172
0.91886608 0.45645598 0.06256172
0.06256194 0.48829124 0.06256172
0.06256194 0.48829124 0.06256172
0.06256194 0.48829124 0.06256172
0.09725627 0.48829124 0.06256172
0.13112353 0.48829124 0.06256172
0.16455071 0.48829124 0.06256172
0.19767118 0.48829124 0.06256172
0.23055350 0.48829124 0.06256172
0.26324006 0.48829124 0.06256172
0.29575990 0.48829124 0.06256172
0.32813425 0.48829124 0.06256172
0.36037934 0.48829124 0.06256172
0.39250800 0.48829124 0.06256191
0.42453066 0.48829124 0.06256172
0.45645598 0.48829124 0.06256172
0.48829124 0.48829124 0.06256172
0.52004267 0.48829124 0.06256172
0.55171567 0.48829124 0.06256172
0.58331497 0.48829124 0.06256172
0.61484473 0.48829124 0.06256172
0.64630864 0.48829124 0.06256172
0.67771003 0.48829124 0.06256172
0.70905187 0.48829124 0.06256200
0.74033688 0.48829124 0.06256204
0.77156751 0.48829124 0.06256172
0.80274601 0.48829124 0.06256172
0.83387445 0.48829124 0.06256172
0.86495472 0.48829124 0.06256172
0.89598860 0.48829124 0.06256213
0.91886608 0.48829124 0.06256172
0.91886608 0.48829124 0.06256172
0.91886608 0.48829124 0.06256172
0.91886608 0.48829124 0.06256227
0.06256172 0.52004267 0.06256191
0.06256172 0.52004267 0.06256191
0.06256172 0.52004267 0.06256191
0.09725627 0.52004267 0.06256172
0.13112353 0.52004267 0.06256191
0.16455071 0.52004267 0.06256191
0.19767118 0.52004267 0.06256172
0.23055350 0.52004267 0.06256172
0.26324006 0.52004267 0.06256172
0.29575990 0.52004267 0.06256172
0.32813425 0.52004267 0.06256172
0.36037934 0.52004267 0.06256172
0.39250800 0.52004267 0.06256172
0.42453066 0.52004267 0.06256172
0.45645598 0.52004267 0.06256172
0.48829124 0.52004267 0.06256194
0.52004267 0.52004267 0.06256172
0.55171567 0.52004267 0.06256172
0.58331497 0.52004267 0.06256172
0.61484473 0.52004267 0.06256197
0.64630864 0.52004267 0.06256172
0.67771003 0.52004267 0.06256172
0.70905187 0.52004267 0.06256172
0.74033688 0.52004267 0.06256172
0.77156751 0.52004267 0.06256172
0.80274601 0.52004267 0.06256172
0.83387445 0.52004267 0.06256172
0.86495472 0.52004267 0.06256172
0.89598860 0.52004267 0.06256172
0.91886608 0.52004267 0.06256172
0.91886608 0.52004267 0.06256172
0.91886608 0.52004267 0.06256172
0.91886608 0.52004267 0.06256172
0.06256197 0.55171567 0.06256172
0.06256197 0.55171567 0.06256172
0.06256197 0.55171567 0.06256172
0.09725627 0.55171567 0.06256172
0.13112353 0.55171567 0.06256172
0.16455071 0.55171567 0.06256172
0.19767118 0.55171567 0.06256172
0.23055350 0.55171567 0.06256172
0.26324006 0.55171567 0.06256172
0.29575990 0.55171567 0.06256194
0.32813425 0.55171567 0.06256194
0.36037934 0.55171567 0.06256194
0.39250800 0.55171567 0.06256172
0.42453066 0.55171567 0.06256194
0.45645598 0.55171567 0.06256194
0.48829124 0.55171567 0.06256172
0.52004267 0.55171567 0.06256194
0.55171567 0.55171567 0.06256197
0.58331497 0.55171567 0.06256197
0.61484473 0.55171567 0.06256197
0.64630864 0.55171567 0.06256172
0.67771003 0.55171567 0.06256172
0.70905187 0.55171567 0.06256172
0.74033688 0.55171567 0.06256172
0.77156751 0.55171567 0.06256204
0.80274601 0.55171567 0.06256172
0.83387445 0.55171567 0.06256172
0.86495472 0.55171567 0.06256208
0.89598860 0.55171567 0.06256172
0.91886608 0.55171567 0.06256172
0.91886608 0.55171567 0.06256172
0.91886608 0.55171567 0.06256172
0.91886608 0.55171567 0.06256172
0.06256194 0.58331497 0.06256172
0.06256194 0.58331497 0.06256172
0.06256194 0.58331497 0.06256172
0.09725627 0.58331497 0.06256172
0.13112353 0.58331497 0.06256172
0.16455071 0.58331497 0.06256172
0.19767118 0.58331497 0.06256172
0.23055350 0.58331497 0.06256172
0.26324006 0.58331497 0.06256172
0.29575990 0.58331497 0.06256172
0.32813425 0.58331497 0.06256172
0.36037934 0.58331497 0.06256172
0.39250800 0.58331497 0.06256172
0.42453066 0.58331497 0.06256172
0.45645598 0.58331497 0.06256172
0.48829124 0.58331497 0.06256197
0.52004267 0.58331497 0.06256172
0.55171567 0.58331497 0.06256172
0.58331497 0.58331497 0.06256197
0.61484473 0.58331497 0.06256172
0.64630864 0.58331497 0.06256172
0.67771003 0.58331497 0.06256172
0.70905187 0.58331497 0.06256200
0.74033688 0.58331497 0.06256172
0.77156751 0.58331497 0.06256172
0.80274601 0.58331497 0.06256172
0.83387445 0.58331497 0.06256172
0.86495472 0.58331497 0.06256172
0.89598860 0.58331497 0.06256172
0.91886608 0.58331497 0.06256172
0.91886608 0.58331497 0.06256172
0.91886608 0.58331497 0.06256172
0.91886608 0.58331497 0.06256172
0.06256200 0.61484473 0.06256172
0.06256200 0.61484473 0.06256172
0.06256200 0.61484473 0.06256172
0.09725627 0.61484473 0.06256172
0.13112353 0.61484473 0.06256172
0.16455071 0.61484473 0.06256172
0.19767118 0.61484473 0.06256172
0.23055350 0.61484473 0.06256172
0.26324006 0.61484473 0.06256172
0.29575990 0.61484473 0.06256172
0.32813425 0.61484473 0.06256172
0.36037934 0.61484473 0.06256197
0.39250800 0.61484473 0.06256172
0.42453066 0.61484473 0.06256172
0.45645598 0.61484473 0.06256172
0.48829124 0.61484473 0.06256197
0.52004267 0.61484473 0.06256197
0.55171567 0.61484473 0.06256172
0.58331497 0.61484473 0.06256200
0.61484473 0.61484473 0.06256172
0.64630864 0.61484473 0.06256172
0.67771003 0.61484473 0.06256172
0.70905187 0.61484473 0.06256204
0.74033688 0.61484473 0.06256172
0.77156751 0.61484473 0.06256172
0.80274601 0.61484473 0.06256172
0.83387445 0.61484473 0.06256208
0.86495472 0.61484473 0.06256172
0.89598860 0.61484473 0.06256213
0.91886608 0.61484473 0.06256172
0.91886608 0.61484473 0.06256172
0.91886608 0.61484473 0.06256219
0.91886608 0.61484473 0.06256172
0.06256198 0.64630864 0.06256172
0.06256198 0.64630864 0.06256172
0.06256198 0.64630864 0.06256172
0.09725627 0.64630864 0.06256172
0.13112353 0.64630864 0.06256197
0.16455071 0.64630864 0.06256197
0.19767118 0.64630864 0.06256172
0.23055350 0.64630864 0.06256172
0.26324006 0.64630864 0.06256200
0.29575990 0.64630864 0.06256172
0.32813425 0.64630864 0.06256197
0.36037934 0.64630864 0.06256172
0.39250800 0.64630864 0.06256172
0.42453066 0.64630864 0.06256172
0.45645598 0.64630864 0.06256172
0.48829124 0.64630864 0.06256172
0.52004267 0.64630864 0.06256172
0.55171567 0.64630864 0.06256172
0.58331497 0.64630864 0.06256200
0.61484473 0.64630864 0.06256172
0.64630864 0.64630864 0.06256172
0.67771003 0.64630864 0.06256172
0.70905187 0.64630864 0.06256172
0.74033688 0.64630864 0.06256204
0.77156751 0.64630864 0.06256172
0.80274601 0.64630864 0.06256172
0.83387445 0.64630864 0.06256208
0.86495472 0.64630864 0.06256172
0.89598860 0.64630864 0.06256172
0.91886608 0.64630864 0.06256172
0.91886608 0.64630864 0.06256219
0.91886608 0.64630864 0.06256227
0.91886608 0.64630864 0.06256172
0.06256200 0.67771003 0.06256172
0.06256200 0.67771003 0.06256172
0.06256200 0.67771003 0.06256172
0.09725627 0.67771003 0.06256172
0.13112353 0.67771003 0.06256172
0.16455071 0.67771003 0.06256200
0.19767118 0.67771003 0.06256172
0.23055350 0.67771003 0.06256200
0.26324006 0.67771003 0.06256172
0.29575990 0.67771003 0.06256172
0.32813425 0.67771003 0.06256172
0.36037934 0.67771003 0.06256172
0.39250800 0.67771003 0.06256172
0.42453066 0.67771003 0.06256172
0.45645598 0.67771003 0.06256172
0.48829124 0.67771003 0.06256172
0.52004267 0.67771003 0.06256172
0.55171567 0.67771003 0.06256172
0.58331497 0.67771003 0.06256172
0.61484473 0.67771003 0.06256172
0.64630864 0.67771003 0.06256200
0.67771003 0.67771003 0.06256172
0.70905187 0.67771003 0.06256172
0.74033688 0.67771003 0.06256172
0.77156751 0.67771003 0.06256172
0.80274601 0.67771003 0.06256172
0.83387445 0.67771003 0.06256172
