src/ffmpeg_scripts/luts/luminance-unclipped_2p33.cube
TITLE "luminance-unclipped_2p33"
LUT_3D_SIZE 9
# PQ (EOTF Only)/Rec2020 -> PQ (EOTF Only)/Rec2020, CineEI Shift 2.33, Black Level -7.25% IRE, Input 109% -> Output 109% - Created with LUTCalc v4.01 by Ben Turley October 2020
0.00047898 0.00047898 0.00047898
0.13424595 0.00047898 0.00047898
0.33831179 0.00047898 0.00047898
0.51449740 0.00047898 0.00047898
0.67568421 0.00047923 0.00047898
0.82670043 0.00047898 0.00047898
0.91886608 0.00047935 0.00047898
0.91886608 0.00047898 0.00047898
0.91886608 0.00047987 0.00047997
0.00047910 0.13424595 0.00047898
0.13424595 0.13424595 0.00047898
0.33831179 0.13424595 0.00047898
0.51449740 0.13424595 0.00047920
0.67568421 0.13424595 0.00047898
0.82670043 0.13424595 0.00047898
0.91886608 0.13424595 0.00047946
0.91886608 0.13424595 0.00047971
0.91886608 0.13424595 0.00047983
0.00047916 0.33831179 0.00047898
0.13424595 0.33831179 0.00047898
0.33831179 0.33831179 0.00047898
0.51449740 0.33831179 0.00047898
0.67568421 0.33831179 0.00047927
0.82670043 0.33831179 0.00047898
0.91886608 0.33831179 0.00047946
0.91886608 0.33831179 0.00047898
0.91886608 0.33831179 0.00047898
0.00047925 0.51449740 0.00047920
0.13424595 0.51449740 0.00047898
0.33831179 0.51449740 0.00047898
0.51449740 0.51449740 0.00047923
0.67568421 0.51449740 0.00047927
0.82670043 0.51449740 0.00047935
0.91886608 0.51449740 0.00047898
0.91886608 0.51449740 0.00047898
0.91886608 0.51449740 0.00047983
0.00047927 0.67568421 0.00047898
0.13424595 0.67568421 0.00047927
0.33831179 0.67568421 0.00047898
0.51449740 0.67568421 0.00047898
0.67568421 0.67568421 0.00047898
0.82670043 0.67568421 0.00047898
0.91886608 0.67568421 0.00047898
0.91886608 0.67568421 0.00047898
0.91886608 0.67568421 0.00047898
0.00047937 0.82670043 0.00047935
0.13424595 0.82670043 0.00047898
0.33831179 0.82670043 0.00047935
0.51449740 0.82670043 0.00047898
0.67568421 0.82670043 0.00047940
0.82670043 0.82670043 0.00047940
0.91886608 0.82670043 0.00047898
0.91886608 0.82670043 0.00047898
0.91886608 0.82670043 0.00047898
0.00047931 0.91886608 0.00047898
0.13424595 0.91886608 0.00047898
0.33831179 0.91886608 0.00047898
0.51449740 0.91886608 0.00047898
0.67568421 0.91886608 0.00047946
0.82670043 0.91886608 0.00047898
0.91886608 0.91886608 0.00047953
0.91886608 0.91886608 0.00047898
0.91886608 0.91886608 0.00047983
0.00047968 0.91886608 0.00047898
0.13424595 0.91886608 0.00047898
0.33831179 0.91886608 0.00047898
0.51449740 0.91886608 0.00047898
0.67568421 0.91886608 0.00047898
0.82670043 0.91886608 0.00047898
0.91886608 0.91886608 0.00047898
0.91886608 0.91886608 0.00047898
0.91886608 0.91886608 0.00047898
0.00047994 0.91886608 0.00047898
0.13424595 0.91886608 0.00047997
0.33831179 0.91886608 0.00047983
0.51449740 0.91886608 0.00047898
0.67568421 0.91886608 0.00047898
0.82670043 0.91886608 0.00047898
0.91886608 0.91886608 0.00047983
0.91886608 0.91886608 0.00047898
0.91886608 0.91886608 0.00047898
0.00047898 0.00047910 0.13424595
0.13424595 0.00047912 0.13424595
0.33831179 0.00047898 0.13424595
0.51449740 0.00047920 0.13424595
0.67568421 0.00047932 0.13424595
0.82670043 0.00047898 0.13424595
0.91886608 0.00047944 0.13424595
0.91886608 0.00047960 0.13424595
0.91886608 0.00047898 0.13424595
0.00047909 0.13424595 0.13424595
0.13424595 0.13424595 0.13424595
0.33831179 0.13424595 0.13424595
0.51449740 0.13424595 0.13424595
0.67568421 0.13424595 0.13424595
0.82670043 0.13424595 0.13424595
0.91886608 0.13424595 0.13424595
0.91886608 0.13424595 0.13424595
0.91886608 0.13424595 0.13424595
0.00047913 0.33831179 0.13424595
0.13424595 0.33831179 0.13424595
0.33831179 0.33831179 0.13424595
0.51449740 0.33831179 0.13424595
0.67568421 0.33831179 0.13424595
0.82670043 0.33831179 0.13424595
0.91886608 0.33831179 0.13424595
0.91886608 0.33831179 0.13424595
0.91886608 0.33831179 0.13424595
0.00047924 0.51449740 0.13424595
0.13424595 0.51449740 0.13424595
0.33831179 0.51449740 0.13424595
0.51449740 0.51449740 0.13424595
0.67568421 0.51449740 0.13424595
0.82670043 0.51449740 0.13424595
0.91886608 0.51449740 0.13424595
0.91886608 0.51449740 0.13424595
0.91886608 0.51449740 0.13424595
0.00047922 0.67568421 0.13424595
0.13424595 0.67568421 0.13424595
0.33831179 0.67568421 0.13424595
0.51449740 0.67568421 0.13424595
0.67568421 0.67568421 0.13424595
0.82670043 0.67568421 0.13424595
0.91886608 0.67568421 0.13424595
0.91886608 0.67568421 0.13424595
0.91886608 0.67568421 0.13424595
0.00047945 0.82670043 0.13424595
0.13424595 0.82670043 0.13424595
0.33831179 0.82670043 0.13424595
0.51449740 0.82670043 0.13424595
0.67568421 0.82670043 0.13424595
0.82670043 0.82670043 0.13424595
0.91886608 0.82670043 0.13424595
0.91886608 0.82670043 0.13424595
0.91886608 0.82670043 0.13424595
0.00047958 0.91886608 0.13424595
0.13424595 0.91886608 0.13424595
0.33831179 0.91886608 0.13424595
0.51449740 0.91886608 0.13424595
0.67568421 0.91886608 0.13424595
0.82670043 0.91886608 0.13424595
0.91886608 0.91886608 0.13424595
0.91886608 0.91886608 0.13424595
0.91886608 0.91886608 0.13424595
0.00047898 0.91886608 0.13424595
0.13424595 0.91886608 0.13424595
0.33831179 0.91886608 0.13424595
0.51449740 0.91886608 0.13424595
0.67568421 0.91886608 0.13424595
0.82670043 0.91886608 0.13424595
0.91886608 0.91886608 0.13424595
0.91886608 0.91886608 0.13424595
0.91886608 0.91886608 0.13424595
0.00048008 0.91886608 0.13424595
0.13424595 0.91886608 0.13424595
0.33831179 0.91886608 0.13424595
0.51449740 0.91886608 0.13424595
0.67568421 0.91886608 0.13424595
0.82670043 0.91886608 0.13424595
0.91886608 0.91886608 0.13424595
0.91886608 0.91886608 0.13424595
0.91886608 0.91886608 0.13424595
0.00047898 0.00047923 0.33831179
0.13424595 0.00047898 0.33831179
0.33831179 0.00047920 0.33831179
0.51449740 0.00047898 0.33831179
0.67568421 0.00047927 0.33831179
0.82670043 0.00047898 0.33831179
0.91886608 0.00047946 0.33831179
0.91886608 0.00047898 0.33831179
0.91886608 0.00047978 0.33831179
0.00047898 0.13424595 0.33831179
0.13424595 0.13424595 0.33831179
0.33831179 0.13424595 0.33831179
0.51449740 0.13424595 0.33831179
0.67568421 0.13424595 0.33831179
0.82670043 0.13424595 0.33831179
0.91886608 0.13424595 0.33831179
0.91886608 0.13424595 0.33831179
0.91886608 0.13424595 0.33831179
0.00047916 0.33831179 0.33831179
0.13424595 0.33831179 0.33831179
0.33831179 0.33831179 0.33831179
0.51449740 0.33831179 0.33831179
0.67568421 0.33831179 0.33831179
0.82670043 0.33831179 0.33831179
0.91886608 0.33831179 0.33831179
0.91886608 0.33831179 0.33831179
0.91886608 0.33831179 0.33831179
0.00047924 0.51449740 0.33831179
0.13424595 0.51449740 0.33831179
0.33831179 0.51449740 0.33831179
0.51449740 0.51449740 0.33831179
0.67568421 0.51449740 0.33831179
0.82670043 0.51449740 0.33831179
0.91886608 0.51449740 0.33831179
0.91886608 0.51449740 0.33831179
0.91886608 0.51449740 0.33831179
0.00047934 0.67568421 0.33831179
0.13424595 0.67568421 0.33831179
0.33831179 0.67568421 0.33831179
0.51449740 0.67568421 0.33831179
0.67568421 0.67568421 0.33831179
0.82670043 0.67568421 0.33831179
0.91886608 0.67568421 0.33831179
0.91886608 0.67568421 0.33831179
0.91886608 0.67568421 0.33831179
0.00047940 0.82670043 0.33831179
0.13424595 0.82670043 0.33831179
0.33831179 0.82670043 0.33831179
0.51449740 0.82670043 0.33831179
0.67568421 0.82670043 0.33831179
0.82670043 0.82670043 0.33831179
0.91886608 0.82670043 0.33831179
0.91886608 0.82670043 0.33831179
0.91886608 0.82670043 0.33831179
0.00047935 0.91886608 0.33831179
0.13424595 0.91886608 0.33831179
0.33831179 0.91886608 0.33831179
0.51449740 0.91886608 0.33831179
0.67568421 0.91886608 0.33831179
0.82670043 0.91886608 0.33831179
0.91886608 0.91886608 0.33831179
0.91886608 0.91886608 0.33831179
0.91886608 0.91886608 0.33831179
0.00047973 0.91886608 0.33831179
0.13424595 0.91886608 0.33831179
0.33831179 0.91886608 0.33831179
0.51449740 0.91886608 0.33831179
0.67568421 0.91886608 0.33831179
0.82670043 0.91886608 0.33831179
0.91886608 0.91886608 0.33831179
0.91886608 0.91886608 0.33831179
0.91886608 0.91886608 0.33831179
0.00047991 0.91886608 0.33831179
0.13424595 0.91886608 0.33831179
0.33831179 0.91886608 0.33831179
0.51449740 0.91886608 0.33831179
0.67568421 0.91886608 0.33831179
0.82670043 0.91886608 0.33831179
0.91886608 0.91886608 0.33831179
0.91886608 0.91886608 0.33831179
0.91886608 0.91886608 0.33831179
0.00047898 0.00047927 0.51449740
0.13424595 0.00047927 0.51449740
0.33831179 0.00047927 0.51449740
0.51449740 0.00047933 0.51449740
0.67568421 0.00047931 0.51449740
0.82670043 0.00047935 0.51449740
0.91886608 0.00047935 0.51449740
0.91886608 0.00047961 0.51449740
0.91886608 0.00047987 0.51449740
0.00047898 0.13424595 0.51449740
0.13424595 0.13424595 0.51449740
0.33831179 0.13424595 0.51449740
0.51449740 0.13424595 0.51449740
0.67568421 0.13424595 0.51449740
0.82670043 0.13424595 0.51449740
0.91886608 0.13424595 0.51449740
0.91886608 0.13424595 0.51449740
0.91886608 0.13424595 0.51449740
0.00047898 0.33831179 0.51449740
0.13424595 0.33831179 0.51449740
0.33831179 0.33831179 0.51449740
0.51449740 0.33831179 0.51449740
0.67568421 0.33831179 0.51449740
0.82670043 0.33831179 0.51449740
0.91886608 0.33831179 0.51449740
0.91886608 0.33831179 0.51449740
0.91886608 0.33831179 0.51449740
0.00047923 0.51449740 0.51449740
0.13424595 0.51449740 0.51449740
0.33831179 0.51449740 0.51449740
0.51449740 0.51449740 0.51449740
0.67568421 0.51449740 0.51449740
0.82670043 0.51449740 0.51449740
0.91886608 0.51449740 0.51449740
0.91886608 0.51449740 0.51449740
0.91886608 0.51449740 0.51449740
0.00047923 0.67568421 0.51449740
0.13424595 0.67568421 0.51449740
0.33831179 0.67568421 0.51449740
0.51449740 0.67568421 0.51449740
0.67568421 0.67568421 0.51449740
0.82670043 0.67568421 0.51449740
0.91886608 0.67568421 0.51449740
0.91886608 0.67568421 0.51449740
0.91886608 0.67568421 0.51449740
0.00047937 0.82670043 0.51449740
0.13424595 0.82670043 0.51449740
0.33831179 0.82670043 0.51449740
0.51449740 0.82670043 0.51449740
0.67568421 0.82670043 0.51449740
0.82670043 0.82670043 0.51449740
0.91886608 0.82670043 0.51449740
0.91886608 0.82670043 0.51449740
0.91886608 0.82670043 0.51449740
0.00047956 0.91886608 0.51449740
0.13424595 0.91886608 0.51449740
0.33831179 0.91886608 0.51449740
0.51449740 0.91886608 0.51449740
0.67568421 0.91886608 0.51449740
0.82670043 0.91886608 0.51449740
0.91886608 0.91886608 0.51449740
0.91886608 0.91886608 0.51449740
0.91886608 0.91886608 0.51449740
0.00047966 0.91886608 0.51449740
0.13424595 0.91886608 0.51449740
0.33831179 0.91886608 0.51449740
0.51449740 0.91886608 0.51449740
0.67568421 0.91886608 0.51449740
0.82670043 0.91886608 0.51449740
0.91886608 0.91886608 0.51449740
0.91886608 0.91886608 0.51449740
0.91886608 0.91886608 0.51449740
0.00047992 0.91886608 0.51449740
0.13424595 0.91886608 0.51449740
0.33831179 0.91886608 0.51449740
0.51449740 0.91886608 0.51449740
0.67568421 0.91886608 0.51449740
0.82670043 0.91886608 0.51449740
0.91886608 0.91886608 0.51449740
0.91886608 0.91886608 0.51449740
0.91886608 0.91886608 0.51449740
0.00047931 0.00047940 0.67568421
0.13424595 0.00047946 0.67568421
0.33831179 0.00047898 0.67568421
0.51449740 0.00047898 0.67568421
0.67568421 0.00047898 0.67568421
0.82670043 0.00047898 0.67568421
0.91886608 0.00047953 0.67568421
0.91886608 0.00047967 0.67568421
0.91886608 0.00048004 0.67568421
0.00047898 0.13424595 0.67568421
0.13424595 0.13424595 0.67568421
0.33831179 0.13424595 0.67568421
0.51449740 0.13424595 0.67568421
0.67568421 0.13424595 0.67568421
0.82670043 0.13424595 0.67568421
0.91886608 0.13424595 0.67568421
0.91886608 0.13424595 0.67568421
0.91886608 0.13424595 0.67568421
0.00047898 0.33831179 0.67568421
0.13424595 0.33831179 0.67568421
0.33831179 0.33831179 0.67568421
0.51449740 0.33831179 0.67568421
0.67568421 0.33831179 0.67568421
0.82670043 0.33831179 0.67568421
0.91886608 0.33831179 0.67568421
0.91886608 0.33831179 0.67568421
0.91886608 0.33831179 0.67568421
0.00047898 0.51449740 0.67568421
0.13424595 0.51449740 0.67568421
0.33831179 0.51449740 0.67568421
0.51449740 0.51449740 0.67568421
0.67568421 0.51449740 0.67568421
0.82670043 0.51449740 0.67568421
0.91886608 0.51449740 0.67568421
0.91886608 0.51449740 0.67568421
0.91886608 0.51449740 0.67568421
0.00047898 0.67568421 0.67568421
0.13424595 0.67568421 0.67568421
0.33831179 0.67568421 0.67568421
0.51449740 0.67568421 0.67568421
0.67568421 0.67568421 0.67568421
0.82670043 0.67568421 0.67568421
0.91886608 0.67568421 0.67568421
0.91886608 0.67568421 0.67568421
0.91886608 0.67568421 0.67568421
0.00047940 0.82670043 0.67568421
0.13424595 0.82670043 0.67568421
0.33831179 0.82670043 0.67568421
0.51449740 0.82670043 0.67568421
0.67568421 0.82670043 0.67568421
0.82670043 0.82670043 0.67568421
0.91886608 0.82670043 0.67568421
0.91886608 0.82670043 0.67568421
0.91886608 0.82670043 0.67568421
0.00047965 0.91886608 0.67568421
0.13424595 0.91886608 0.67568421
0.33831179 0.91886608 0.67568421
0.51449740 0.91886608 0.67568421
0.67568421 0.91886608 0.67568421
0.82670043 0.91886608 0.67568421
0.91886608 0.91886608 0.67568421
0.91886608 0.91886608 0.67568421
0.91886608 0.91886608 0.67568421
0.00047974 0.91886608 0.67568421
0.13424595 0.91886608 0.67568421
0.33831179 0.91886608 0.67568421
0.51449740 0.91886608 0.67568421
0.67568421 0.91886608 0.67568421
0.82670043 0.91886608 0.67568421
0.91886608 0.91886608 0.67568421
0.91886608 0.91886608 0.67568421
0.91886608 0.91886608 0.67568421
0.00047898 0.91886608 0.67568421
0.13424595 0.91886608 0.67568421
0.33831179 0.91886608 0.67568421
0.51449740 0.91886608 0.67568421
0.67568421 0.91886608 0.67568421
0.82670043 0.91886608 0.67568421
0.91886608 0.91886608 0.67568421
0.91886608 0.91886608 0.67568421
0.91886608 0.91886608 0.67568421
0.00047898 0.00047953 0.82670043
0.13424595 0.00047953 0.82670043
0.33831179 0.00047953 0.82670043
0.51449740 0.00047961 0.82670043
0.67568421 0.00047961 0.82670043
0.82670043 0.00047953 0.82670043
0.91886608 0.00047898 0.82670043
0.91886608 0.00047961 0.82670043
0.91886608 0.00047898 0.82670043
0.00047898 0.13424595 0.82670043
0.13424595 0.13424595 0.82670043
0.33831179 0.13424595 0.82670043
0.51449740 0.13424595 0.82670043
0.67568421 0.13424595 0.82670043
0.82670043 0.13424595 0.82670043
0.91886608 0.13424595 0.82670043
0.91886608 0.13424595 0.82670043
0.91886608 0.13424595 0.82670043
0.00047898 0.33831179 0.82670043
0.13424595 0.33831179 0.82670043
0.33831179 0.33831179 0.82670043
0.51449740 0.33831179 0.82670043
0.67568421 0.33831179 0.82670043
0.82670043 0.33831179 0.82670043
0.91886608 0.33831179 0.82670043
0.91886608 0.33831179 0.82670043
0.91886608 0.33831179 0.82670043
0.00047946 0.51449740 0.82670043
0.13424595 0.51449740 0.82670043
0.33831179 0.51449740 0.82670043
0.51449740 0.51449740 0.82670043
0.67568421 0.51449740 0.82670043
0.82670043 0.51449740 0.82670043
0.91886608 0.51449740 0.82670043
0.91886608 0.51449740 0.82670043
0.91886608 0.51449740 0.82670043
0.00047898 0.67568421 0.82670043
0.13424595 0.67568421 0.82670043
0.33831179 0.67568421 0.82670043
0.51449740 0.67568421 0.82670043
0.67568421 0.67568421 0.82670043
0.82670043 0.67568421 0.82670043
0.91886608 0.67568421 0.82670043
0.91886608 0.67568421 0.82670043
0.91886608 0.67568421 0.82670043
0.00047940 0.82670043 0.82670043
0.13424595 0.82670043 0.82670043
0.33831179 0.82670043 0.82670043
0.51449740 0.82670043 0.82670043
0.67568421 0.82670043 0.82670043
0.82670043 0.82670043 0.82670043
0.91886608 0.82670043 0.82670043
0.91886608 0.82670043 0.82670043
0.91886608 0.82670043 0.82670043
0.00047956 0.91886608 0.82670043
0.13424595 0.91886608 0.82670043
0.33831179 0.91886608 0.82670043
0.51449740 0.91886608 0.82670043
0.67568421 0.91886608 0.82670043
0.82670043 0.91886608 0.82670043
0.91886608 0.91886608 0.82670043
0.91886608 0.91886608 0.82670043
0.91886608 0.91886608 0.82670043
0.00047958 0.91886608 0.82670043
0.13424595 0.91886608 0.82670043
0.33831179 0.91886608 0.82670043
0.51449740 0.91886608 0.82670043
0.67568421 0.91886608 0.82670043
0.82670043 0.91886608 0.82670043
0.91886608 0.91886608 0.82670043
0.91886608 0.91886608 0.82670043
0.91886608 0.91886608 0.82670043
0.00048007 0.91886608 0.82670043
0.13424595 0.91886608 0.82670043
0.33831179 0.91886608 0.82670043
0.51449740 0.91886608 0.82670043
0.67568421 0.91886608 0.82670043
0.82670043 0.91886608 0.82670043
0.91886608 0.91886608 0.82670043
0.91886608 0.91886608 0.82670043
0.91886608 0.91886608 0.82670043
0.00047898 0.00047978 0.91886608
0.13424595 0.00047898 0.91886608
0.33831179 0.00047898 0.91886608
0.51449740 0.00047971 0.91886608
0.67568421 0.00047898 0.91886608
0.82670043 0.00047961 0.91886608
0.91886608 0.00047898 0.91886608
0.91886608 0.00047898 0.91886608
0.91886608 0.00047983 0.91886608
0.00047898 0.13424595 0.91886608
0.13424595 0.13424595 0.91886608
0.33831179 0.13424595 0.91886608
0.51449740 0.13424595 0.91886608
0.67568421 0.13424595 0.91886608
0.82670043 0.13424595 0.91886608
0.91886608 0.13424595 0.91886608
0.91886608 0.13424595 0.91886608
0.91886608 0.13424595 0.91886608
0.00047898 0.33831179 0.91886608
0.13424595 0.33831179 0.91886608
0.33831179 0.33831179 0.91886608
0.51449740 0.33831179 0.91886608
0.67568421 0.33831179 0.91886608
0.82670043 0.33831179 0.91886608
0.91886608 0.33831179 0.91886608
0.91886608 0.33831179 0.91886608
0.91886608 0.33831179 0.91886608
0.00047898 0.51449740 0.91886608
0.13424595 0.51449740 0.91886608
0.33831179 0.51449740 0.91886608
0.51449740 0.51449740 0.91886608
0.67568421 0.51449740 0.91886608
0.82670043 0.51449740 0.91886608
0.91886608 0.51449740 0.91886608
0.91886608 0.51449740 0.91886608
0.91886608 0.51449740 0.91886608
0.00047898 0.67568421 0.91886608
0.13424595 0.67568421 0.91886608
0.33831179 0.67568421 0.91886608
0.51449740 0.67568421 0.91886608
0.67568421 0.67568421 0.91886608
0.82670043 0.67568421 0.91886608
0.91886608 0.67568421 0.91886608
0.91886608 0.67568421 0.91886608
0.91886608 0.67568421 0.91886608
0.00047898 0.82670043 0.91886608
0.13424595 0.82670043 0.91886608
0.33831179 0.82670043 0.91886608
0.51449740 0.82670043 0.91886608
0.67568421 0.82670043 0.91886608
0.82670043 0.82670043 0.91886608
0.91886608 0.82670043 0.91886608
0.91886608 0.82670043 0.91886608
0.91886608 0.82670043 0.91886608
0.00047898 0.91886608 0.91886608
0.13424595 0.91886608 0.91886608
0.33831179 0.91886608 0.91886608
0.51449740 0.91886608 0.91886608
0.67568421 0.91886608 0.91886608
0.82670043 0.91886608 0.91886608
0.91886608 0.91886608 0.91886608
0.91886608 0.91886608 0.91886608
0.91886608 0.91886608 0.91886608
0.00047953 0.91886608 0.91886608
0.13424595 0.91886608 0.91886608
0.33831179 0.91886608 0.91886608
0.51449740 0.91886608 0.91886608
0.67568421 0.91886608 0.91886608
0.82670043 0.91886608 0.91886608
0.91886608 0.91886608 0.91886608
0.91886608 0.91886608 0.91886608
0.91886608 0.91886608 0.91886608
0.00047997 0.91886608 0.91886608
0.13424595 0.91886608 0.91886608
0.33831179 0.91886608 0.91886608
0.51449740 0.91886608 0.91886608
0.67568421 0.91886608 0.91886608
0.82670043 0.91886608 0.91886608
0.91886608 0.91886608 0.91886608
0.91886608 0.91886608 0.91886608
0.91886608 0.91886608 0.91886608
0.00047898 0.00047983 0.91886608
0.13424595 0.00047997 0.91886608
0.33831179 0.00047997 0.91886608
0.51449740 0.00047997 0.91886608
0.67568421 0.00047898 0.91886608
0.82670043 0.00047898 0.91886608
0.91886608 0.00047997 0.91886608
0.91886608 0.00047983 0.91886608
0.91886608 0.00048025 0.91886608
0.00047898 0.13424595 0.91886608
0.13424595 0.13424595 0.91886608
0.33831179 0.13424595 0.91886608
0.51449740 0.13424595 0.91886608
0.67568421 0.13424595 0.91886608
0.82670043 0.13424595 0.91886608
0.91886608 0.13424595 0.91886608
0.91886608 0.13424595 0.91886608
0.91886608 0.13424595 0.91886608
0.00047898 0.33831179 0.91886608
0.13424595 0.33831179 0.91886608
0.33831179 0.33831179 0.91886608
0.51449740 0.33831179 0.91886608
0.67568421 0.33831179 0.91886608
0.82670043 0.33831179 0.91886608
0.91886608 0.33831179 0.91886608
0.91886608 0.33831179 0.91886608
0.91886608 0.33831179 0.91886608
0.00047898 0.51449740 0.91886608
0.13424595 0.51449740 0.91886608
0.33831179 0.51449740 0.91886608
0.51449740 0.51449740 0.91886608
0.67568421 0.51449740 0.91886608
0.82670043 0.51449740 0.91886608
0.91886608 0.51449740 0.91886608
0.91886608 0.51449740 0.91886608
0.91886608 0.51449740 0.91886608
0.00047898 0.67568421 0.91886608
0.13424595 0.67568421 0.91886608
0.33831179 0.67568421 0.91886608
0.51449740 0.67568421 0.91886608
0.67568421 0.67568421 0.91886608
0.82670043 0.67568421 0.91886608
0.91886608 0.67568421 0.91886608
0.91886608 0.67568421 0.91886608
0.91886608 0.67568421 0.91886608
0.00047971 0.82670043 0.91886608
0.13424595 0.82670043 0.91886608
0.33831179 0.82670043 0.91886608
0.51449740 0.82670043 0.91886608
0.67568421 0.82670043 0.91886608
0.82670043 0.82670043 0.91886608
0.91886608 0.82670043 0.91886608
0.91886608 0.82670043 0.91886608
0.91886608 0.82670043 0.91886608
0.00047898 0.91886608 0.91886608
0.13424595 0.91886608 0.91886608
0.33831179 0.91886608 0.91886608
0.51449740 0.91886608 0.91886608
0.67568421 0.91886608 0.91886608
0.82670043 0.91886608 0.91886608
0.91886608 0.91886608 0.91886608
0.91886608 0.91886608 0.91886608
0.91886608 0.91886608 0.91886608
0.00047898 0.91886608 0.91886608
0.13424595 0.91886608 0.91886608
0.33831179 0.91886608 0.91886608
0.51449740 0.91886608 0.91886608
0.67568421 0.91886608 0.91886608
0.82670043 0.91886608 0.91886608
0.91886608 0.91886608 0.91886608
0.91886608 0.91886608 0.91886608
0.91886608 0.91886608 0.91886608
0.00048002 0.91886608 0.91886608
0.13424595 0.91886608 0.91886608
0.33831179 0.91886608 0.91886608
0.51449740 0.91886608 0.91886608
0.67568421 0.91886608 0.91886608
0.82670043 0.91886608 0.91886608
0.91886608 0.91886608 0.91886608
0.91886608 0.91886608 0.91886608
0.91886608 0.91886608 0.91886608
0.00047898 0.00048034 0.91886608
0.13424595 0.00047898 0.91886608
0.33831179 0.00048048 0.91886608
0.51449740 0.00048034 0.91886608
0.67568421 0.00048048 0.91886608
0.82670043 0.00048014 0.91886608
0.91886608 0.00048034 0.91886608
0.91886608 0.00048034 0.91886608
0.91886608 0.00048034 0.91886608
0.00047997 0.13424595 0.91886608
0.13424595 0.13424595 0.91886608
0.33831179 0.13424595 0.91886608
0.51449740 0.13424595 0.91886608
0.67568421 0.13424595 0.91886608
0.82670043 0.13424595 0.91886608
0.91886608 0.13424595 0.91886608
0.91886608 0.13424595 0.91886608
0.91886608 0.13424595 0.91886608
0.00047997 0.33831179 0.91886608
0.13424595 0.33831179 0.91886608
0.33831179 0.33831179 0.91886608
0.51449740 0.33831179 0.91886608
0.67568421 0.33831179 0.91886608
0.82670043 0.33831179 0.91886608
0.91886608 0.33831179 0.91886608
0.91886608 0.33831179 0.91886608
0.91886608 0.33831179 0.91886608
0.00048014 0.51449740 0.91886608
0.13424595 0.51449740 0.91886608
0.33831179 0.51449740 0.91886608
0.51449740 0.51449740 0.91886608
0.67568421 0.51449740 0.91886608
0.82670043 0.51449740 0.91886608
0.91886608 0.51449740 0.91886608
0.91886608 0.51449740 0.91886608
0.91886608 0.51449740 0.91886608
0.00047898 0.67568421 0.91886608
0.13424595 0.67568421 0.91886608
0.33831179 0.67568421 0.91886608
0.51449740 0.67568421 0.91886608
0.67568421 0.67568421 0.91886608
0.82670043 0.67568421 0.91886608
0.91886608 0.67568421 0.91886608
0.91886608 0.67568421 0.91886608
0.91886608 0.67568421 0.91886608
0.00047898 0.82670043 0.91886608
0.13424595 0.82670043 0.91886608
0.33831179 0.82670043 0.91886608
0.51449740 0.82670043 0.91886608
0.67568421 0.82670043 0.91886608
0.82670043 0.82670043 0.91886608
0.91886608 0.82670043 0.91886608
0.91886608 0.82670043 0.91886608
0.91886608 0.82670043 0.91886608
0.00047898 0.91886608 0.91886608
0.13424595 0.91886608 0.91886608
0.33831179 0.91886608 0.91886608
0.51449740 0.91886608 0.91886608
0.67568421 0.91886608 0.91886608
0.82670043 0.91886608 0.91886608
0.91886608 0.91886608 0.91886608
0.91886608 0.91886608 0.91886608
0.91886608 0.91886608 0.91886608
0.00047898 0.91886608 0.91886608
0.13424595 0.91886608 0.91886608
0.33831179 0.91886608 0.91886608
0.51449740 0.91886608 0.91886608
0.67568421 0.91886608 0.91886608
0.82670043 0.91886608 0.91886608
0.91886608 0.91886608 0.91886608
0.91886608 0.91886608 0.91886608
0.91886608 0.91886608 0.91886608
0.00047898 0.91886608 0.91886608
0.13424595 0.91886608 0.91886608
0.33831179 0.91886608 0.91886608
0.51449740 0.91886608 0.91886608
0.67568421 0.91886608 0.91886608
0.82670043 0.91886608 0.91886608
0.91886608 0.91886608 0.91886608
0.91886608 0.91886608 0.91886608
0.91886608 0.91886608 0.91886608
