src/ffmpeg_scripts/luts/luminance-unclipped_-4p00.cube
TITLE "luminance-unclipped_-4p00"
LUT_3D_SIZE 5
# PQ (EOTF Only)/Rec2020 -> PQ (EOTF Only)/Rec2020, CineEI Shift -4.00, Black Level -7.25% IRE, Input 109% -> Output 109% - Created with LUTCalc v4.01 by Ben Turley October 2020
0.00047898 0.00047898 0.00047898
0.08337344 0.00047898 0.00047898
0.26438931 0.00047912 0.00047912
0.50439424 0.00047898 0.00047898
0.79572210 0.00047929 0.00047898
0.00047898 0.08337344 0.00047898
0.08337344 0.08337344 0.00047898
0.26438931 0.08337344 0.00047898
0.50439424 0.08337344 0.00047898
0.79572210 0.08337344 0.00047898
0.00047911 0.26438931 0.00047898
0.08337344 0.26438931 0.00047898
0.26438931 0.26438931 0.00047898
0.50439424 0.26438931 0.00047898
0.79572210 0.26438931 0.00047898
0.00047922 0.50439424 0.00047898
0.08337344 0.50439424 0.00047898
0.26438931 0.50439424 0.00047898
0.50439424 0.50439424 0.00047898
0.79572210 0.50439424 0.00047935
0.00047940 0.79572210 0.00047898
0.08337344 0.79572210 0.00047935
0.26438931 0.79572210 0.00047898
0.50439424 0.79572210 0.00047898
0.79572210 0.79572210 0.00047898
0.00047898 0.00047908 0.08337344
0.08337344 0.00047908 0.08337344
0.26438931 0.00047910 0.08337344
0.50439424 0.00047918 0.08337344
0.79572210 0.00047927 0.08337344
0.00047898 0.08337344 0.08337344
0.08337344 0.08337344 0.08337344
0.26438931 0.08337344 0.08337344
0.50439424 0.08337344 0.08337344
0.79572210 0.08337344 0.08337344
0.00047913 0.26438931 0.08337344
0.08337344 0.26438931 0.08337344
0.26438931 0.26438931 0.08337344
0.50439424 0.26438931 0.08337344
0.79572210 0.26438931 0.08337344
0.00047922 0.50439424 0.08337344
0.08337344 0.50439424 0.08337344
0.26438931 0.50439424 0.08337344
0.50439424 0.50439424 0.08337344
0.79572210 0.50439424 0.08337344
0.00047939 0.79572210 0.08337344
0.08337344 0.79572210 0.08337344
0.26438931 0.79572210 0.08337344
0.50439424 0.79572210 0.08337344
0.79572210 0.79572210 0.08337344
0.00047898 0.00047916 0.26438931
0.08337344 0.00047916 0.26438931
0.26438931 0.00047916 0.26438931
0.50439424 0.00047920 0.26438931
0.79572210 0.00047941 0.26438931
0.00047898 0.08337344 0.26438931
0.08337344 0.08337344 0.26438931
0.26438931 0.08337344 0.26438931
0.50439424 0.08337344 0.26438931
0.79572210 0.08337344 0.26438931
0.00047898 0.26438931 0.26438931
0.08337344 0.26438931 0.26438931
0.26438931 0.26438931 0.26438931
0.50439424 0.26438931 0.26438931
0.79572210 0.26438931 0.26438931
0.00047926 0.50439424 0.26438931
0.08337344 0.50439424 0.26438931
0.26438931 0.50439424 0.26438931
0.50439424 0.50439424 0.26438931
0.79572210 0.50439424 0.26438931
0.00047898 0.79572210 0.26438931
0.08337344 0.79572210 0.26438931
0.26438931 0.79572210 0.26438931
0.50439424 0.79572210 0.26438931
0.79572210 0.79572210 0.26438931
0.00047898 0.00047927 0.50439424
0.08337344 0.00047927 0.50439424
0.26438931 0.00047927 0.50439424
0.50439424 0.00047927 0.50439424
0.79572210 0.00047898 0.50439424
0.00047898 0.08337344 0.50439424
0.08337344 0.08337344 0.50439424
0.26438931 0.08337344 0.50439424
0.50439424 0.08337344 0.50439424
0.79572210 0.08337344 0.50439424
0.00047898 0.26438931 0.50439424
0.08337344 0.26438931 0.50439424
0.26438931 0.26438931 0.50439424
0.50439424 0.26438931 0.50439424
0.79572210 0.26438931 0.50439424
0.00047898 0.50439424 0.50439424
0.08337344 0.50439424 0.50439424
0.26438931 0.50439424 0.50439424
0.50439424 0.50439424 0.50439424
0.79572210 0.50439424 0.50439424
0.00047932 0.79572210 0.50439424
0.08337344 0.79572210 0.50439424
0.26438931 0.79572210 0.50439424
0.50439424 0.79572210 0.50439424
0.79572210 0.79572210 0.50439424
0.00047898 0.00047946 0.79572210
0.08337344 0.00047946 0.79572210
0.26438931 0.00047953 0.79572210
0.50439424 0.00047953 0.79572210
0.79572210 0.00047898 0.79572210
0.00047898 0.08337344 0.79572210
0.08337344 0.08337344 0.79572210
0.26438931 0.08337344 0.79572210
0.50439424 0.08337344 0.79572210
0.79572210 0.08337344 0.79572210
0.00047898 0.26438931 0.79572210
0.08337344 0.26438931 0.79572210
0.26438931 0.26438931 0.79572210
0.50439424 0.26438931 0.79572210
0.79572210 0.26438931 0.79572210
0.00047940 0.50439424 0.79572210
0.08337344 0.50439424 0.79572210
0.26438931 0.50439424 0.79572210
0.50439424 0.50439424 0.79572210
0.79572210 0.50439424 0.79572210
0.00047940 0.79572210 0.79572210
0.08337344 0.79572210 0.79572210
0.26438931 0.79572210 0.79572210
0.50439424 0.79572210 0.79572210
0.79572210 0.79572210 0.79572210
