src/ffmpeg_scripts/luts/luminance_-0p33.cube
TITLE "luminance_-0p33"
LUT_3D_SIZE 5
# PQ (EOTF Only)/Rec2020 -> PQ (EOTF Only)/Rec2020, CineEI Shift -0.33, Black Level 0.00% IRE, Input 109% -> Output 109% - Created with LUTCalc v4.01 by Ben Turley October 2020
0.06256172 0.06256172 0.06256172
0.23732126 0.06256172 0.06256172
0.48026455 0.06256187 0.06256191
0.72841341 0.06256172 0.06256172
0.91886608 0.06256213 0.06256219
0.06256183 0.23732126 0.06256172
0.23732126 0.23732126 0.06256172
0.48026455 0.23732126 0.06256189
0.72841341 0.23732126 0.06256172
0.91886608 0.23732126 0.06256172
0.06256172 0.48026455 0.06256172
0.23732126 0.48026455 0.06256172
0.48026455 0.48026455 0.06256172
0.72841341 0.48026455 0.06256172
0.91886608 0.48026455 0.06256172
0.06256172 0.72841341 0.06256172
0.23732126 0.72841341 0.06256172
0.48026455 0.72841341 0.06256172
0.72841341 0.72841341 0.06256172
0.91886608 0.72841341 0.06256219
0.06256228 0.91886608 0.06256227
0.23732126 0.91886608 0.06256172
0.48026455 0.91886608 0.06256172
0.72841341 0.91886608 0.06256172
0.91886608 0.91886608 0.06256172
0.06256172 0.06256185 0.23732126
0.23732126 0.06256185 0.23732126
0.48026455 0.06256191 0.23732126
0.72841341 0.06256172 0.23732126
0.91886608 0.06256217 0.23732126
0.06256172 0.23732126 0.23732126
0.23732126 0.23732126 0.23732126
0.48026455 0.23732126 0.23732126
0.72841341 0.23732126 0.23732126
0.91886608 0.23732126 0.23732126
0.06256194 0.48026455 0.23732126
0.23732126 0.48026455 0.23732126
0.48026455 0.48026455 0.23732126
0.72841341 0.48026455 0.23732126
0.91886608 0.48026455 0.23732126
0.06256213 0.72841341 0.23732126
0.23732126 0.72841341 0.23732126
0.48026455 0.72841341 0.23732126
0.72841341 0.72841341 0.23732126
0.91886608 0.72841341 0.23732126
0.06256172 0.91886608 0.23732126
0.23732126 0.91886608 0.23732126
0.48026455 0.91886608 0.23732126
0.72841341 0.91886608 0.23732126
0.91886608 0.91886608 0.23732126
0.06256172 0.06256200 0.48026455
0.23732126 0.06256172 0.48026455
0.48026455 0.06256197 0.48026455
0.72841341 0.06256197 0.48026455
0.91886608 0.06256228 0.48026455
0.06256172 0.23732126 0.48026455
0.23732126 0.23732126 0.48026455
0.48026455 0.23732126 0.48026455
0.72841341 0.23732126 0.48026455
0.91886608 0.23732126 0.48026455
0.06256172 0.48026455 0.48026455
0.23732126 0.48026455 0.48026455
0.48026455 0.48026455 0.48026455
0.72841341 0.48026455 0.48026455
0.91886608 0.48026455 0.48026455
0.06256172 0.72841341 0.48026455
0.23732126 0.72841341 0.48026455
0.48026455 0.72841341 0.48026455
0.72841341 0.72841341 0.48026455
0.91886608 0.72841341 0.48026455
0.06256172 0.91886608 0.48026455
0.23732126 0.91886608 0.48026455
0.48026455 0.91886608 0.48026455
0.72841341 0.91886608 0.48026455
0.91886608 0.91886608 0.48026455
0.06256172 0.06256213 0.72841341
0.23732126 0.06256172 0.72841341
0.48026455 0.06256213 0.72841341
0.72841341 0.06256213 0.72841341
0.91886608 0.06256172 0.72841341
0.06256172 0.23732126 0.72841341
0.23732126 0.23732126 0.72841341
0.48026455 0.23732126 0.72841341
0.72841341 0.23732126 0.72841341
0.91886608 0.23732126 0.72841341
0.06256172 0.48026455 0.72841341
0.23732126 0.48026455 0.72841341
0.48026455 0.48026455 0.72841341
0.72841341 0.48026455 0.72841341
0.91886608 0.48026455 0.72841341
0.06256172 0.72841341 0.72841341
0.23732126 0.72841341 0.72841341
0.48026455 0.72841341 0.72841341
0.72841341 0.72841341 0.72841341
0.91886608 0.72841341 0.72841341
0.06256228 0.91886608 0.72841341
0.23732126 0.91886608 0.72841341
0.48026455 0.91886608 0.72841341
0.72841341 0.91886608 0.72841341
0.91886608 0.91886608 0.72841341
0.06256172 0.06256245 0.91886608
0.23732126 0.06256245 0.91886608
0.48026455 0.06256257 0.91886608
0.72841341 0.06256245 0.91886608
0.91886608 0.06256245 0.91886608
0.06256227 0.23732126 0.91886608
0.23732126 0.23732126 0.91886608
0.48026455 0.23732126 0.91886608
0.72841341 0.23732126 0.91886608
0.91886608 0.23732126 0.91886608
0.06256172 0.48026455 0.91886608
0.23732126 0.48026455 0.91886608
0.48026455 0.48026455 0.91886608
0.72841341 0.48026455 0.91886608
0.91886608 0.48026455 0.91886608
0.06256227 0.72841341 0.91886608
0.23732126 0.72841341 0.91886608
0.48026455 0.72841341 0.91886608
0.72841341 0.72841341 0.91886608
0.91886608 0.72841341 0.91886608
0.06256227 0.91886608 0.91886608
0.23732126 0.91886608 0.91886608
0.48026455 0.91886608 0.91886608
0.72841341 0.91886608 0.91886608
0.91886608 0.91886608 0.91886608
