src/ffmpeg_scripts/luts/luminance_-3p67.cube
TITLE "luminance_-3p67"
LUT_3D_SIZE 9
# PQ (EOTF Only)/Rec2020 -> PQ (EOTF Only)/Rec2020, CineEI Shift -3.67, Black Level 0.00% IRE, Input 109% -> Output 109% - Created with LUTCalc v4.01 by Ben Turley October 2020
0.06256172 0.06256172 0.06256172
0.08227024 0.06256172 0.06256172
0.14088619 0.06256172 0.06256172
0.21627928 0.06256172 0.06256172
0.30514064 0.06256182 0.06256172
0.40585015 0.06256172 0.06256172
0.51739665 0.06256187 0.06256172
0.63907309 0.06256172 0.06256172
0.77035029 0.06256205 0.06256208
0.06256177 0.08227024 0.06256172
0.08227024 0.08227024 0.06256172
0.14088619 0.08227024 0.06256172
0.21627928 0.08227024 0.06256181
0.30514064 0.08227024 0.06256172
0.40585015 0.08227024 0.06256172
0.51739665 0.08227024 0.06256191
0.63907309 0.08227024 0.06256200
0.77035029 0.08227024 0.06256204
0.06256179 0.14088619 0.06256172
0.08227024 0.14088619 0.06256172
0.14088619 0.14088619 0.06256172
0.21627928 0.14088619 0.06256172
0.30514064 0.14088619 0.06256184
0.40585015 0.14088619 0.06256172
0.51739665 0.14088619 0.06256191
0.63907309 0.14088619 0.06256172
0.77035029 0.14088619 0.06256172
0.06256183 0.21627928 0.06256181
0.08227024 0.21627928 0.06256172
0.14088619 0.21627928 0.06256172
0.21627928 0.21627928 0.06256182
0.30514064 0.21627928 0.06256184
0.40585015 0.21627928 0.06256187
0.51739665 0.21627928 0.06256172
0.63907309 0.21627928 0.06256172
0.77035029 0.21627928 0.06256204
0.06256184 0.30514064 0.06256172
0.08227024 0.30514064 0.06256184
0.14088619 0.30514064 0.06256172
0.21627928 0.30514064 0.06256172
0.30514064 0.30514064 0.06256172
0.40585015 0.30514064 0.06256172
0.51739665 0.30514064 0.06256172
0.63907309 0.30514064 0.06256172
0.77035029 0.30514064 0.06256172
0.06256188 0.40585015 0.06256187
0.08227024 0.40585015 0.06256172
0.14088619 0.40585015 0.06256187
0.21627928 0.40585015 0.06256172
0.30514064 0.40585015 0.06256189
0.40585015 0.40585015 0.06256189
0.51739665 0.40585015 0.06256172
0.63907309 0.40585015 0.06256172
0.77035029 0.40585015 0.06256172
0.06256185 0.51739665 0.06256172
0.08227024 0.51739665 0.06256172
0.14088619 0.51739665 0.06256172
0.21627928 0.51739665 0.06256172
0.30514064 0.51739665 0.06256191
0.40585015 0.51739665 0.06256172
0.51739665 0.51739665 0.06256194
0.63907309 0.51739665 0.06256172
0.77035029 0.51739665 0.06256204
0.06256199 0.63907309 0.06256172
0.08227024 0.63907309 0.06256172
0.14088619 0.63907309 0.06256172
0.21627928 0.63907309 0.06256172
0.30514064 0.63907309 0.06256172
0.40585015 0.63907309 0.06256172
0.51739665 0.63907309 0.06256172
0.63907309 0.63907309 0.06256172
0.77035029 0.63907309 0.06256172
0.06256207 0.77035029 0.06256172
0.08227024 0.77035029 0.06256208
0.14088619 0.77035029 0.06256204
0.21627928 0.77035029 0.06256172
0.30514064 0.77035029 0.06256172
0.40585015 0.77035029 0.06256172
0.51739665 0.77035029 0.06256204
0.63907309 0.77035029 0.06256172
0.77035029 0.77035029 0.06256172
0.06256172 0.06256177 0.08227024
0.08227024 0.06256178 0.08227024
0.14088619 0.06256172 0.08227024
0.21627928 0.06256181 0.08227024
0.30514064 0.06256186 0.08227024
0.40585015 0.06256172 0.08227024
0.51739665 0.06256190 0.08227024
0.63907309 0.06256196 0.08227024
0.77035029 0.06256172 0.08227024
0.06256177 0.08227024 0.08227024
0.08227024 0.08227024 0.08227024
0.14088619 0.08227024 0.08227024
0.21627928 0.08227024 0.08227024
0.30514064 0.08227024 0.08227024
0.40585015 0.08227024 0.08227024
0.51739665 0.08227024 0.08227024
0.63907309 0.08227024 0.08227024
0.77035029 0.08227024 0.08227024
0.06256178 0.14088619 0.08227024
0.08227024 0.14088619 0.08227024
0.14088619 0.14088619 0.08227024
0.21627928 0.14088619 0.08227024
0.30514064 0.14088619 0.08227024
0.40585015 0.14088619 0.08227024
0.51739665 0.14088619 0.08227024
0.63907309 0.14088619 0.08227024
0.77035029 0.14088619 0.08227024
0.06256183 0.21627928 0.08227024
0.08227024 0.21627928 0.08227024
0.14088619 0.21627928 0.08227024
0.21627928 0.21627928 0.08227024
0.30514064 0.21627928 0.08227024
0.40585015 0.21627928 0.08227024
0.51739665 0.21627928 0.08227024
0.63907309 0.21627928 0.08227024
0.77035029 0.21627928 0.08227024
0.06256182 0.30514064 0.08227024
0.08227024 0.30514064 0.08227024
0.14088619 0.30514064 0.08227024
0.21627928 0.30514064 0.08227024
0.30514064 0.30514064 0.08227024
0.40585015 0.30514064 0.08227024
0.51739665 0.30514064 0.08227024
0.63907309 0.30514064 0.08227024
0.77035029 0.30514064 0.08227024
0.06256191 0.40585015 0.08227024
0.08227024 0.40585015 0.08227024
0.14088619 0.40585015 0.08227024
0.21627928 0.40585015 0.08227024
0.30514064 0.40585015 0.08227024
0.40585015 0.40585015 0.08227024
0.51739665 0.40585015 0.08227024
0.63907309 0.40585015 0.08227024
0.77035029 0.40585015 0.08227024
0.06256195 0.51739665 0.08227024
0.08227024 0.51739665 0.08227024
0.14088619 0.51739665 0.08227024
0.21627928 0.51739665 0.08227024
0.30514064 0.51739665 0.08227024
0.40585015 0.51739665 0.08227024
0.51739665 0.51739665 0.08227024
0.63907309 0.51739665 0.08227024
0.77035029 0.51739665 0.08227024
0.06256172 0.63907309 0.08227024
0.08227024 0.63907309 0.08227024
0.14088619 0.63907309 0.08227024
0.21627928 0.63907309 0.08227024
0.30514064 0.63907309 0.08227024
0.40585015 0.63907309 0.08227024
0.51739665 0.63907309 0.08227024
0.63907309 0.63907309 0.08227024
0.77035029 0.63907309 0.08227024
0.06256212 0.77035029 0.08227024
0.08227024 0.77035029 0.08227024
0.14088619 0.77035029 0.08227024
0.21627928 0.77035029 0.08227024
0.30514064 0.77035029 0.08227024
0.40585015 0.77035029 0.08227024
0.51739665 0.77035029 0.08227024
0.63907309 0.77035029 0.08227024
0.77035029 0.77035029 0.08227024
0.06256172 0.06256182 0.14088619
0.08227024 0.06256172 0.14088619
0.14088619 0.06256181 0.14088619
0.21627928 0.06256172 0.14088619
0.30514064 0.06256184 0.14088619
0.40585015 0.06256172 0.14088619
0.51739665 0.06256191 0.14088619
0.63907309 0.06256172 0.14088619
0.77035029 0.06256202 0.14088619
0.06256172 0.08227024 0.14088619
0.08227024 0.08227024 0.14088619
0.14088619 0.08227024 0.14088619
0.21627928 0.08227024 0.14088619
0.30514064 0.08227024 0.14088619
0.40585015 0.08227024 0.14088619
0.51739665 0.08227024 0.14088619
0.63907309 0.08227024 0.14088619
0.77035029 0.08227024 0.14088619
0.06256179 0.14088619 0.14088619
0.08227024 0.14088619 0.14088619
0.14088619 0.14088619 0.14088619
0.21627928 0.14088619 0.14088619
0.30514064 0.14088619 0.14088619
0.40585015 0.14088619 0.14088619
0.51739665 0.14088619 0.14088619
0.63907309 0.14088619 0.14088619
0.77035029 0.14088619 0.14088619
0.06256183 0.21627928 0.14088619
0.08227024 0.21627928 0.14088619
0.14088619 0.21627928 0.14088619
0.21627928 0.21627928 0.14088619
0.30514064 0.21627928 0.14088619
0.40585015 0.21627928 0.14088619
0.51739665 0.21627928 0.14088619
0.63907309 0.21627928 0.14088619
0.77035029 0.21627928 0.14088619
0.06256187 0.30514064 0.14088619
0.08227024 0.30514064 0.14088619
0.14088619 0.30514064 0.14088619
0.21627928 0.30514064 0.14088619
0.30514064 0.30514064 0.14088619
0.40585015 0.30514064 0.14088619
0.51739665 0.30514064 0.14088619
0.63907309 0.30514064 0.14088619
0.77035029 0.30514064 0.14088619
0.06256189 0.40585015 0.14088619
0.08227024 0.40585015 0.14088619
0.14088619 0.40585015 0.14088619
0.21627928 0.40585015 0.14088619
0.30514064 0.40585015 0.14088619
0.40585015 0.40585015 0.14088619
0.51739665 0.40585015 0.14088619
0.63907309 0.40585015 0.14088619
0.77035029 0.40585015 0.14088619
0.06256187 0.51739665 0.14088619
0.08227024 0.51739665 0.14088619
0.14088619 0.51739665 0.14088619
0.21627928 0.51739665 0.14088619
0.30514064 0.51739665 0.14088619
0.40585015 0.51739665 0.14088619
0.51739665 0.51739665 0.14088619
0.63907309 0.51739665 0.14088619
0.77035029 0.51739665 0.14088619
0.06256200 0.63907309 0.14088619
0.08227024 0.63907309 0.14088619
0.14088619 0.63907309 0.14088619
0.21627928 0.63907309 0.14088619
0.30514064 0.63907309 0.14088619
0.40585015 0.63907309 0.14088619
0.51739665 0.63907309 0.14088619
0.63907309 0.63907309 0.14088619
0.77035029 0.63907309 0.14088619
0.06256206 0.77035029 0.14088619
0.08227024 0.77035029 0.14088619
0.14088619 0.77035029 0.14088619
0.21627928 0.77035029 0.14088619
0.30514064 0.77035029 0.14088619
0.40585015 0.77035029 0.14088619
0.51739665 0.77035029 0.14088619
0.63907309 0.77035029 0.14088619
0.77035029 0.77035029 0.14088619
0.06256172 0.06256184 0.21627928
0.08227024 0.06256184 0.21627928
0.14088619 0.06256184 0.21627928
0.21627928 0.06256186 0.21627928
0.30514064 0.06256185 0.21627928
0.40585015 0.06256187 0.21627928
0.51739665 0.06256187 0.21627928
0.63907309 0.06256197 0.21627928
0.77035029 0.06256205 0.21627928
0.06256172 0.08227024 0.21627928
0.08227024 0.08227024 0.21627928
0.14088619 0.08227024 0.21627928
0.21627928 0.08227024 0.21627928
0.30514064 0.08227024 0.21627928
0.40585015 0.08227024 0.21627928
0.51739665 0.08227024 0.21627928
0.63907309 0.08227024 0.21627928
0.77035029 0.08227024 0.21627928
0.06256172 0.14088619 0.21627928
0.08227024 0.14088619 0.21627928
0.14088619 0.14088619 0.21627928
0.21627928 0.14088619 0.21627928
0.30514064 0.14088619 0.21627928
0.40585015 0.14088619 0.21627928
0.51739665 0.14088619 0.21627928
0.63907309 0.14088619 0.21627928
0.77035029 0.14088619 0.21627928
0.06256182 0.21627928 0.21627928
0.08227024 0.21627928 0.21627928
0.14088619 0.21627928 0.21627928
0.21627928 0.21627928 0.21627928
0.30514064 0.21627928 0.21627928
0.40585015 0.21627928 0.21627928
0.51739665 0.21627928 0.21627928
0.63907309 0.21627928 0.21627928
0.77035029 0.21627928 0.21627928
0.06256182 0.30514064 0.21627928
0.08227024 0.30514064 0.21627928
0.14088619 0.30514064 0.21627928
0.21627928 0.30514064 0.21627928
0.30514064 0.30514064 0.21627928
0.40585015 0.30514064 0.21627928
0.51739665 0.30514064 0.21627928
0.63907309 0.30514064 0.21627928
0.77035029 0.30514064 0.21627928
0.06256188 0.40585015 0.21627928
0.08227024 0.40585015 0.21627928
0.14088619 0.40585015 0.21627928
0.21627928 0.40585015 0.21627928
0.30514064 0.40585015 0.21627928
0.40585015 0.40585015 0.21627928
0.51739665 0.40585015 0.21627928
0.63907309 0.40585015 0.21627928
0.77035029 0.40585015 0.21627928
0.06256195 0.51739665 0.21627928
0.08227024 0.51739665 0.21627928
0.14088619 0.51739665 0.21627928
0.21627928 0.51739665 0.21627928
0.30514064 0.51739665 0.21627928
0.40585015 0.51739665 0.21627928
0.51739665 0.51739665 0.21627928
0.63907309 0.51739665 0.21627928
0.77035029 0.51739665 0.21627928
0.06256198 0.63907309 0.21627928
0.08227024 0.63907309 0.21627928
0.14088619 0.63907309 0.21627928
0.21627928 0.63907309 0.21627928
0.30514064 0.63907309 0.21627928
0.40585015 0.63907309 0.21627928
0.51739665 0.63907309 0.21627928
0.63907309 0.63907309 0.21627928
0.77035029 0.63907309 0.21627928
0.06256207 0.77035029 0.21627928
0.08227024 0.77035029 0.21627928
0.14088619 0.77035029 0.21627928
0.21627928 0.77035029 0.21627928
0.30514064 0.77035029 0.21627928
0.40585015 0.77035029 0.21627928
0.51739665 0.77035029 0.21627928
0.63907309 0.77035029 0.21627928
0.77035029 0.77035029 0.21627928
0.06256185 0.06256189 0.30514064
0.08227024 0.06256191 0.30514064
0.14088619 0.06256172 0.30514064
0.21627928 0.06256172 0.30514064
0.30514064 0.06256172 0.30514064
0.40585015 0.06256172 0.30514064
0.51739665 0.06256194 0.30514064
0.63907309 0.06256198 0.30514064
0.77035029 0.06256210 0.30514064
0.06256172 0.08227024 0.30514064
0.08227024 0.08227024 0.30514064
0.14088619 0.08227024 0.30514064
0.21627928 0.08227024 0.30514064
0.30514064 0.08227024 0.30514064
0.40585015 0.08227024 0.30514064
0.51739665 0.08227024 0.30514064
0.63907309 0.08227024 0.30514064
0.77035029 0.08227024 0.30514064
0.06256172 0.14088619 0.30514064
0.08227024 0.14088619 0.30514064
0.14088619 0.14088619 0.30514064
0.21627928 0.14088619 0.30514064
0.30514064 0.14088619 0.30514064
0.40585015 0.14088619 0.30514064
0.51739665 0.14088619 0.30514064
0.63907309 0.14088619 0.30514064
0.77035029 0.14088619 0.30514064
0.06256172 0.21627928 0.30514064
0.08227024 0.21627928 0.30514064
0.14088619 0.21627928 0.30514064
0.21627928 0.21627928 0.30514064
0.30514064 0.21627928 0.30514064
0.40585015 0.21627928 0.30514064
0.51739665 0.21627928 0.30514064
0.63907309 0.21627928 0.30514064
0.77035029 0.21627928 0.30514064
0.06256172 0.30514064 0.30514064
0.08227024 0.30514064 0.30514064
0.14088619 0.30514064 0.30514064
0.21627928 0.30514064 0.30514064
0.30514064 0.30514064 0.30514064
0.40585015 0.30514064 0.30514064
0.51739665 0.30514064 0.30514064
0.63907309 0.30514064 0.30514064
0.77035029 0.30514064 0.30514064
0.06256189 0.40585015 0.30514064
0.08227024 0.40585015 0.30514064
0.14088619 0.40585015 0.30514064
0.21627928 0.40585015 0.30514064
0.30514064 0.40585015 0.30514064
0.40585015 0.40585015 0.30514064
0.51739665 0.40585015 0.30514064
0.63907309 0.40585015 0.30514064
0.77035029 0.40585015 0.30514064
0.06256198 0.51739665 0.30514064
0.08227024 0.51739665 0.30514064
0.14088619 0.51739665 0.30514064
0.21627928 0.51739665 0.30514064
0.30514064 0.51739665 0.30514064
0.40585015 0.51739665 0.30514064
0.51739665 0.51739665 0.30514064
0.63907309 0.51739665 0.30514064
0.77035029 0.51739665 0.30514064
0.06256201 0.63907309 0.30514064
0.08227024 0.63907309 0.30514064
0.14088619 0.63907309 0.30514064
0.21627928 0.63907309 0.30514064
0.30514064 0.63907309 0.30514064
0.40585015 0.63907309 0.30514064
0.51739665 0.63907309 0.30514064
0.63907309 0.63907309 0.30514064
0.77035029 0.63907309 0.30514064
0.06256172 0.77035029 0.30514064
0.08227024 0.77035029 0.30514064
0.14088619 0.77035029 0.30514064
0.21627928 0.77035029 0.30514064
0.30514064 0.77035029 0.30514064
0.40585015 0.77035029 0.30514064
0.51739665 0.77035029 0.30514064
0.63907309 0.77035029 0.30514064
0.77035029 0.77035029 0.30514064
0.06256172 0.06256194 0.40585015
0.08227024 0.06256194 0.40585015
0.14088619 0.06256194 0.40585015
0.21627928 0.06256197 0.40585015
0.30514064 0.06256197 0.40585015
0.40585015 0.06256194 0.40585015
0.51739665 0.06256172 0.40585015
0.63907309 0.06256197 0.40585015
0.77035029 0.06256172 0.40585015
0.06256172 0.08227024 0.40585015
0.08227024 0.08227024 0.40585015
0.14088619 0.08227024 0.40585015
0.21627928 0.08227024 0.40585015
0.30514064 0.08227024 0.40585015
0.40585015 0.08227024 0.40585015
0.51739665 0.08227024 0.40585015
0.63907309 0.08227024 0.40585015
0.77035029 0.08227024 0.40585015
0.06256172 0.14088619 0.40585015
0.08227024 0.14088619 0.40585015
0.14088619 0.14088619 0.40585015
0.21627928 0.14088619 0.40585015
0.30514064 0.14088619 0.40585015
0.40585015 0.14088619 0.40585015
0.51739665 0.14088619 0.40585015
0.63907309 0.14088619 0.40585015
0.77035029 0.14088619 0.40585015
0.06256191 0.21627928 0.40585015
0.08227024 0.21627928 0.40585015
0.14088619 0.21627928 0.40585015
0.21627928 0.21627928 0.40585015
0.30514064 0.21627928 0.40585015
0.40585015 0.21627928 0.40585015
0.51739665 0.21627928 0.40585015
0.63907309 0.21627928 0.40585015
0.77035029 0.21627928 0.40585015
0.06256172 0.30514064 0.40585015
0.08227024 0.30514064 0.40585015
0.14088619 0.30514064 0.40585015
0.21627928 0.30514064 0.40585015
0.30514064 0.30514064 0.40585015
0.40585015 0.30514064 0.40585015
0.51739665 0.30514064 0.40585015
0.63907309 0.30514064 0.40585015
0.77035029 0.30514064 0.40585015
0.06256189 0.40585015 0.40585015
0.08227024 0.40585015 0.40585015
0.14088619 0.40585015 0.40585015
0.21627928 0.40585015 0.40585015
0.30514064 0.40585015 0.40585015
0.40585015 0.40585015 0.40585015
0.51739665 0.40585015 0.40585015
0.63907309 0.40585015 0.40585015
0.77035029 0.40585015 0.40585015
0.06256195 0.51739665 0.40585015
0.08227024 0.51739665 0.40585015
0.14088619 0.51739665 0.40585015
0.21627928 0.51739665 0.40585015
0.30514064 0.51739665 0.40585015
0.40585015 0.51739665 0.40585015
0.51739665 0.51739665 0.40585015
0.63907309 0.51739665 0.40585015
0.77035029 0.51739665 0.40585015
0.06256195 0.63907309 0.40585015
0.08227024 0.63907309 0.40585015
0.14088619 0.63907309 0.40585015
0.21627928 0.63907309 0.40585015
0.30514064 0.63907309 0.40585015
0.40585015 0.63907309 0.40585015
0.51739665 0.63907309 0.40585015
0.63907309 0.63907309 0.40585015
0.77035029 0.63907309 0.40585015
0.06256211 0.77035029 0.40585015
0.08227024 0.77035029 0.40585015
0.14088619 0.77035029 0.40585015
0.21627928 0.77035029 0.40585015
0.30514064 0.77035029 0.40585015
0.40585015 0.77035029 0.40585015
0.51739665 0.77035029 0.40585015
0.63907309 0.77035029 0.40585015
0.77035029 0.77035029 0.40585015
0.06256172 0.06256202 0.51739665
0.08227024 0.06256172 0.51739665
0.14088619 0.06256172 0.51739665
0.21627928 0.06256200 0.51739665
0.30514064 0.06256172 0.51739665
0.40585015 0.06256197 0.51739665
0.51739665 0.06256172 0.51739665
0.63907309 0.06256172 0.51739665
0.77035029 0.06256204 0.51739665
0.06256172 0.08227024 0.51739665
0.08227024 0.08227024 0.51739665
0.14088619 0.08227024 0.51739665
0.21627928 0.08227024 0.51739665
0.30514064 0.08227024 0.51739665
0.40585015 0.08227024 0.51739665
0.51739665 0.08227024 0.51739665
0.63907309 0.08227024 0.51739665
0.77035029 0.08227024 0.51739665
0.06256172 0.14088619 0.51739665
0.08227024 0.14088619 0.51739665
0.14088619 0.14088619 0.51739665
0.21627928 0.14088619 0.51739665
0.30514064 0.14088619 0.51739665
0.40585015 0.14088619 0.51739665
0.51739665 0.14088619 0.51739665
0.63907309 0.14088619 0.51739665
0.77035029 0.14088619 0.51739665
0.06256172 0.21627928 0.51739665
0.08227024 0.21627928 0.51739665
0.14088619 0.21627928 0.51739665
0.21627928 0.21627928 0.51739665
0.30514064 0.21627928 0.51739665
0.40585015 0.21627928 0.51739665
0.51739665 0.21627928 0.51739665
0.63907309 0.21627928 0.51739665
0.77035029 0.21627928 0.51739665
0.06256172 0.30514064 0.51739665
0.08227024 0.30514064 0.51739665
0.14088619 0.30514064 0.51739665
0.21627928 0.30514064 0.51739665
0.30514064 0.30514064 0.51739665
0.40585015 0.30514064 0.51739665
0.51739665 0.30514064 0.51739665
0.63907309 0.30514064 0.51739665
0.77035029 0.30514064 0.51739665
0.06256172 0.40585015 0.51739665
0.08227024 0.40585015 0.51739665
0.14088619 0.40585015 0.51739665
0.21627928 0.40585015 0.51739665
0.30514064 0.40585015 0.51739665
0.40585015 0.40585015 0.51739665
0.51739665 0.40585015 0.51739665
0.63907309 0.40585015 0.51739665
0.77035029 0.40585015 0.51739665
0.06256172 0.51739665 0.51739665
0.08227024 0.51739665 0.51739665
0.14088619 0.51739665 0.51739665
0.21627928 0.51739665 0.51739665
0.30514064 0.51739665 0.51739665
0.40585015 0.51739665 0.51739665
0.51739665 0.51739665 0.51739665
0.63907309 0.51739665 0.51739665
0.77035029 0.51739665 0.51739665
0.06256194 0.63907309 0.51739665
0.08227024 0.63907309 0.51739665
0.14088619 0.63907309 0.51739665
0.21627928 0.63907309 0.51739665
0.30514064 0.63907309 0.51739665
0.40585015 0.63907309 0.51739665
0.51739665 0.63907309 0.51739665
0.63907309 0.63907309 0.51739665
0.77035029 0.63907309 0.51739665
0.06256208 0.77035029 0.51739665
0.08227024 0.77035029 0.51739665
0.14088619 0.77035029 0.51739665
0.21627928 0.77035029 0.51739665
0.30514064 0.77035029 0.51739665
0.40585015 0.77035029 0.51739665
0.51739665 0.77035029 0.51739665
0.63907309 0.77035029 0.51739665
0.77035029 0.77035029 0.51739665
0.06256172 0.06256204 0.63907309
0.08227024 0.06256208 0.63907309
0.14088619 0.06256208 0.63907309
0.21627928 0.06256208 0.63907309
0.30514064 0.06256172 0.63907309
0.40585015 0.06256172 0.63907309
0.51739665 0.06256208 0.63907309
0.63907309 0.06256204 0.63907309
0.77035029 0.06256217 0.63907309
0.06256172 0.08227024 0.63907309
0.08227024 0.08227024 0.63907309
0.14088619 0.08227024 0.63907309
0.21627928 0.08227024 0.63907309
0.30514064 0.08227024 0.63907309
0.40585015 0.08227024 0.63907309
0.51739665 0.08227024 0.63907309
0.63907309 0.08227024 0.63907309
0.77035029 0.08227024 0.63907309
0.06256172 0.14088619 0.63907309
0.08227024 0.14088619 0.63907309
0.14088619 0.14088619 0.63907309
0.21627928 0.14088619 0.63907309
0.30514064 0.14088619 0.63907309
0.40585015 0.14088619 0.63907309
0.51739665 0.14088619 0.63907309
0.63907309 0.14088619 0.63907309
0.77035029 0.14088619 0.63907309
0.06256172 0.21627928 0.63907309
0.08227024 0.21627928 0.63907309
0.14088619 0.21627928 0.63907309
0.21627928 0.21627928 0.63907309
0.30514064 0.21627928 0.63907309
0.40585015 0.21627928 0.63907309
0.51739665 0.21627928 0.63907309
0.63907309 0.21627928 0.63907309
0.77035029 0.21627928 0.63907309
0.06256172 0.30514064 0.63907309
0.08227024 0.30514064 0.63907309
0.14088619 0.30514064 0.63907309
0.21627928 0.30514064 0.63907309
0.30514064 0.30514064 0.63907309
0.40585015 0.30514064 0.63907309
0.51739665 0.30514064 0.63907309
0.63907309 0.30514064 0.63907309
0.77035029 0.30514064 0.63907309
0.06256200 0.40585015 0.63907309
0.08227024 0.40585015 0.63907309
0.14088619 0.40585015 0.63907309
0.21627928 0.40585015 0.63907309
0.30514064 0.40585015 0.63907309
0.40585015 0.40585015 0.63907309
0.51739665 0.40585015 0.63907309
0.63907309 0.40585015 0.63907309
0.77035029 0.40585015 0.63907309
0.06256172 0.51739665 0.63907309
0.08227024 0.51739665 0.63907309
0.14088619 0.51739665 0.63907309
0.21627928 0.51739665 0.63907309
0.30514064 0.51739665 0.63907309
0.40585015 0.51739665 0.63907309
0.51739665 0.51739665 0.63907309
0.63907309 0.51739665 0.63907309
0.77035029 0.51739665 0.63907309
0.06256172 0.63907309 0.63907309
0.08227024 0.63907309 0.63907309
0.14088619 0.63907309 0.63907309
0.21627928 0.63907309 0.63907309
0.30514064 0.63907309 0.63907309
0.40585015 0.63907309 0.63907309
0.51739665 0.63907309 0.63907309
0.63907309 0.63907309 0.63907309
0.77035029 0.63907309 0.63907309
0.06256210 0.77035029 0.63907309
0.08227024 0.77035029 0.63907309
0.14088619 0.77035029 0.63907309
0.21627928 0.77035029 0.63907309
0.30514064 0.77035029 0.63907309
0.40585015 0.77035029 0.63907309
0.51739665 0.77035029 0.63907309
0.63907309 0.77035029 0.63907309
0.77035029 0.77035029 0.63907309
0.06256172 0.06256219 0.77035029
0.08227024 0.06256172 0.77035029
0.14088619 0.06256223 0.77035029
0.21627928 0.06256219 0.77035029
0.30514064 0.06256223 0.77035029
0.40585015 0.06256213 0.77035029
0.51739665 0.06256219 0.77035029
0.63907309 0.06256219 0.77035029
0.77035029 0.06256219 0.77035029
0.06256208 0.08227024 0.77035029
0.08227024 0.08227024 0.77035029
0.14088619 0.08227024 0.77035029
0.21627928 0.08227024 0.77035029
0.30514064 0.08227024 0.77035029
0.40585015 0.08227024 0.77035029
0.51739665 0.08227024 0.77035029
0.63907309 0.08227024 0.77035029
0.77035029 0.08227024 0.77035029
0.06256208 0.14088619 0.77035029
0.08227024 0.14088619 0.77035029
0.14088619 0.14088619 0.77035029
0.21627928 0.14088619 0.77035029
0.30514064 0.14088619 0.77035029
0.40585015 0.14088619 0.77035029
0.51739665 0.14088619 0.77035029
0.63907309 0.14088619 0.77035029
0.77035029 0.14088619 0.77035029
0.06256213 0.21627928 0.77035029
0.08227024 0.21627928 0.77035029
0.14088619 0.21627928 0.77035029
0.21627928 0.21627928 0.77035029
0.30514064 0.21627928 0.77035029
0.40585015 0.21627928 0.77035029
0.51739665 0.21627928 0.77035029
0.63907309 0.21627928 0.77035029
0.77035029 0.21627928 0.77035029
0.06256172 0.30514064 0.77035029
0.08227024 0.30514064 0.77035029
0.14088619 0.30514064 0.77035029
0.21627928 0.30514064 0.77035029
0.30514064 0.30514064 0.77035029
0.40585015 0.30514064 0.77035029
0.51739665 0.30514064 0.77035029
0.63907309 0.30514064 0.77035029
0.77035029 0.30514064 0.77035029
0.06256172 0.40585015 0.77035029
0.08227024 0.40585015 0.77035029
0.14088619 0.40585015 0.77035029
0.21627928 0.40585015 0.77035029
0.30514064 0.40585015 0.77035029
0.40585015 0.40585015 0.77035029
0.51739665 0.40585015 0.77035029
0.63907309 0.40585015 0.77035029
0.77035029 0.40585015 0.77035029
0.06256172 0.51739665 0.77035029
0.08227024 0.51739665 0.77035029
0.14088619 0.51739665 0.77035029
0.21627928 0.51739665 0.77035029
0.30514064 0.51739665 0.77035029
0.40585015 0.51739665 0.77035029
0.51739665 0.51739665 0.77035029
0.63907309 0.51739665 0.77035029
0.77035029 0.51739665 0.77035029
0.06256172 0.63907309 0.77035029
0.08227024 0.63907309 0.77035029
0.14088619 0.63907309 0.77035029
0.21627928 0.63907309 0.77035029
0.30514064 0.63907309 0.77035029
0.40585015 0.63907309 0.77035029
0.51739665 0.63907309 0.77035029
0.63907309 0.63907309 0.77035029
0.77035029 0.63907309 0.77035029
0.06256172 0.77035029 0.77035029
0.08227024 0.77035029 0.77035029
0.14088619 0.77035029 0.77035029
0.21627928 0.77035029 0.77035029
0.30514064 0.77035029 0.77035029
0.40585015 0.77035029 0.77035029
0.51739665 0.77035029 0.77035029
0.63907309 0.77035029 0.77035029
0.77035029 0.77035029 0.77035029
