src/ffmpeg_scripts/luts/luminance-unclipped_-1p00.cube
TITLE "luminance-unclipped_-1p00"
LUT_3D_SIZE 5
# PQ (EOTF Only)/Rec2020 -> PQ (EOTF Only)/Rec2020, CineEI Shift -1.00, Black Level -7.25% IRE, Input 109% -> Output 109% - Created with LUTCalc v4.01 by Ben Turley October 2020
0.00047898 0.00047898 0.00047898
0.17557670 0.00047898 0.00047898
0.43999321 0.00047920 0.00047898
0.72213932 0.00047928 0.00047898
0.91886608 0.00047954 0.00047953
0.00047898 0.17557670 0.00047898
0.17557670 0.17557670 0.00047898
0.43999321 0.17557670 0.00047898
0.72213932 0.17557670 0.00047898
0.91886608 0.17557670 0.00047898
0.00047898 0.43999321 0.00047898
0.17557670 0.43999321 0.00047898
0.43999321 0.43999321 0.00047898
0.72213932 0.43999321 0.00047898
0.91886608 0.43999321 0.00047898
0.00047932 0.72213932 0.00047898
0.17557670 0.72213932 0.00047898
0.43999321 0.72213932 0.00047898
0.72213932 0.72213932 0.00047898
0.91886608 0.72213932 0.00047953
0.00047961 0.91886608 0.00047898
0.17557670 0.91886608 0.00047898
0.43999321 0.91886608 0.00047898
0.72213932 0.91886608 0.00047898
0.91886608 0.91886608 0.00047898
0.00047898 0.00047898 0.17557670
0.17557670 0.00047912 0.17557670
0.43999321 0.00047918 0.17557670
0.72213932 0.00047923 0.17557670
0.91886608 0.00047954 0.17557670
0.00047898 0.17557670 0.17557670
0.17557670 0.17557670 0.17557670
0.43999321 0.17557670 0.17557670
0.72213932 0.17557670 0.17557670
0.91886608 0.17557670 0.17557670
0.00047919 0.43999321 0.17557670
0.17557670 0.43999321 0.17557670
0.43999321 0.43999321 0.17557670
0.72213932 0.43999321 0.17557670
0.91886608 0.43999321 0.17557670
0.00047933 0.72213932 0.17557670
0.17557670 0.72213932 0.17557670
0.43999321 0.72213932 0.17557670
0.72213932 0.72213932 0.17557670
0.91886608 0.72213932 0.17557670
0.00047959 0.91886608 0.17557670
0.17557670 0.91886608 0.17557670
0.43999321 0.91886608 0.17557670
0.72213932 0.91886608 0.17557670
0.91886608 0.91886608 0.17557670
0.00047898 0.00047898 0.43999321
0.17557670 0.00047923 0.43999321
0.43999321 0.00047927 0.43999321
0.72213932 0.00047931 0.43999321
0.91886608 0.00047961 0.43999321
0.00047898 0.17557670 0.43999321
0.17557670 0.17557670 0.43999321
0.43999321 0.17557670 0.43999321
0.72213932 0.17557670 0.43999321
0.91886608 0.17557670 0.43999321
0.00047898 0.43999321 0.43999321
0.17557670 0.43999321 0.43999321
0.43999321 0.43999321 0.43999321
0.72213932 0.43999321 0.43999321
0.91886608 0.43999321 0.43999321
0.00047942 0.72213932 0.43999321
0.17557670 0.72213932 0.43999321
0.43999321 0.72213932 0.43999321
0.72213932 0.72213932 0.43999321
0.91886608 0.72213932 0.43999321
0.00047961 0.91886608 0.43999321
0.17557670 0.91886608 0.43999321
0.43999321 0.91886608 0.43999321
0.72213932 0.91886608 0.43999321
0.91886608 0.91886608 0.43999321
0.00047898 0.00047898 0.72213932
0.17557670 0.00047898 0.72213932
0.43999321 0.00047898 0.72213932
0.72213932 0.00047898 0.72213932
0.91886608 0.00047898 0.72213932
0.00047898 0.17557670 0.72213932
0.17557670 0.17557670 0.72213932
0.43999321 0.17557670 0.72213932
0.72213932 0.17557670 0.72213932
0.91886608 0.17557670 0.72213932
0.00047898 0.43999321 0.72213932
0.17557670 0.43999321 0.72213932
0.43999321 0.43999321 0.72213932
0.72213932 0.43999321 0.72213932
0.91886608 0.43999321 0.72213932
0.00047898 0.72213932 0.72213932
0.17557670 0.72213932 0.72213932
0.43999321 0.72213932 0.72213932
0.72213932 0.72213932 0.72213932
0.91886608 0.72213932 0.72213932
0.00047964 0.91886608 0.72213932
0.17557670 0.91886608 0.72213932
0.43999321 0.91886608 0.72213932
0.72213932 0.91886608 0.72213932
0.91886608 0.91886608 0.72213932
0.00047898 0.00047898 0.91886608
0.17557670 0.00047983 0.91886608
0.43999321 0.00047971 0.91886608
0.72213932 0.00047971 0.91886608
0.91886608 0.00047971 0.91886608
0.00047898 0.17557670 0.91886608
0.17557670 0.17557670 0.91886608
0.43999321 0.17557670 0.91886608
0.72213932 0.17557670 0.91886608
0.91886608 0.17557670 0.91886608
0.00047898 0.43999321 0.91886608
0.17557670 0.43999321 0.91886608
0.43999321 0.43999321 0.91886608
0.72213932 0.43999321 0.91886608
0.91886608 0.43999321 0.91886608
0.00047898 0.72213932 0.91886608
0.17557670 0.72213932 0.91886608
0.43999321 0.72213932 0.91886608
0.72213932 0.72213932 0.91886608
0.91886608 0.72213932 0.91886608
0.00047961 0.91886608 0.91886608
0.17557670 0.91886608 0.91886608
0.43999321 0.91886608 0.91886608
0.72213932 0.91886608 0.91886608
0.91886608 0.91886608 0.91886608
