src/ffmpeg_scripts/luts/luminance_2p33.cube
TITLE "luminance_2p33"
LUT_3D_SIZE 33
# PQ (EOTF Only)/Rec2020 -> PQ (EOTF Only)/Rec2020, CineEI Shift 2.33, Black Level 0.00% IRE, Input 109% -> Output 109% - Created with LUTCalc v4.01 by Ben Turley October 2020
0.06256172 0.06256172 0.06256172
0.06256172 0.06256172 0.06256172
0.06256172 0.06256172 0.06256172
0.12577443 0.06256172 0.06256178
0.17798991 0.06256172 0.06256172
0.22567636 0.06256172 0.06256172
0.27045587 0.06256172 0.06256172
0.31310467 0.06256172 0.06256184
0.35407936 0.06256172 0.06256172
0.39368036 0.06256172 0.06256189
0.43212006 0.06256190 0.06256172
0.46955628 0.06256185 0.06256172
0.50611082 0.06256172 0.06256172
0.54188033 0.06256172 0.06256172
0.57694338 0.06256172 0.06256172
0.61136496 0.06256193 0.06256194
0.64519973 0.06256194 0.06256172
0.67849426 0.06256200 0.06256172
0.71128866 0.06256203 0.06256200
0.74361783 0.06256207 0.06256172
0.77551239 0.06256172 0.06256172
0.80699943 0.06256172 0.06256172
0.83810304 0.06256172 0.06256172
0.86884481 0.06256172 0.06256172
0.89924418 0.06256204 0.06256172
0.91886608 0.06256172 0.06256213
0.91886608 0.06256172 0.06256172
0.91886608 0.06256222 0.06256172
0.91886608 0.06256172 0.06256172
0.91886608 0.06256172 0.06256172
0.91886608 0.06256235 0.06256235
0.91886608 0.06256235 0.06256172
0.91886608 0.06256249 0.06256257
0.06256172 0.06256172 0.06256172
0.06256172 0.06256172 0.06256172
0.06256172 0.06256172 0.06256172
0.12577443 0.06256172 0.06256178
0.17798991 0.06256172 0.06256172
0.22567636 0.06256172 0.06256172
0.27045587 0.06256172 0.06256172
0.31310467 0.06256172 0.06256184
0.35407936 0.06256172 0.06256172
0.39368036 0.06256172 0.06256189
0.43212006 0.06256190 0.06256172
0.46955628 0.06256185 0.06256172
0.50611082 0.06256172 0.06256172
0.54188033 0.06256172 0.06256172
0.57694338 0.06256172 0.06256172
0.61136496 0.06256193 0.06256194
0.64519973 0.06256194 0.06256172
0.67849426 0.06256200 0.06256172
0.71128866 0.06256203 0.06256200
0.74361783 0.06256207 0.06256172
0.77551239 0.06256172 0.06256172
0.80699943 0.06256172 0.06256172
0.83810304 0.06256172 0.06256172
0.86884481 0.06256172 0.06256172
0.89924418 0.06256204 0.06256172
0.91886608 0.06256172 0.06256213
0.91886608 0.06256172 0.06256172
0.91886608 0.06256222 0.06256172
0.91886608 0.06256172 0.06256172
0.91886608 0.06256172 0.06256172
0.91886608 0.06256235 0.06256235
0.91886608 0.06256235 0.06256172
0.91886608 0.06256249 0.06256257
0.06256172 0.06256172 0.06256172
0.06256172 0.06256172 0.06256172
0.06256172 0.06256172 0.06256172
0.12577443 0.06256172 0.06256178
0.17798991 0.06256172 0.06256172
0.22567636 0.06256172 0.06256172
0.27045587 0.06256172 0.06256172
0.31310467 0.06256172 0.06256184
0.35407936 0.06256172 0.06256172
0.39368036 0.06256172 0.06256189
0.43212006 0.06256190 0.06256172
0.46955628 0.06256185 0.06256172
0.50611082 0.06256172 0.06256172
0.54188033 0.06256172 0.06256172
0.57694338 0.06256172 0.06256172
0.61136496 0.06256193 0.06256194
0.64519973 0.06256194 0.06256172
0.67849426 0.06256200 0.06256172
0.71128866 0.06256203 0.06256200
0.74361783 0.06256207 0.06256172
0.77551239 0.06256172 0.06256172
0.80699943 0.06256172 0.06256172
0.83810304 0.06256172 0.06256172
0.86884481 0.06256172 0.06256172
0.89924418 0.06256204 0.06256172
0.91886608 0.06256172 0.06256213
0.91886608 0.06256172 0.06256172
0.91886608 0.06256222 0.06256172
0.91886608 0.06256172 0.06256172
0.91886608 0.06256172 0.06256172
0.91886608 0.06256235 0.06256235
0.91886608 0.06256235 0.06256172
0.91886608 0.06256249 0.06256257
0.06256180 0.12577443 0.06256172
0.06256180 0.12577443 0.06256172
0.06256180 0.12577443 0.06256172
0.12577443 0.12577443 0.06256172
0.17798991 0.12577443 0.06256172
0.22567636 0.12577443 0.06256172
0.27045587 0.12577443 0.06256172
0.31310467 0.12577443 0.06256172
0.35407936 0.12577443 0.06256172
0.39368036 0.12577443 0.06256172
0.43212006 0.12577443 0.06256172
0.46955628 0.12577443 0.06256172
0.50611082 0.12577443 0.06256172
0.54188033 0.12577443 0.06256172
0.57694338 0.12577443 0.06256172
0.61136496 0.12577443 0.06256194
0.64519973 0.12577443 0.06256172
0.67849426 0.12577443 0.06256172
0.71128866 0.12577443 0.06256172
0.74361783 0.12577443 0.06256172
0.77551239 0.12577443 0.06256172
0.80699943 0.12577443 0.06256172
0.83810304 0.12577443 0.06256172
0.86884481 0.12577443 0.06256208
0.89924418 0.12577443 0.06256213
0.91886608 0.12577443 0.06256172
0.91886608 0.12577443 0.06256172
0.91886608 0.12577443 0.06256219
0.91886608 0.12577443 0.06256172
0.91886608 0.12577443 0.06256227
0.91886608 0.12577443 0.06256235
0.91886608 0.12577443 0.06256172
0.91886608 0.12577443 0.06256172
0.06256182 0.17798991 0.06256172
0.06256182 0.17798991 0.06256172
0.06256182 0.17798991 0.06256172
0.12577443 0.17798991 0.06256172
0.17798991 0.17798991 0.06256172
0.22567636 0.17798991 0.06256172
0.27045587 0.17798991 0.06256182
0.31310467 0.17798991 0.06256184
0.35407936 0.17798991 0.06256172
0.39368036 0.17798991 0.06256187
0.43212006 0.17798991 0.06256172
0.46955628 0.17798991 0.06256189
0.50611082 0.17798991 0.06256191
0.54188033 0.17798991 0.06256191
0.57694338 0.17798991 0.06256172
0.61136496 0.17798991 0.06256172
0.64519973 0.17798991 0.06256172
0.67849426 0.17798991 0.06256197
0.71128866 0.17798991 0.06256172
0.74361783 0.17798991 0.06256172
0.77551239 0.17798991 0.06256172
0.80699943 0.17798991 0.06256172
0.83810304 0.17798991 0.06256172
0.86884481 0.17798991 0.06256208
0.89924418 0.17798991 0.06256213
0.91886608 0.17798991 0.06256213
0.91886608 0.17798991 0.06256172
0.91886608 0.17798991 0.06256227
0.91886608 0.17798991 0.06256235
0.91886608 0.17798991 0.06256172
0.91886608 0.17798991 0.06256235
0.91886608 0.17798991 0.06256172
0.91886608 0.17798991 0.06256245
0.06256180 0.22567636 0.06256172
0.06256180 0.22567636 0.06256172
0.06256180 0.22567636 0.06256172
0.12577443 0.22567636 0.06256172
0.17798991 0.22567636 0.06256182
0.22567636 0.22567636 0.06256172
0.27045587 0.22567636 0.06256184
0.31310467 0.22567636 0.06256172
0.35407936 0.22567636 0.06256172
0.39368036 0.22567636 0.06256187
0.43212006 0.22567636 0.06256172
0.46955628 0.22567636 0.06256172
0.50611082 0.22567636 0.06256172
0.54188033 0.22567636 0.06256191
0.57694338 0.22567636 0.06256194
0.61136496 0.22567636 0.06256172
0.64519973 0.22567636 0.06256172
0.67849426 0.22567636 0.06256197
0.71128866 0.22567636 0.06256172
0.74361783 0.22567636 0.06256172
0.77551239 0.22567636 0.06256172
0.80699943 0.22567636 0.06256172
0.83810304 0.22567636 0.06256172
0.86884481 0.22567636 0.06256172
0.89924418 0.22567636 0.06256172
0.91886608 0.22567636 0.06256172
0.91886608 0.22567636 0.06256172
0.91886608 0.22567636 0.06256172
0.91886608 0.22567636 0.06256227
0.91886608 0.22567636 0.06256172
0.91886608 0.22567636 0.06256172
0.91886608 0.22567636 0.06256172
0.91886608 0.22567636 0.06256257
0.06256184 0.27045587 0.06256172
0.06256184 0.27045587 0.06256172
0.06256184 0.27045587 0.06256172
0.12577443 0.27045587 0.06256172
0.17798991 0.27045587 0.06256172
0.22567636 0.27045587 0.06256172
0.27045587 0.27045587 0.06256172
0.31310467 0.27045587 0.06256172
0.35407936 0.27045587 0.06256172
0.39368036 0.27045587 0.06256172
0.43212006 0.27045587 0.06256172
0.46955628 0.27045587 0.06256172
0.50611082 0.27045587 0.06256172
0.54188033 0.27045587 0.06256172
0.57694338 0.27045587 0.06256172
0.61136496 0.27045587 0.06256194
0.64519973 0.27045587 0.06256172
0.67849426 0.27045587 0.06256172
0.71128866 0.27045587 0.06256172
0.74361783 0.27045587 0.06256172
0.77551239 0.27045587 0.06256172
0.80699943 0.27045587 0.06256172
0.83810304 0.27045587 0.06256213
0.86884481 0.27045587 0.06256172
0.89924418 0.27045587 0.06256172
0.91886608 0.27045587 0.06256172
0.91886608 0.27045587 0.06256172
0.91886608 0.27045587 0.06256219
0.91886608 0.27045587 0.06256172
0.91886608 0.27045587 0.06256172
0.91886608 0.27045587 0.06256172
0.91886608 0.27045587 0.06256172
0.91886608 0.27045587 0.06256172
0.06256184 0.31310467 0.06256172
0.06256184 0.31310467 0.06256172
0.06256184 0.31310467 0.06256172
0.12577443 0.31310467 0.06256172
0.17798991 0.31310467 0.06256172
0.22567636 0.31310467 0.06256172
0.27045587 0.31310467 0.06256172
0.31310467 0.31310467 0.06256172
0.35407936 0.31310467 0.06256172
0.39368036 0.31310467 0.06256172
0.43212006 0.31310467 0.06256189
0.46955628 0.31310467 0.06256172
0.50611082 0.31310467 0.06256172
0.54188033 0.31310467 0.06256172
0.57694338 0.31310467 0.06256194
0.61136496 0.31310467 0.06256172
0.64519973 0.31310467 0.06256172
0.67849426 0.31310467 0.06256172
0.71128866 0.31310467 0.06256200
0.74361783 0.31310467 0.06256172
0.77551239 0.31310467 0.06256172
0.80699943 0.31310467 0.06256172
0.83810304 0.31310467 0.06256208
0.86884481 0.31310467 0.06256208
0.89924418 0.31310467 0.06256213
0.91886608 0.31310467 0.06256213
0.91886608 0.31310467 0.06256172
0.91886608 0.31310467 0.06256172
0.91886608 0.31310467 0.06256172
0.91886608 0.31310467 0.06256172
0.91886608 0.31310467 0.06256172
0.91886608 0.31310467 0.06256172
0.91886608 0.31310467 0.06256172
0.06256187 0.35407936 0.06256172
0.06256187 0.35407936 0.06256172
0.06256187 0.35407936 0.06256172
0.12577443 0.35407936 0.06256185
0.17798991 0.35407936 0.06256172
0.22567636 0.35407936 0.06256172
0.27045587 0.35407936 0.06256172
0.31310467 0.35407936 0.06256172
0.35407936 0.35407936 0.06256172
0.39368036 0.35407936 0.06256172
0.43212006 0.35407936 0.06256172
0.46955628 0.35407936 0.06256172
0.50611082 0.35407936 0.06256172
0.54188033 0.35407936 0.06256191
0.57694338 0.35407936 0.06256172
0.61136496 0.35407936 0.06256194
0.64519973 0.35407936 0.06256197
0.67849426 0.35407936 0.06256200
0.71128866 0.35407936 0.06256172
0.74361783 0.35407936 0.06256172
0.77551239 0.35407936 0.06256172
0.80699943 0.35407936 0.06256172
0.83810304 0.35407936 0.06256172
0.86884481 0.35407936 0.06256172
0.89924418 0.35407936 0.06256213
0.91886608 0.35407936 0.06256219
0.91886608 0.35407936 0.06256172
0.91886608 0.35407936 0.06256172
0.91886608 0.35407936 0.06256172
0.91886608 0.35407936 0.06256172
0.91886608 0.35407936 0.06256172
0.91886608 0.35407936 0.06256172
0.91886608 0.35407936 0.06256172
0.06256191 0.39368036 0.06256172
0.06256191 0.39368036 0.06256172
0.06256191 0.39368036 0.06256172
0.12577443 0.39368036 0.06256172
0.17798991 0.39368036 0.06256172
0.22567636 0.39368036 0.06256172
0.27045587 0.39368036 0.06256172
0.31310467 0.39368036 0.06256172
0.35407936 0.39368036 0.06256172
0.39368036 0.39368036 0.06256172
0.43212006 0.39368036 0.06256172
0.46955628 0.39368036 0.06256191
0.50611082 0.39368036 0.06256191
0.54188033 0.39368036 0.06256172
0.57694338 0.39368036 0.06256172
0.61136496 0.39368036 0.06256172
0.64519973 0.39368036 0.06256172
0.67849426 0.39368036 0.06256172
0.71128866 0.39368036 0.06256172
0.74361783 0.39368036 0.06256172
0.77551239 0.39368036 0.06256172
0.80699943 0.39368036 0.06256172
0.83810304 0.39368036 0.06256172
0.86884481 0.39368036 0.06256208
0.89924418 0.39368036 0.06256213
0.91886608 0.39368036 0.06256172
0.91886608 0.39368036 0.06256172
0.91886608 0.39368036 0.06256172
0.91886608 0.39368036 0.06256227
0.91886608 0.39368036 0.06256172
0.91886608 0.39368036 0.06256172
0.91886608 0.39368036 0.06256172
0.91886608 0.39368036 0.06256172
0.06256194 0.43212006 0.06256172
0.06256194 0.43212006 0.06256172
0.06256194 0.43212006 0.06256172
0.12577443 0.43212006 0.06256172
0.17798991 0.43212006 0.06256172
0.22567636 0.43212006 0.06256172
0.27045587 0.43212006 0.06256172
0.31310467 0.43212006 0.06256172
0.35407936 0.43212006 0.06256172
0.39368036 0.43212006 0.06256172
0.43212006 0.43212006 0.06256172
0.46955628 0.43212006 0.06256172
0.50611082 0.43212006 0.06256172
0.54188033 0.43212006 0.06256172
0.57694338 0.43212006 0.06256172
0.61136496 0.43212006 0.06256172
0.64519973 0.43212006 0.06256172
0.67849426 0.43212006 0.06256172
0.71128866 0.43212006 0.06256172
0.74361783 0.43212006 0.06256172
0.77551239 0.43212006 0.06256172
0.80699943 0.43212006 0.06256172
0.83810304 0.43212006 0.06256208
0.86884481 0.43212006 0.06256208
0.89924418 0.43212006 0.06256172
0.91886608 0.43212006 0.06256172
0.91886608 0.43212006 0.06256172
0.91886608 0.43212006 0.06256219
0.91886608 0.43212006 0.06256172
0.91886608 0.43212006 0.06256172
0.91886608 0.43212006 0.06256172
0.91886608 0.43212006 0.06256172
0.91886608 0.43212006 0.06256172
0.06256196 0.46955628 0.06256172
0.06256196 0.46955628 0.06256172
0.06256196 0.46955628 0.06256172
0.12577443 0.46955628 0.06256172
0.17798991 0.46955628 0.06256172
0.22567636 0.46955628 0.06256191
0.27045587 0.46955628 0.06256172
0.31310467 0.46955628 0.06256172
0.35407936 0.46955628 0.06256172
0.39368036 0.46955628 0.06256172
0.43212006 0.46955628 0.06256172
0.46955628 0.46955628 0.06256172
0.50611082 0.46955628 0.06256172
0.54188033 0.46955628 0.06256172
0.57694338 0.46955628 0.06256197
0.61136496 0.46955628 0.06256197
0.64519973 0.46955628 0.06256172
0.67849426 0.46955628 0.06256172
0.71128866 0.46955628 0.06256200
0.74361783 0.46955628 0.06256172
0.77551239 0.46955628 0.06256204
0.80699943 0.46955628 0.06256172
0.83810304 0.46955628 0.06256172
0.86884481 0.46955628 0.06256172
0.89924418 0.46955628 0.06256172
0.91886608 0.46955628 0.06256213
0.91886608 0.46955628 0.06256172
0.91886608 0.46955628 0.06256172
0.91886608 0.46955628 0.06256172
0.91886608 0.46955628 0.06256172
0.91886608 0.46955628 0.06256172
0.91886608 0.46955628 0.06256235
0.91886608 0.46955628 0.06256172
0.06256195 0.50611082 0.06256191
0.06256195 0.50611082 0.06256191
0.06256195 0.50611082 0.06256191
0.12577443 0.50611082 0.06256191
0.17798991 0.50611082 0.06256172
0.22567636 0.50611082 0.06256172
0.27045587 0.50611082 0.06256191
0.31310467 0.50611082 0.06256172
0.35407936 0.50611082 0.06256172
0.39368036 0.50611082 0.06256191
0.43212006 0.50611082 0.06256172
0.46955628 0.50611082 0.06256172
0.50611082 0.50611082 0.06256194
0.54188033 0.50611082 0.06256172
0.57694338 0.50611082 0.06256172
0.61136496 0.50611082 0.06256172
0.64519973 0.50611082 0.06256197
0.67849426 0.50611082 0.06256172
0.71128866 0.50611082 0.06256172
0.74361783 0.50611082 0.06256172
0.77551239 0.50611082 0.06256204
0.80699943 0.50611082 0.06256172
0.83810304 0.50611082 0.06256208
0.86884481 0.50611082 0.06256172
0.89924418 0.50611082 0.06256172
0.91886608 0.50611082 0.06256172
0.91886608 0.50611082 0.06256172
0.91886608 0.50611082 0.06256172
0.91886608 0.50611082 0.06256172
0.91886608 0.50611082 0.06256172
0.91886608 0.50611082 0.06256235
0.91886608 0.50611082 0.06256172
0.91886608 0.50611082 0.06256245
0.06256188 0.54188033 0.06256172
0.06256188 0.54188033 0.06256172
0.06256188 0.54188033 0.06256172
0.12577443 0.54188033 0.06256172
0.17798991 0.54188033 0.06256172
0.22567636 0.54188033 0.06256172
0.27045587 0.54188033 0.06256194
0.31310467 0.54188033 0.06256172
0.35407936 0.54188033 0.06256172
0.39368036 0.54188033 0.06256172
0.43212006 0.54188033 0.06256194
0.46955628 0.54188033 0.06256172
0.50611082 0.54188033 0.06256172
0.54188033 0.54188033 0.06256172
0.57694338 0.54188033 0.06256172
0.61136496 0.54188033 0.06256172
0.64519973 0.54188033 0.06256172
0.67849426 0.54188033 0.06256172
0.71128866 0.54188033 0.06256200
0.74361783 0.54188033 0.06256172
0.77551239 0.54188033 0.06256172
0.80699943 0.54188033 0.06256172
0.83810304 0.54188033 0.06256172
0.86884481 0.54188033 0.06256172
0.89924418 0.54188033 0.06256172
0.91886608 0.54188033 0.06256213
0.91886608 0.54188033 0.06256219
0.91886608 0.54188033 0.06256172
0.91886608 0.54188033 0.06256172
0.91886608 0.54188033 0.06256172
0.91886608 0.54188033 0.06256235
0.91886608 0.54188033 0.06256172
0.91886608 0.54188033 0.06256172
0.06256193 0.57694338 0.06256172
0.06256193 0.57694338 0.06256172
0.06256193 0.57694338 0.06256172
0.12577443 0.57694338 0.06256172
0.17798991 0.57694338 0.06256172
0.22567636 0.57694338 0.06256172
0.27045587 0.57694338 0.06256194
0.31310467 0.57694338 0.06256172
0.35407936 0.57694338 0.06256172
0.39368036 0.57694338 0.06256194
0.43212006 0.57694338 0.06256194
0.46955628 0.57694338 0.06256172
0.50611082 0.57694338 0.06256172
0.54188033 0.57694338 0.06256197
0.57694338 0.57694338 0.06256172
0.61136496 0.57694338 0.06256172
0.64519973 0.57694338 0.06256172
0.67849426 0.57694338 0.06256172
0.71128866 0.57694338 0.06256172
0.74361783 0.57694338 0.06256172
0.77551239 0.57694338 0.06256172
0.80699943 0.57694338 0.06256172
0.83810304 0.57694338 0.06256172
0.86884481 0.57694338 0.06256172
0.89924418 0.57694338 0.06256172
0.91886608 0.57694338 0.06256172
0.91886608 0.57694338 0.06256172
0.91886608 0.57694338 0.06256172
0.91886608 0.57694338 0.06256227
0.91886608 0.57694338 0.06256172
0.91886608 0.57694338 0.06256172
0.91886608 0.57694338 0.06256172
0.91886608 0.57694338 0.06256172
0.06256204 0.61136496 0.06256172
0.06256204 0.61136496 0.06256172
0.06256204 0.61136496 0.06256172
0.12577443 0.61136496 0.06256172
0.17798991 0.61136496 0.06256172
0.22567636 0.61136496 0.06256197
0.27045587 0.61136496 0.06256172
0.31310467 0.61136496 0.06256172
0.35407936 0.61136496 0.06256172
0.39368036 0.61136496 0.06256172
0.43212006 0.61136496 0.06256172
0.46955628 0.61136496 0.06256172
0.50611082 0.61136496 0.06256172
0.54188033 0.61136496 0.06256172
0.57694338 0.61136496 0.06256172
0.61136496 0.61136496 0.06256172
0.64519973 0.61136496 0.06256172
0.67849426 0.61136496 0.06256172
0.71128866 0.61136496 0.06256172
0.74361783 0.61136496 0.06256172
0.77551239 0.61136496 0.06256172
0.80699943 0.61136496 0.06256172
0.83810304 0.61136496 0.06256172
0.86884481 0.61136496 0.06256172
0.89924418 0.61136496 0.06256172
0.91886608 0.61136496 0.06256172
0.91886608 0.61136496 0.06256172
0.91886608 0.61136496 0.06256172
0.91886608 0.61136496 0.06256227
0.91886608 0.61136496 0.06256172
0.91886608 0.61136496 0.06256172
0.91886608 0.61136496 0.06256172
0.91886608 0.61136496 0.06256245
0.06256197 0.64519973 0.06256172
0.06256197 0.64519973 0.06256172
0.06256197 0.64519973 0.06256172
0.12577443 0.64519973 0.06256172
0.17798991 0.64519973 0.06256197
0.22567636 0.64519973 0.06256197
0.27045587 0.64519973 0.06256172
0.31310467 0.64519973 0.06256172
0.35407936 0.64519973 0.06256172
0.39368036 0.64519973 0.06256172
0.43212006 0.64519973 0.06256172
0.46955628 0.64519973 0.06256172
0.50611082 0.64519973 0.06256172
0.54188033 0.64519973 0.06256172
0.57694338 0.64519973 0.06256172
0.61136496 0.64519973 0.06256172
0.64519973 0.64519973 0.06256172
0.67849426 0.64519973 0.06256200
0.71128866 0.64519973 0.06256172
0.74361783 0.64519973 0.06256172
0.77551239 0.64519973 0.06256172
0.80699943 0.64519973 0.06256172
0.83810304 0.64519973 0.06256208
0.86884481 0.64519973 0.06256172
0.89924418 0.64519973 0.06256172
0.91886608 0.64519973 0.06256172
0.91886608 0.64519973 0.06256172
0.91886608 0.64519973 0.06256172
0.91886608 0.64519973 0.06256172
0.91886608 0.64519973 0.06256172
0.91886608 0.64519973 0.06256172
0.91886608 0.64519973 0.06256172
0.91886608 0.64519973 0.06256172
0.06256204 0.67849426 0.06256172
0.06256204 0.67849426 0.06256172
0.06256204 0.67849426 0.06256172
0.12577443 0.67849426 0.06256200
0.17798991 0.67849426 0.06256172
0.22567636 0.67849426 0.06256172
0.27045587 0.67849426 0.06256172
0.31310467 0.67849426 0.06256172
0.35407936 0.67849426 0.06256172
0.39368036 0.67849426 0.06256172
0.43212006 0.67849426 0.06256200
0.46955628 0.67849426 0.06256200
0.50611082 0.67849426 0.06256172
0.54188033 0.67849426 0.06256200
0.57694338 0.67849426 0.06256172
0.61136496 0.67849426 0.06256200
0.64519973 0.67849426 0.06256204
0.67849426 0.67849426 0.06256172
0.71128866 0.67849426 0.06256172
0.74361783 0.67849426 0.06256172
0.77551239 0.67849426 0.06256172
0.80699943 0.67849426 0.06256172
0.83810304 0.67849426 0.06256172
0.86884481 0.67849426 0.06256172
0.89924418 0.67849426 0.06256172
0.91886608 0.67849426 0.06256172
0.91886608 0.67849426 0.06256219
0.91886608 0.67849426 0.06256172
0.91886608 0.67849426 0.06256172
0.91886608 0.67849426 0.06256172
0.91886608 0.67849426 0.06256172
0.91886608 0.67849426 0.06256172
0.91886608 0.67849426 0.06256172
0.06256210 0.71128866 0.06256172
0.06256210 0.71128866 0.06256172
0.06256210 0.71128866 0.06256172
0.12577443 0.71128866 0.06256172
0.17798991 0.71128866 0.06256172
0.22567636 0.71128866 0.06256172
0.27045587 0.71128866 0.06256172
0.31310467 0.71128866 0.06256172
0.35407936 0.71128866 0.06256172
0.39368036 0.71128866 0.06256172
0.43212006 0.71128866 0.06256172
0.46955628 0.71128866 0.06256172
0.50611082 0.71128866 0.06256172
0.54188033 0.71128866 0.06256172
0.57694338 0.71128866 0.06256172
0.61136496 0.71128866 0.06256172
0.64519973 0.71128866 0.06256172
0.67849426 0.71128866 0.06256172
0.71128866 0.71128866 0.06256172
0.74361783 0.71128866 0.06256204
0.77551239 0.71128866 0.06256172
0.80699943 0.71128866 0.06256172
0.83810304 0.71128866 0.06256208
0.86884481 0.71128866 0.06256172
0.89924418 0.71128866 0.06256172
0.91886608 0.71128866 0.06256172
0.91886608 0.71128866 0.06256172
0.91886608 0.71128866 0.06256172
0.91886608 0.71128866 0.06256172
0.91886608 0.71128866 0.06256172
0.91886608 0.71128866 0.06256172
0.91886608 0.71128866 0.06256235
0.91886608 0.71128866 0.06256245
0.06256209 0.74361783 0.06256172
0.06256209 0.74361783 0.06256172
0.06256209 0.74361783 0.06256172
0.12577443 0.74361783 0.06256172
0.17798991 0.74361783 0.06256172
0.22567636 0.74361783 0.06256172
0.27045587 0.74361783 0.06256172
0.31310467 0.74361783 0.06256172
0.35407936 0.74361783 0.06256172
0.39368036 0.74361783 0.06256172
0.43212006 0.74361783 0.06256172
0.46955628 0.74361783 0.06256204
0.50611082 0.74361783 0.06256172
0.54188033 0.74361783 0.06256172
0.57694338 0.74361783 0.06256172
0.61136496 0.74361783 0.06256172
0.64519973 0.74361783 0.06256172
0.67849426 0.74361783 0.06256172
0.71128866 0.74361783 0.06256208
0.74361783 0.74361783 0.06256172
0.77551239 0.74361783 0.06256172
0.80699943 0.74361783 0.06256172
0.83810304 0.74361783 0.06256213
0.86884481 0.74361783 0.06256172
0.89924418 0.74361783 0.06256172
0.91886608 0.74361783 0.06256172
0.91886608 0.74361783 0.06256172
0.91886608 0.74361783 0.06256219
0.91886608 0.74361783 0.06256227
0.91886608 0.74361783 0.06256172
0.91886608 0.74361783 0.06256172
0.91886608 0.74361783 0.06256172
0.91886608 0.74361783 0.06256172
0.06256206 0.77551239 0.06256204
0.06256206 0.77551239 0.06256204
0.06256206 0.77551239 0.06256204
0.12577443 0.77551239 0.06256204
0.17798991 0.77551239 0.06256172
0.22567636 0.77551239 0.06256208
0.27045587 0.77551239 0.06256172
0.31310467 0.77551239 0.06256172
0.35407936 0.77551239 0.06256204
0.39368036 0.77551239 0.06256172
0.43212006 0.77551239 0.06256204
0.46955628 0.77551239 0.06256172
0.50611082 0.77551239 0.06256172
0.54188033 0.77551239 0.06256204
0.57694338 0.77551239 0.06256172
0.61136496 0.77551239 0.06256172
0.64519973 0.77551239 0.06256208
0.67849426 0.77551239 0.06256172
0.71128866 0.77551239 0.06256172
0.74361783 0.77551239 0.06256172
0.77551239 0.77551239 0.06256208
0.80699943 0.77551239 0.06256172
0.83810304 0.77551239 0.06256172
0.86884481 0.77551239 0.06256213
0.89924418 0.77551239 0.06256172
0.91886608 0.77551239 0.06256172
0.91886608 0.77551239 0.06256172
0.91886608 0.77551239 0.06256172
0.91886608 0.77551239 0.06256172
0.91886608 0.77551239 0.06256172
0.91886608 0.77551239 0.06256172
0.91886608 0.77551239 0.06256172
0.91886608 0.77551239 0.06256172
0.06256217 0.80699943 0.06256172
0.06256217 0.80699943 0.06256172
0.06256217 0.80699943 0.06256172
0.12577443 0.80699943 0.06256172
0.17798991 0.80699943 0.06256172
0.22567636 0.80699943 0.06256208
0.27045587 0.80699943 0.06256172
0.31310467 0.80699943 0.06256172
0.35407936 0.80699943 0.06256172
0.39368036 0.80699943 0.06256172
0.43212006 0.80699943 0.06256172
0.46955628 0.80699943 0.06256172
0.50611082 0.80699943 0.06256172
0.54188033 0.80699943 0.06256172
0.57694338 0.80699943 0.06256172
0.61136496 0.80699943 0.06256172
0.64519973 0.80699943 0.06256172
0.67849426 0.80699943 0.06256172
0.71128866 0.80699943 0.06256172
0.74361783 0.80699943 0.06256172
0.77551239 0.80699943 0.06256172
0.80699943 0.80699943 0.06256172
0.83810304 0.80699943 0.06256172
0.86884481 0.80699943 0.06256213
0.89924418 0.80699943 0.06256172
0.91886608 0.80699943 0.06256172
0.91886608 0.80699943 0.06256172
