src/ffmpeg_scripts/luts/luminance_2p00.cube
TITLE "luminance_2p00"
LUT_3D_SIZE 9
# PQ (EOTF Only)/Rec2020 -> PQ (EOTF Only)/Rec2020, CineEI Shift 2.00, Black Level 0.00% IRE, Input 109% -> Output 109% - Created with LUTCalc v4.01 by Ben Turley October 2020
0.06256172 0.06256172 0.06256172
0.16889980 0.06256179 0.06256172
0.33763521 0.06256172 0.06256172
0.48627836 0.06256172 0.06256172
0.62389756 0.06256197 0.06256197
0.75395109 0.06256172 0.06256172
0.87828090 0.06256172 0.06256172
0.91886608 0.06256213 0.06256172
0.91886608 0.06256231 0.06256172
0.06256181 0.16889980 0.06256172
0.16889980 0.16889980 0.06256172
0.33763521 0.16889980 0.06256172
0.48627836 0.16889980 0.06256172
0.62389756 0.16889980 0.06256172
0.75395109 0.16889980 0.06256172
0.87828090 0.16889980 0.06256172
0.91886608 0.16889980 0.06256227
0.91886608 0.16889980 0.06256172
0.06256172 0.33763521 0.06256172
0.16889980 0.33763521 0.06256172
0.33763521 0.33763521 0.06256172
0.48627836 0.33763521 0.06256172
0.62389756 0.33763521 0.06256172
0.75395109 0.33763521 0.06256172
0.87828090 0.33763521 0.06256172
0.91886608 0.33763521 0.06256172
0.91886608 0.33763521 0.06256172
0.06256193 0.48627836 0.06256191
0.16889980 0.48627836 0.06256172
0.33763521 0.48627836 0.06256172
0.48627836 0.48627836 0.06256194
0.62389756 0.48627836 0.06256172
0.75395109 0.48627836 0.06256172
0.87828090 0.48627836 0.06256172
0.91886608 0.48627836 0.06256172
0.91886608 0.48627836 0.06256172
0.06256195 0.62389756 0.06256172
0.16889980 0.62389756 0.06256172
0.33763521 0.62389756 0.06256172
0.48627836 0.62389756 0.06256172
0.62389756 0.62389756 0.06256172
0.75395109 0.62389756 0.06256172
0.87828090 0.62389756 0.06256172
0.91886608 0.62389756 0.06256172
0.91886608 0.62389756 0.06256172
0.06256209 0.75395109 0.06256172
0.16889980 0.75395109 0.06256172
0.33763521 0.75395109 0.06256172
0.48627836 0.75395109 0.06256172
0.62389756 0.75395109 0.06256172
0.75395109 0.75395109 0.06256172
0.87828090 0.75395109 0.06256172
0.91886608 0.75395109 0.06256172
0.91886608 0.75395109 0.06256172
0.06256216 0.87828090 0.06256172
0.16889980 0.87828090 0.06256172
0.33763521 0.87828090 0.06256172
0.48627836 0.87828090 0.06256172
0.62389756 0.87828090 0.06256172
0.75395109 0.87828090 0.06256213
0.87828090 0.87828090 0.06256172
0.91886608 0.87828090 0.06256172
0.91886608 0.87828090 0.06256245
0.06256235 0.91886608 0.06256172
0.16889980 0.91886608 0.06256172
0.33763521 0.91886608 0.06256172
0.48627836 0.91886608 0.06256172
0.62389756 0.91886608 0.06256172
0.75395109 0.91886608 0.06256172
0.87828090 0.91886608 0.06256172
0.91886608 0.91886608 0.06256172
0.91886608 0.91886608 0.06256172
0.06256258 0.91886608 0.06256172
0.16889980 0.91886608 0.06256245
0.33763521 0.91886608 0.06256245
0.48627836 0.91886608 0.06256172
0.62389756 0.91886608 0.06256172
0.75395109 0.91886608 0.06256172
0.87828090 0.91886608 0.06256172
0.91886608 0.91886608 0.06256245
0.91886608 0.91886608 0.06256172
0.06256172 0.06256182 0.16889980
0.16889980 0.06256182 0.16889980
0.33763521 0.06256172 0.16889980
0.48627836 0.06256172 0.16889980
0.62389756 0.06256172 0.16889980
0.75395109 0.06256172 0.16889980
0.87828090 0.06256208 0.16889980
0.91886608 0.06256222 0.16889980
0.91886608 0.06256172 0.16889980
0.06256181 0.16889980 0.16889980
0.16889980 0.16889980 0.16889980
0.33763521 0.16889980 0.16889980
0.48627836 0.16889980 0.16889980
0.62389756 0.16889980 0.16889980
0.75395109 0.16889980 0.16889980
0.87828090 0.16889980 0.16889980
0.91886608 0.16889980 0.16889980
0.91886608 0.16889980 0.16889980
0.06256186 0.33763521 0.16889980
0.16889980 0.33763521 0.16889980
0.33763521 0.33763521 0.16889980
0.48627836 0.33763521 0.16889980
0.62389756 0.33763521 0.16889980
0.75395109 0.33763521 0.16889980
0.87828090 0.33763521 0.16889980
0.91886608 0.33763521 0.16889980
0.91886608 0.33763521 0.16889980
0.06256193 0.48627836 0.16889980
0.16889980 0.48627836 0.16889980
0.33763521 0.48627836 0.16889980
0.48627836 0.48627836 0.16889980
0.62389756 0.48627836 0.16889980
0.75395109 0.48627836 0.16889980
0.87828090 0.48627836 0.16889980
0.91886608 0.48627836 0.16889980
0.91886608 0.48627836 0.16889980
0.06256191 0.62389756 0.16889980
0.16889980 0.62389756 0.16889980
0.33763521 0.62389756 0.16889980
0.48627836 0.62389756 0.16889980
0.62389756 0.62389756 0.16889980
0.75395109 0.62389756 0.16889980
0.87828090 0.62389756 0.16889980
0.91886608 0.62389756 0.16889980
0.91886608 0.62389756 0.16889980
0.06256206 0.75395109 0.16889980
0.16889980 0.75395109 0.16889980
0.33763521 0.75395109 0.16889980
0.48627836 0.75395109 0.16889980
0.62389756 0.75395109 0.16889980
0.75395109 0.75395109 0.16889980
0.87828090 0.75395109 0.16889980
0.91886608 0.75395109 0.16889980
0.91886608 0.75395109 0.16889980
0.06256218 0.87828090 0.16889980
0.16889980 0.87828090 0.16889980
0.33763521 0.87828090 0.16889980
0.48627836 0.87828090 0.16889980
0.62389756 0.87828090 0.16889980
0.75395109 0.87828090 0.16889980
0.87828090 0.87828090 0.16889980
0.91886608 0.87828090 0.16889980
0.91886608 0.87828090 0.16889980
0.06256222 0.91886608 0.16889980
0.16889980 0.91886608 0.16889980
0.33763521 0.91886608 0.16889980
0.48627836 0.91886608 0.16889980
0.62389756 0.91886608 0.16889980
0.75395109 0.91886608 0.16889980
0.87828090 0.91886608 0.16889980
0.91886608 0.91886608 0.16889980
0.91886608 0.91886608 0.16889980
0.06256254 0.91886608 0.16889980
0.16889980 0.91886608 0.16889980
0.33763521 0.91886608 0.16889980
0.48627836 0.91886608 0.16889980
0.62389756 0.91886608 0.16889980
0.75395109 0.91886608 0.16889980
0.87828090 0.91886608 0.16889980
0.91886608 0.91886608 0.16889980
0.91886608 0.91886608 0.16889980
0.06256172 0.06256189 0.33763521
0.16889980 0.06256189 0.33763521
0.33763521 0.06256189 0.33763521
0.48627836 0.06256172 0.33763521
0.62389756 0.06256194 0.33763521
0.75395109 0.06256204 0.33763521
0.87828090 0.06256208 0.33763521
0.91886608 0.06256225 0.33763521
0.91886608 0.06256227 0.33763521
0.06256172 0.16889980 0.33763521
0.16889980 0.16889980 0.33763521
0.33763521 0.16889980 0.33763521
0.48627836 0.16889980 0.33763521
0.62389756 0.16889980 0.33763521
0.75395109 0.16889980 0.33763521
0.87828090 0.16889980 0.33763521
0.91886608 0.16889980 0.33763521
0.91886608 0.16889980 0.33763521
0.06256172 0.33763521 0.33763521
0.16889980 0.33763521 0.33763521
0.33763521 0.33763521 0.33763521
0.48627836 0.33763521 0.33763521
0.62389756 0.33763521 0.33763521
0.75395109 0.33763521 0.33763521
0.87828090 0.33763521 0.33763521
0.91886608 0.33763521 0.33763521
0.91886608 0.33763521 0.33763521
0.06256194 0.48627836 0.33763521
0.16889980 0.48627836 0.33763521
0.33763521 0.48627836 0.33763521
0.48627836 0.48627836 0.33763521
0.62389756 0.48627836 0.33763521
0.75395109 0.48627836 0.33763521
0.87828090 0.48627836 0.33763521
0.91886608 0.48627836 0.33763521
0.91886608 0.48627836 0.33763521
0.06256198 0.62389756 0.33763521
0.16889980 0.62389756 0.33763521
0.33763521 0.62389756 0.33763521
0.48627836 0.62389756 0.33763521
0.62389756 0.62389756 0.33763521
0.75395109 0.62389756 0.33763521
0.87828090 0.62389756 0.33763521
0.91886608 0.62389756 0.33763521
0.91886608 0.62389756 0.33763521
0.06256210 0.75395109 0.33763521
0.16889980 0.75395109 0.33763521
0.33763521 0.75395109 0.33763521
0.48627836 0.75395109 0.33763521
0.62389756 0.75395109 0.33763521
0.75395109 0.75395109 0.33763521
0.87828090 0.75395109 0.33763521
0.91886608 0.75395109 0.33763521
0.91886608 0.75395109 0.33763521
0.06256217 0.87828090 0.33763521
0.16889980 0.87828090 0.33763521
0.33763521 0.87828090 0.33763521
0.48627836 0.87828090 0.33763521
0.62389756 0.87828090 0.33763521
0.75395109 0.87828090 0.33763521
0.87828090 0.87828090 0.33763521
0.91886608 0.87828090 0.33763521
0.91886608 0.87828090 0.33763521
0.06256238 0.91886608 0.33763521
0.16889980 0.91886608 0.33763521
0.33763521 0.91886608 0.33763521
0.48627836 0.91886608 0.33763521
0.62389756 0.91886608 0.33763521
0.75395109 0.91886608 0.33763521
0.87828090 0.91886608 0.33763521
0.91886608 0.91886608 0.33763521
0.91886608 0.91886608 0.33763521
0.06256255 0.91886608 0.33763521
0.16889980 0.91886608 0.33763521
0.33763521 0.91886608 0.33763521
0.48627836 0.91886608 0.33763521
0.62389756 0.91886608 0.33763521
0.75395109 0.91886608 0.33763521
0.87828090 0.91886608 0.33763521
0.91886608 0.91886608 0.33763521
0.91886608 0.91886608 0.33763521
0.06256172 0.06256197 0.48627836
0.16889980 0.06256197 0.48627836
0.33763521 0.06256172 0.48627836
0.48627836 0.06256200 0.48627836
0.62389756 0.06256197 0.48627836
0.75395109 0.06256204 0.48627836
0.87828090 0.06256208 0.48627836
0.91886608 0.06256172 0.48627836
0.91886608 0.06256247 0.48627836
0.06256172 0.16889980 0.48627836
0.16889980 0.16889980 0.48627836
0.33763521 0.16889980 0.48627836
0.48627836 0.16889980 0.48627836
0.62389756 0.16889980 0.48627836
0.75395109 0.16889980 0.48627836
0.87828090 0.16889980 0.48627836
0.91886608 0.16889980 0.48627836
0.91886608 0.16889980 0.48627836
0.06256172 0.33763521 0.48627836
0.16889980 0.33763521 0.48627836
0.33763521 0.33763521 0.48627836
0.48627836 0.33763521 0.48627836
0.62389756 0.33763521 0.48627836
0.75395109 0.33763521 0.48627836
0.87828090 0.33763521 0.48627836
0.91886608 0.33763521 0.48627836
0.91886608 0.33763521 0.48627836
0.06256172 0.48627836 0.48627836
0.16889980 0.48627836 0.48627836
0.33763521 0.48627836 0.48627836
0.48627836 0.48627836 0.48627836
0.62389756 0.48627836 0.48627836
0.75395109 0.48627836 0.48627836
0.87828090 0.48627836 0.48627836
0.91886608 0.48627836 0.48627836
0.91886608 0.48627836 0.48627836
0.06256172 0.62389756 0.48627836
0.16889980 0.62389756 0.48627836
0.33763521 0.62389756 0.48627836
0.48627836 0.62389756 0.48627836
0.62389756 0.62389756 0.48627836
0.75395109 0.62389756 0.48627836
0.87828090 0.62389756 0.48627836
0.91886608 0.62389756 0.48627836
0.91886608 0.62389756 0.48627836
0.06256204 0.75395109 0.48627836
0.16889980 0.75395109 0.48627836
0.33763521 0.75395109 0.48627836
0.48627836 0.75395109 0.48627836
0.62389756 0.75395109 0.48627836
0.75395109 0.75395109 0.48627836
0.87828090 0.75395109 0.48627836
0.91886608 0.75395109 0.48627836
0.91886608 0.75395109 0.48627836
0.06256217 0.87828090 0.48627836
0.16889980 0.87828090 0.48627836
0.33763521 0.87828090 0.48627836
0.48627836 0.87828090 0.48627836
0.62389756 0.87828090 0.48627836
0.75395109 0.87828090 0.48627836
0.87828090 0.87828090 0.48627836
0.91886608 0.87828090 0.48627836
0.91886608 0.87828090 0.48627836
0.06256228 0.91886608 0.48627836
0.16889980 0.91886608 0.48627836
0.33763521 0.91886608 0.48627836
0.48627836 0.91886608 0.48627836
0.62389756 0.91886608 0.48627836
0.75395109 0.91886608 0.48627836
0.87828090 0.91886608 0.48627836
0.91886608 0.91886608 0.48627836
0.91886608 0.91886608 0.48627836
0.06256255 0.91886608 0.48627836
0.16889980 0.91886608 0.48627836
0.33763521 0.91886608 0.48627836
0.48627836 0.91886608 0.48627836
0.62389756 0.91886608 0.48627836
0.75395109 0.91886608 0.48627836
0.87828090 0.91886608 0.48627836
0.91886608 0.91886608 0.48627836
0.91886608 0.91886608 0.48627836
0.06256172 0.06256204 0.62389756
0.16889980 0.06256208 0.62389756
0.33763521 0.06256204 0.62389756
0.48627836 0.06256172 0.62389756
0.62389756 0.06256204 0.62389756
0.75395109 0.06256172 0.62389756
0.87828090 0.06256213 0.62389756
0.91886608 0.06256227 0.62389756
0.91886608 0.06256258 0.62389756
0.06256200 0.16889980 0.62389756
0.16889980 0.16889980 0.62389756
0.33763521 0.16889980 0.62389756
0.48627836 0.16889980 0.62389756
0.62389756 0.16889980 0.62389756
0.75395109 0.16889980 0.62389756
0.87828090 0.16889980 0.62389756
0.91886608 0.16889980 0.62389756
0.91886608 0.16889980 0.62389756
0.06256172 0.33763521 0.62389756
0.16889980 0.33763521 0.62389756
0.33763521 0.33763521 0.62389756
0.48627836 0.33763521 0.62389756
0.62389756 0.33763521 0.62389756
0.75395109 0.33763521 0.62389756
0.87828090 0.33763521 0.62389756
0.91886608 0.33763521 0.62389756
0.91886608 0.33763521 0.62389756
0.06256172 0.48627836 0.62389756
0.16889980 0.48627836 0.62389756
0.33763521 0.48627836 0.62389756
0.48627836 0.48627836 0.62389756
0.62389756 0.48627836 0.62389756
0.75395109 0.48627836 0.62389756
0.87828090 0.48627836 0.62389756
0.91886608 0.48627836 0.62389756
0.91886608 0.48627836 0.62389756
0.06256172 0.62389756 0.62389756
0.16889980 0.62389756 0.62389756
0.33763521 0.62389756 0.62389756
0.48627836 0.62389756 0.62389756
0.62389756 0.62389756 0.62389756
0.75395109 0.62389756 0.62389756
0.87828090 0.62389756 0.62389756
0.91886608 0.62389756 0.62389756
0.91886608 0.62389756 0.62389756
0.06256204 0.75395109 0.62389756
0.16889980 0.75395109 0.62389756
0.33763521 0.75395109 0.62389756
0.48627836 0.75395109 0.62389756
0.62389756 0.75395109 0.62389756
0.75395109 0.75395109 0.62389756
0.87828090 0.75395109 0.62389756
0.91886608 0.75395109 0.62389756
0.91886608 0.75395109 0.62389756
0.06256224 0.87828090 0.62389756
0.16889980 0.87828090 0.62389756
0.33763521 0.87828090 0.62389756
0.48627836 0.87828090 0.62389756
0.62389756 0.87828090 0.62389756
0.75395109 0.87828090 0.62389756
0.87828090 0.87828090 0.62389756
0.91886608 0.87828090 0.62389756
0.91886608 0.87828090 0.62389756
0.06256231 0.91886608 0.62389756
0.16889980 0.91886608 0.62389756
0.33763521 0.91886608 0.62389756
0.48627836 0.91886608 0.62389756
0.62389756 0.91886608 0.62389756
0.75395109 0.91886608 0.62389756
0.87828090 0.91886608 0.62389756
0.91886608 0.91886608 0.62389756
0.91886608 0.91886608 0.62389756
0.06256172 0.91886608 0.62389756
0.16889980 0.91886608 0.62389756
0.33763521 0.91886608 0.62389756
0.48627836 0.91886608 0.62389756
0.62389756 0.91886608 0.62389756
0.75395109 0.91886608 0.62389756
0.87828090 0.91886608 0.62389756
0.91886608 0.91886608 0.62389756
0.91886608 0.91886608 0.62389756
0.06256172 0.06256219 0.75395109
0.16889980 0.06256219 0.75395109
0.33763521 0.06256219 0.75395109
0.48627836 0.06256213 0.75395109
0.62389756 0.06256223 0.75395109
0.75395109 0.06256213 0.75395109
0.87828090 0.06256213 0.75395109
0.91886608 0.06256227 0.75395109
0.91886608 0.06256172 0.75395109
0.06256172 0.16889980 0.75395109
0.16889980 0.16889980 0.75395109
0.33763521 0.16889980 0.75395109
0.48627836 0.16889980 0.75395109
0.62389756 0.16889980 0.75395109
0.75395109 0.16889980 0.75395109
0.87828090 0.16889980 0.75395109
0.91886608 0.16889980 0.75395109
0.91886608 0.16889980 0.75395109
0.06256208 0.33763521 0.75395109
0.16889980 0.33763521 0.75395109
0.33763521 0.33763521 0.75395109
0.48627836 0.33763521 0.75395109
0.62389756 0.33763521 0.75395109
0.75395109 0.33763521 0.75395109
0.87828090 0.33763521 0.75395109
0.91886608 0.33763521 0.75395109
0.91886608 0.33763521 0.75395109
0.06256172 0.48627836 0.75395109
0.16889980 0.48627836 0.75395109
0.33763521 0.48627836 0.75395109
0.48627836 0.48627836 0.75395109
0.62389756 0.48627836 0.75395109
0.75395109 0.48627836 0.75395109
0.87828090 0.48627836 0.75395109
0.91886608 0.48627836 0.75395109
0.91886608 0.48627836 0.75395109
0.06256172 0.62389756 0.75395109
0.16889980 0.62389756 0.75395109
0.33763521 0.62389756 0.75395109
0.48627836 0.62389756 0.75395109
0.62389756 0.62389756 0.75395109
0.75395109 0.62389756 0.75395109
0.87828090 0.62389756 0.75395109
0.91886608 0.62389756 0.75395109
0.91886608 0.62389756 0.75395109
0.06256208 0.75395109 0.75395109
0.16889980 0.75395109 0.75395109
0.33763521 0.75395109 0.75395109
0.48627836 0.75395109 0.75395109
0.62389756 0.75395109 0.75395109
0.75395109 0.75395109 0.75395109
0.87828090 0.75395109 0.75395109
0.91886608 0.75395109 0.75395109
0.91886608 0.75395109 0.75395109
0.06256217 0.87828090 0.75395109
0.16889980 0.87828090 0.75395109
0.33763521 0.87828090 0.75395109
0.48627836 0.87828090 0.75395109
0.62389756 0.87828090 0.75395109
0.75395109 0.87828090 0.75395109
0.87828090 0.87828090 0.75395109
0.91886608 0.87828090 0.75395109
0.91886608 0.87828090 0.75395109
0.06256227 0.91886608 0.75395109
0.16889980 0.91886608 0.75395109
0.33763521 0.91886608 0.75395109
0.48627836 0.91886608 0.75395109
0.62389756 0.91886608 0.75395109
0.75395109 0.91886608 0.75395109
0.87828090 0.91886608 0.75395109
0.91886608 0.91886608 0.75395109
0.91886608 0.91886608 0.75395109
0.06256260 0.91886608 0.75395109
0.16889980 0.91886608 0.75395109
0.33763521 0.91886608 0.75395109
0.48627836 0.91886608 0.75395109
0.62389756 0.91886608 0.75395109
0.75395109 0.91886608 0.75395109
0.87828090 0.91886608 0.75395109
0.91886608 0.91886608 0.75395109
0.91886608 0.91886608 0.75395109
0.06256172 0.06256227 0.87828090
0.16889980 0.06256227 0.87828090
0.33763521 0.06256227 0.87828090
0.48627836 0.06256227 0.87828090
0.62389756 0.06256227 0.87828090
0.75395109 0.06256227 0.87828090
0.87828090 0.06256227 0.87828090
0.91886608 0.06256172 0.87828090
0.91886608 0.06256172 0.87828090
0.06256172 0.16889980 0.87828090
0.16889980 0.16889980 0.87828090
0.33763521 0.16889980 0.87828090
0.48627836 0.16889980 0.87828090
0.62389756 0.16889980 0.87828090
0.75395109 0.16889980 0.87828090
0.87828090 0.16889980 0.87828090
0.91886608 0.16889980 0.87828090
0.91886608 0.16889980 0.87828090
0.06256172 0.33763521 0.87828090
0.16889980 0.33763521 0.87828090
0.33763521 0.33763521 0.87828090
0.48627836 0.33763521 0.87828090
0.62389756 0.33763521 0.87828090
0.75395109 0.33763521 0.87828090
0.87828090 0.33763521 0.87828090
0.91886608 0.33763521 0.87828090
0.91886608 0.33763521 0.87828090
0.06256172 0.48627836 0.87828090
0.16889980 0.48627836 0.87828090
0.33763521 0.48627836 0.87828090
0.48627836 0.48627836 0.87828090
0.62389756 0.48627836 0.87828090
0.75395109 0.48627836 0.87828090
0.87828090 0.48627836 0.87828090
0.91886608 0.48627836 0.87828090
0.91886608 0.48627836 0.87828090
0.06256172 0.62389756 0.87828090
0.16889980 0.62389756 0.87828090
0.33763521 0.62389756 0.87828090
0.48627836 0.62389756 0.87828090
0.62389756 0.62389756 0.87828090
0.75395109 0.62389756 0.87828090
0.87828090 0.62389756 0.87828090
0.91886608 0.62389756 0.87828090
0.91886608 0.62389756 0.87828090
0.06256172 0.75395109 0.87828090
0.16889980 0.75395109 0.87828090
0.33763521 0.75395109 0.87828090
0.48627836 0.75395109 0.87828090
0.62389756 0.75395109 0.87828090
0.75395109 0.75395109 0.87828090
0.87828090 0.75395109 0.87828090
0.91886608 0.75395109 0.87828090
0.91886608 0.75395109 0.87828090
0.06256172 0.87828090 0.87828090
0.16889980 0.87828090 0.87828090
0.33763521 0.87828090 0.87828090
0.48627836 0.87828090 0.87828090
0.62389756 0.87828090 0.87828090
0.75395109 0.87828090 0.87828090
0.87828090 0.87828090 0.87828090
0.91886608 0.87828090 0.87828090
0.91886608 0.87828090 0.87828090
0.06256219 0.91886608 0.87828090
0.16889980 0.91886608 0.87828090
0.33763521 0.91886608 0.87828090
0.48627836 0.91886608 0.87828090
0.62389756 0.91886608 0.87828090
0.75395109 0.91886608 0.87828090
0.87828090 0.91886608 0.87828090
0.91886608 0.91886608 0.87828090
0.91886608 0.91886608 0.87828090
0.06256238 0.91886608 0.87828090
0.16889980 0.91886608 0.87828090
0.33763521 0.91886608 0.87828090
0.48627836 0.91886608 0.87828090
0.62389756 0.91886608 0.87828090
0.75395109 0.91886608 0.87828090
0.87828090 0.91886608 0.87828090
0.91886608 0.91886608 0.87828090
0.91886608 0.91886608 0.87828090
0.06256172 0.06256257 0.91886608
0.16889980 0.06256245 0.91886608
0.33763521 0.06256257 0.91886608
0.48627836 0.06256245 0.91886608
0.62389756 0.06256245 0.91886608
0.75395109 0.06256245 0.91886608
0.87828090 0.06256245 0.91886608
0.91886608 0.06256265 0.91886608
0.91886608 0.06256272 0.91886608
0.06256172 0.16889980 0.91886608
0.16889980 0.16889980 0.91886608
0.33763521 0.16889980 0.91886608
0.48627836 0.16889980 0.91886608
0.62389756 0.16889980 0.91886608
0.75395109 0.16889980 0.91886608
0.87828090 0.16889980 0.91886608
0.91886608 0.16889980 0.91886608
0.91886608 0.16889980 0.91886608
0.06256172 0.33763521 0.91886608
0.16889980 0.33763521 0.91886608
0.33763521 0.33763521 0.91886608
0.48627836 0.33763521 0.91886608
0.62389756 0.33763521 0.91886608
0.75395109 0.33763521 0.91886608
0.87828090 0.33763521 0.91886608
0.91886608 0.33763521 0.91886608
0.91886608 0.33763521 0.91886608
0.06256172 0.48627836 0.91886608
0.16889980 0.48627836 0.91886608
0.33763521 0.48627836 0.91886608
0.48627836 0.48627836 0.91886608
0.62389756 0.48627836 0.91886608
0.75395109 0.48627836 0.91886608
0.87828090 0.48627836 0.91886608
0.91886608 0.48627836 0.91886608
0.91886608 0.48627836 0.91886608
0.06256172 0.62389756 0.91886608
0.16889980 0.62389756 0.91886608
0.33763521 0.62389756 0.91886608
0.48627836 0.62389756 0.91886608
0.62389756 0.62389756 0.91886608
0.75395109 0.62389756 0.91886608
0.87828090 0.62389756 0.91886608
0.91886608 0.62389756 0.91886608
0.91886608 0.62389756 0.91886608
0.06256172 0.75395109 0.91886608
0.16889980 0.75395109 0.91886608
0.33763521 0.75395109 0.91886608
0.48627836 0.75395109 0.91886608
0.62389756 0.75395109 0.91886608
0.75395109 0.75395109 0.91886608
0.87828090 0.75395109 0.91886608
0.91886608 0.75395109 0.91886608
0.91886608 0.75395109 0.91886608
0.06256172 0.87828090 0.91886608
0.16889980 0.87828090 0.91886608
0.33763521 0.87828090 0.91886608
0.48627836 0.87828090 0.91886608
0.62389756 0.87828090 0.91886608
0.75395109 0.87828090 0.91886608
0.87828090 0.87828090 0.91886608
0.91886608 0.87828090 0.91886608
0.91886608 0.87828090 0.91886608
0.06256172 0.91886608 0.91886608
0.16889980 0.91886608 0.91886608
0.33763521 0.91886608 0.91886608
0.48627836 0.91886608 0.91886608
0.62389756 0.91886608 0.91886608
0.75395109 0.91886608 0.91886608
0.87828090 0.91886608 0.91886608
0.91886608 0.91886608 0.91886608
0.91886608 0.91886608 0.91886608
0.06256265 0.91886608 0.91886608
0.16889980 0.91886608 0.91886608
0.33763521 0.91886608 0.91886608
0.48627836 0.91886608 0.91886608
0.62389756 0.91886608 0.91886608
0.75395109 0.91886608 0.91886608
0.87828090 0.91886608 0.91886608
0.91886608 0.91886608 0.91886608
0.91886608 0.91886608 0.91886608
0.06256172 0.06256272 0.91886608
0.16889980 0.06256172 0.91886608
0.33763521 0.06256272 0.91886608
0.48627836 0.06256272 0.91886608
0.62389756 0.06256289 0.91886608
0.75395109 0.06256272 0.91886608
0.87828090 0.06256289 0.91886608
0.91886608 0.06256289 0.91886608
0.91886608 0.06256172 0.91886608
0.06256172 0.16889980 0.91886608
0.16889980 0.16889980 0.91886608
0.33763521 0.16889980 0.91886608
0.48627836 0.16889980 0.91886608
0.62389756 0.16889980 0.91886608
0.75395109 0.16889980 0.91886608
0.87828090 0.16889980 0.91886608
0.91886608 0.16889980 0.91886608
0.91886608 0.16889980 0.91886608
0.06256172 0.33763521 0.91886608
0.16889980 0.33763521 0.91886608
0.33763521 0.33763521 0.91886608
0.48627836 0.33763521 0.91886608
0.62389756 0.33763521 0.91886608
0.75395109 0.33763521 0.91886608
0.87828090 0.33763521 0.91886608
0.91886608 0.33763521 0.91886608
0.91886608 0.33763521 0.91886608
0.06256172 0.48627836 0.91886608
0.16889980 0.48627836 0.91886608
0.33763521 0.48627836 0.91886608
0.48627836 0.48627836 0.91886608
0.62389756 0.48627836 0.91886608
0.75395109 0.48627836 0.91886608
0.87828090 0.48627836 0.91886608
0.91886608 0.48627836 0.91886608
0.91886608 0.48627836 0.91886608
0.06256172 0.62389756 0.91886608
0.16889980 0.62389756 0.91886608
0.33763521 0.62389756 0.91886608
0.48627836 0.62389756 0.91886608
0.62389756 0.62389756 0.91886608
0.75395109 0.62389756 0.91886608
0.87828090 0.62389756 0.91886608
0.91886608 0.62389756 0.91886608
0.91886608 0.62389756 0.91886608
0.06256172 0.75395109 0.91886608
0.16889980 0.75395109 0.91886608
0.33763521 0.75395109 0.91886608
0.48627836 0.75395109 0.91886608
0.62389756 0.75395109 0.91886608
0.75395109 0.75395109 0.91886608
0.87828090 0.75395109 0.91886608
0.91886608 0.75395109 0.91886608
0.91886608 0.75395109 0.91886608
0.06256257 0.87828090 0.91886608
0.16889980 0.87828090 0.91886608
0.33763521 0.87828090 0.91886608
0.48627836 0.87828090 0.91886608
0.62389756 0.87828090 0.91886608
0.75395109 0.87828090 0.91886608
0.87828090 0.87828090 0.91886608
0.91886608 0.87828090 0.91886608
0.91886608 0.87828090 0.91886608
0.06256172 0.91886608 0.91886608
0.16889980 0.91886608 0.91886608
0.33763521 0.91886608 0.91886608
0.48627836 0.91886608 0.91886608
0.62389756 0.91886608 0.91886608
0.75395109 0.91886608 0.91886608
0.87828090 0.91886608 0.91886608
0.91886608 0.91886608 0.91886608
0.91886608 0.91886608 0.91886608
0.06256257 0.91886608 0.91886608
0.16889980 0.91886608 0.91886608
0.33763521 0.91886608 0.91886608
0.48627836 0.91886608 0.91886608
0.62389756 0.91886608 0.91886608
0.75395109 0.91886608 0.91886608
0.87828090 0.91886608 0.91886608
0.91886608 0.91886608 0.91886608
0.91886608 0.91886608 0.91886608
