src/ffmpeg_scripts/luts/luminance-unclipped_2p67.cube
TITLE "luminance-unclipped_2p67"
LUT_3D_SIZE 5
# PQ (EOTF Only)/Rec2020 -> PQ (EOTF Only)/Rec2020, CineEI Shift 2.67, Black Level -7.25% IRE, Input 109% -> Output 109% - Created with LUTCalc v4.01 by Ben Turley October 2020
0.00047898 0.00047898 0.00047898
0.35793399 0.00047898 0.00047898
0.70049974 0.00047923 0.00047931
0.91886608 0.00047898 0.00047898
0.91886608 0.00047971 0.00047983
0.00047916 0.35793399 0.00047898
0.35793399 0.35793399 0.00047898
0.70049974 0.35793399 0.00047927
0.91886608 0.35793399 0.00047898
0.91886608 0.35793399 0.00047898
0.00047898 0.70049974 0.00047898
0.35793399 0.70049974 0.00047898
0.70049974 0.70049974 0.00047898
0.91886608 0.70049974 0.00047898
0.91886608 0.70049974 0.00047898
0.00047898 0.91886608 0.00047898
0.35793399 0.91886608 0.00047898
0.70049974 0.91886608 0.00047898
0.91886608 0.91886608 0.00047898
0.91886608 0.91886608 0.00047983
0.00047999 0.91886608 0.00047997
0.35793399 0.91886608 0.00047898
0.70049974 0.91886608 0.00047898
0.91886608 0.91886608 0.00047898
0.91886608 0.91886608 0.00047898
0.00047898 0.00047920 0.35793399
0.35793399 0.00047920 0.35793399
0.70049974 0.00047931 0.35793399
0.91886608 0.00047898 0.35793399
0.91886608 0.00047978 0.35793399
0.00047898 0.35793399 0.35793399
0.35793399 0.35793399 0.35793399
0.70049974 0.35793399 0.35793399
0.91886608 0.35793399 0.35793399
0.91886608 0.35793399 0.35793399
0.00047935 0.70049974 0.35793399
0.35793399 0.70049974 0.35793399
0.70049974 0.70049974 0.35793399
0.91886608 0.70049974 0.35793399
0.91886608 0.70049974 0.35793399
0.00047971 0.91886608 0.35793399
0.35793399 0.91886608 0.35793399
0.70049974 0.91886608 0.35793399
0.91886608 0.91886608 0.35793399
0.91886608 0.91886608 0.35793399
0.00047898 0.91886608 0.35793399
0.35793399 0.91886608 0.35793399
0.70049974 0.91886608 0.35793399
0.91886608 0.91886608 0.35793399
0.91886608 0.91886608 0.35793399
0.00047898 0.00047946 0.70049974
0.35793399 0.00047898 0.70049974
0.70049974 0.00047940 0.70049974
0.91886608 0.00047940 0.70049974
0.91886608 0.00047999 0.70049974
0.00047898 0.35793399 0.70049974
0.35793399 0.35793399 0.70049974
0.70049974 0.35793399 0.70049974
0.91886608 0.35793399 0.70049974
0.91886608 0.35793399 0.70049974
0.00047898 0.70049974 0.70049974
0.35793399 0.70049974 0.70049974
0.70049974 0.70049974 0.70049974
0.91886608 0.70049974 0.70049974
0.91886608 0.70049974 0.70049974
0.00047898 0.91886608 0.70049974
0.35793399 0.91886608 0.70049974
0.70049974 0.91886608 0.70049974
0.91886608 0.91886608 0.70049974
0.91886608 0.91886608 0.70049974
0.00047898 0.91886608 0.70049974
0.35793399 0.91886608 0.70049974
0.70049974 0.91886608 0.70049974
0.91886608 0.91886608 0.70049974
0.91886608 0.91886608 0.70049974
0.00047898 0.00047971 0.91886608
0.35793399 0.00047898 0.91886608
0.70049974 0.00047971 0.91886608
0.91886608 0.00047971 0.91886608
0.91886608 0.00047898 0.91886608
0.00047898 0.35793399 0.91886608
0.35793399 0.35793399 0.91886608
0.70049974 0.35793399 0.91886608
0.91886608 0.35793399 0.91886608
0.91886608 0.35793399 0.91886608
0.00047898 0.70049974 0.91886608
0.35793399 0.70049974 0.91886608
0.70049974 0.70049974 0.91886608
0.91886608 0.70049974 0.91886608
0.91886608 0.70049974 0.91886608
0.00047898 0.91886608 0.91886608
0.35793399 0.91886608 0.91886608
0.70049974 0.91886608 0.91886608
0.91886608 0.91886608 0.91886608
0.91886608 0.91886608 0.91886608
0.00047999 0.91886608 0.91886608
0.35793399 0.91886608 0.91886608
0.70049974 0.91886608 0.91886608
0.91886608 0.91886608 0.91886608
0.91886608 0.91886608 0.91886608
0.00047898 0.00048034 0.91886608
0.35793399 0.00048034 0.91886608
0.70049974 0.00048059 0.91886608
0.91886608 0.00048034 0.91886608
0.91886608 0.00048034 0.91886608
0.00047997 0.35793399 0.91886608
0.35793399 0.35793399 0.91886608
0.70049974 0.35793399 0.91886608
0.91886608 0.35793399 0.91886608
0.91886608 0.35793399 0.91886608
0.00047898 0.70049974 0.91886608
0.35793399 0.70049974 0.91886608
0.70049974 0.70049974 0.91886608
0.91886608 0.70049974 0.91886608
0.91886608 0.70049974 0.91886608
0.00047997 0.91886608 0.91886608
0.35793399 0.91886608 0.91886608
0.70049974 0.91886608 0.91886608
0.91886608 0.91886608 0.91886608
0.91886608 0.91886608 0.91886608
0.00047997 0.91886608 0.91886608
0.35793399 0.91886608 0.91886608
0.70049974 0.91886608 0.91886608
0.91886608 0.91886608 0.91886608
0.91886608 0.91886608 0.91886608
