src/ffmpeg_scripts/luts/luminance-unclipped_-0p67.cube
TITLE "luminance-unclipped_-0p67"
LUT_3D_SIZE 5
# PQ (EOTF Only)/Rec2020 -> PQ (EOTF Only)/Rec2020, CineEI Shift -0.67, Black Level -7.25% IRE, Input 109% -> Output 109% - Created with LUTCalc v4.01 by Ben Turley October 2020
0.00047898 0.00047898 0.00047898
0.18896359 0.00047908 0.00047898
0.46206066 0.00047914 0.00047918
0.74710993 0.00047898 0.00047898
0.91886608 0.00047953 0.00047953
0.00047898 0.18896359 0.00047898
0.18896359 0.18896359 0.00047898
0.46206066 0.18896359 0.00047918
0.74710993 0.18896359 0.00047898
0.91886608 0.18896359 0.00047898
0.00047898 0.46206066 0.00047918
0.18896359 0.46206066 0.00047898
0.46206066 0.46206066 0.00047898
0.74710993 0.46206066 0.00047898
0.91886608 0.46206066 0.00047898
0.00047935 0.74710993 0.00047898
0.18896359 0.74710993 0.00047898
0.46206066 0.74710993 0.00047898
0.74710993 0.74710993 0.00047935
0.91886608 0.74710993 0.00047961
0.00047960 0.91886608 0.00047898
0.18896359 0.91886608 0.00047898
0.46206066 0.91886608 0.00047898
0.74710993 0.91886608 0.00047898
0.91886608 0.91886608 0.00047898
0.00047898 0.00047914 0.18896359
0.18896359 0.00047914 0.18896359
0.46206066 0.00047898 0.18896359
0.74710993 0.00047931 0.18896359
0.91886608 0.00047946 0.18896359
0.00047898 0.18896359 0.18896359
0.18896359 0.18896359 0.18896359
0.46206066 0.18896359 0.18896359
0.74710993 0.18896359 0.18896359
0.91886608 0.18896359 0.18896359
0.00047919 0.46206066 0.18896359
0.18896359 0.46206066 0.18896359
0.46206066 0.46206066 0.18896359
0.74710993 0.46206066 0.18896359
0.91886608 0.46206066 0.18896359
0.00047920 0.74710993 0.18896359
0.18896359 0.74710993 0.18896359
0.46206066 0.74710993 0.18896359
0.74710993 0.74710993 0.18896359
0.91886608 0.74710993 0.18896359
0.00047969 0.91886608 0.18896359
0.18896359 0.91886608 0.18896359
0.46206066 0.91886608 0.18896359
0.74710993 0.91886608 0.18896359
0.91886608 0.91886608 0.18896359
0.00047898 0.00047898 0.46206066
0.18896359 0.00047898 0.46206066
0.46206066 0.00047898 0.46206066
0.74710993 0.00047898 0.46206066
0.91886608 0.00047950 0.46206066
0.00047898 0.18896359 0.46206066
0.18896359 0.18896359 0.46206066
0.46206066 0.18896359 0.46206066
0.74710993 0.18896359 0.46206066
0.91886608 0.18896359 0.46206066
0.00047898 0.46206066 0.46206066
0.18896359 0.46206066 0.46206066
0.46206066 0.46206066 0.46206066
0.74710993 0.46206066 0.46206066
0.91886608 0.46206066 0.46206066
0.00047938 0.74710993 0.46206066
0.18896359 0.74710993 0.46206066
0.46206066 0.74710993 0.46206066
0.74710993 0.74710993 0.46206066
0.91886608 0.74710993 0.46206066
0.00047898 0.91886608 0.46206066
0.18896359 0.91886608 0.46206066
0.46206066 0.91886608 0.46206066
0.74710993 0.91886608 0.46206066
0.91886608 0.91886608 0.46206066
0.00047898 0.00047940 0.74710993
0.18896359 0.00047898 0.74710993
0.46206066 0.00047950 0.74710993
0.74710993 0.00047953 0.74710993
0.91886608 0.00047898 0.74710993
0.00047898 0.18896359 0.74710993
0.18896359 0.18896359 0.74710993
0.46206066 0.18896359 0.74710993
0.74710993 0.18896359 0.74710993
0.91886608 0.18896359 0.74710993
0.00047898 0.46206066 0.74710993
0.18896359 0.46206066 0.74710993
0.46206066 0.46206066 0.74710993
0.74710993 0.46206066 0.74710993
0.91886608 0.46206066 0.74710993
0.00047898 0.74710993 0.74710993
0.18896359 0.74710993 0.74710993
0.46206066 0.74710993 0.74710993
0.74710993 0.74710993 0.74710993
0.91886608 0.74710993 0.74710993
0.00047960 0.91886608 0.74710993
0.18896359 0.91886608 0.74710993
0.46206066 0.91886608 0.74710993
0.74710993 0.91886608 0.74710993
0.91886608 0.91886608 0.74710993
0.00047961 0.00047991 0.91886608
0.18896359 0.00047983 0.91886608
0.46206066 0.00047983 0.91886608
0.74710993 0.00047971 0.91886608
0.91886608 0.00047898 0.91886608
0.00047961 0.18896359 0.91886608
0.18896359 0.18896359 0.91886608
0.46206066 0.18896359 0.91886608
0.74710993 0.18896359 0.91886608
0.91886608 0.18896359 0.91886608
0.00047898 0.46206066 0.91886608
0.18896359 0.46206066 0.91886608
0.46206066 0.46206066 0.91886608
0.74710993 0.46206066 0.91886608
0.91886608 0.46206066 0.91886608
0.00047898 0.74710993 0.91886608
0.18896359 0.74710993 0.91886608
0.46206066 0.74710993 0.91886608
0.74710993 0.74710993 0.91886608
0.91886608 0.74710993 0.91886608
0.00047961 0.91886608 0.91886608
0.18896359 0.91886608 0.91886608
0.46206066 0.91886608 0.91886608
0.74710993 0.91886608 0.91886608
0.91886608 0.91886608 0.91886608
