src/ffmpeg_scripts/luts/luminance-unclipped_-2p00.cube
TITLE "luminance-unclipped_-2p00"
LUT_3D_SIZE 5
# PQ (EOTF Only)/Rec2020 -> PQ (EOTF Only)/Rec2020, CineEI Shift -2.00, Black Level -7.25% IRE, Input 109% -> Output 109% - Created with LUTCalc v4.01 by Ben Turley October 2020
0.00047898 0.00047898 0.00047898
0.13930017 0.00047898 0.00047898
0.37657197 0.00047917 0.00047916
0.64777019 0.00047898 0.00047898
0.91886608 0.00047946 0.00047946
0.00047898 0.13930017 0.00047898
0.13930017 0.13930017 0.00047898
0.37657197 0.13930017 0.00047916
0.64777019 0.13930017 0.00047898
0.91886608 0.13930017 0.00047898
0.00047898 0.37657197 0.00047898
0.13930017 0.37657197 0.00047916
0.37657197 0.37657197 0.00047898
0.64777019 0.37657197 0.00047898
0.91886608 0.37657197 0.00047898
0.00047928 0.64777019 0.00047898
0.13930017 0.64777019 0.00047898
0.37657197 0.64777019 0.00047898
0.64777019 0.64777019 0.00047898
0.91886608 0.64777019 0.00047946
0.00047952 0.91886608 0.00047946
0.13930017 0.91886608 0.00047946
0.37657197 0.91886608 0.00047898
0.64777019 0.91886608 0.00047946
0.91886608 0.91886608 0.00047898
0.00047898 0.00047910 0.13930017
0.13930017 0.00047898 0.13930017
0.37657197 0.00047914 0.13930017
0.64777019 0.00047918 0.13930017
0.91886608 0.00047945 0.13930017
0.00047898 0.13930017 0.13930017
0.13930017 0.13930017 0.13930017
0.37657197 0.13930017 0.13930017
0.64777019 0.13930017 0.13930017
0.91886608 0.13930017 0.13930017
0.00047916 0.37657197 0.13930017
0.13930017 0.37657197 0.13930017
0.37657197 0.37657197 0.13930017
0.64777019 0.37657197 0.13930017
0.91886608 0.37657197 0.13930017
0.00047928 0.64777019 0.13930017
0.13930017 0.64777019 0.13930017
0.37657197 0.64777019 0.13930017
0.64777019 0.64777019 0.13930017
0.91886608 0.64777019 0.13930017
0.00047950 0.91886608 0.13930017
0.13930017 0.91886608 0.13930017
0.37657197 0.91886608 0.13930017
0.64777019 0.91886608 0.13930017
0.91886608 0.91886608 0.13930017
0.00047898 0.00047920 0.37657197
0.13930017 0.00047920 0.37657197
0.37657197 0.00047920 0.37657197
0.64777019 0.00047927 0.37657197
0.91886608 0.00047944 0.37657197
0.00047898 0.13930017 0.37657197
0.13930017 0.13930017 0.37657197
0.37657197 0.13930017 0.37657197
0.64777019 0.13930017 0.37657197
0.91886608 0.13930017 0.37657197
0.00047898 0.37657197 0.37657197
0.13930017 0.37657197 0.37657197
0.37657197 0.37657197 0.37657197
0.64777019 0.37657197 0.37657197
0.91886608 0.37657197 0.37657197
0.00047932 0.64777019 0.37657197
0.13930017 0.64777019 0.37657197
0.37657197 0.64777019 0.37657197
0.64777019 0.64777019 0.37657197
0.91886608 0.64777019 0.37657197
0.00047898 0.91886608 0.37657197
0.13930017 0.91886608 0.37657197
0.37657197 0.91886608 0.37657197
0.64777019 0.91886608 0.37657197
0.91886608 0.91886608 0.37657197
0.00047898 0.00047935 0.64777019
0.13930017 0.00047935 0.64777019
0.37657197 0.00047898 0.64777019
0.64777019 0.00047935 0.64777019
0.91886608 0.00047946 0.64777019
0.00047898 0.13930017 0.64777019
0.13930017 0.13930017 0.64777019
0.37657197 0.13930017 0.64777019
0.64777019 0.13930017 0.64777019
0.91886608 0.13930017 0.64777019
0.00047898 0.37657197 0.64777019
0.13930017 0.37657197 0.64777019
0.37657197 0.37657197 0.64777019
0.64777019 0.37657197 0.64777019
0.91886608 0.37657197 0.64777019
0.00047898 0.64777019 0.64777019
0.13930017 0.64777019 0.64777019
0.37657197 0.64777019 0.64777019
0.64777019 0.64777019 0.64777019
0.91886608 0.64777019 0.64777019
0.00047935 0.91886608 0.64777019
0.13930017 0.91886608 0.64777019
0.37657197 0.91886608 0.64777019
0.64777019 0.91886608 0.64777019
0.91886608 0.91886608 0.64777019
0.00047898 0.00047898 0.91886608
0.13930017 0.00047961 0.91886608
0.37657197 0.00047898 0.91886608
0.64777019 0.00047961 0.91886608
0.91886608 0.00047898 0.91886608
0.00047898 0.13930017 0.91886608
0.13930017 0.13930017 0.91886608
0.37657197 0.13930017 0.91886608
0.64777019 0.13930017 0.91886608
0.91886608 0.13930017 0.91886608
0.00047898 0.37657197 0.91886608
0.13930017 0.37657197 0.91886608
0.37657197 0.37657197 0.91886608
0.64777019 0.37657197 0.91886608
0.91886608 0.37657197 0.91886608
0.00047898 0.64777019 0.91886608
0.13930017 0.64777019 0.91886608
0.37657197 0.64777019 0.91886608
0.64777019 0.64777019 0.91886608
0.91886608 0.64777019 0.91886608
0.00047953 0.91886608 0.91886608
0.13930017 0.91886608 0.91886608
0.37657197 0.91886608 0.91886608
0.64777019 0.91886608 0.91886608
0.91886608 0.91886608 0.91886608
