src/ffmpeg_scripts/luts/rec2020-sRGB_-4p00.cube
TITLE "rec2020-srgb_-4p00"
LUT_3D_SIZE 33
# PQ (EOTF Only)/Rec2020 -> PQ (EOTF Only)/Rec709, CineEI Shift -4.00, Black Level 0.00% IRE, Input 100% -> Output 109% - Created with LUTCalc v4.01 by Ben Turley October 2020
0.06256172 0.06256172 0.06256172
0.07097078 0.06256172 0.06256172
0.08136249 0.06256172 0.06256172
0.09308374 0.06256172 0.06256172
0.10588548 0.06256172 0.06256172
0.11962518 0.06256172 0.06256172
0.13420762 0.06256172 0.06256172
0.14956350 0.06256172 0.06256172
0.16563950 0.06256172 0.06256172
0.18239304 0.06256172 0.06256172
0.19978908 0.06256172 0.06256172
0.21779815 0.06256172 0.06256172
0.23639504 0.06256172 0.06256172
0.25555788 0.06256172 0.06256172
0.27526743 0.06256172 0.06256172
0.29550662 0.06256172 0.06256172
0.31626019 0.06256172 0.06256172
0.33751437 0.06256172 0.06256172
0.35925665 0.06256172 0.06256172
0.38147562 0.06256172 0.06256172
0.40416082 0.06256172 0.06256172
0.42730259 0.06256172 0.06256172
0.45089200 0.06256172 0.06256172
0.47492075 0.06256172 0.06256172
0.49938111 0.06256172 0.06256172
0.52426585 0.06256172 0.06256172
0.54956818 0.06256172 0.06256172
0.57528174 0.06256172 0.06256172
0.60140052 0.06256172 0.06256172
0.62791885 0.06256172 0.06256172
0.65483136 0.06256172 0.06256172
0.68213296 0.06256172 0.06256172
0.70981882 0.06256172 0.06256172
0.06256172 0.06938361 0.06256172
0.06918153 0.06895824 0.06256172
0.08063582 0.06712008 0.06256172
0.09268467 0.06256172 0.06256172
0.10563998 0.06256172 0.06256172
0.11946434 0.06256172 0.06256172
0.13409788 0.06256172 0.06256172
0.14948646 0.06256172 0.06256172
0.16558428 0.06256172 0.06256172
0.18235282 0.06256172 0.06256172
0.19975941 0.06256172 0.06256172
0.21777605 0.06256172 0.06256172
0.23637846 0.06256172 0.06256172
0.25554535 0.06256172 0.06256172
0.27525791 0.06256172 0.06256172
0.29549937 0.06256172 0.06256172
0.31625465 0.06256172 0.06256172
0.33751012 0.06256172 0.06256172
0.35925339 0.06256172 0.06256172
0.38147312 0.06256172 0.06256172
0.40415890 0.06256172 0.06256172
0.42730111 0.06256172 0.06256172
0.45089086 0.06256172 0.06256172
0.47491988 0.06256172 0.06256172
0.49938044 0.06256172 0.06256172
0.52426534 0.06256172 0.06256172
0.54956779 0.06256172 0.06256172
0.57528145 0.06256172 0.06256172
0.60140030 0.06256172 0.06256172
0.62791868 0.06256172 0.06256172
0.65483123 0.06256172 0.06256172
0.68213286 0.06256172 0.06256172
0.70981875 0.06256172 0.06256172
0.06256172 0.07806010 0.06256172
0.06256172 0.07787259 0.06256172
0.07763407 0.07716172 0.06256172
0.09115647 0.07545709 0.06256172
0.10472024 0.07150062 0.06256172
0.11886716 0.06256172 0.06256172
0.13369220 0.06256172 0.06256172
0.14920234 0.06256172 0.06256172
0.16538089 0.06256172 0.06256172
0.18220479 0.06256172 0.06256172
0.19965030 0.06256172 0.06256172
0.21769482 0.06256172 0.06256172
0.23631749 0.06256172 0.06256172
0.25549931 0.06256172 0.06256172
0.27522296 0.06256172 0.06256172
0.29547273 0.06256172 0.06256172
0.31623429 0.06256172 0.06256172
0.33749452 0.06256172 0.06256172
0.35924142 0.06256172 0.06256172
0.38146392 0.06256172 0.06256172
0.40415183 0.06256172 0.06256172
0.42729568 0.06256172 0.06256172
0.45088669 0.06256172 0.06256172
0.47491668 0.06256172 0.06256172
0.49937799 0.06256172 0.06256172
0.52426347 0.06256172 0.06256172
0.54956637 0.06256172 0.06256172
0.57528036 0.06256172 0.06256172
0.60139947 0.06256172 0.06256172
0.62791806 0.06256172 0.06256172
0.65483076 0.06256172 0.06256172
0.68213251 0.06256172 0.06256172
0.70981849 0.06256172 0.06256172
0.06256172 0.08803366 0.06256172
0.06256172 0.08792800 0.06256172
0.06562322 0.08753511 0.06256172
0.08737595 0.08664495 0.06256172
0.10259258 0.08489346 0.06256172
0.11751936 0.08152648 0.06256172
0.13278709 0.07409819 0.06256172
0.14857233 0.06256172 0.06256172
0.16493146 0.06256172 0.06256172
0.18187841 0.06256172 0.06256172
0.19941005 0.06256172 0.06256172
0.21751610 0.06256172 0.06256172
0.23618345 0.06256172 0.06256172
0.25539811 0.06256172 0.06256172
0.27514617 0.06256172 0.06256172
0.29541422 0.06256172 0.06256172
0.31618957 0.06256172 0.06256172
0.33746026 0.06256172 0.06256172
0.35921513 0.06256172 0.06256172
0.38144373 0.06256172 0.06256172
0.40413632 0.06256172 0.06256172
0.42728376 0.06256172 0.06256172
0.45087754 0.06256172 0.06256172
0.47490966 0.06256172 0.06256172
0.49937262 0.06256172 0.06256172
0.52425935 0.06256172 0.06256172
0.54956323 0.06256172 0.06256172
0.57527797 0.06256172 0.06256172
0.60139766 0.06256172 0.06256172
0.62791669 0.06256172 0.06256172
0.65482973 0.06256172 0.06256172
0.68213174 0.06256172 0.06256172
0.70981791 0.06256172 0.06256172
0.06256172 0.09908554 0.06256172
0.06256172 0.09901948 0.06256172
0.06256172 0.09877539 0.06256172
0.07752362 0.09823142 0.06256172
0.09819318 0.09719942 0.06256172
0.11489190 0.09537000 0.06256172
0.13106600 0.09216706 0.06256172
0.14738939 0.08622311 0.06256172
0.16409357 0.07032411 0.06256172
0.18127251 0.06256172 0.06256172
0.19896523 0.06256172 0.06256172
0.21718579 0.06256172 0.06256172
0.23593599 0.06256172 0.06256172
0.25521145 0.06256172 0.06256172
0.27500460 0.06256172 0.06256172
0.29530640 0.06256172 0.06256172
0.31610718 0.06256172 0.06256172
0.33739716 0.06256172 0.06256172
0.35916672 0.06256172 0.06256172
0.38140656 0.06256172 0.06256172
0.40410775 0.06256172 0.06256172
0.42726182 0.06256172 0.06256172
0.45086069 0.06256172 0.06256172
0.47489673 0.06256172 0.06256172
0.49936271 0.06256172 0.06256172
0.52425178 0.06256172 0.06256172
0.54955746 0.06256172 0.06256172
0.57527358 0.06256172 0.06256172
0.60139433 0.06256172 0.06256172
0.62791417 0.06256172 0.06256172
0.65482784 0.06256172 0.06256172
0.68213032 0.06256172 0.06256172
0.70981686 0.06256172 0.06256172
0.06256172 0.11108958 0.06256172
0.06256172 0.11104576 0.06256172
0.06256172 0.11088429 0.06256172
0.06256172 0.11052689 0.06256172
0.08848519 0.10985830 0.06256172
0.10996224 0.10870472 0.06256172
0.12800238 0.10678903 0.06256172
0.14533438 0.10362579 0.06256172
0.16265697 0.09821008 0.06256172
0.18024162 0.08753538 0.06256172
0.19821203 0.06256172 0.06256172
0.21662821 0.06256172 0.06256172
0.23551915 0.06256172 0.06256172
0.25489744 0.06256172 0.06256172
0.27476669 0.06256172 0.06256172
0.29512533 0.06256172 0.06256172
0.31596890 0.06256172 0.06256172
0.33729129 0.06256172 0.06256172
0.35908552 0.06256172 0.06256172
0.38134421 0.06256172 0.06256172
0.40405985 0.06256172 0.06256172
0.42722502 0.06256172 0.06256172
0.45083244 0.06256172 0.06256172
0.47487506 0.06256172 0.06256172
0.49934612 0.06256172 0.06256172
0.52423910 0.06256172 0.06256172
0.54954778 0.06256172 0.06256172
0.57526622 0.06256172 0.06256172
0.60138875 0.06256172 0.06256172
0.62790996 0.06256172 0.06256172
0.65482467 0.06256172 0.06256172
0.68212795 0.06256172 0.06256172
0.70981509 0.06256172 0.06256172
0.06256172 0.12396111 0.06256172
0.06256172 0.12393090 0.06256172
0.06256172 0.12381974 0.06256172
0.06256172 0.12357451 0.06256172
0.06256172 0.12311881 0.06256172
0.10008936 0.12234212 0.06256172
0.12260023 0.12107998 0.06256172
0.14187991 0.11907597 0.06256172
0.16029852 0.11589852 0.06256172
0.17857162 0.11072202 0.06256172
0.19700168 0.10152596 0.06256172
0.21573682 0.07745931 0.06256172
0.23485500 0.06256172 0.06256172
0.25439831 0.06256172 0.06256172
0.27438911 0.06256172 0.06256172
0.29483828 0.06256172 0.06256172
0.31574986 0.06256172 0.06256172
0.33712368 0.06256172 0.06256172
0.35895702 0.06256172 0.06256172
0.38124557 0.06256172 0.06256172
0.40398410 0.06256172 0.06256172
0.42716684 0.06256172 0.06256172
0.45078777 0.06256172 0.06256172
0.47484081 0.06256172 0.06256172
0.49931988 0.06256172 0.06256172
0.52421904 0.06256172 0.06256172
0.54953248 0.06256172 0.06256172
0.57525459 0.06256172 0.06256172
0.60137993 0.06256172 0.06256172
0.62790329 0.06256172 0.06256172
0.65481965 0.06256172 0.06256172
0.68212419 0.06256172 0.06256172
0.70981229 0.06256172 0.06256172
0.06256172 0.13763829 0.06256172
0.06256172 0.13761690 0.06256172
0.06256172 0.13753822 0.06256172
0.06256172 0.13736497 0.06256172
0.06256172 0.13704417 0.06256172
0.06256172 0.13650089 0.06256172
0.11245600 0.13562761 0.06256172
0.13604658 0.13426614 0.06256172
0.15648771 0.13217390 0.06256172
0.17593445 0.12895408 0.06256172
0.19511573 0.12388549 0.06256172
0.21435937 0.11538839 0.06256172
0.23383425 0.09813236 0.06256172
0.25363398 0.06256172 0.06256172
0.27381237 0.06256172 0.06256172
0.29440059 0.06256172 0.06256172
0.31541629 0.06256172 0.06256172
0.33686867 0.06256172 0.06256172
0.35876164 0.06256172 0.06256172
0.38109568 0.06256172 0.06256172
0.40386901 0.06256172 0.06256172
0.42707847 0.06256172 0.06256172
0.45071994 0.06256172 0.06256172
0.47478879 0.06256172 0.06256172
0.49928005 0.06256172 0.06256172
0.52418860 0.06256172 0.06256172
0.54950927 0.06256172 0.06256172
0.57523693 0.06256172 0.06256172
0.60136655 0.06256172 0.06256172
0.62789318 0.06256172 0.06256172
0.65481205 0.06256172 0.06256172
0.68211849 0.06256172 0.06256172
0.70980804 0.06256172 0.06256172
0.06256172 0.15207348 0.06256172
0.06256172 0.15205802 0.06256172
0.06256172 0.15200120 0.06256172
0.06256172 0.15187619 0.06256172
0.06256172 0.15164521 0.06256172
0.06256172 0.15125546 0.06256172
0.08562225 0.15063278 0.06256172
0.12558509 0.14967152 0.06256172
0.15025461 0.14821767 0.06256172
0.17179487 0.14603812 0.06256172
0.19222062 0.14275937 0.06256172
0.21227286 0.13772662 0.06256172
0.23230111 0.12960339 0.06256172
0.25249239 0.11467786 0.06256172
0.27295426 0.06256172 0.06256172
0.29375112 0.06256172 0.06256172
0.31492225 0.06256172 0.06256172
0.33649150 0.06256172 0.06256172
0.35847296 0.06256172 0.06256172
0.38087436 0.06256172 0.06256172
0.40369918 0.06256172 0.06256172
0.42694811 0.06256172 0.06256172
0.45061992 0.06256172 0.06256172
0.47471211 0.06256172 0.06256172
0.49922134 0.06256172 0.06256172
0.52414373 0.06256172 0.06256172
0.54947505 0.06256172 0.06256172
0.57521091 0.06256172 0.06256172
0.60134682 0.06256172 0.06256172
0.62787828 0.06256172 0.06256172
0.65480084 0.06256172 0.06256172
0.68211010 0.06256172 0.06256172
0.70980179 0.06256172 0.06256172
0.06256172 0.16722853 0.06256172
0.06256172 0.16721719 0.06256172
0.06256172 0.16717551 0.06256172
0.06256172 0.16708388 0.06256172
0.06256172 0.16691478 0.06256172
0.06256172 0.16663009 0.06256172
0.06256172 0.16617690 0.06256172
0.10169039 0.16548135 0.06256172
0.13945394 0.16443888 0.06256172
0.16518697 0.16289815 0.06256172
0.18777508 0.16063246 0.06256172
0.20913775 0.15728422 0.06256172
0.23002785 0.15224282 0.06256172
0.25081418 0.14432114 0.06256172
0.27170004 0.13057669 0.06256172
0.29280563 0.09610699 0.06256172
0.31420505 0.06256172 0.06256172
0.33594506 0.06256172 0.06256172
0.35805533 0.06256172 0.06256172
0.38055452 0.06256172 0.06256172
0.40345395 0.06256172 0.06256172
0.42676000 0.06256172 0.06256172
0.45047565 0.06256172 0.06256172
0.47460154 0.06256172 0.06256172
0.49913670 0.06256172 0.06256172
0.52407905 0.06256172 0.06256172
0.54942574 0.06256172 0.06256172
0.57517342 0.06256172 0.06256172
0.60131840 0.06256172 0.06256172
0.62785681 0.06256172 0.06256172
0.65478469 0.06256172 0.06256172
0.68209800 0.06256172 0.06256172
0.70979277 0.06256172 0.06256172
0.06256172 0.18307202 0.06256172
0.06256172 0.18306360 0.06256172
0.06256172 0.18303266 0.06256172
0.06256172 0.18296467 0.06256172
0.06256172 0.18283931 0.06256172
0.06256172 0.18262853 0.06256172
0.06256172 0.18229378 0.06256172
0.06256172 0.18178187 0.06256172
0.11676193 0.18101887 0.06256172
0.15403618 0.17990071 0.06256172
0.18081288 0.17827759 0.06256172
0.20440568 0.17592697 0.06256172
0.22666858 0.17250204 0.06256172
0.24836678 0.16742209 0.06256172
0.26988675 0.15959721 0.06256172
0.29144671 0.14652057 0.06256172
0.31317848 0.11880879 0.06256172
0.33516519 0.06256172 0.06256172
0.35746056 0.06256172 0.06256172
0.38009973 0.06256172 0.06256172
0.40310564 0.06256172 0.06256172
0.42649304 0.06256172 0.06256172
0.45027102 0.06256172 0.06256172
0.47444479 0.06256172 0.06256172
0.49901676 0.06256172 0.06256172
0.52398743 0.06256172 0.06256172
0.54935590 0.06256172 0.06256172
0.57512032 0.06256172 0.06256172
0.60127815 0.06256172 0.06256172
0.62782642 0.06256172 0.06256172
0.65476182 0.06256172 0.06256172
0.68208088 0.06256172 0.06256172
0.70978002 0.06256172 0.06256172
0.06256172 0.19957751 0.06256172
0.06256172 0.19957120 0.06256172
0.06256172 0.19954802 0.06256172
0.06256172 0.19949709 0.06256172
0.06256172 0.19940323 0.06256172
0.06256172 0.19924556 0.06256172
0.06256172 0.19899554 0.06256172
0.06256172 0.19861408 0.06256172
0.06256172 0.19804755 0.06256172
0.13188053 0.19722173 0.06256172
0.16930655 0.19603250 0.06256172
0.19710647 0.19433077 0.06256172
0.22166691 0.19189639 0.06256172
0.24479761 0.18838952 0.06256172
0.26727685 0.18324958 0.06256172
0.28950779 0.17545147 0.06256172
0.31172254 0.16275806 0.06256172
0.33406379 0.13802333 0.06256172
0.35662311 0.06256172 0.06256172
0.37946078 0.06256172 0.06256172
0.40261707 0.06256172 0.06256172
0.42611902 0.06256172 0.06256172
0.44998460 0.06256172 0.06256172
0.47422552 0.06256172 0.06256172
0.49884907 0.06256172 0.06256172
0.52385937 0.06256172 0.06256172
0.54925831 0.06256172 0.06256172
0.57504614 0.06256172 0.06256172
0.60122194 0.06256172 0.06256172
0.62778397 0.06256172 0.06256172
0.65472989 0.06256172 0.06256172
0.68205697 0.06256172 0.06256172
0.70976220 0.06256172 0.06256172
0.06256172 0.21672237 0.06256172
0.06256172 0.21671761 0.06256172
0.06256172 0.21670011 0.06256172
0.06256172 0.21666167 0.06256172
0.06256172 0.21659085 0.06256172
0.06256172 0.21647196 0.06256172
0.06256172 0.21628362 0.06256172
0.06256172 0.21599671 0.06256172
0.06256172 0.21557162 0.06256172
0.06256172 0.21495413 0.06256172
0.14734435 0.21406950 0.06256172
0.18524204 0.21281320 0.06256172
0.21404557 0.21103609 0.06256172
0.23954137 0.20851905 0.06256172
0.26351082 0.20492622 0.06256172
0.28674631 0.19970996 0.06256172
0.30966704 0.19188834 0.06256172
0.33251828 0.17939854 0.06256172
0.35545303 0.15627971 0.06256172
0.37857080 0.06256172 0.06256172
0.40193811 0.06256172 0.06256172
0.42560012 0.06256172 0.06256172
0.44958772 0.06256172 0.06256172
0.47392198 0.06256172 0.06256172
0.49861709 0.06256172 0.06256172
0.52368232 0.06256172 0.06256172
0.54912344 0.06256172 0.06256172
0.57494365 0.06256172 0.06256172
0.60114429 0.06256172 0.06256172
0.62772534 0.06256172 0.06256172
0.65468580 0.06256172 0.06256172
0.68202396 0.06256172 0.06256172
0.70973761 0.06256172 0.06256172
0.06256172 0.23448695 0.06256172
0.06256172 0.23448334 0.06256172
0.06256172 0.23447004 0.06256172
0.06256172 0.23444086 0.06256172
0.06256172 0.23438709 0.06256172
0.06256172 0.23429688 0.06256172
0.06256172 0.23415406 0.06256172
0.06256172 0.23393673 0.06256172
0.06256172 0.23361524 0.06256172
0.06256172 0.23314935 0.06256172
0.06256172 0.23248422 0.06256172
0.16326817 0.23154436 0.06256172
0.20182201 0.23022449 0.06256172
0.23161095 0.22837483 0.06256172
0.25801357 0.22577609 0.06256172
0.28279548 0.22209405 0.06256172
0.30676429 0.21678844 0.06256172
0.33035489 0.20890491 0.06256172
0.35382522 0.19649444 0.06256172
0.37733811 0.17429769 0.06256172
0.40100068 0.10364128 0.06256172
0.42488536 0.06256172 0.06256172
0.44904198 0.06256172 0.06256172
0.47350512 0.06256172 0.06256172
0.49829881 0.06256172 0.06256172
0.52343958 0.06256172 0.06256172
0.54893864 0.06256172 0.06256172
0.57480328 0.06256172 0.06256172
0.60103797 0.06256172 0.06256172
0.62764508 0.06256172 0.06256172
0.65462545 0.06256172 0.06256172
0.68197878 0.06256172 0.06256172
0.70970395 0.06256172 0.06256172
0.06256172 0.25285397 0.06256172
0.06256172 0.25285121 0.06256172
0.06256172 0.25284107 0.06256172
0.06256172 0.25281880 0.06256172
0.06256172 0.25277779 0.06256172
0.06256172 0.25270900 0.06256172
0.06256172 0.25260013 0.06256172
0.06256172 0.25243461 0.06256172
0.06256172 0.25219002 0.06256172
0.06256172 0.25183615 0.06256172
0.06256172 0.25133215 0.06256172
0.06256172 0.25062240 0.06256172
0.17970103 0.24963054 0.06256172
0.21902796 0.24825024 0.06256172
0.24978570 0.24633052 0.06256172
0.27706968 0.24365096 0.06256172
0.30263998 0.23987693 0.06256172
0.32732073 0.23447106 0.06256172
0.35156236 0.22649472 0.06256172
0.37563515 0.21407100 0.06256172
0.39971138 0.19237561 0.06256172
0.42390549 0.13568421 0.06256172
0.44829562 0.06256172 0.06256172
0.47293604 0.06256172 0.06256172
0.49786488 0.06256172 0.06256172
0.52310897 0.06256172 0.06256172
0.54868712 0.06256172 0.06256172
0.57461234 0.06256172 0.06256172
0.60089341 0.06256172 0.06256172
0.62753600 0.06256172 0.06256172
0.65454345 0.06256172 0.06256172
0.68191741 0.06256172 0.06256172
0.70965824 0.06256172 0.06256172
0.06256172 0.27180811 0.06256172
0.06256172 0.27180600 0.06256172
0.06256172 0.27179823 0.06256172
0.06256172 0.27178118 0.06256172
0.06256172 0.27174978 0.06256172
0.06256172 0.27169711 0.06256172
0.06256172 0.27161381 0.06256172
0.06256172 0.27148720 0.06256172
0.06256172 0.27130027 0.06256172
0.06256172 0.27103015 0.06256172
0.06256172 0.27064605 0.06256172
0.06256172 0.27010644 0.06256172
0.11146546 0.26935488 0.06256172
0.19666348 0.26831399 0.06256172
0.23684333 0.26687611 0.06256172
0.26855483 0.26488859 0.06256172
0.29669718 0.26212896 0.06256172
0.32303366 0.25826044 0.06256172
0.34840626 0.25274479 0.06256172
0.37328101 0.24464958 0.06256172
0.39794026 0.23213924 0.06256172
0.42256553 0.21065851 0.06256172
0.44727833 0.15950733 0.06256172
0.47216228 0.06256172 0.06256172
0.49727596 0.06256172 0.06256172
0.52266088 0.06256172 0.06256172
0.54834658 0.06256172 0.06256172
0.57435402 0.06256172 0.06256172
0.60069796 0.06256172 0.06256172
0.62738857 0.06256172 0.06256172
0.65443266 0.06256172 0.06256172
0.68183450 0.06256172 0.06256172
0.70959651 0.06256172 0.06256172
0.06256172 0.29133565 0.06256172
0.06256172 0.29133403 0.06256172
0.06256172 0.29132806 0.06256172
0.06256172 0.29131497 0.06256172
0.06256172 0.29129086 0.06256172
0.06256172 0.29125042 0.06256172
0.06256172 0.29118648 0.06256172
0.06256172 0.29108934 0.06256172
0.06256172 0.29094599 0.06256172
0.06256172 0.29073902 0.06256172
0.06256172 0.29044507 0.06256172
0.06256172 0.29003281 0.06256172
0.06256172 0.28945998 0.06256172
0.13589491 0.28866927 0.06256172
0.21416238 0.28758210 0.06256172
0.25525318 0.28608926 0.06256172
0.28790494 0.28403599 0.06256172
0.31688472 0.28119693 0.06256172
0.34396671 0.27723160 0.06256172
0.37001215 0.27159752 0.06256172
0.39550286 0.26336047 0.06256172
0.42073316 0.25070204 0.06256172
0.44589359 0.22922205 0.06256172
0.47111255 0.18079389 0.06256172
0.49647898 0.06256172 0.06256172
0.52205561 0.06256172 0.06256172
0.54788723 0.06256172 0.06256172
0.57400594 0.06256172 0.06256172
0.60043479 0.06256172 0.06256172
0.62719019 0.06256172 0.06256172
0.65428365 0.06256172 0.06256172
0.68172304 0.06256172 0.06256172
0.70951352 0.06256172 0.06256172
0.06256172 0.31142423 0.06256172
0.06256172 0.31142298 0.06256172
0.06256172 0.31141839 0.06256172
0.06256172 0.31140831 0.06256172
0.06256172 0.31138976 0.06256172
0.06256172 0.31135865 0.06256172
0.06256172 0.31130946 0.06256172
0.06256172 0.31123475 0.06256172
0.06256172 0.31112456 0.06256172
0.06256172 0.31096555 0.06256172
0.06256172 0.31073991 0.06256172
0.06256172 0.31042384 0.06256172
0.06256172 0.30998541 0.06256172
0.06256172 0.30938166 0.06256172
0.15694504 0.30855430 0.06256172
0.23219743 0.30742346 0.06256172
0.27424399 0.30587812 0.06256172
0.30782393 0.30376096 0.06256172
0.33762193 0.30084302 0.06256172
0.36543004 0.29677860 0.06256172
0.39213022 0.29101798 0.06256172
0.41822039 0.28261806 0.06256172
0.44400678 0.26975740 0.06256172
0.46968886 0.24810575 0.06256172
0.49540176 0.20092633 0.06256172
0.52123958 0.06256172 0.06256172
0.54726909 0.06256172 0.06256172
0.57353820 0.06256172 0.06256172
0.60008154 0.06256172 0.06256172
0.62692412 0.06256172 0.06256172
0.65408391 0.06256172 0.06256172
0.68157370 0.06256172 0.06256172
0.70940238 0.06256172 0.06256172
0.06256172 0.33206262 0.06256172
0.06256172 0.33206166 0.06256172
0.06256172 0.33205812 0.06256172
0.06256172 0.33205035 0.06256172
0.06256172 0.33203606 0.06256172
0.06256172 0.33201209 0.06256172
0.06256172 0.33197419 0.06256172
0.06256172 0.33191665 0.06256172
0.06256172 0.33183180 0.06256172
0.06256172 0.33170941 0.06256172
0.06256172 0.33153585 0.06256172
0.06256172 0.33129294 0.06256172
0.06256172 0.33095642 0.06256172
0.06256172 0.33049380 0.06256172
0.06256172 0.32986134 0.06256172
0.17683897 0.32899973 0.06256172
0.25076447 0.32782768 0.06256172
0.29380346 0.32623214 0.06256172
0.32830084 0.32405285 0.06256172
0.35889930 0.32105647 0.06256172
0.38741519 0.31689069 0.06256172
0.41475278 0.31099567 0.06256172
0.44142644 0.30241294 0.06256172
0.46775440 0.28930016 0.06256172
0.49394492 0.26732811 0.06256172
0.52013978 0.22043991 0.06256172
0.54643813 0.06256172 0.06256172
0.57291064 0.06256172 0.06256172
0.59960826 0.06256172 0.06256172
0.62656802 0.06256172 0.06256172
0.65381681 0.06256172 0.06256172
0.68137412 0.06256172 0.06256172
0.70925392 0.06256172 0.06256172
0.06256172 0.35324059 0.06256172
0.06256172 0.35323985 0.06256172
0.06256172 0.35323712 0.06256172
0.06256172 0.35323113 0.06256172
0.06256172 0.35322011 0.06256172
0.06256172 0.35320162 0.06256172
0.06256172 0.35317240 0.06256172
0.06256172 0.35312804 0.06256172
0.06256172 0.35306264 0.06256172
0.06256172 0.35296833 0.06256172
0.06256172 0.35283466 0.06256172
0.06256172 0.35264769 0.06256172
0.06256172 0.35238891 0.06256172
0.06256172 0.35203361 0.06256172
0.06256172 0.35154871 0.06256172
0.06256172 0.35088969 0.06256172
0.19630418 0.34999616 0.06256172
0.26985717 0.34878528 0.06256172
0.31392030 0.34714175 0.06256172
0.34932566 0.34490196 0.06256172
0.38070804 0.34182747 0.06256172
0.40991426 0.33755799 0.06256172
0.43787254 0.33152078 0.06256172
0.46511420 0.32273571 0.06256172
0.49196951 0.30932300 0.06256172
0.51865556 0.28689420 0.06256172
0.54532064 0.23957213 0.06256172
0.57206886 0.06256172 0.06256172
0.59897467 0.06256172 0.06256172
0.62609200 0.06256172 0.06256172
0.65346015 0.06256172 0.06256172
0.68110784 0.06256172 0.06256172
0.70905596 0.06256172 0.06256172
0.06256172 0.37494875 0.06256172
0.06256172 0.37494818 0.06256172
0.06256172 0.37494608 0.06256172
0.06256172 0.37494146 0.06256172
0.06256172 0.37493295 0.06256172
0.06256172 0.37491869 0.06256172
0.06256172 0.37489616 0.06256172
0.06256172 0.37486194 0.06256172
0.06256172 0.37481151 0.06256172
0.06256172 0.37473881 0.06256172
0.06256172 0.37463579 0.06256172
0.06256172 0.37449178 0.06256172
0.06256172 0.37429258 0.06256172
0.06256172 0.37401933 0.06256172
0.06256172 0.37364689 0.06256172
0.06256172 0.37314160 0.06256172
0.06256172 0.37245813 0.06256172
0.21566098 0.37153494 0.06256172
0.28946793 0.37028752 0.06256172
0.33458418 0.36859811 0.06256172
0.37088923 0.36629937 0.06256172
0.40304003 0.36314701 0.06256172
0.43291987 0.35877139 0.06256172
0.46148263 0.35258407 0.06256172
0.48927714 0.34357706 0.06256172
0.51664590 0.32981692 0.06256172
0.54381477 0.30679954 0.06256172
0.57093852 0.25842093 0.06256172
0.59812612 0.06256172 0.06256172
0.62545573 0.06256172 0.06256172
0.65298413 0.06256172 0.06256172
0.68075283 0.06256172 0.06256172
0.70879227 0.06256172 0.06256172
0.06256172 0.39717846 0.06256172
0.06256172 0.39717802 0.06256172
0.06256172 0.39717640 0.06256172
0.06256172 0.39717284 0.06256172
0.06256172 0.39716628 0.06256172
0.06256172 0.39715528 0.06256172
0.06256172 0.39713790 0.06256172
0.06256172 0.39711152 0.06256172
0.06256172 0.39707263 0.06256172
0.06256172 0.39701659 0.06256172
0.06256172 0.39693720 0.06256172
0.06256172 0.39682625 0.06256172
0.06256172 0.39667287 0.06256172
0.06256172 0.39646261 0.06256172
0.06256172 0.39617630 0.06256172
0.06256172 0.39578836 0.06256172
0.06256172 0.39526454 0.06256172
0.06256172 0.39455869 0.06256172
0.23507023 0.39360805 0.06256172
0.30958844 0.39232634 0.06256172
0.35578551 0.39059313 0.06256172
0.39298311 0.38823690 0.06256172
0.42588772 0.38500682 0.06256172
0.45642505 0.38052246 0.06256172
0.48557649 0.37417682 0.06256172
0.51390901 0.36492772 0.06256172
0.54177752 0.35077155 0.06256172
