src/ffmpeg_scripts/luts/rec2020-sRGB_2p67.cube
TITLE "rec2020-srgb_2p67"
LUT_3D_SIZE 33
# PQ (EOTF Only)/Rec2020 -> PQ (EOTF Only)/Rec709, CineEI Shift 2.67, Black Level 0.00% IRE, Input 100% -> Output 109% - Created with LUTCalc v4.01 by Ben Turley October 2020
0.06256172 0.06256172 0.06256172
0.13713590 0.06256172 0.06256172
0.19355864 0.06256172 0.06256172
0.24321072 0.06256172 0.06256172
0.28867454 0.06256172 0.06256172
0.33114656 0.06256172 0.06256172
0.37131459 0.06256172 0.06256172
0.40962306 0.06256172 0.06256172
0.44638141 0.06256172 0.06256172
0.48181667 0.06256172 0.06256172
0.51610200 0.06256172 0.06256172
0.54937350 0.06256172 0.06256172
0.58174069 0.06256172 0.06256172
0.61329349 0.06256172 0.06256172
0.64410691 0.06256172 0.06256172
0.67424439 0.06256172 0.06256172
0.70376022 0.06256172 0.06256172
0.73270134 0.06256172 0.06256172
0.76110870 0.06256172 0.06256172
0.78901831 0.06256172 0.06256172
0.81646204 0.06256172 0.06256172
0.84346830 0.06256172 0.06256172
0.87006254 0.06256172 0.06256172
0.89626770 0.06256172 0.06256172
0.91886608 0.06256172 0.06256172
0.91886608 0.06256172 0.06256172
0.91886608 0.06256172 0.06256172
0.91886608 0.06256172 0.06256172
0.91886608 0.06256172 0.06256172
0.91886608 0.06256172 0.06256172
0.91886608 0.06256172 0.06256172
0.91886608 0.06256172 0.06256172
0.91886608 0.06256172 0.06256172
0.06256172 0.12656013 0.06256172
0.12515410 0.12358300 0.06256172
0.19010509 0.10984114 0.06256172
0.24167088 0.06256172 0.06256172
0.28786396 0.06256172 0.06256172
0.33067841 0.06256172 0.06256172
0.37102746 0.06256172 0.06256172
0.40943934 0.06256172 0.06256172
0.44626010 0.06256172 0.06256172
0.48173462 0.06256172 0.06256172
0.51604544 0.06256172 0.06256172
0.54933390 0.06256172 0.06256172
0.58171263 0.06256172 0.06256172
0.61327340 0.06256172 0.06256172
0.64409241 0.06256172 0.06256172
0.67423385 0.06256172 0.06256172
0.70375251 0.06256172 0.06256172
0.73269568 0.06256172 0.06256172
0.76110453 0.06256172 0.06256172
0.78901522 0.06256172 0.06256172
0.81645975 0.06256172 0.06256172
0.84346660 0.06256172 0.06256172
0.87006128 0.06256172 0.06256172
0.89626677 0.06256172 0.06256172
0.91886608 0.06256172 0.06256172
0.91886608 0.06256172 0.06256172
0.91886608 0.06256172 0.06256172
0.91886608 0.06256172 0.06256172
0.91886608 0.06256172 0.06256172
0.91886608 0.06256172 0.06256172
0.91886608 0.06256172 0.06256172
0.91886608 0.06256172 0.06256172
0.91886608 0.06256172 0.06256172
0.06256172 0.17738579 0.06256172
0.06256172 0.17642805 0.06256172
0.17520306 0.17275438 0.06256172
0.23569119 0.16364680 0.06256172
0.28480851 0.14050256 0.06256172
0.32893481 0.06256172 0.06256172
0.36996421 0.06256172 0.06256172
0.40876111 0.06256172 0.06256172
0.44581309 0.06256172 0.06256172
0.48143259 0.06256172 0.06256172
0.51583736 0.06256172 0.06256172
0.54918831 0.06256172 0.06256172
0.58160947 0.06256172 0.06256172
0.61319956 0.06256172 0.06256172
0.64403910 0.06256172 0.06256172
0.67419510 0.06256172 0.06256172
0.70372419 0.06256172 0.06256172
0.73267488 0.06256172 0.06256172
0.76108920 0.06256172 0.06256172
0.78900389 0.06256172 0.06256172
0.81645136 0.06256172 0.06256172
0.84346038 0.06256172 0.06256172
0.87005666 0.06256172 0.06256172
0.89626334 0.06256172 0.06256172
0.91886608 0.06256172 0.06256172
0.91886608 0.06256172 0.06256172
0.91886608 0.06256172 0.06256172
0.91886608 0.06256172 0.06256172
0.91886608 0.06256172 0.06256172
0.91886608 0.06256172 0.06256172
0.91886608 0.06256172 0.06256172
0.91886608 0.06256172 0.06256172
0.91886608 0.06256172 0.06256172
0.06256172 0.22302976 0.06256172
0.06256172 0.22259014 0.06256172
0.09724750 0.22094870 0.06256172
0.22028067 0.21718898 0.06256172
0.27762386 0.20961682 0.06256172
0.32496799 0.19433048 0.06256172
0.36758166 0.15604768 0.06256172
0.40725334 0.06256172 0.06256172
0.44482380 0.06256172 0.06256172
0.48076596 0.06256172 0.06256172
0.51537889 0.06256172 0.06256172
0.54886788 0.06256172 0.06256172
0.58138260 0.06256172 0.06256172
0.61303724 0.06256172 0.06256172
0.64392196 0.06256172 0.06256172
0.67410997 0.06256172 0.06256172
0.70366197 0.06256172 0.06256172
0.73262920 0.06256172 0.06256172
0.76105553 0.06256172 0.06256172
0.78897901 0.06256172 0.06256172
0.81643293 0.06256172 0.06256172
0.84344671 0.06256172 0.06256172
0.87004651 0.06256172 0.06256172
0.89625580 0.06256172 0.06256172
0.91886608 0.06256172 0.06256172
0.91886608 0.06256172 0.06256172
0.91886608 0.06256172 0.06256172
0.91886608 0.06256172 0.06256172
0.91886608 0.06256172 0.06256172
0.91886608 0.06256172 0.06256172
0.91886608 0.06256172 0.06256172
0.91886608 0.06256172 0.06256172
0.91886608 0.06256172 0.06256172
0.06256172 0.26539965 0.06256172
0.06256172 0.26516452 0.06256172
0.06256172 0.26429409 0.06256172
0.17463321 0.26234499 0.06256172
0.26220746 0.25861095 0.06256172
0.31710407 0.25186977 0.06256172
0.36301088 0.23966043 0.06256172
0.40440786 0.21538692 0.06256172
0.44297372 0.13292110 0.06256172
0.47952602 0.06256172 0.06256172
0.51452898 0.06256172 0.06256172
0.54827515 0.06256172 0.06256172
0.58096355 0.06256172 0.06256172
0.61273771 0.06256172 0.06256172
0.64370597 0.06256172 0.06256172
0.67395308 0.06256172 0.06256172
0.70354734 0.06256172 0.06256172
0.73254505 0.06256172 0.06256172
0.76099353 0.06256172 0.06256172
0.78893319 0.06256172 0.06256172
0.81639899 0.06256172 0.06256172
0.84342154 0.06256172 0.06256172
0.87002783 0.06256172 0.06256172
0.89624193 0.06256172 0.06256172
0.91886608 0.06256172 0.06256172
0.91886608 0.06256172 0.06256172
0.91886608 0.06256172 0.06256172
0.91886608 0.06256172 0.06256172
0.91886608 0.06256172 0.06256172
0.91886608 0.06256172 0.06256172
0.91886608 0.06256172 0.06256172
0.91886608 0.06256172 0.06256172
0.91886608 0.06256172 0.06256172
0.06256172 0.30539642 0.06256172
0.06256172 0.30525912 0.06256172
0.06256172 0.30475264 0.06256172
0.06256172 0.30362887 0.06256172
0.22489969 0.30151638 0.06256172
0.30184569 0.29783945 0.06256172
0.35473903 0.29164032 0.06256172
0.39941908 0.28113354 0.06256172
0.43978426 0.26226825 0.06256172
0.47740919 0.22094982 0.06256172
0.51308670 0.06256172 0.06256172
0.54727316 0.06256172 0.06256172
0.58025695 0.06256172 0.06256172
0.61223352 0.06256172 0.06256172
0.64334280 0.06256172 0.06256172
0.67368951 0.06256172 0.06256172
0.70335489 0.06256172 0.06256172
0.73240383 0.06256172 0.06256172
0.76088950 0.06256172 0.06256172
0.78885633 0.06256172 0.06256172
0.81634209 0.06256172 0.06256172
0.84337934 0.06256172 0.06256172
0.86999651 0.06256172 0.06256172
0.89621868 0.06256172 0.06256172
0.91886608 0.06256172 0.06256172
0.91886608 0.06256172 0.06256172
0.91886608 0.06256172 0.06256172
0.91886608 0.06256172 0.06256172
0.91886608 0.06256172 0.06256172
0.91886608 0.06256172 0.06256172
0.91886608 0.06256172 0.06256172
0.91886608 0.06256172 0.06256172
0.91886608 0.06256172 0.06256172
0.06256172 0.34354502 0.06256172
0.06256172 0.34346008 0.06256172
0.06256172 0.34314732 0.06256172
0.06256172 0.34245641 0.06256172
0.06256172 0.34116910 0.06256172
0.26894972 0.33896459 0.06256172
0.33969867 0.33535370 0.06256172
0.39089742 0.32954542 0.06256172
0.43449945 0.32013780 0.06256172
0.47396045 0.30424287 0.06256172
0.51076061 0.27395813 0.06256172
0.54566746 0.17430069 0.06256172
0.57912935 0.06256172 0.06256172
0.61143119 0.06256172 0.06256172
0.64276602 0.06256172 0.06256172
0.67327148 0.06256172 0.06256172
0.70304993 0.06256172 0.06256172
0.73218022 0.06256172 0.06256172
0.76072487 0.06256172 0.06256172
0.78873474 0.06256172 0.06256172
0.81625208 0.06256172 0.06256172
0.84331260 0.06256172 0.06256172
0.86994699 0.06256172 0.06256172
0.89618191 0.06256172 0.06256172
0.91886608 0.06256172 0.06256172
0.91886608 0.06256172 0.06256172
0.91886608 0.06256172 0.06256172
0.91886608 0.06256172 0.06256172
0.91886608 0.06256172 0.06256172
0.91886608 0.06256172 0.06256172
0.91886608 0.06256172 0.06256172
0.91886608 0.06256172 0.06256172
0.91886608 0.06256172 0.06256172
0.06256172 0.38018817 0.06256172
0.06256172 0.38013344 0.06256172
0.06256172 0.37993209 0.06256172
0.06256172 0.37948835 0.06256172
0.06256172 0.37866542 0.06256172
0.06256172 0.37726792 0.06256172
0.30965032 0.37501133 0.06256172
0.37609554 0.37146761 0.06256172
0.42582751 0.36595930 0.06256172
0.46846414 0.35732772 0.06256172
0.50711519 0.34333234 0.06256172
0.54317691 0.31860371 0.06256172
0.57739199 0.26198864 0.06256172
0.61020048 0.06256172 0.06256172
0.64188395 0.06256172 0.06256172
0.67263353 0.06256172 0.06256172
0.70258525 0.06256172 0.06256172
0.73183985 0.06256172 0.06256172
0.76047447 0.06256172 0.06256172
0.78854992 0.06256172 0.06256172
0.81611532 0.06256172 0.06256172
0.84321124 0.06256172 0.06256172
0.86987178 0.06256172 0.06256172
0.89612609 0.06256172 0.06256172
0.91886608 0.06256172 0.06256172
0.91886608 0.06256172 0.06256172
0.91886608 0.06256172 0.06256172
0.91886608 0.06256172 0.06256172
0.91886608 0.06256172 0.06256172
0.91886608 0.06256172 0.06256172
0.91886608 0.06256172 0.06256172
0.91886608 0.06256172 0.06256172
0.91886608 0.06256172 0.06256172
0.06256172 0.41556659 0.06256172
0.06256172 0.41553024 0.06256172
0.06256172 0.41539656 0.06256172
0.06256172 0.41510236 0.06256172
0.06256172 0.41455821 0.06256172
0.06256172 0.41363849 0.06256172
0.21279668 0.41216503 0.06256172
0.34808347 0.40988055 0.06256172
0.41126774 0.40640222 0.06256172
0.45970804 0.40113411 0.06256172
0.50146839 0.39308347 0.06256172
0.53938250 0.38041409 0.06256172
0.57477257 0.35908394 0.06256172
0.60835760 0.31645556 0.06256172
0.64056926 0.06256172 0.06256172
0.67168574 0.06256172 0.06256172
0.70189644 0.06256172 0.06256172
0.73133613 0.06256172 0.06256172
0.76010433 0.06256172 0.06256172
0.78827694 0.06256172 0.06256172
0.81591346 0.06256172 0.06256172
0.84306169 0.06256172 0.06256172
0.86976087 0.06256172 0.06256172
0.89604379 0.06256172 0.06256172
0.91886608 0.06256172 0.06256172
0.91886608 0.06256172 0.06256172
0.91886608 0.06256172 0.06256172
0.91886608 0.06256172 0.06256172
0.91886608 0.06256172 0.06256172
0.91886608 0.06256172 0.06256172
0.91886608 0.06256172 0.06256172
0.91886608 0.06256172 0.06256172
0.91886608 0.06256172 0.06256172
0.06256172 0.44985818 0.06256172
0.06256172 0.44983346 0.06256172
0.06256172 0.44974259 0.06256172
0.06256172 0.44954277 0.06256172
0.06256172 0.44917377 0.06256172
0.06256172 0.44855185 0.06256172
0.06256172 0.44756014 0.06256172
0.27452611 0.44603395 0.06256172
0.38480666 0.44373707 0.06256172
0.44538648 0.44032127 0.06256172
0.49267392 0.43525148 0.06256172
0.53363068 0.42765397 0.06256172
0.57086636 0.41596468 0.06256172
0.60563810 0.39693749 0.06256172
0.63864270 0.36170157 0.06256172
0.67030348 0.25460475 0.06256172
0.70089524 0.06256172 0.06256172
0.73060570 0.06256172 0.06256172
0.75956852 0.06256172 0.06256172
0.78788228 0.06256172 0.06256172
0.81562189 0.06256172 0.06256172
0.84284583 0.06256172 0.06256172
0.86960084 0.06256172 0.06256172
0.89592509 0.06256172 0.06256172
0.91886608 0.06256172 0.06256172
0.91886608 0.06256172 0.06256172
0.91886608 0.06256172 0.06256172
0.91886608 0.06256172 0.06256172
0.91886608 0.06256172 0.06256172
0.91886608 0.06256172 0.06256172
0.91886608 0.06256172 0.06256172
0.91886608 0.06256172 0.06256172
0.91886608 0.06256172 0.06256172
0.06256172 0.48319950 0.06256172
0.06256172 0.48318238 0.06256172
0.06256172 0.48311945 0.06256172
0.06256172 0.48298114 0.06256172
0.06256172 0.48272599 0.06256172
0.06256172 0.48229672 0.06256172
0.06256172 0.48161419 0.06256172
0.06256172 0.48056860 0.06256172
0.32271908 0.47900606 0.06256172
0.42015842 0.47670714 0.06256172
0.47858335 0.47335072 0.06256172
0.52483055 0.46844847 0.06256172
0.56504432 0.46121526 0.06256172
0.60164972 0.45027994 0.06256172
0.63584675 0.43291602 0.06256172
0.66831162 0.40230585 0.06256172
0.69945955 0.32876391 0.06256172
0.72956191 0.06256172 0.06256172
0.75880475 0.06256172 0.06256172
0.78732072 0.06256172 0.06256172
0.81520756 0.06256172 0.06256172
0.84253938 0.06256172 0.06256172
0.86937383 0.06256172 0.06256172
0.89575680 0.06256172 0.06256172
0.91886608 0.06256172 0.06256172
0.91886608 0.06256172 0.06256172
0.91886608 0.06256172 0.06256172
0.91886608 0.06256172 0.06256172
0.91886608 0.06256172 0.06256172
0.91886608 0.06256172 0.06256172
0.91886608 0.06256172 0.06256172
0.91886608 0.06256172 0.06256172
0.91886608 0.06256172 0.06256172
0.06256172 0.51569850 0.06256172
0.06256172 0.51568646 0.06256172
0.06256172 0.51564223 0.06256172
0.06256172 0.51554504 0.06256172
0.06256172 0.51536587 0.06256172
0.06256172 0.51506478 0.06256172
0.06256172 0.51458694 0.06256172
0.06256172 0.51385707 0.06256172
0.06256172 0.51277121 0.06256172
0.36518072 0.51118428 0.06256172
0.45436618 0.50889046 0.06256172
0.51096241 0.50559028 0.06256172
0.55626253 0.50083211 0.06256172
0.59578467 0.49389859 0.06256172
0.63180021 0.48356050 0.06256172
0.66545892 0.46745074 0.06256172
0.69741806 0.44000942 0.06256172
0.72808509 0.38117201 0.06256172
0.75772795 0.06256172 0.06256172
0.78653104 0.06256172 0.06256172
0.81462601 0.06256172 0.06256172
0.84210984 0.06256172 0.06256172
0.86905597 0.06256172 0.06256172
0.89552132 0.06256172 0.06256172
0.91886608 0.06256172 0.06256172
0.91886608 0.06256172 0.06256172
0.91886608 0.06256172 0.06256172
0.91886608 0.06256172 0.06256172
0.91886608 0.06256172 0.06256172
0.91886608 0.06256172 0.06256172
0.91886608 0.06256172 0.06256172
0.91886608 0.06256172 0.06256172
0.91886608 0.06256172 0.06256172
0.06256172 0.54744250 0.06256172
0.06256172 0.54743393 0.06256172
0.06256172 0.54740246 0.06256172
0.06256172 0.54733333 0.06256172
0.06256172 0.54720595 0.06256172
0.06256172 0.54699204 0.06256172
0.06256172 0.54665298 0.06256172
0.06256172 0.54613610 0.06256172
0.06256172 0.54536936 0.06256172
0.06256172 0.54425368 0.06256172
0.40429915 0.54265135 0.06256172
0.48759343 0.54036767 0.06256172
0.54260793 0.53712078 0.06256172
0.58703921 0.53248829 0.06256172
0.62591386 0.52580573 0.06256172
0.66137400 0.51595115 0.06256172
0.69452521 0.50081630 0.06256172
0.72600743 0.47567118 0.06256172
0.75622073 0.42534930 0.06256172
0.78542971 0.06256172 0.06256172
0.81381708 0.06256172 0.06256172
0.84151352 0.06256172 0.06256172
0.86861531 0.06256172 0.06256172
0.89519524 0.06256172 0.06256172
0.91886608 0.06256172 0.06256172
0.91886608 0.06256172 0.06256172
0.91886608 0.06256172 0.06256172
0.91886608 0.06256172 0.06256172
0.91886608 0.06256172 0.06256172
0.91886608 0.06256172 0.06256172
0.91886608 0.06256172 0.06256172
0.91886608 0.06256172 0.06256172
0.91886608 0.06256172 0.06256172
0.06256172 0.57850353 0.06256172
0.06256172 0.57849737 0.06256172
0.06256172 0.57847476 0.06256172
0.06256172 0.57842510 0.06256172
0.06256172 0.57833361 0.06256172
0.06256172 0.57818006 0.06256172
0.06256172 0.57793688 0.06256172
0.06256172 0.57756665 0.06256172
0.06256172 0.57701853 0.06256172
0.06256172 0.57622330 0.06256172
0.06256172 0.57508605 0.06256172
0.44114392 0.57347519 0.06256172
0.51996348 0.57120531 0.06256172
0.57358946 0.56800894 0.06256172
0.61721850 0.56348736 0.06256172
0.65548394 0.55701790 0.06256172
0.69041841 0.54756128 0.06256172
0.72308858 0.53320104 0.06256172
0.75411857 0.50978266 0.06256172
0.78390153 0.46502114 0.06256172
0.81269878 0.28118585 0.06256172
0.84069136 0.06256172 0.06256172
0.86800897 0.06256172 0.06256172
0.89474720 0.06256172 0.06256172
0.91886608 0.06256172 0.06256172
0.91886608 0.06256172 0.06256172
0.91886608 0.06256172 0.06256172
0.91886608 0.06256172 0.06256172
0.91886608 0.06256172 0.06256172
0.91886608 0.06256172 0.06256172
0.91886608 0.06256172 0.06256172
0.91886608 0.06256172 0.06256172
0.91886608 0.06256172 0.06256172
0.06256172 0.60894193 0.06256172
0.06256172 0.60893747 0.06256172
0.06256172 0.60892109 0.06256172
0.06256172 0.60888512 0.06256172
0.06256172 0.60881886 0.06256172
0.06256172 0.60870771 0.06256172
0.06256172 0.60853178 0.06256172
0.06256172 0.60826417 0.06256172
0.06256172 0.60786852 0.06256172
0.06256172 0.60729566 0.06256172
0.06256172 0.60647878 0.06256172
0.06256172 0.60532652 0.06256172
0.47629546 0.60371252 0.06256172
0.55157272 0.60145913 0.06256172
0.60396530 0.59831078 0.06256172
0.64684940 0.59388797 0.06256172
0.68453913 0.58760147 0.06256172
0.71897386 0.57847649 0.06256172
0.75118592 0.56474135 0.06256172
0.78178509 0.54265407 0.06256172
0.81115801 0.50177228 0.06256172
0.83956284 0.37515797 0.06256172
0.86717898 0.06256172 0.06256172
0.89413516 0.06256172 0.06256172
0.91886608 0.06256172 0.06256172
0.91886608 0.06256172 0.06256172
0.91886608 0.06256172 0.06256172
0.91886608 0.06256172 0.06256172
0.91886608 0.06256172 0.06256172
0.91886608 0.06256172 0.06256172
0.91886608 0.06256172 0.06256172
0.91886608 0.06256172 0.06256172
0.91886608 0.06256172 0.06256172
0.06256172 0.63880893 0.06256172
0.06256172 0.63880568 0.06256172
0.06256172 0.63879374 0.06256172
0.06256172 0.63876751 0.06256172
0.06256172 0.63871921 0.06256172
0.06256172 0.63863819 0.06256172
0.06256172 0.63851001 0.06256172
0.06256172 0.63831516 0.06256172
0.06256172 0.63802736 0.06256172
0.06256172 0.63761124 0.06256172
0.06256172 0.63701906 0.06256172
0.06256172 0.63618616 0.06256172
0.30657197 0.63502426 0.06256172
0.51010878 0.63341142 0.06256172
0.58249859 0.63117652 0.06256172
0.63378498 0.62807388 0.06256172
0.67597392 0.62373974 0.06256172
0.71311748 0.61761167 0.06256172
0.74707524 0.60876554 0.06256172
0.77884924 0.59554015 0.06256172
0.80903628 0.57449531 0.06256172
0.83801692 0.53642839 0.06256172
0.86604632 0.43271270 0.06256172
0.89330224 0.06256172 0.06256172
0.91886608 0.06256172 0.06256172
0.91886608 0.06256172 0.06256172
0.91886608 0.06256172 0.06256172
0.91886608 0.06256172 0.06256172
0.91886608 0.06256172 0.06256172
0.91886608 0.06256172 0.06256172
0.91886608 0.06256172 0.06256172
0.91886608 0.06256172 0.06256172
0.91886608 0.06256172 0.06256172
0.06256172 0.66814857 0.06256172
0.06256172 0.66814618 0.06256172
0.06256172 0.66813742 0.06256172
0.06256172 0.66811819 0.06256172
0.06256172 0.66808278 0.06256172
0.06256172 0.66802340 0.06256172
0.06256172 0.66792948 0.06256172
0.06256172 0.66778678 0.06256172
0.06256172 0.66757614 0.06256172
0.06256172 0.66727187 0.06256172
0.06256172 0.66683951 0.06256172
0.06256172 0.66623262 0.06256172
0.06256172 0.66538842 0.06256172
0.37570340 0.66422128 0.06256172
0.54281980 0.66261309 0.06256172
0.61280470 0.66039821 0.06256172
0.66309107 0.65733921 0.06256172
0.70462843 0.65308516 0.06256172
0.74125202 0.64709521 0.06256172
0.77475293 0.63848494 0.06256172
0.80610654 0.62567769 0.06256172
0.83589788 0.60545593 0.06256172
0.86450191 0.56947526 0.06256172
0.89217090 0.47854436 0.06256172
0.91886608 0.06256172 0.06256172
0.91886608 0.06256172 0.06256172
0.91886608 0.06256172 0.06256172
0.91886608 0.06256172 0.06256172
0.91886608 0.06256172 0.06256172
0.91886608 0.06256172 0.06256172
0.91886608 0.06256172 0.06256172
0.91886608 0.06256172 0.06256172
0.91886608 0.06256172 0.06256172
0.06256172 0.69699901 0.06256172
0.06256172 0.69699725 0.06256172
0.06256172 0.69699080 0.06256172
0.06256172 0.69697664 0.06256172
0.06256172 0.69695057 0.06256172
0.06256172 0.69690685 0.06256172
0.06256172 0.69683771 0.06256172
0.06256172 0.69673270 0.06256172
0.06256172 0.69657778 0.06256172
0.06256172 0.69635416 0.06256172
0.06256172 0.69603671 0.06256172
0.06256172 0.69559177 0.06256172
0.06256172 0.69497411 0.06256172
0.06256172 0.69412259 0.06256172
0.42687712 0.69295392 0.06256172
0.57459499 0.69135323 0.06256172
0.64254419 0.68915956 0.06256172
0.69192053 0.68614230 0.06256172
0.73284475 0.68196102 0.06256172
0.76897170 0.67609203 0.06256172
0.80203365 0.66768192 0.06256172
0.83298251 0.65521816 0.06256172
0.86239269 0.63564682 0.06256172
0.89063399 0.60122274 0.06256172
0.91795593 0.51826567 0.06256172
0.91886608 0.06256172 0.06256172
0.91886608 0.06256172 0.06256172
0.91886608 0.06256172 0.06256172
0.91886608 0.06256172 0.06256172
0.91886608 0.06256172 0.06256172
0.91886608 0.06256172 0.06256172
0.91886608 0.06256172 0.06256172
0.91886608 0.06256172 0.06256172
0.06256172 0.72539368 0.06256172
0.06256172 0.72539238 0.06256172
0.06256172 0.72538762 0.06256172
0.06256172 0.72537715 0.06256172
0.06256172 0.72535788 0.06256172
0.06256172 0.72532558 0.06256172
0.06256172 0.72527451 0.06256172
0.06256172 0.72519695 0.06256172
0.06256172 0.72508257 0.06256172
0.06256172 0.72491755 0.06256172
0.06256172 0.72468347 0.06256172
0.06256172 0.72435572 0.06256172
0.06256172 0.72390141 0.06256172
0.06256172 0.72327637 0.06256172
0.06256172 0.72242094 0.06256172
0.47035635 0.72125386 0.06256172
0.60555735 0.71966308 0.06256172
0.67176217 0.71749155 0.06256172
0.72030572 0.71451432 0.06256172
0.76065090 0.71039943 0.06256172
0.79630207 0.70463672 0.06256172
0.82894103 0.69639653 0.06256172
0.85949903 0.68421396 0.06256172
0.88854100 0.66515268 0.06256172
0.91643193 0.63187993 0.06256172
0.91886608 0.55408691 0.06256172
0.91886608 0.06256172 0.06256172
0.91886608 0.06256172 0.06256172
0.91886608 0.06256172 0.06256172
0.91886608 0.06256172 0.06256172
0.91886608 0.06256172 0.06256172
0.91886608 0.06256172 0.06256172
0.91886608 0.06256172 0.06256172
0.06256172 0.75336206 0.06256172
0.06256172 0.75336109 0.06256172
0.06256172 0.75335756 0.06256172
0.06256172 0.75334981 0.06256172
0.06256172 0.75333553 0.06256172
0.06256172 0.75331160 0.06256172
0.06256172 0.75327376 0.06256172
0.06256172 0.75321632 0.06256172
0.06256172 0.75313162 0.06256172
0.06256172 0.75300947 0.06256172
0.06256172 0.75283630 0.06256172
0.06256172 0.75259402 0.06256172
0.06256172 0.75225854 0.06256172
0.06256172 0.75179766 0.06256172
0.06256172 0.75116819 0.06256172
0.06256172 0.75031181 0.06256172
0.50941538 0.74914901 0.06256172
0.63580103 0.74757016 0.06256172
0.70049732 0.74542152 0.06256172
0.74827519 0.74248277 0.06256172
0.78807174 0.73842867 0.06256172
0.82326587 0.73275950 0.06256172
0.85549611 0.72466314 0.06256172
0.88567568 0.71270858 0.06256172
0.91436097 0.69403979 0.06256172
0.91886608 0.66159342 0.06256172
0.91886608 0.58709078 0.06256172
0.91886608 0.06256172 0.06256172
0.91886608 0.06256172 0.06256172
0.91886608 0.06256172 0.06256172
0.91886608 0.06256172 0.06256172
0.91886608 0.06256172 0.06256172
0.91886608 0.06256172 0.06256172
0.06256172 0.78093031 0.06256172
0.06256172 0.78092960 0.06256172
0.06256172 0.78092698 0.06256172
0.06256172 0.78092122 0.06256172
0.06256172 0.78091062 0.06256172
0.06256172 0.78089285 0.06256172
0.06256172 0.78086477 0.06256172
0.06256172 0.78082213 0.06256172
0.06256172 0.78075928 0.06256172
0.06256172 0.78066866 0.06256172
0.06256172 0.78054024 0.06256172
0.06256172 0.78036067 0.06256172
0.06256172 0.78011222 0.06256172
0.06256172 0.77977128 0.06256172
0.06256172 0.77930631 0.06256172
0.06256172 0.77867502 0.06256172
0.06256172 0.77782024 0.06256172
0.54553063 0.77666406 0.06256172
0.66540014 0.77509889 0.06256172
0.72878325 0.77297376 0.06256172
0.77585429 0.77007208 0.06256172
0.81512949 0.76607384 0.06256172
0.84988341 0.76048696 0.06256172
0.88171775 0.75251155 0.06256172
0.91152998 0.74073861 0.06256172
0.91886608 0.72236082 0.06256172
0.91886608 0.69046844 0.06256172
0.91886608 0.61786714 0.06256172
0.91886608 0.06256172 0.06256172
0.91886608 0.06256172 0.06256172
0.91886608 0.06256172 0.06256172
0.91886608 0.06256172 0.06256172
0.91886608 0.06256172 0.06256172
0.06256172 0.80812184 0.06256172
0.06256172 0.80812131 0.06256172
0.06256172 0.80811936 0.06256172
0.06256172 0.80811508 0.06256172
0.06256172 0.80810720 0.06256172
0.06256172 0.80809399 0.06256172
0.06256172 0.80807311 0.06256172
0.06256172 0.80804142 0.06256172
0.06256172 0.80799471 0.06256172
0.06256172 0.80792739 0.06256172
0.06256172 0.80783200 0.06256172
0.06256172 0.80769867 0.06256172
0.06256172 0.80751431 0.06256172
0.06256172 0.80726152 0.06256172
0.06256172 0.80691716 0.06256172
0.06256172 0.80645030 0.06256172
0.06256172 0.80581947 0.06256172
0.06256172 0.80496857 0.06256172
0.57949502 0.80382105 0.06256172
0.69441435 0.80227110 0.06256172
0.75664933 0.80017001 0.06256172
0.80306571 0.79730413 0.06256172
0.84184409 0.79335731 0.06256172
0.87617296 0.78784270 0.06256172
0.90762290 0.77996781 0.06256172
0.91886608 0.76833509 0.06256172
0.91886608 0.75015817 0.06256172
