src/ffmpeg_scripts/luts/rec2020-sRGB_0p67.cube
TITLE "rec2020-srgb_0p67"
LUT_3D_SIZE 33
# PQ (EOTF Only)/Rec2020 -> PQ (EOTF Only)/Rec709, CineEI Shift 0.67, Black Level 0.00% IRE, Input 100% -> Output 109% - Created with LUTCalc v4.01 by Ben Turley October 2020
0.06256172 0.06256172 0.06256172
0.10433537 0.06256172 0.06256172
0.14180559 0.06256172 0.06256172
0.17733584 0.06256172 0.06256172
0.21156770 0.06256172 0.06256172
0.24482009 0.06256172 0.06256172
0.27728561 0.06256172 0.06256172
0.30909361 0.06256172 0.06256172
0.34033709 0.06256172 0.06256172
0.37108619 0.06256172 0.06256172
0.40139568 0.06256172 0.06256172
0.43130956 0.06256172 0.06256172
0.46086394 0.06256172 0.06256172
0.49008896 0.06256172 0.06256172
0.51901020 0.06256172 0.06256172
0.54764961 0.06256172 0.06256172
0.57602625 0.06256172 0.06256172
0.60415681 0.06256172 0.06256172
0.63205603 0.06256172 0.06256172
0.65973702 0.06256172 0.06256172
0.68721152 0.06256172 0.06256172
0.71449010 0.06256172 0.06256172
0.74158233 0.06256172 0.06256172
0.76849690 0.06256172 0.06256172
0.79524176 0.06256172 0.06256172
0.82182420 0.06256172 0.06256172
0.84825091 0.06256172 0.06256172
0.87452808 0.06256172 0.06256172
0.90066143 0.06256172 0.06256172
0.91886608 0.06256172 0.06256172
0.91886608 0.06256172 0.06256172
0.91886608 0.06256172 0.06256172
0.91886608 0.06256172 0.06256172
0.06256172 0.09773990 0.06256172
0.09687508 0.09591220 0.06256172
0.13941562 0.08765639 0.06256172
0.17620328 0.06256172 0.06256172
0.21094456 0.06256172 0.06256172
0.24444735 0.06256172 0.06256172
0.27705023 0.06256172 0.06256172
0.30893919 0.06256172 0.06256172
0.34023287 0.06256172 0.06256172
0.37101430 0.06256172 0.06256172
0.40134524 0.06256172 0.06256172
0.43127368 0.06256172 0.06256172
0.46083813 0.06256172 0.06256172
0.49007022 0.06256172 0.06256172
0.51899650 0.06256172 0.06256172
0.54763953 0.06256172 0.06256172
0.57601880 0.06256172 0.06256172
0.60415128 0.06256172 0.06256172
0.63205191 0.06256172 0.06256172
0.65973394 0.06256172 0.06256172
0.68720922 0.06256172 0.06256172
0.71448838 0.06256172 0.06256172
0.74158104 0.06256172 0.06256172
0.76849594 0.06256172 0.06256172
0.79524104 0.06256172 0.06256172
0.82182366 0.06256172 0.06256172
0.84825051 0.06256172 0.06256172
0.87452778 0.06256172 0.06256172
0.90066121 0.06256172 0.06256172
0.91886608 0.06256172 0.06256172
0.91886608 0.06256172 0.06256172
0.91886608 0.06256172 0.06256172
0.91886608 0.06256172 0.06256172
0.06256172 0.13071389 0.06256172
0.06256172 0.13006525 0.06256172
0.12923699 0.12758603 0.06256172
0.17182286 0.12150157 0.06256172
0.20859965 0.10646699 0.06256172
0.24306030 0.06256172 0.06256172
0.27617904 0.06256172 0.06256172
0.30836928 0.06256172 0.06256172
0.33984887 0.06256172 0.06256172
0.37074970 0.06256172 0.06256172
0.40115969 0.06256172 0.06256172
0.43114174 0.06256172 0.06256172
0.46074324 0.06256172 0.06256172
0.49000136 0.06256172 0.06256172
0.51894615 0.06256172 0.06256172
0.54760249 0.06256172 0.06256172
0.57599142 0.06256172 0.06256172
0.60413095 0.06256172 0.06256172
0.63203678 0.06256172 0.06256172
0.65972265 0.06256172 0.06256172
0.68720078 0.06256172 0.06256172
0.71448206 0.06256172 0.06256172
0.74157631 0.06256172 0.06256172
0.76849240 0.06256172 0.06256172
0.79523840 0.06256172 0.06256172
0.82182169 0.06256172 0.06256172
0.84824903 0.06256172 0.06256172
0.87452668 0.06256172 0.06256172
0.90066039 0.06256172 0.06256172
0.91886608 0.06256172 0.06256172
0.91886608 0.06256172 0.06256172
0.91886608 0.06256172 0.06256172
0.91886608 0.06256172 0.06256172
0.06256172 0.16264265 0.06256172
0.06256172 0.16232626 0.06256172
0.08038364 0.16114642 0.06256172
0.16066689 0.15845254 0.06256172
0.20311107 0.15306389 0.06256172
0.23991160 0.14234129 0.06256172
0.27422918 0.11649509 0.06256172
0.30710319 0.06256172 0.06256172
0.33899940 0.06256172 0.06256172
0.37016585 0.06256172 0.06256172
0.40075093 0.06256172 0.06256172
0.43085138 0.06256172 0.06256172
0.46053458 0.06256172 0.06256172
0.48985000 0.06256172 0.06256172
0.51883551 0.06256172 0.06256172
0.54752112 0.06256172 0.06256172
0.57593127 0.06256172 0.06256172
0.60408632 0.06256172 0.06256172
0.63200355 0.06256172 0.06256172
0.65969786 0.06256172 0.06256172
0.68718225 0.06256172 0.06256172
0.71446820 0.06256172 0.06256172
0.74156593 0.06256172 0.06256172
0.76848463 0.06256172 0.06256172
0.79523259 0.06256172 0.06256172
0.82181734 0.06256172 0.06256172
0.84824580 0.06256172 0.06256172
0.87452427 0.06256172 0.06256172
0.90065860 0.06256172 0.06256172
0.91886608 0.06256172 0.06256172
0.91886608 0.06256172 0.06256172
0.91886608 0.06256172 0.06256172
0.91886608 0.06256172 0.06256172
0.06256172 0.19385594 0.06256172
0.06256172 0.19367897 0.06256172
0.06256172 0.19302419 0.06256172
0.12885223 0.19155997 0.06256172
0.19145675 0.18876261 0.06256172
0.23369844 0.18373865 0.06256172
0.27049749 0.17472738 0.06256172
0.30471706 0.15716562 0.06256172
0.33741209 0.10168816 0.06256172
0.36908043 0.06256172 0.06256172
0.39999344 0.06256172 0.06256172
0.43031441 0.06256172 0.06256172
0.46014923 0.06256172 0.06256172
0.48957073 0.06256172 0.06256172
0.51863151 0.06256172 0.06256172
0.54737115 0.06256172 0.06256172
0.57582045 0.06256172 0.06256172
0.60400409 0.06256172 0.06256172
0.63194235 0.06256172 0.06256172
0.65965219 0.06256172 0.06256172
0.68714812 0.06256172 0.06256172
0.71444266 0.06256172 0.06256172
0.74154682 0.06256172 0.06256172
0.76847033 0.06256172 0.06256172
0.79522189 0.06256172 0.06256172
0.82180935 0.06256172 0.06256172
0.84823983 0.06256172 0.06256172
0.87451983 0.06256172 0.06256172
0.90065530 0.06256172 0.06256172
0.91886608 0.06256172 0.06256172
0.91886608 0.06256172 0.06256172
0.91886608 0.06256172 0.06256172
0.91886608 0.06256172 0.06256172
0.06256172 0.22452090 0.06256172
0.06256172 0.22441380 0.06256172
0.06256172 0.22401880 0.06256172
0.06256172 0.22314300 0.06256172
0.16399017 0.22149886 0.06256172
0.22175497 0.21864413 0.06256172
0.26377451 0.21385148 0.06256172
0.30054395 0.20578776 0.06256172
0.33467961 0.19150237 0.06256172
0.36722905 0.16114722 0.06256172
0.39870870 0.06256172 0.06256172
0.42940701 0.06256172 0.06256172
0.45949961 0.06256172 0.06256172
0.48910070 0.06256172 0.06256172
0.51828856 0.06256172 0.06256172
0.54711923 0.06256172 0.06256172
0.57563440 0.06256172 0.06256172
0.60386611 0.06256172 0.06256172
0.63183968 0.06256172 0.06256172
0.65957561 0.06256172 0.06256172
0.68709089 0.06256172 0.06256172
0.71439985 0.06256172 0.06256172
0.74151478 0.06256172 0.06256172
0.76844635 0.06256172 0.06256172
0.79520395 0.06256172 0.06256172
0.82179595 0.06256172 0.06256172
0.84822983 0.06256172 0.06256172
0.87451239 0.06256172 0.06256172
0.90064977 0.06256172 0.06256172
0.91886608 0.06256172 0.06256172
0.91886608 0.06256172 0.06256172
0.91886608 0.06256172 0.06256172
0.91886608 0.06256172 0.06256172
0.06256172 0.25473987 0.06256172
0.06256172 0.25467160 0.06256172
0.06256172 0.25442025 0.06256172
0.06256172 0.25386520 0.06256172
0.06256172 0.25283180 0.06256172
0.19653278 0.25106439 0.06256172
0.25165259 0.24817575 0.06256172
0.29344629 0.24354584 0.06256172
0.33016315 0.23609077 0.06256172
0.36421729 0.22362141 0.06256172
0.39663867 0.20032456 0.06256172
0.42795379 0.12862787 0.06256172
0.45846337 0.06256172 0.06256172
0.48835296 0.06256172 0.06256172
0.51774398 0.06256172 0.06256172
0.54671972 0.06256172 0.06256172
0.57533964 0.06256172 0.06256172
0.60364765 0.06256172 0.06256172
0.63167719 0.06256172 0.06256172
0.65945445 0.06256172 0.06256172
0.68700038 0.06256172 0.06256172
0.71433216 0.06256172 0.06256172
0.74146412 0.06256172 0.06256172
0.76840844 0.06256172 0.06256172
0.79517560 0.06256172 0.06256172
0.82177477 0.06256172 0.06256172
0.84821403 0.06256172 0.06256172
0.87450062 0.06256172 0.06256172
0.90064104 0.06256172 0.06256172
0.91886608 0.06256172 0.06256172
0.91886608 0.06256172 0.06256172
0.91886608 0.06256172 0.06256172
0.91886608 0.06256172 0.06256172
0.06256172 0.28458233 0.06256172
0.06256172 0.28453719 0.06256172
0.06256172 0.28437114 0.06256172
0.06256172 0.28400528 0.06256172
0.06256172 0.28332707 0.06256172
0.06256172 0.28217619 0.06256172
0.22784535 0.28032010 0.06256172
0.28121153 0.27741106 0.06256172
0.32278239 0.27290329 0.06256172
0.35942902 0.26587424 0.06256172
0.39339942 0.25456893 0.06256172
0.42570193 0.23488030 0.06256172
0.45686778 0.19129256 0.06256172
0.48720646 0.06256172 0.06256172
0.51691141 0.06256172 0.06256172
0.54611018 0.06256172 0.06256172
0.57489054 0.06256172 0.06256172
0.60331514 0.06256172 0.06256172
0.63143008 0.06256172 0.06256172
0.65927029 0.06256172 0.06256172
0.68686286 0.06256172 0.06256172
0.71422933 0.06256172 0.06256172
0.74138719 0.06256172 0.06256172
0.76835088 0.06256172 0.06256172
0.79513256 0.06256172 0.06256172
0.82174261 0.06256172 0.06256172
0.84819005 0.06256172 0.06256172
0.87448277 0.06256172 0.06256172
0.90062778 0.06256172 0.06256172
0.91886608 0.06256172 0.06256172
0.91886608 0.06256172 0.06256172
0.91886608 0.06256172 0.06256172
0.91886608 0.06256172 0.06256172
0.06256172 0.31409870 0.06256172
0.06256172 0.31406803 0.06256172
0.06256172 0.31395525 0.06256172
0.06256172 0.31370710 0.06256172
0.06256172 0.31324824 0.06256172
0.06256172 0.31247301 0.06256172
0.15532074 0.31123197 0.06256172
0.25839397 0.30931006 0.06256172
0.31047676 0.30638902 0.06256172
0.35183063 0.30197708 0.06256172
0.38839360 0.29526332 0.06256172
0.42227629 0.28476867 0.06256172
0.45446448 0.26730094 0.06256172
0.48549082 0.23318780 0.06256172
0.51567105 0.06256172 0.06256172
0.54520487 0.06256172 0.06256172
0.57422498 0.06256172 0.06256172
0.60282313 0.06256172 0.06256172
0.63106485 0.06256172 0.06256172
0.65899831 0.06256172 0.06256172
0.68665988 0.06256172 0.06256172
0.71407764 0.06256172 0.06256172
0.74127374 0.06256172 0.06256172
0.76826602 0.06256172 0.06256172
0.79506911 0.06256172 0.06256172
0.82169522 0.06256172 0.06256172
0.84815470 0.06256172 0.06256172
0.87445646 0.06256172 0.06256172
0.90060825 0.06256172 0.06256172
0.91886608 0.06256172 0.06256172
0.91886608 0.06256172 0.06256172
0.91886608 0.06256172 0.06256172
0.91886608 0.06256172 0.06256172
0.06256172 0.34332728 0.06256172
0.06256172 0.34330600 0.06256172
0.06256172 0.34322777 0.06256172
0.06256172 0.34305576 0.06256172
0.06256172 0.34273818 0.06256172
0.06256172 0.34220308 0.06256172
0.06256172 0.34135019 0.06256172
0.20075570 0.34003859 0.06256172
0.28839733 0.33806682 0.06256172
0.33948250 0.33513933 0.06256172
0.38062629 0.33080499 0.06256172
0.41709536 0.32433375 0.06256172
0.45088583 0.31443458 0.06256172
0.48296155 0.29847302 0.06256172
0.51385461 0.26943072 0.06256172
0.54388515 0.18577284 0.06256172
0.57325788 0.06256172 0.06256172
0.60210985 0.06256172 0.06256172
0.63053622 0.06256172 0.06256172
0.65860514 0.06256172 0.06256172
0.68636673 0.06256172 0.06256172
0.71385869 0.06256172 0.06256172
0.74111006 0.06256172 0.06256172
0.76814363 0.06256172 0.06256172
0.79497763 0.06256172 0.06256172
0.82162690 0.06256172 0.06256172
0.84810376 0.06256172 0.06256172
0.87441855 0.06256172 0.06256172
0.90058010 0.06256172 0.06256172
0.91886608 0.06256172 0.06256172
0.91886608 0.06256172 0.06256172
0.91886608 0.06256172 0.06256172
0.91886608 0.06256172 0.06256172
0.06256172 0.37229822 0.06256172
0.06256172 0.37228321 0.06256172
0.06256172 0.37222803 0.06256172
0.06256172 0.37210677 0.06256172
0.06256172 0.37188310 0.06256172
0.06256172 0.37150685 0.06256172
0.06256172 0.37090879 0.06256172
0.06256172 0.36999304 0.06256172
0.23813084 0.36862547 0.06256172
0.31797803 0.36661550 0.06256172
0.36825571 0.36368540 0.06256172
0.40919656 0.35941539 0.06256172
0.44556379 0.35313594 0.06256172
0.47925752 0.34369041 0.06256172
0.51122104 0.32881265 0.06256172
0.54198469 0.30295712 0.06256172
0.57187173 0.24292445 0.06256172
0.60109088 0.06256172 0.06256172
0.62978285 0.06256172 0.06256172
0.65804579 0.06256172 0.06256172
0.68595019 0.06256172 0.06256172
0.71354789 0.06256172 0.06256172
0.74087788 0.06256172 0.06256172
0.76797011 0.06256172 0.06256172
0.79484798 0.06256172 0.06256172
0.82153012 0.06256172 0.06256172
0.84803160 0.06256172 0.06256172
0.87436485 0.06256172 0.06256172
0.90054024 0.06256172 0.06256172
0.91886608 0.06256172 0.06256172
0.91886608 0.06256172 0.06256172
0.91886608 0.06256172 0.06256172
0.91886608 0.06256172 0.06256172
0.06256172 0.40103588 0.06256172
0.06256172 0.40102514 0.06256172
0.06256172 0.40098570 0.06256172
0.06256172 0.40089906 0.06256172
0.06256172 0.40073933 0.06256172
0.06256172 0.40047094 0.06256172
0.06256172 0.40004508 0.06256172
0.06256172 0.39939481 0.06256172
0.06256172 0.39842780 0.06256172
0.27226752 0.39701552 0.06256172
0.34721317 0.39497614 0.06256172
0.39681816 0.39204619 0.06256172
0.43756306 0.38783046 0.06256172
0.47382222 0.38170580 0.06256172
0.50741487 0.37261477 0.06256172
0.53926547 0.35854774 0.06256172
0.56990196 0.33487234 0.06256172
0.59964984 0.28539402 0.06256172
0.62872106 0.06256172 0.06256172
0.65725940 0.06256172 0.06256172
0.68536563 0.06256172 0.06256172
0.71311229 0.06256172 0.06256172
0.74055281 0.06256172 0.06256172
0.76772735 0.06256172 0.06256172
0.79466670 0.06256172 0.06256172
0.82139483 0.06256172 0.06256172
0.84793077 0.06256172 0.06256172
0.87428984 0.06256172 0.06256172
0.90048457 0.06256172 0.06256172
0.91886608 0.06256172 0.06256172
0.91886608 0.06256172 0.06256172
0.91886608 0.06256172 0.06256172
0.91886608 0.06256172 0.06256172
0.06256172 0.42956033 0.06256172
0.06256172 0.42955258 0.06256172
0.06256172 0.42952408 0.06256172
0.06256172 0.42946149 0.06256172
0.06256172 0.42934616 0.06256172
0.06256172 0.42915250 0.06256172
0.06256172 0.42884560 0.06256172
0.06256172 0.42837781 0.06256172
0.06256172 0.42768411 0.06256172
0.06256172 0.42667518 0.06256172
0.30462598 0.42522707 0.06256172
0.37615535 0.42316512 0.06256172
0.42518785 0.42023734 0.06256172
0.46574341 0.41606807 0.06256172
0.50188953 0.41007019 0.06256172
0.53537701 0.40126115 0.06256172
0.56711335 0.38781646 0.06256172
0.59762382 0.36571056 0.06256172
0.62723551 0.32237650 0.06256172
0.65616301 0.06256172 0.06256172
0.68455272 0.06256172 0.06256172
0.71250766 0.06256172 0.06256172
0.74010221 0.06256172 0.06256172
0.76739119 0.06256172 0.06256172
0.79441586 0.06256172 0.06256172
0.82120775 0.06256172 0.06256172
0.84779141 0.06256172 0.06256172
0.87418619 0.06256172 0.06256172
0.90040766 0.06256172 0.06256172
0.91886608 0.06256172 0.06256172
0.91886608 0.06256172 0.06256172
0.91886608 0.06256172 0.06256172
0.91886608 0.06256172 0.06256172
0.06256172 0.45788847 0.06256172
0.06256172 0.45788282 0.06256172
0.06256172 0.45786205 0.06256172
0.06256172 0.45781643 0.06256172
0.06256172 0.45773240 0.06256172
0.06256172 0.45759138 0.06256172
0.06256172 0.45736807 0.06256172
0.06256172 0.45702813 0.06256172
0.06256172 0.45652496 0.06256172
0.06256172 0.45579517 0.06256172
0.06256172 0.45475194 0.06256172
0.33584385 0.45327519 0.06256172
0.40484260 0.45119610 0.06256172
0.45337992 0.44827204 0.06256172
0.49375229 0.44414294 0.06256172
0.52978131 0.43824997 0.06256172
0.56315978 0.42966789 0.06256172
0.59478012 0.41670894 0.06256172
0.62516491 0.39576910 0.06256172
0.65464236 0.35643687 0.06256172
0.68342926 0.20582772 0.06256172
0.71167423 0.06256172 0.06256172
0.73948228 0.06256172 0.06256172
0.76692938 0.06256172 0.06256172
0.79407163 0.06256172 0.06256172
0.82095123 0.06256172 0.06256172
0.84760041 0.06256172 0.06256172
0.87404422 0.06256172 0.06256172
0.90030235 0.06256172 0.06256172
0.91886608 0.06256172 0.06256172
0.91886608 0.06256172 0.06256172
0.91886608 0.06256172 0.06256172
0.91886608 0.06256172 0.06256172
0.06256172 0.48603466 0.06256172
0.06256172 0.48603051 0.06256172
0.06256172 0.48601526 0.06256172
0.06256172 0.48598178 0.06256172
0.06256172 0.48592011 0.06256172
0.06256172 0.48581665 0.06256172
0.06256172 0.48565292 0.06256172
0.06256172 0.48540388 0.06256172
0.06256172 0.48503574 0.06256172
0.06256172 0.48450281 0.06256172
0.06256172 0.48374311 0.06256172
0.06256172 0.48267196 0.06256172
0.36625582 0.48117247 0.06256172
0.43330371 0.47908068 0.06256172
0.48140724 0.47616153 0.06256172
0.52160211 0.47206746 0.06256172
0.55751064 0.46626186 0.06256172
0.59077649 0.45786363 0.06256172
0.62227883 0.44528723 0.06256172
0.65253766 0.42522954 0.06256172
0.68188205 0.38866263 0.06256172
0.71053061 0.28044063 0.06256172
0.73863389 0.06256172 0.06256172
0.76629861 0.06256172 0.06256172
0.79360215 0.06256172 0.06256172
0.82060174 0.06256172 0.06256172
0.84734043 0.06256172 0.06256172
0.87385107 0.06256172 0.06256172
0.90015916 0.06256172 0.06256172
0.91886608 0.06256172 0.06256172
0.91886608 0.06256172 0.06256172
0.91886608 0.06256172 0.06256172
0.91886608 0.06256172 0.06256172
0.06256172 0.51401129 0.06256172
0.06256172 0.51400823 0.06256172
0.06256172 0.51399697 0.06256172
0.06256172 0.51397225 0.06256172
0.06256172 0.51392672 0.06256172
0.06256172 0.51385037 0.06256172
0.06256172 0.51372957 0.06256172
0.06256172 0.51354595 0.06256172
0.06256172 0.51327476 0.06256172
0.06256172 0.51288271 0.06256172
0.06256172 0.51232490 0.06256172
0.06256172 0.51154058 0.06256172
0.22543843 0.51044689 0.06256172
0.39605903 0.50892961 0.06256172
0.46156120 0.50682879 0.06256172
0.50928095 0.50391551 0.06256172
0.54930353 0.49985217 0.06256172
0.58508864 0.49411958 0.06256172
0.61823844 0.48587048 0.06256172
0.64962059 0.47359591 0.06256172
0.67975275 0.45421026 0.06256172
0.70896466 0.41961360 0.06256172
0.73747646 0.32863933 0.06256172
0.76544040 0.06256172 0.06256172
0.79296467 0.06256172 0.06256172
0.82012791 0.06256172 0.06256172
0.84698833 0.06256172 0.06256172
0.87358972 0.06256172 0.06256172
0.89996551 0.06256172 0.06256172
0.91886608 0.06256172 0.06256172
0.91886608 0.06256172 0.06256172
0.91886608 0.06256172 0.06256172
0.91886608 0.06256172 0.06256172
0.06256172 0.54182918 0.06256172
0.06256172 0.54182691 0.06256172
0.06256172 0.54181856 0.06256172
0.06256172 0.54180022 0.06256172
0.06256172 0.54176645 0.06256172
0.06256172 0.54170982 0.06256172
0.06256172 0.54162025 0.06256172
0.06256172 0.54148417 0.06256172
0.06256172 0.54128333 0.06256172
0.06256172 0.54099324 0.06256172
0.06256172 0.54058108 0.06256172
0.06256172 0.54000266 0.06256172
0.06256172 0.53919830 0.06256172
0.28088904 0.53808669 0.06256172
0.42537926 0.53655584 0.06256172
0.48963318 0.53444908 0.06256172
0.53701073 0.53154245 0.06256172
0.57686577 0.52750619 0.06256172
0.61252491 0.52183456 0.06256172
0.64555537 0.51370594 0.06256172
0.67681500 0.50166812 0.06256172
0.70681942 0.48279224 0.06256172
0.73589894 0.44961291 0.06256172
0.76427504 0.36822161 0.06256172
0.79210141 0.06256172 0.06256172
0.81948756 0.06256172 0.06256172
0.84651322 0.06256172 0.06256172
0.87323747 0.06256172 0.06256172
0.89970474 0.06256172 0.06256172
0.91886608 0.06256172 0.06256172
0.91886608 0.06256172 0.06256172
0.91886608 0.06256172 0.06256172
0.91886608 0.06256172 0.06256172
0.06256172 0.56949782 0.06256172
0.06256172 0.56949613 0.06256172
0.06256172 0.56948991 0.06256172
0.06256172 0.56947625 0.06256172
0.06256172 0.56945111 0.06256172
0.06256172 0.56940895 0.06256172
0.06256172 0.56934228 0.06256172
0.06256172 0.56924102 0.06256172
0.06256172 0.56909164 0.06256172
0.06256172 0.56887604 0.06256172
0.06256172 0.56857000 0.06256172
0.06256172 0.56814112 0.06256172
0.06256172 0.56754587 0.06256172
0.06256172 0.56672548 0.06256172
0.32367370 0.56559995 0.06256172
0.45430166 0.56405918 0.06256172
0.51753457 0.56194914 0.06256172
0.56460514 0.55904979 0.06256172
0.60429694 0.55503746 0.06256172
0.63982775 0.54941651 0.06256172
0.67273571 0.54138419 0.06256172
0.70387038 0.52952912 0.06256172
0.73374573 0.51103284 0.06256172
0.76269256 0.47886136 0.06256172
0.79093356 0.40332625 0.06256172
0.81862368 0.06256172 0.06256172
0.84587359 0.06256172 0.06256172
0.87276397 0.06256172 0.06256172
0.89935462 0.06256172 0.06256172
0.91886608 0.06256172 0.06256172
0.91886608 0.06256172 0.06256172
0.91886608 0.06256172 0.06256172
0.91886608 0.06256172 0.06256172
0.06256172 0.59702563 0.06256172
0.06256172 0.59702436 0.06256172
0.06256172 0.59701972 0.06256172
0.06256172 0.59700952 0.06256172
0.06256172 0.59699074 0.06256172
0.06256172 0.59695926 0.06256172
0.06256172 0.59690949 0.06256172
0.06256172 0.59683391 0.06256172
0.06256172 0.59672245 0.06256172
0.06256172 0.59656165 0.06256172
0.06256172 0.59633358 0.06256172
0.06256172 0.59601427 0.06256172
0.06256172 0.59557172 0.06256172
0.06256172 0.59496299 0.06256172
0.06256172 0.59413010 0.06256172
0.36107586 0.59299419 0.06256172
0.48288650 0.59144668 0.06256172
0.54527785 0.58933568 0.06256172
0.59207173 0.58644417 0.06256172
0.63160419 0.58245299 0.06256172
0.66700448 0.57687379 0.06256172
0.69978681 0.56891689 0.06256172
0.73079400 0.55719856 0.06256172
0.76053870 0.53897374 0.06256172
0.78935225 0.50748979 0.06256172
0.81745839 0.43558597 0.06256172
0.84501322 0.06256172 0.06256172
0.87212838 0.06256172 0.06256172
0.89888538 0.06256172 0.06256172
0.91886608 0.06256172 0.06256172
0.91886608 0.06256172 0.06256172
0.91886608 0.06256172 0.06256172
0.91886608 0.06256172 0.06256172
0.06256172 0.62442012 0.06256172
0.06256172 0.62441917 0.06256172
0.06256172 0.62441569 0.06256172
0.06256172 0.62440806 0.06256172
0.06256172 0.62439401 0.06256172
0.06256172 0.62437045 0.06256172
0.06256172 0.62433321 0.06256172
0.06256172 0.62427666 0.06256172
0.06256172 0.62419329 0.06256172
0.06256172 0.62407307 0.06256172
0.06256172 0.62390263 0.06256172
0.06256172 0.62366419 0.06256172
0.06256172 0.62333406 0.06256172
0.06256172 0.62288060 0.06256172
0.06256172 0.62226139 0.06256172
0.06256172 0.62141917 0.06256172
0.39544262 0.62027601 0.06256172
0.51117800 0.61872459 0.06256172
0.57287362 0.61661467 0.06256172
0.61941726 0.61373149 0.06256172
0.65879388 0.60975901 0.06256172
0.69406153 0.60421364 0.06256172
0.72671517 0.59631377 0.06256172
0.75759226 0.58469197 0.06256172
0.78720455 0.56664572 0.06256172
0.81588395 0.53558571 0.06256172
0.84385518 0.46579095 0.06256172
0.87127532 0.06256172 0.06256172
0.89825692 0.06256172 0.06256172
0.91886608 0.06256172 0.06256172
0.91886608 0.06256172 0.06256172
0.91886608 0.06256172 0.06256172
0.91886608 0.06256172 0.06256172
0.06256172 0.65168804 0.06256172
0.06256172 0.65168733 0.06256172
0.06256172 0.65168473 0.06256172
0.06256172 0.65167901 0.06256172
0.06256172 0.65166847 0.06256172
0.06256172 0.65165082 0.06256172
0.06256172 0.65162290 0.06256172
0.06256172 0.65158053 0.06256172
0.06256172 0.65151807 0.06256172
0.06256172 0.65142802 0.06256172
0.06256172 0.65130041 0.06256172
0.06256172 0.65112198 0.06256172
0.06256172 0.65087513 0.06256172
0.06256172 0.65053641 0.06256172
0.06256172 0.65007454 0.06256172
0.06256172 0.64944757 0.06256172
0.06256172 0.64859886 0.06256172
0.42783000 0.64745128 0.06256172
0.53920947 0.64589849 0.06256172
0.60033098 0.64379149 0.06256172
0.64664782 0.64091706 0.06256172
0.68587171 0.63696107 0.06256172
0.72100464 0.63144241 0.06256172
0.75352649 0.62358303 0.06256172
0.78427078 0.61202173 0.06256172
0.81374874 0.59407157 0.06256172
0.84229291 0.56320790 0.06256172
0.87012892 0.49435826 0.06256172
0.89741475 0.06256172 0.06256172
0.91886608 0.06256172 0.06256172
0.91886608 0.06256172 0.06256172
0.91886608 0.06256172 0.06256172
0.91886608 0.06256172 0.06256172
0.06256172 0.67883550 0.06256172
0.06256172 0.67883497 0.06256172
0.06256172 0.67883301 0.06256172
0.06256172 0.67882872 0.06256172
0.06256172 0.67882082 0.06256172
0.06256172 0.67880757 0.06256172
0.06256172 0.67878663 0.06256172
0.06256172 0.67875485 0.06256172
0.06256172 0.67870801 0.06256172
0.06256172 0.67864049 0.06256172
0.06256172 0.67854483 0.06256172
0.06256172 0.67841113 0.06256172
0.06256172 0.67822627 0.06256172
0.06256172 0.67797280 0.06256172
0.06256172 0.67762755 0.06256172
0.06256172 0.67715956 0.06256172
0.06256172 0.67652730 0.06256172
0.06256172 0.67567469 0.06256172
0.45879935 0.67452524 0.06256172
0.56700654 0.67297338 0.06256172
0.62765787 0.67087098 0.06256172
0.67376887 0.66800568 0.06256172
0.71284282 0.66406417 0.06256172
0.74783890 0.65856571 0.06256172
0.78022589 0.65073165 0.06256172
0.81083458 0.63919775 0.06256172
0.84017613 0.62126810 0.06256172
