src/ffmpeg_scripts/luts/rec2020-sRGB_-0p33.cube
TITLE "rec2020-srgb_-0p33"
LUT_3D_SIZE 5
# PQ (EOTF Only)/Rec2020 -> PQ (EOTF Only)/Rec709, CineEI Shift -0.33, Black Level 0.00% IRE, Input 100% -> Output 109% - Created with LUTCalc v4.01 by Ben Turley October 2020
0.06256172 0.06256172 0.06256172
0.29382514 0.06256172 0.06256172
0.51452812 0.06256172 0.06256172
0.73057385 0.06256172 0.06256172
0.91886608 0.06256172 0.06256172
0.06256172 0.27022995 0.06256172
0.26699158 0.26334235 0.06256172
0.51279093 0.06256172 0.06256172
0.73040037 0.06256172 0.06256172
0.91886608 0.06256172 0.06256172
0.06256172 0.48166560 0.06256172
0.06256172 0.48114310 0.06256172
0.47705560 0.47183013 0.06256172
0.72741945 0.06256172 0.06256172
0.91886608 0.06256172 0.06256172
0.06256172 0.69487547 0.06256172
0.06256172 0.69482172 0.06256172
0.06256172 0.69390883 0.06256172
0.68979815 0.68402141 0.06256172
0.91886608 0.06256172 0.06256172
0.06256172 0.90932180 0.06256172
0.06256172 0.90931670 0.06256172
0.06256172 0.90923048 0.06256172
0.06256172 0.90834332 0.06256172
0.90441535 0.89881745 0.06256172
0.06256172 0.06256172 0.26947878
0.29097897 0.06256172 0.26850505
0.51431452 0.06256172 0.24964458
0.73055236 0.06256172 0.06256172
0.91886608 0.06256172 0.06256172
0.06256172 0.26978829 0.26390903
0.26285604 0.26285604 0.26285604
0.51257328 0.06256172 0.24215161
0.73037885 0.06256172 0.06256172
0.91886608 0.06256172 0.06256172
0.06256172 0.48163067 0.06256172
0.06256172 0.48110797 0.06256172
0.47673454 0.47179122 0.06256172
0.72739723 0.06256172 0.06256172
0.91886608 0.06256172 0.06256172
0.06256172 0.69487187 0.06256172
0.06256172 0.69481812 0.06256172
0.06256172 0.69390519 0.06256172
0.68976497 0.68401736 0.06256172
0.91886608 0.06256172 0.06256172
0.06256172 0.90932145 0.06256172
0.06256172 0.90931635 0.06256172
0.06256172 0.90923014 0.06256172
0.06256172 0.90834297 0.06256172
0.90441219 0.89881707 0.06256172
0.06256172 0.06256172 0.48059853
0.20819548 0.06256172 0.48052168
0.51062879 0.06256172 0.47921326
0.73018852 0.06256172 0.46462170
0.91886608 0.06256172 0.06256172
0.06256172 0.26188320 0.48017186
0.06256172 0.25408858 0.48009465
0.50881622 0.06256172 0.47878007
0.73001434 0.06256172 0.46411302
0.91886608 0.06256172 0.06256172
0.06256172 0.48103836 0.47264373
0.06256172 0.48051226 0.47255988
0.47113126 0.47113126 0.47113126
0.72702089 0.06256172 0.45505533
0.91886608 0.06256172 0.06256172
0.06256172 0.69481098 0.25231895
0.06256172 0.69475720 0.25107550
0.06256172 0.69384367 0.22564978
0.68920262 0.68394904 0.06256172
0.91886608 0.06256172 0.06256172
0.06256172 0.90931568 0.06256172
0.06256172 0.90931058 0.06256172
0.06256172 0.90922435 0.06256172
0.06256172 0.90833713 0.06256172
0.90435884 0.89881055 0.06256172
0.06256172 0.06256172 0.69370180
0.06256172 0.06256172 0.69369387
0.46080999 0.06256172 0.69355978
0.72638206 0.06256172 0.69217674
0.91886608 0.06256172 0.67690685
0.06256172 0.06256172 0.69365785
0.06256172 0.06256172 0.69364992
0.45766498 0.06256172 0.69351577
0.72620064 0.06256172 0.69213207
0.91886608 0.06256172 0.67685433
0.06256172 0.47474651 0.69291215
0.06256172 0.47418278 0.69290415
0.37430115 0.46408814 0.69276894
0.72308059 0.06256172 0.69137414
0.91886608 0.06256172 0.67596246
0.06256172 0.69418569 0.68492236
0.06256172 0.69413154 0.68491366
0.06256172 0.69321190 0.68476647
0.68324706 0.68324706 0.68324706
0.91886608 0.06256172 0.66631714
0.06256172 0.90925655 0.47302365
0.06256172 0.90925144 0.47294014
0.06256172 0.90916516 0.47151752
0.06256172 0.90827733 0.45551634
0.90381108 0.89874383 0.06256172
0.06256172 0.06256172 0.90818875
0.06256172 0.06256172 0.90818800
0.06256172 0.06256172 0.90817527
0.67545401 0.06256172 0.90804497
0.91886608 0.06256172 0.90671547
0.06256172 0.06256172 0.90818458
0.06256172 0.06256172 0.90818382
0.06256172 0.06256172 0.90817110
0.67514197 0.06256172 0.90804080
0.91886608 0.06256172 0.90671123
0.06256172 0.35497398 0.90811405
0.06256172 0.35273327 0.90811329
0.06256172 0.30067274 0.90810056
0.66970726 0.06256172 0.90797015
0.91886608 0.06256172 0.90663949
0.06256172 0.68761378 0.90738903
0.06256172 0.68755573 0.90738827
0.06256172 0.68656925 0.90737543
0.58178773 0.67583408 0.90724393
0.91886608 0.06256172 0.90590200
0.06256172 0.90865597 0.89969161
0.06256172 0.90865083 0.89969078
0.06256172 0.90856395 0.89967675
0.06256172 0.90766991 0.89953307
0.89806582 0.89806582 0.89806582
