src/ffmpeg_scripts/luts/rec2020-sRGB_-0p67.cube
TITLE "rec2020-srgb_-0p67"
LUT_3D_SIZE 33
# PQ (EOTF Only)/Rec2020 -> PQ (EOTF Only)/Rec709, CineEI Shift -0.67, Black Level 0.00% IRE, Input 100% -> Output 109% - Created with LUTCalc v4.01 by Ben Turley October 2020
0.06256172 0.06256172 0.06256172
0.08989929 0.06256172 0.06256172
0.11710557 0.06256172 0.06256172
0.14424478 0.06256172 0.06256172
0.17133657 0.06256172 0.06256172
0.19839118 0.06256172 0.06256172
0.22541499 0.06256172 0.06256172
0.25241241 0.06256172 0.06256172
0.27938669 0.06256172 0.06256172
0.30634030 0.06256172 0.06256172
0.33327524 0.06256172 0.06256172
0.36019309 0.06256172 0.06256172
0.38709522 0.06256172 0.06256172
0.41398275 0.06256172 0.06256172
0.44085665 0.06256172 0.06256172
0.46771778 0.06256172 0.06256172
0.49456686 0.06256172 0.06256172
0.52140455 0.06256172 0.06256172
0.54823144 0.06256172 0.06256172
0.57504804 0.06256172 0.06256172
0.60185484 0.06256172 0.06256172
0.62865226 0.06256172 0.06256172
0.65544068 0.06256172 0.06256172
0.68222047 0.06256172 0.06256172
0.70899195 0.06256172 0.06256172
0.73575543 0.06256172 0.06256172
0.76251119 0.06256172 0.06256172
0.78925948 0.06256172 0.06256172
0.81600056 0.06256172 0.06256172
0.84273464 0.06256172 0.06256172
0.86946195 0.06256172 0.06256172
0.89618267 0.06256172 0.06256172
0.91886608 0.06256172 0.06256172
0.06256172 0.08530842 0.06256172
0.08471187 0.08404923 0.06256172
0.11532197 0.07843984 0.06256172
0.14336318 0.06256172 0.06256172
0.17083615 0.06256172 0.06256172
0.19808427 0.06256172 0.06256172
0.22521707 0.06256172 0.06256172
0.25228019 0.06256172 0.06256172
0.27929600 0.06256172 0.06256172
0.30627685 0.06256172 0.06256172
0.33323012 0.06256172 0.06256172
0.36016061 0.06256172 0.06256172
0.38707160 0.06256172 0.06256172
0.41396542 0.06256172 0.06256172
0.44084386 0.06256172 0.06256172
0.46770828 0.06256172 0.06256172
0.49455977 0.06256172 0.06256172
0.52139925 0.06256172 0.06256172
0.54822746 0.06256172 0.06256172
0.57504506 0.06256172 0.06256172
0.60185259 0.06256172 0.06256172
0.62865056 0.06256172 0.06256172
0.65543940 0.06256172 0.06256172
0.68221951 0.06256172 0.06256172
0.70899123 0.06256172 0.06256172
0.73575489 0.06256172 0.06256172
0.76251078 0.06256172 0.06256172
0.78925918 0.06256172 0.06256172
0.81600033 0.06256172 0.06256172
0.84273447 0.06256172 0.06256172
0.86946182 0.06256172 0.06256172
0.89618257 0.06256172 0.06256172
0.91886608 0.06256172 0.06256172
0.06256172 0.10887859 0.06256172
0.06256172 0.10840159 0.06256172
0.10779319 0.10658278 0.06256172
0.13996298 0.10214945 0.06256172
0.16895534 0.09139782 0.06256172
0.19694287 0.06256172 0.06256172
0.22448475 0.06256172 0.06256172
0.25179227 0.06256172 0.06256172
0.27896190 0.06256172 0.06256172
0.30604328 0.06256172 0.06256172
0.33306418 0.06256172 0.06256172
0.36004119 0.06256172 0.06256172
0.38698476 0.06256172 0.06256172
0.41390175 0.06256172 0.06256172
0.44079685 0.06256172 0.06256172
0.46767338 0.06256172 0.06256172
0.49453375 0.06256172 0.06256172
0.52137978 0.06256172 0.06256172
0.54821286 0.06256172 0.06256172
0.57503408 0.06256172 0.06256172
0.60184433 0.06256172 0.06256172
0.62864434 0.06256172 0.06256172
0.65543471 0.06256172 0.06256172
0.68221597 0.06256172 0.06256172
0.70898857 0.06256172 0.06256172
0.73575289 0.06256172 0.06256172
0.76250928 0.06256172 0.06256172
0.78925806 0.06256172 0.06256172
0.81599950 0.06256172 0.06256172
0.84273385 0.06256172 0.06256172
0.86946136 0.06256172 0.06256172
0.89618223 0.06256172 0.06256172
0.91886608 0.06256172 0.06256172
0.06256172 0.13288790 0.06256172
0.06256172 0.13264534 0.06256172
0.07362073 0.13174152 0.06256172
0.13137452 0.12968243 0.06256172
0.16456739 0.12558294 0.06256172
0.19435592 0.11750614 0.06256172
0.22284710 0.09853563 0.06256172
0.25070886 0.06256172 0.06256172
0.27822304 0.06256172 0.06256172
0.30552800 0.06256172 0.06256172
0.33269865 0.06256172 0.06256172
0.35977840 0.06256172 0.06256172
0.38679380 0.06256172 0.06256172
0.41376179 0.06256172 0.06256172
0.44069356 0.06256172 0.06256172
0.46759672 0.06256172 0.06256172
0.49447660 0.06256172 0.06256172
0.52133703 0.06256172 0.06256172
0.54818078 0.06256172 0.06256172
0.57500997 0.06256172 0.06256172
0.60182618 0.06256172 0.06256172
0.62863067 0.06256172 0.06256172
0.65542442 0.06256172 0.06256172
0.68220822 0.06256172 0.06256172
0.70898273 0.06256172 0.06256172
0.73574851 0.06256172 0.06256172
0.76250599 0.06256172 0.06256172
0.78925560 0.06256172 0.06256172
0.81599766 0.06256172 0.06256172
0.84273248 0.06256172 0.06256172
0.86946035 0.06256172 0.06256172
0.89618148 0.06256172 0.06256172
0.91886608 0.06256172 0.06256172
0.06256172 0.15721489 0.06256172
0.06256172 0.15707488 0.06256172
0.06256172 0.15655707 0.06256172
0.10751082 0.15540025 0.06256172
0.15531876 0.15319448 0.06256172
0.18926816 0.14924746 0.06256172
0.21971838 0.14221584 0.06256172
0.24866905 0.12870102 0.06256172
0.27684322 0.08804814 0.06256172
0.30457043 0.06256172 0.06256172
0.33202143 0.06256172 0.06256172
0.35929248 0.06256172 0.06256172
0.38644117 0.06256172 0.06256172
0.41350358 0.06256172 0.06256172
0.44050311 0.06256172 0.06256172
0.46745544 0.06256172 0.06256172
0.49437131 0.06256172 0.06256172
0.52125827 0.06256172 0.06256172
0.54812171 0.06256172 0.06256172
0.57496557 0.06256172 0.06256172
0.60179277 0.06256172 0.06256172
0.62860550 0.06256172 0.06256172
0.65540546 0.06256172 0.06256172
0.68219395 0.06256172 0.06256172
0.70897199 0.06256172 0.06256172
0.73574043 0.06256172 0.06256172
0.76249994 0.06256172 0.06256172
0.78925106 0.06256172 0.06256172
0.81599428 0.06256172 0.06256172
0.84272997 0.06256172 0.06256172
0.86945848 0.06256172 0.06256172
0.89618011 0.06256172 0.06256172
0.91886608 0.06256172 0.06256172
0.06256172 0.18179510 0.06256172
0.06256172 0.18170819 0.06256172
0.06256172 0.18138774 0.06256172
0.06256172 0.18067755 0.06256172
0.13392199 0.17934560 0.06256172
0.17955297 0.17703696 0.06256172
0.21410004 0.17317274 0.06256172
0.24510802 0.16670480 0.06256172
0.27447048 0.15535478 0.06256172
0.30293819 0.13174213 0.06256172
0.33087333 0.06256172 0.06256172
0.35847157 0.06256172 0.06256172
0.38584683 0.06256172 0.06256172
0.41306905 0.06256172 0.06256172
0.44018298 0.06256172 0.06256172
0.46721814 0.06256172 0.06256172
0.49419455 0.06256172 0.06256172
0.52112611 0.06256172 0.06256172
0.54802262 0.06256172 0.06256172
0.57489111 0.06256172 0.06256172
0.60173674 0.06256172 0.06256172
0.62856331 0.06256172 0.06256172
0.65537368 0.06256172 0.06256172
0.68217001 0.06256172 0.06256172
0.70895399 0.06256172 0.06256172
0.73572690 0.06256172 0.06256172
0.76248979 0.06256172 0.06256172
0.78924347 0.06256172 0.06256172
0.81598861 0.06256172 0.06256172
0.84272575 0.06256172 0.06256172
0.86945535 0.06256172 0.06256172
0.89617780 0.06256172 0.06256172
0.91886608 0.06256172 0.06256172
0.06256172 0.20658779 0.06256172
0.06256172 0.20653119 0.06256172
0.06256172 0.20632283 0.06256172
0.06256172 0.20586286 0.06256172
0.06256172 0.20500691 0.06256172
0.15933528 0.20354438 0.06256172
0.20403093 0.20115776 0.06256172
0.23907039 0.19734229 0.06256172
0.27055570 0.19122448 0.06256172
0.30028585 0.18106544 0.06256172
0.32902475 0.16234746 0.06256172
0.35715749 0.10734624 0.06256172
0.38489906 0.06256172 0.06256172
0.41237793 0.06256172 0.06256172
0.43967470 0.06256172 0.06256172
0.46684184 0.06256172 0.06256172
0.49391452 0.06256172 0.06256172
0.52091687 0.06256172 0.06256172
0.54786580 0.06256172 0.06256172
0.57477332 0.06256172 0.06256172
0.60164813 0.06256172 0.06256172
0.62849659 0.06256172 0.06256172
0.65532343 0.06256172 0.06256172
0.68213218 0.06256172 0.06256172
0.70892552 0.06256172 0.06256172
0.73570552 0.06256172 0.06256172
0.76247375 0.06256172 0.06256172
0.78923146 0.06256172 0.06256172
0.81597965 0.06256172 0.06256172
0.84271908 0.06256172 0.06256172
0.86945041 0.06256172 0.06256172
0.89617415 0.06256172 0.06256172
0.91886608 0.06256172 0.06256172
0.06256172 0.23156452 0.06256172
0.06256172 0.23152640 0.06256172
0.06256172 0.23138616 0.06256172
0.06256172 0.23107722 0.06256172
0.06256172 0.23050471 0.06256172
0.06256172 0.22953372 0.06256172
0.18449622 0.22796915 0.06256172
0.22872036 0.22552049 0.06256172
0.26417741 0.22173463 0.06256172
0.29607653 0.21585222 0.06256172
0.32613526 0.20644608 0.06256172
0.35512270 0.19023420 0.06256172
0.38344040 0.15518915 0.06256172
0.41131859 0.06256172 0.06256172
0.43889780 0.06256172 0.06256172
0.46626780 0.06256172 0.06256172
0.49348792 0.06256172 0.06256172
0.52059844 0.06256172 0.06256172
0.54762731 0.06256172 0.06256172
0.57459428 0.06256172 0.06256172
0.60151349 0.06256172 0.06256172
0.62839525 0.06256172 0.06256172
0.65524712 0.06256172 0.06256172
0.68207474 0.06256172 0.06256172
0.70888231 0.06256172 0.06256172
0.73567305 0.06256172 0.06256172
0.76244940 0.06256172 0.06256172
0.78921324 0.06256172 0.06256172
0.81596605 0.06256172 0.06256172
0.84270896 0.06256172 0.06256172
0.86944291 0.06256172 0.06256172
0.89616861 0.06256172 0.06256172
0.91886608 0.06256172 0.06256172
0.06256172 0.25670423 0.06256172
0.06256172 0.25667790 0.06256172
0.06256172 0.25658107 0.06256172
0.06256172 0.25636803 0.06256172
0.06256172 0.25597416 0.06256172
0.06256172 0.25530896 0.06256172
0.12729668 0.25424464 0.06256172
0.20962084 0.25259778 0.06256172
0.25359731 0.25009806 0.06256172
0.28941602 0.24633003 0.06256172
0.32167775 0.24061375 0.06256172
0.35203071 0.23172191 0.06256172
0.38124495 0.21704409 0.06256172
0.40973416 0.18885103 0.06256172
0.43774077 0.06256172 0.06256172
0.46541542 0.06256172 0.06256172
0.49285580 0.06256172 0.06256172
0.52012731 0.06256172 0.06256172
0.54727485 0.06256172 0.06256172
0.57432988 0.06256172 0.06256172
0.60131479 0.06256172 0.06256172
0.62824575 0.06256172 0.06256172
0.65513459 0.06256172 0.06256172
0.68199004 0.06256172 0.06256172
0.70881862 0.06256172 0.06256172
0.73562520 0.06256172 0.06256172
0.76241352 0.06256172 0.06256172
0.78918639 0.06256172 0.06256172
0.81594601 0.06256172 0.06256172
0.84269406 0.06256172 0.06256172
0.86943186 0.06256172 0.06256172
0.89616046 0.06256172 0.06256172
0.91886608 0.06256172 0.06256172
0.06256172 0.28199060 0.06256172
0.06256172 0.28197206 0.06256172
0.06256172 0.28190389 0.06256172
0.06256172 0.28175400 0.06256172
0.06256172 0.28147731 0.06256172
0.06256172 0.28101118 0.06256172
0.06256172 0.28026849 0.06256172
0.16269059 0.27912695 0.06256172
0.23479029 0.27741224 0.06256172
0.27864320 0.27486945 0.06256172
0.31478016 0.27111149 0.06256172
0.34736235 0.26551606 0.06256172
0.37797939 0.25699266 0.06256172
0.40740003 0.24334390 0.06256172
0.43604720 0.21882531 0.06256172
0.46417329 0.15084334 0.06256172
0.49193750 0.06256172 0.06256172
0.51944440 0.06256172 0.06256172
0.54676478 0.06256172 0.06256172
0.57394770 0.06256172 0.06256172
0.60102781 0.06256172 0.06256172
0.62802998 0.06256172 0.06256172
0.65497225 0.06256172 0.06256172
0.68186791 0.06256172 0.06256172
0.70872678 0.06256172 0.06256172
0.73555623 0.06256172 0.06256172
0.76236180 0.06256172 0.06256172
0.78914770 0.06256172 0.06256172
0.81591713 0.06256172 0.06256172
0.84267258 0.06256172 0.06256172
0.86941594 0.06256172 0.06256172
0.89614870 0.06256172 0.06256172
0.91886608 0.06256172 0.06256172
0.06256172 0.30741058 0.06256172
0.06256172 0.30739732 0.06256172
0.06256172 0.30734858 0.06256172
0.06256172 0.30724148 0.06256172
0.06256172 0.30704394 0.06256172
0.06256172 0.30671170 0.06256172
0.06256172 0.30618371 0.06256172
0.06256172 0.30537551 0.06256172
0.19289540 0.30416920 0.06256172
0.26003858 0.30239757 0.06256172
0.30384316 0.29981782 0.06256172
0.34026361 0.29606456 0.06256172
0.37313097 0.29055853 0.06256172
0.40398546 0.28230708 0.06256172
0.43359356 0.26938684 0.06256172
0.46238544 0.24716624 0.06256172
0.49062175 0.19683113 0.06256172
0.51846908 0.06256172 0.06256172
0.54603798 0.06256172 0.06256172
0.57340405 0.06256172 0.06256172
0.60062010 0.06256172 0.06256172
0.62772370 0.06256172 0.06256172
0.65474198 0.06256172 0.06256172
0.68169475 0.06256172 0.06256172
0.70859663 0.06256172 0.06256172
0.73545851 0.06256172 0.06256172
0.76228854 0.06256172 0.06256172
0.78909289 0.06256172 0.06256172
0.81587624 0.06256172 0.06256172
0.84264216 0.06256172 0.06256172
0.86939339 0.06256172 0.06256172
0.89613206 0.06256172 0.06256172
0.91886608 0.06256172 0.06256172
0.06256172 0.33295345 0.06256172
0.06256172 0.33294385 0.06256172
0.06256172 0.33290858 0.06256172
0.06256172 0.33283110 0.06256172
0.06256172 0.33268827 0.06256172
0.06256172 0.33244830 0.06256172
0.06256172 0.33206759 0.06256172
0.06256172 0.33148639 0.06256172
0.06256172 0.33062238 0.06256172
0.22120151 0.32936117 0.06256172
0.28538014 0.32754124 0.06256172
0.32918497 0.32492932 0.06256172
0.36586045 0.32117688 0.06256172
0.39898292 0.31573740 0.06256172
0.43005118 0.30769020 0.06256172
0.45982919 0.29530281 0.06256172
0.48875297 0.27463774 0.06256172
0.51709022 0.23225024 0.06256172
0.54501389 0.06256172 0.06256172
0.57263986 0.06256172 0.06256172
0.60004800 0.06256172 0.06256172
0.62729449 0.06256172 0.06256172
0.65441959 0.06256172 0.06256172
0.68145250 0.06256172 0.06256172
0.70841465 0.06256172 0.06256172
0.73532193 0.06256172 0.06256172
0.76218619 0.06256172 0.06256172
0.78901634 0.06256172 0.06256172
0.81581913 0.06256172 0.06256172
0.84259968 0.06256172 0.06256172
0.86936192 0.06256172 0.06256172
0.89610883 0.06256172 0.06256172
0.91886608 0.06256172 0.06256172
0.06256172 0.35861026 0.06256172
0.06256172 0.35860325 0.06256172
0.06256172 0.35857747 0.06256172
0.06256172 0.35852085 0.06256172
0.06256172 0.35841653 0.06256172
0.06256172 0.35824138 0.06256172
0.06256172 0.35796382 0.06256172
0.06256172 0.35754084 0.06256172
0.06256172 0.35691371 0.06256172
0.06256172 0.35600191 0.06256172
0.24859124 0.35469384 0.06256172
0.31082040 0.35283257 0.06256172
0.35465843 0.35019234 0.06256172
0.39156509 0.34643783 0.06256172
0.42491672 0.34104763 0.06256172
0.45617754 0.33315492 0.06256172
0.48610918 0.32116444 0.06256172
0.51515259 0.30160046 0.06256172
0.54358158 0.26382734 0.06256172
0.57157469 0.06256172 0.06256172
0.59925254 0.06256172 0.06256172
0.62669880 0.06256172 0.06256172
0.65397276 0.06256172 0.06256172
0.68111708 0.06256172 0.06256172
0.70816287 0.06256172 0.06256172
0.73513307 0.06256172 0.06256172
0.76204471 0.06256172 0.06256172
0.78891056 0.06256172 0.06256172
0.81574024 0.06256172 0.06256172
0.84254102 0.06256172 0.06256172
0.86931844 0.06256172 0.06256172
0.89607675 0.06256172 0.06256172
0.91886608 0.06256172 0.06256172
0.06256172 0.38437340 0.06256172
0.06256172 0.38436823 0.06256172
0.06256172 0.38434924 0.06256172
0.06256172 0.38430754 0.06256172
0.06256172 0.38423072 0.06256172
0.06256172 0.38410180 0.06256172
0.06256172 0.38389767 0.06256172
0.06256172 0.38358695 0.06256172
0.06256172 0.38312711 0.06256172
0.06256172 0.38246031 0.06256172
0.06256172 0.38150745 0.06256172
0.27548105 0.38015923 0.06256172
0.33636038 0.37826235 0.06256172
0.38025482 0.37559701 0.06256172
0.41737238 0.37183820 0.06256172
0.45093045 0.36648380 0.06256172
0.48236469 0.35870756 0.06256172
0.51243482 0.34701455 0.06256172
0.54158614 0.32824868 0.06256172
0.57009785 0.29345088 0.06256172
0.59815347 0.16673674 0.06256172
0.62587783 0.06256172 0.06256172
0.65335809 0.06256172 0.06256172
0.68065631 0.06256172 0.06256172
0.70781736 0.06256172 0.06256172
0.73487410 0.06256172 0.06256172
0.76185083 0.06256172 0.06256172
0.78876567 0.06256172 0.06256172
0.81563221 0.06256172 0.06256172
0.84246071 0.06256172 0.06256172
0.86925895 0.06256172 0.06256172
0.89603284 0.06256172 0.06256172
0.91886608 0.06256172 0.06256172
0.06256172 0.41023630 0.06256172
0.06256172 0.41023247 0.06256172
0.06256172 0.41021839 0.06256172
0.06256172 0.41018747 0.06256172
0.06256172 0.41013053 0.06256172
0.06256172 0.41003500 0.06256172
0.06256172 0.40988382 0.06256172
0.06256172 0.40965389 0.06256172
0.06256172 0.40931404 0.06256172
0.06256172 0.40882213 0.06256172
0.06256172 0.40812107 0.06256172
0.06256172 0.40713291 0.06256172
0.30208071 0.40575021 0.06256172
0.36199885 0.40382255 0.06256172
0.40596665 0.40113480 0.06256172
0.44327759 0.39736992 0.06256172
0.47702199 0.39204048 0.06256172
0.50861221 0.38435069 0.06256172
0.53880670 0.37287929 0.06256172
0.56805473 0.35469607 0.06256172
0.59664036 0.32191707 0.06256172
0.62475157 0.22807070 0.06256172
0.65251704 0.06256172 0.06256172
0.68002705 0.06256172 0.06256172
0.70734617 0.06256172 0.06256172
0.73452132 0.06256172 0.06256172
0.76158693 0.06256172 0.06256172
0.78856857 0.06256172 0.06256172
0.81548532 0.06256172 0.06256172
0.84235155 0.06256172 0.06256172
0.86917809 0.06256172 0.06256172
0.89597320 0.06256172 0.06256172
0.91886608 0.06256172 0.06256172
0.06256172 0.43619324 0.06256172
0.06256172 0.43619039 0.06256172
0.06256172 0.43617989 0.06256172
0.06256172 0.43615685 0.06256172
0.06256172 0.43611442 0.06256172
0.06256172 0.43604324 0.06256172
0.06256172 0.43593065 0.06256172
0.06256172 0.43575951 0.06256172
0.06256172 0.43550678 0.06256172
0.06256172 0.43514145 0.06256172
0.06256172 0.43462174 0.06256172
0.06256172 0.43389116 0.06256172
0.18253992 0.43287270 0.06256172
0.32850741 0.43146041 0.06256172
0.38773347 0.42950611 0.06256172
0.43178737 0.42679828 0.06256172
0.46927634 0.42302587 0.06256172
0.50318907 0.41771246 0.06256172
0.53491928 0.41008470 0.06256172
0.56522489 0.39877484 0.06256172
0.59455894 0.38101283 0.06256172
0.62320991 0.34963025 0.06256172
0.65136990 0.26923688 0.06256172
0.67917103 0.06256172 0.06256172
0.70670645 0.06256172 0.06256172
0.73404305 0.06256172 0.06256172
0.76122955 0.06256172 0.06256172
0.78830187 0.06256172 0.06256172
0.81528669 0.06256172 0.06256172
0.84220400 0.06256172 0.06256172
0.86906885 0.06256172 0.06256172
0.89589263 0.06256172 0.06256172
0.91886608 0.06256172 0.06256172
0.06256172 0.46223919 0.06256172
0.06256172 0.46223706 0.06256172
0.06256172 0.46222920 0.06256172
0.06256172 0.46221195 0.06256172
0.06256172 0.46218020 0.06256172
0.06256172 0.46212694 0.06256172
0.06256172 0.46204272 0.06256172
0.06256172 0.46191476 0.06256172
0.06256172 0.46172590 0.06256172
0.06256172 0.46145316 0.06256172
0.06256172 0.46106568 0.06256172
0.06256172 0.46052199 0.06256172
0.06256172 0.45976607 0.06256172
0.22844855 0.45872173 0.06256172
0.35483128 0.45728411 0.06256172
0.41356132 0.45530678 0.06256172
0.45771123 0.45258087 0.06256172
0.49536464 0.44879973 0.06256172
0.52942940 0.44349480 0.06256172
0.56128482 0.43590863 0.06256172
0.59168908 0.42471117 0.06256172
0.62109889 0.40724385 0.06256172
0.64980689 0.37681888 0.06256172
0.67800892 0.30381309 0.06256172
0.70584031 0.06256172 0.06256172
0.73339679 0.06256172 0.06256172
0.76074737 0.06256172 0.06256172
0.78794243 0.06256172 0.06256172
0.81501921 0.06256172 0.06256172
0.84200545 0.06256172 0.06256172
0.86892191 0.06256172 0.06256172
0.89578429 0.06256172 0.06256172
0.91886608 0.06256172 0.06256172
0.06256172 0.48836968 0.06256172
0.06256172 0.48836807 0.06256172
0.06256172 0.48836217 0.06256172
0.06256172 0.48834922 0.06256172
0.06256172 0.48832538 0.06256172
0.06256172 0.48828540 0.06256172
0.06256172 0.48822218 0.06256172
0.06256172 0.48812616 0.06256172
0.06256172 0.48798451 0.06256172
0.06256172 0.48778007 0.06256172
0.06256172 0.48748991 0.06256172
0.06256172 0.48708332 0.06256172
0.06256172 0.48651909 0.06256172
0.06256172 0.48574162 0.06256172
0.26494638 0.48467529 0.06256172
0.38109628 0.48321613 0.06256172
0.43947928 0.48121896 0.06256172
0.48373310 0.47847675 0.06256172
0.52153878 0.47468584 0.06256172
0.55574069 0.46938285 0.06256172
0.58770758 0.46182075 0.06256172
0.61819868 0.45069420 0.06256172
0.64767441 0.43341829 0.06256172
0.67643134 0.40362052 0.06256172
0.70466882 0.33500264 0.06256172
0.73252508 0.06256172 0.06256172
0.76009828 0.06256172 0.06256172
0.78745931 0.06256172 0.06256172
0.81466011 0.06256172 0.06256172
0.84173910 0.06256172 0.06256172
0.86872494 0.06256172 0.06256172
0.89563913 0.06256172 0.06256172
0.91886608 0.06256172 0.06256172
0.06256172 0.51458070 0.06256172
0.06256172 0.51457949 0.06256172
0.06256172 0.51457505 0.06256172
0.06256172 0.51456530 0.06256172
0.06256172 0.51454735 0.06256172
0.06256172 0.51451726 0.06256172
0.06256172 0.51446968 0.06256172
0.06256172 0.51439743 0.06256172
0.06256172 0.51429089 0.06256172
0.06256172 0.51413720 0.06256172
0.06256172 0.51391921 0.06256172
0.06256172 0.51361404 0.06256172
0.06256172 0.51319114 0.06256172
0.06256172 0.51260952 0.06256172
0.06256172 0.51181389 0.06256172
0.29752321 0.51072910 0.06256172
0.40733080 0.50925179 0.06256172
0.46548413 0.50723761 0.06256172
0.50984841 0.50448071 0.06256172
0.54779534 0.50067909 0.06256172
0.58212070 0.49537226 0.06256172
0.61418615 0.48781881 0.06256172
0.64475286 0.47672711 0.06256172
0.67428505 0.45955507 0.06256172
0.70308304 0.43012086 0.06256172
0.73134947 0.36406720 0.06256172
0.75922531 0.06256172 0.06256172
0.78681089 0.06256172 0.06256172
0.81417888 0.06256172 0.06256172
0.84138258 0.06256172 0.06256172
0.86846150 0.06256172 0.06256172
0.89544513 0.06256172 0.06256172
0.91886608 0.06256172 0.06256172
0.06256172 0.54086866 0.06256172
0.06256172 0.54086775 0.06256172
0.06256172 0.54086440 0.06256172
0.06256172 0.54085705 0.06256172
0.06256172 0.54084351 0.06256172
0.06256172 0.54082082 0.06256172
0.06256172 0.54078495 0.06256172
0.06256172 0.54073048 0.06256172
0.06256172 0.54065018 0.06256172
0.06256172 0.54053439 0.06256172
0.06256172 0.54037023 0.06256172
0.06256172 0.54014060 0.06256172
0.06256172 0.53982269 0.06256172
0.06256172 0.53938606 0.06256172
0.06256172 0.53878991 0.06256172
0.06256172 0.53797922 0.06256172
0.32795739 0.53687917 0.06256172
0.43355348 0.53538679 0.06256172
0.49157270 0.53335819 0.06256172
0.53605303 0.53058803 0.06256172
0.57413116 0.52677489 0.06256172
0.60856721 0.52145898 0.06256172
0.64071905 0.51390028 0.06256172
0.67135066 0.50281119 0.06256172
0.70093016 0.48566604 0.06256172
0.72976154 0.45637342 0.06256172
0.75805057 0.39160867 0.06256172
0.78594074 0.06256172 0.06256172
0.81353442 0.06256172 0.06256172
0.84090588 0.06256172 0.06256172
0.86810966 0.06256172 0.06256172
0.89518625 0.06256172 0.06256172
0.91886608 0.06256172 0.06256172
0.06256172 0.56723030 0.06256172
0.06256172 0.56722961 0.06256172
0.06256172 0.56722708 0.06256172
0.06256172 0.56722153 0.06256172
0.06256172 0.56721131 0.06256172
0.06256172 0.56719418 0.06256172
0.06256172 0.56716710 0.06256172
0.06256172 0.56712599 0.06256172
0.06256172 0.56706539 0.06256172
0.06256172 0.56697802 0.06256172
0.06256172 0.56685422 0.06256172
0.06256172 0.56668112 0.06256172
0.06256172 0.56644165 0.06256172
0.06256172 0.56611309 0.06256172
0.06256172 0.56566513 0.06256172
0.06256172 0.56505711 0.06256172
0.06256172 0.56423422 0.06256172
0.35704558 0.56312184 0.06256172
0.45977657 0.56161721 0.06256172
0.51774190 0.55957655 0.06256172
0.56234322 0.55679445 0.06256172
0.60054329 0.55296901 0.06256172
0.63507809 0.54763921 0.06256172
0.66730475 0.54006244 0.06256172
0.69799095 0.52894634 0.06256172
0.72760890 0.51175799 0.06256172
0.75646621 0.48241024 0.06256172
0.78477159 0.41793349 0.06256172
0.81267094 0.06256172 0.06256172
0.84026850 0.06256172 0.06256172
0.86763998 0.06256172 0.06256172
0.89484107 0.06256172 0.06256172
0.91886608 0.06256172 0.06256172
0.06256172 0.59366266 0.06256172
0.06256172 0.59366214 0.06256172
0.06256172 0.59366023 0.06256172
0.06256172 0.59365603 0.06256172
0.06256172 0.59364831 0.06256172
0.06256172 0.59363537 0.06256172
0.06256172 0.59361491 0.06256172
0.06256172 0.59358386 0.06256172
0.06256172 0.59353810 0.06256172
0.06256172 0.59347213 0.06256172
0.06256172 0.59337867 0.06256172
0.06256172 0.59324806 0.06256172
0.06256172 0.59306747 0.06256172
0.06256172 0.59281987 0.06256172
0.06256172 0.59248264 0.06256172
0.06256172 0.59202556 0.06256172
0.06256172 0.59140814 0.06256172
0.06256172 0.59057569 0.06256172
0.38520632 0.58945370 0.06256172
0.48600796 0.58793943 0.06256172
0.54398875 0.58588892 0.06256172
0.58871558 0.58309610 0.06256172
0.62702899 0.57925761 0.06256172
0.66165124 0.57390938 0.06256172
0.69394167 0.56630247 0.06256172
0.72467252 0.55513139 0.06256172
0.75432030 0.53783384 0.06256172
