src/ffmpeg_scripts/luts/rec2020-sRGB_-1p00.cube
TITLE "rec2020-srgb_-1p00"
LUT_3D_SIZE 33
# PQ (EOTF Only)/Rec2020 -> PQ (EOTF Only)/Rec709, CineEI Shift -1.00, Black Level 0.00% IRE, Input 100% -> Output 109% - Created with LUTCalc v4.01 by Ben Turley October 2020
0.06256172 0.06256172 0.06256172
0.08703882 0.06256172 0.06256172
0.11200489 0.06256172 0.06256172
0.13722667 0.06256172 0.06256172
0.16263176 0.06256172 0.06256172
0.18818201 0.06256172 0.06256172
0.21385344 0.06256172 0.06256172
0.23962938 0.06256172 0.06256172
0.26549752 0.06256172 0.06256172
0.29144835 0.06256172 0.06256172
0.31747431 0.06256172 0.06256172
0.34356917 0.06256172 0.06256172
0.36972777 0.06256172 0.06256172
0.39594571 0.06256172 0.06256172
0.42221922 0.06256172 0.06256172
0.44854499 0.06256172 0.06256172
0.47492015 0.06256172 0.06256172
0.50134214 0.06256172 0.06256172
0.52780865 0.06256172 0.06256172
0.55431765 0.06256172 0.06256172
0.58086726 0.06256172 0.06256172
0.60745581 0.06256172 0.06256172
0.63408174 0.06256172 0.06256172
0.66074364 0.06256172 0.06256172
0.68744020 0.06256172 0.06256172
0.71417023 0.06256172 0.06256172
0.74093260 0.06256172 0.06256172
0.76772627 0.06256172 0.06256172
0.79455028 0.06256172 0.06256172
0.82140373 0.06256172 0.06256172
0.84828575 0.06256172 0.06256172
0.87519556 0.06256172 0.06256172
0.90213241 0.06256172 0.06256172
0.06256172 0.08286983 0.06256172
0.08232929 0.08172921 0.06256172
0.11035701 0.07666509 0.06256172
0.13640345 0.06256172 0.06256172
0.16216074 0.06256172 0.06256172
0.18789128 0.06256172 0.06256172
0.21366493 0.06256172 0.06256172
0.23950284 0.06256172 0.06256172
0.26541037 0.06256172 0.06256172
0.29138714 0.06256172 0.06256172
0.31743064 0.06256172 0.06256172
0.34353763 0.06256172 0.06256172
0.36970477 0.06256172 0.06256172
0.39592880 0.06256172 0.06256172
0.42220669 0.06256172 0.06256172
0.44853567 0.06256172 0.06256172
0.47491319 0.06256172 0.06256172
0.50133691 0.06256172 0.06256172
0.52780473 0.06256172 0.06256172
0.55431469 0.06256172 0.06256172
0.58086503 0.06256172 0.06256172
0.60745413 0.06256172 0.06256172
0.63408047 0.06256172 0.06256172
0.66074268 0.06256172 0.06256172
0.68743948 0.06256172 0.06256172
0.71416968 0.06256172 0.06256172
0.74093219 0.06256172 0.06256172
0.76772596 0.06256172 0.06256172
0.79455005 0.06256172 0.06256172
0.82140356 0.06256172 0.06256172
0.84828563 0.06256172 0.06256172
0.87519547 0.06256172 0.06256172
0.90213234 0.06256172 0.06256172
0.06256172 0.10441557 0.06256172
0.06256172 0.10397649 0.06256172
0.10341660 0.10230324 0.06256172
0.13323067 0.09823168 0.06256172
0.16039103 0.08840294 0.06256172
0.18681021 0.06256172 0.06256172
0.21296749 0.06256172 0.06256172
0.23903595 0.06256172 0.06256172
0.26508933 0.06256172 0.06256172
0.29116185 0.06256172 0.06256172
0.31727003 0.06256172 0.06256172
0.34342168 0.06256172 0.06256172
0.36962021 0.06256172 0.06256172
0.39586662 0.06256172 0.06256172
0.42216068 0.06256172 0.06256172
0.44850143 0.06256172 0.06256172
0.47488760 0.06256172 0.06256172
0.50131773 0.06256172 0.06256172
0.52779030 0.06256172 0.06256172
0.55430383 0.06256172 0.06256172
0.58085684 0.06256172 0.06256172
0.60744794 0.06256172 0.06256172
0.63407580 0.06256172 0.06256172
0.66073916 0.06256172 0.06256172
0.68743683 0.06256172 0.06256172
0.71416769 0.06256172 0.06256172
0.74093069 0.06256172 0.06256172
0.76772484 0.06256172 0.06256172
0.79454921 0.06256172 0.06256172
0.82140293 0.06256172 0.06256172
0.84828516 0.06256172 0.06256172
0.87519513 0.06256172 0.06256172
0.90213209 0.06256172 0.06256172
0.06256172 0.12664076 0.06256172
0.06256172 0.12641512 0.06256172
0.07234052 0.12557457 0.06256172
0.12523335 0.12366068 0.06256172
0.15626568 0.11985479 0.06256172
0.18436100 0.11237516 0.06256172
0.21140821 0.09492047 0.06256172
0.23799938 0.06256172 0.06256172
0.26437939 0.06256172 0.06256172
0.29066487 0.06256172 0.06256172
0.31691626 0.06256172 0.06256172
0.34316654 0.06256172 0.06256172
0.36943426 0.06256172 0.06256172
0.39572997 0.06256172 0.06256172
0.42205957 0.06256172 0.06256172
0.44842621 0.06256172 0.06256172
0.47483140 0.06256172 0.06256172
0.50127559 0.06256172 0.06256172
0.52775863 0.06256172 0.06256172
0.55427997 0.06256172 0.06256172
0.58083885 0.06256172 0.06256172
0.60743437 0.06256172 0.06256172
0.63406556 0.06256172 0.06256172
0.66073143 0.06256172 0.06256172
0.68743100 0.06256172 0.06256172
0.71416330 0.06256172 0.06256172
0.74092740 0.06256172 0.06256172
0.76772237 0.06256172 0.06256172
0.79454737 0.06256172 0.06256172
0.82140156 0.06256172 0.06256172
0.84828414 0.06256172 0.06256172
0.87519437 0.06256172 0.06256172
0.90213154 0.06256172 0.06256172
0.06256172 0.14936436 0.06256172
0.06256172 0.14923309 0.06256172
0.06256172 0.14874762 0.06256172
0.10315680 0.14766331 0.06256172
0.14758695 0.14559684 0.06256172
0.17954823 0.14190251 0.06256172
0.20843053 0.13533244 0.06256172
0.23604824 0.12274900 0.06256172
0.26305381 0.08535588 0.06256172
0.28974137 0.06256172 0.06256172
0.31626086 0.06256172 0.06256172
0.34269478 0.06256172 0.06256172
0.36909091 0.06256172 0.06256172
0.39547786 0.06256172 0.06256172
0.42187315 0.06256172 0.06256172
0.44828759 0.06256172 0.06256172
0.47472785 0.06256172 0.06256172
0.50119797 0.06256172 0.06256172
0.52770029 0.06256172 0.06256172
0.55423605 0.06256172 0.06256172
0.58080573 0.06256172 0.06256172
0.60740938 0.06256172 0.06256172
0.63404670 0.06256172 0.06256172
0.66071721 0.06256172 0.06256172
0.68742028 0.06256172 0.06256172
0.71415524 0.06256172 0.06256172
0.74092134 0.06256172 0.06256172
0.76771783 0.06256172 0.06256172
0.79454397 0.06256172 0.06256172
0.82139903 0.06256172 0.06256172
0.84828226 0.06256172 0.06256172
0.87519299 0.06256172 0.06256172
0.90213052 0.06256172 0.06256172
0.06256172 0.17248929 0.06256172
0.06256172 0.17240727 0.06256172
0.06256172 0.17210486 0.06256172
0.06256172 0.17143474 0.06256172
0.12760290 0.17017826 0.06256172
0.17037385 0.16800138 0.06256172
0.20308792 0.16436053 0.06256172
0.23264362 0.15827456 0.06256172
0.26077496 0.14762070 0.06256172
0.28816750 0.12557514 0.06256172
0.31514988 0.06256172 0.06256172
0.34189785 0.06256172 0.06256172
0.36851222 0.06256172 0.06256172
0.39505362 0.06256172 0.06256172
0.42155978 0.06256172 0.06256172
0.44805474 0.06256172 0.06256172
0.47455402 0.06256172 0.06256172
0.50106772 0.06256172 0.06256172
0.52760243 0.06256172 0.06256172
0.55416237 0.06256172 0.06256172
0.58075019 0.06256172 0.06256172
0.60736748 0.06256172 0.06256172
0.63401509 0.06256172 0.06256172
0.66069336 0.06256172 0.06256172
0.68740231 0.06256172 0.06256172
0.71414171 0.06256172 0.06256172
0.74091118 0.06256172 0.06256172
0.76771022 0.06256172 0.06256172
0.79453828 0.06256172 0.06256172
0.82139479 0.06256172 0.06256172
0.84827912 0.06256172 0.06256172
0.87519066 0.06256172 0.06256172
0.90212880 0.06256172 0.06256172
0.06256172 0.19595363 0.06256172
0.06256172 0.19589993 0.06256172
0.06256172 0.19570221 0.06256172
0.06256172 0.19526575 0.06256172
0.06256172 0.19445368 0.06256172
0.15135317 0.19306646 0.06256172
0.19352791 0.19080365 0.06256172
0.22687586 0.18718849 0.06256172
0.25701685 0.18139815 0.06256172
0.28561074 0.17180073 0.06256172
0.31336140 0.15418048 0.06256172
0.34062231 0.10300541 0.06256172
0.36758948 0.06256172 0.06256172
0.39437888 0.06256172 0.06256172
0.42106228 0.06256172 0.06256172
0.44768553 0.06256172 0.06256172
0.47427863 0.06256172 0.06256172
0.50086151 0.06256172 0.06256172
0.52744756 0.06256172 0.06256172
0.55404581 0.06256172 0.06256172
0.58066235 0.06256172 0.06256172
0.60730122 0.06256172 0.06256172
0.63396510 0.06256172 0.06256172
0.66065567 0.06256172 0.06256172
0.68737391 0.06256172 0.06256172
0.71412034 0.06256172 0.06256172
0.74089512 0.06256172 0.06256172
0.76769818 0.06256172 0.06256172
0.79452929 0.06256172 0.06256172
0.82138808 0.06256172 0.06256172
0.84827414 0.06256172 0.06256172
0.87518698 0.06256172 0.06256172
0.90212610 0.06256172 0.06256172
0.06256172 0.21971396 0.06256172
0.06256172 0.21967760 0.06256172
0.06256172 0.21954389 0.06256172
0.06256172 0.21924932 0.06256172
0.06256172 0.21870349 0.06256172
0.06256172 0.21777787 0.06256172
0.17503930 0.21628676 0.06256172
0.21700264 0.21395393 0.06256172
0.25089862 0.21034924 0.06256172
0.28155498 0.20475348 0.06256172
0.31056667 0.19581916 0.06256172
0.33864758 0.18046163 0.06256172
0.36616953 0.14746548 0.06256172
0.39334475 0.06256172 0.06256172
0.42030189 0.06256172 0.06256172
0.44712232 0.06256172 0.06256172
0.47385912 0.06256172 0.06256172
0.50054770 0.06256172 0.06256172
0.52721206 0.06256172 0.06256172
0.55386866 0.06256172 0.06256172
0.58052888 0.06256172 0.06256172
0.60720058 0.06256172 0.06256172
0.63388920 0.06256172 0.06256172
0.66059843 0.06256172 0.06256172
0.68733078 0.06256172 0.06256172
0.71408789 0.06256172 0.06256172
0.74087075 0.06256172 0.06256172
0.76767992 0.06256172 0.06256172
0.79451564 0.06256172 0.06256172
0.82137791 0.06256172 0.06256172
0.84826659 0.06256172 0.06256172
0.87518140 0.06256172 0.06256172
0.90212200 0.06256172 0.06256172
0.06256172 0.24373789 0.06256172
0.06256172 0.24371267 0.06256172
0.06256172 0.24361995 0.06256172
0.06256172 0.24341594 0.06256172
0.06256172 0.24303880 0.06256172
0.06256172 0.24240190 0.06256172
0.12144505 0.24138299 0.06256172
0.19883278 0.23980677 0.06256172
0.24076338 0.23741506 0.06256172
0.27514229 0.23381172 0.06256172
0.30625731 0.22834967 0.06256172
0.33564773 0.21986404 0.06256172
0.36403275 0.20588676 0.06256172
0.39179823 0.17915389 0.06256172
0.41916955 0.06256172 0.06256172
0.44628607 0.06256172 0.06256172
0.47323753 0.06256172 0.06256172
0.50008341 0.06256172 0.06256172
0.52686400 0.06256172 0.06256172
0.55360706 0.06256172 0.06256172
0.58033191 0.06256172 0.06256172
0.60705212 0.06256172 0.06256172
0.63377725 0.06256172 0.06256172
0.66051404 0.06256172 0.06256172
0.68726722 0.06256172 0.06256172
0.71404006 0.06256172 0.06256172
0.74083483 0.06256172 0.06256172
0.76765300 0.06256172 0.06256172
0.79449552 0.06256172 0.06256172
0.82136293 0.06256172 0.06256172
0.84825547 0.06256172 0.06256172
0.87517318 0.06256172 0.06256172
0.90211595 0.06256172 0.06256172
0.06256172 0.26800024 0.06256172
0.06256172 0.26798242 0.06256172
0.06256172 0.26791688 0.06256172
0.06256172 0.26777280 0.06256172
0.06256172 0.26750682 0.06256172
0.06256172 0.26705877 0.06256172
0.06256172 0.26634495 0.06256172
0.15450269 0.26524793 0.06256172
0.22279073 0.26360042 0.06256172
0.26478309 0.26115808 0.06256172
0.29959376 0.25755026 0.06256172
0.33112049 0.25218219 0.06256172
0.36085539 0.24401410 0.06256172
0.38952039 0.23095774 0.06256172
0.41751234 0.20758090 0.06256172
0.44506757 0.14339568 0.06256172
0.47233460 0.06256172 0.06256172
0.49941045 0.06256172 0.06256172
0.52636032 0.06256172 0.06256172
0.55322892 0.06256172 0.06256172
0.58004744 0.06256172 0.06256172
0.60683785 0.06256172 0.06256172
0.63361577 0.06256172 0.06256172
0.66039235 0.06256172 0.06256172
0.68717557 0.06256172 0.06256172
0.71397112 0.06256172 0.06256172
0.74078306 0.06256172 0.06256172
0.76761421 0.06256172 0.06256172
0.79446654 0.06256172 0.06256172
0.82134134 0.06256172 0.06256172
0.84823945 0.06256172 0.06256172
0.87516134 0.06256172 0.06256172
0.90210723 0.06256172 0.06256172
0.06256172 0.29248079 0.06256172
0.06256172 0.29246799 0.06256172
0.06256172 0.29242098 0.06256172
0.06256172 0.29231766 0.06256172
0.06256172 0.29212709 0.06256172
0.06256172 0.29180660 0.06256172
0.06256172 0.29129731 0.06256172
0.06256172 0.29051780 0.06256172
0.18297885 0.28935445 0.06256172
0.24693179 0.28764628 0.06256172
0.28904006 0.28515966 0.06256172
0.32424109 0.28154345 0.06256172
0.35613996 0.27624186 0.06256172
0.38618911 0.26830449 0.06256172
0.41511184 0.25589519 0.06256172
0.44331395 0.23461119 0.06256172
0.47104098 0.18670440 0.06256172
0.49844940 0.06256172 0.06256172
0.52564266 0.06256172 0.06256172
0.55269105 0.06256172 0.06256172
0.57964329 0.06256172 0.06256172
0.60653371 0.06256172 0.06256172
0.63338670 0.06256172 0.06256172
0.66021982 0.06256172 0.06256172
0.68704569 0.06256172 0.06256172
0.71387346 0.06256172 0.06256172
0.74070973 0.06256172 0.06256172
0.76755928 0.06256172 0.06256172
0.79442549 0.06256172 0.06256172
0.82131077 0.06256172 0.06256172
0.84821676 0.06256172 0.06256172
0.87514457 0.06256172 0.06256172
0.90209490 0.06256172 0.06256172
0.06256172 0.31716286 0.06256172
0.06256172 0.31715357 0.06256172
0.06256172 0.31711944 0.06256172
0.06256172 0.31704444 0.06256172
0.06256172 0.31690621 0.06256172
0.06256172 0.31667397 0.06256172
0.06256172 0.31630553 0.06256172
0.06256172 0.31574310 0.06256172
0.06256172 0.31490707 0.06256172
0.20984184 0.31368685 0.06256172
0.27125949 0.31192642 0.06256172
0.31351640 0.30940057 0.06256172
0.34907352 0.30577324 0.06256172
0.38131065 0.30051817 0.06256172
0.41164714 0.29275055 0.06256172
0.44080713 0.28080975 0.06256172
0.46920386 0.26093556 0.06256172
0.49709084 0.22036786 0.06256172
0.52463150 0.06256172 0.06256172
0.55193500 0.06256172 0.06256172
0.57907622 0.06256172 0.06256172
0.60610750 0.06256172 0.06256172
0.63306602 0.06256172 0.06256172
0.65997845 0.06256172 0.06256172
0.68686408 0.06256172 0.06256172
0.71373694 0.06256172 0.06256172
0.74060728 0.06256172 0.06256172
0.76748254 0.06256172 0.06256172
0.79436817 0.06256172 0.06256172
0.82126807 0.06256172 0.06256172
0.84818508 0.06256172 0.06256172
0.87512116 0.06256172 0.06256172
0.90207768 0.06256172 0.06256172
0.06256172 0.34203249 0.06256172
0.06256172 0.34202568 0.06256172
0.06256172 0.34200066 0.06256172
0.06256172 0.34194569 0.06256172
0.06256172 0.34184443 0.06256172
0.06256172 0.34167440 0.06256172
0.06256172 0.34140498 0.06256172
0.06256172 0.34099440 0.06256172
0.06256172 0.34038571 0.06256172
0.06256172 0.33950078 0.06256172
0.23597383 0.33823144 0.06256172
0.29577103 0.33642559 0.06256172
0.33819707 0.33386464 0.06256172
0.37408136 0.33022422 0.06256172
0.40662733 0.32500060 0.06256172
0.43722706 0.31735785 0.06256172
0.46660536 0.30576121 0.06256172
0.49518199 0.28687786 0.06256172
0.52321742 0.25056300 0.06256172
0.55088126 0.06256172 0.06256172
0.57828778 0.06256172 0.06256172
0.60551599 0.06256172 0.06256172
0.63262155 0.06256172 0.06256172
0.65964424 0.06256172 0.06256172
0.68661281 0.06256172 0.06256172
0.71354818 0.06256172 0.06256172
0.74046567 0.06256172 0.06256172
0.76737651 0.06256172 0.06256172
0.79428897 0.06256172 0.06256172
0.82120911 0.06256172 0.06256172
0.84814133 0.06256172 0.06256172
0.87508883 0.06256172 0.06256172
0.90205390 0.06256172 0.06256172
0.06256172 0.36707775 0.06256172
0.06256172 0.36707272 0.06256172
0.06256172 0.36705423 0.06256172
0.06256172 0.36701363 0.06256172
0.06256172 0.36693885 0.06256172
0.06256172 0.36681336 0.06256172
0.06256172 0.36661464 0.06256172
0.06256172 0.36631219 0.06256172
0.06256172 0.36586459 0.06256172
0.06256172 0.36521558 0.06256172
0.06256172 0.36428821 0.06256172
0.26174544 0.36297623 0.06256172
0.32046092 0.36113066 0.06256172
0.36306925 0.35853805 0.06256172
0.39925591 0.35488307 0.06256172
0.43208486 0.34967915 0.06256172
0.46292600 0.34212694 0.06256172
0.49250507 0.33078330 0.06256172
0.52124763 0.31261069 0.06256172
0.54942039 0.27902632 0.06256172
0.57719849 0.15830459 0.06256172
0.60470083 0.06256172 0.06256172
0.63201016 0.06256172 0.06256172
0.65918517 0.06256172 0.06256172
0.68626802 0.06256172 0.06256172
0.71328935 0.06256172 0.06256172
0.74027160 0.06256172 0.06256172
0.76723127 0.06256172 0.06256172
0.79418054 0.06256172 0.06256172
0.82112839 0.06256172 0.06256172
0.84808145 0.06256172 0.06256172
0.87504459 0.06256172 0.06256172
0.90202136 0.06256172 0.06256172
0.06256172 0.39228833 0.06256172
0.06256172 0.39228459 0.06256172
0.06256172 0.39227085 0.06256172
0.06256172 0.39224067 0.06256172
0.06256172 0.39218509 0.06256172
0.06256172 0.39209185 0.06256172
0.06256172 0.39194430 0.06256172
0.06256172 0.39171989 0.06256172
0.06256172 0.39138820 0.06256172
0.06256172 0.39090814 0.06256172
0.06256172 0.39022398 0.06256172
0.06256172 0.38925974 0.06256172
0.28734082 0.38791067 0.06256172
0.34532261 0.38603020 0.06256172
0.38812183 0.38340886 0.06256172
0.42458930 0.37973818 0.06256172
0.45767822 0.37454451 0.06256172
0.48874090 0.36705564 0.06256172
0.51850440 0.35589525 0.06256172
0.54739962 0.33823360 0.06256172
0.57569897 0.30648861 0.06256172
0.60358261 0.21638352 0.06256172
0.63117364 0.06256172 0.06256172
0.65855824 0.06256172 0.06256172
0.68579782 0.06256172 0.06256172
0.71293676 0.06256172 0.06256172
0.74000746 0.06256172 0.06256172
0.76703370 0.06256172 0.06256172
0.79403310 0.06256172 0.06256172
0.82101866 0.06256172 0.06256172
0.84800007 0.06256172 0.06256172
0.87498448 0.06256172 0.06256172
0.90197717 0.06256172 0.06256172
0.06256172 0.41765524 0.06256172
0.06256172 0.41765245 0.06256172
0.06256172 0.41764218 0.06256172
0.06256172 0.41761963 0.06256172
0.06256172 0.41757811 0.06256172
0.06256172 0.41750847 0.06256172
0.06256172 0.41739830 0.06256172
0.06256172 0.41723086 0.06256172
0.06256172 0.41698358 0.06256172
0.06256172 0.41662614 0.06256172
0.06256172 0.41611769 0.06256172
0.06256172 0.41540296 0.06256172
0.17319228 0.41440670 0.06256172
0.31286095 0.41302533 0.06256172
0.37034929 0.41111413 0.06256172
0.41334512 0.40846660 0.06256172
0.45007441 0.40477932 0.06256172
0.48340263 0.39958808 0.06256172
0.51466859 0.39214036 0.06256172
0.54460122 0.38110778 0.06256172
0.57363650 0.36380687 0.06256172
0.60205208 0.33331953 0.06256172
0.63003274 0.25575131 0.06256172
0.65770543 0.06256172 0.06256172
0.68515946 0.06256172 0.06256172
0.71245877 0.06256172 0.06256172
0.73964975 0.06256172 0.06256172
0.76676637 0.06256172 0.06256172
0.79383372 0.06256172 0.06256172
0.82087037 0.06256172 0.06256172
0.84789013 0.06256172 0.06256172
0.87490329 0.06256172 0.06256172
0.90191748 0.06256172 0.06256172
0.06256172 0.44317052 0.06256172
0.06256172 0.44316842 0.06256172
0.06256172 0.44316072 0.06256172
0.06256172 0.44314380 0.06256172
0.06256172 0.44311266 0.06256172
0.06256172 0.44306043 0.06256172
0.06256172 0.44297783 0.06256172
0.06256172 0.44285233 0.06256172
0.06256172 0.44266712 0.06256172
0.06256172 0.44239963 0.06256172
0.06256172 0.44201964 0.06256172
0.06256172 0.44148647 0.06256172
0.06256172 0.44074524 0.06256172
0.21674360 0.43972125 0.06256172
0.33836480 0.43831181 0.06256172
0.39553424 0.43637354 0.06256172
0.43873054 0.43370202 0.06256172
0.47570476 0.42999741 0.06256172
0.50925353 0.42480198 0.06256172
0.54070588 0.41737676 0.06256172
0.57079325 0.40642643 0.06256172
0.59995655 0.38936799 0.06256172
0.62847837 0.35972649 0.06256172
0.65654775 0.28901107 0.06256172
0.68429520 0.06256172 0.06256172
0.71181291 0.06256172 0.06256172
0.73916713 0.06256172 0.06256172
0.76640609 0.06256172 0.06256172
0.79356524 0.06256172 0.06256172
0.82067080 0.06256172 0.06256172
0.84774225 0.06256172 0.06256172
0.87479412 0.06256172 0.06256172
0.90183724 0.06256172 0.06256172
0.06256172 0.46882710 0.06256172
0.06256172 0.46882552 0.06256172
0.06256172 0.46881973 0.06256172
0.06256172 0.46880700 0.06256172
0.06256172 0.46878356 0.06256172
0.06256172 0.46874426 0.06256172
0.06256172 0.46868212 0.06256172
0.06256172 0.46858774 0.06256172
0.06256172 0.46844851 0.06256172
0.06256172 0.46824757 0.06256172
0.06256172 0.46796237 0.06256172
0.06256172 0.46756275 0.06256172
0.06256172 0.46700822 0.06256172
0.06256172 0.46624415 0.06256172
0.25163592 0.46519628 0.06256172
0.36388808 0.46376253 0.06256172
0.42087100 0.46180042 0.06256172
0.46427047 0.45910690 0.06256172
0.50147443 0.45538431 0.06256172
0.53522657 0.45017893 0.06256172
0.56684959 0.44276013 0.06256172
0.59707810 0.43185338 0.06256172
0.62635792 0.41494039 0.06256172
0.65497630 0.38583314 0.06256172
0.68312632 0.31914640 0.06256172
0.71094176 0.06256172 0.06256172
0.73851748 0.06256172 0.06256172
0.76592185 0.06256172 0.06256172
0.79320480 0.06256172 0.06256172
0.82040309 0.06256172 0.06256172
0.84754401 0.06256172 0.06256172
0.87464785 0.06256172 0.06256172
0.90172977 0.06256172 0.06256172
0.06256172 0.49461865 0.06256172
0.06256172 0.49461746 0.06256172
0.06256172 0.49461308 0.06256172
0.06256172 0.49460348 0.06256172
0.06256172 0.49458580 0.06256172
0.06256172 0.49455616 0.06256172
0.06256172 0.49450929 0.06256172
0.06256172 0.49443813 0.06256172
0.06256172 0.49433318 0.06256172
0.06256172 0.49418179 0.06256172
0.06256172 0.49396708 0.06256172
0.06256172 0.49366650 0.06256172
0.06256172 0.49324997 0.06256172
0.06256172 0.49267713 0.06256172
0.06256172 0.49189356 0.06256172
0.28294861 0.49082529 0.06256172
0.38945284 0.48937062 0.06256172
0.44635348 0.48738759 0.06256172
0.48995807 0.48467384 0.06256172
0.52737799 0.48093272 0.06256172
0.56131765 0.47571225 0.06256172
0.59309658 0.46828564 0.06256172
0.62345332 0.45738864 0.06256172
0.65283861 0.44053835 0.06256172
0.68154422 0.41171529 0.06256172
0.70976698 0.34733147 0.06256172
0.73764379 0.06256172 0.06256172
0.76527194 0.06256172 0.06256172
0.79272178 0.06256172 0.06256172
0.82004476 0.06256172 0.06256172
0.84727888 0.06256172 0.06256172
0.87445236 0.06256172 0.06256172
0.90158621 0.06256172 0.06256172
0.06256172 0.52053944 0.06256172
0.06256172 0.52053854 0.06256172
0.06256172 0.52053523 0.06256172
0.06256172 0.52052798 0.06256172
0.06256172 0.52051462 0.06256172
0.06256172 0.52049222 0.06256172
0.06256172 0.52045681 0.06256172
0.06256172 0.52040306 0.06256172
0.06256172 0.52032380 0.06256172
0.06256172 0.52020951 0.06256172
0.06256172 0.52004749 0.06256172
0.06256172 0.51982085 0.06256172
0.06256172 0.51950708 0.06256172
0.06256172 0.51907616 0.06256172
0.06256172 0.51848783 0.06256172
0.06256172 0.51768781 0.06256172
0.31232893 0.51660232 0.06256172
0.41507263 0.51512983 0.06256172
0.47197592 0.51312854 0.06256172
0.51578717 0.51039617 0.06256172
0.55341044 0.50663600 0.06256172
0.58752287 0.50139578 0.06256172
0.61944379 0.49394843 0.06256172
0.64991641 0.48303075 0.06256172
0.67939654 0.46616987 0.06256172
0.70818030 0.43741907 0.06256172
0.73646815 0.37412382 0.06256172
0.76439983 0.06256172 0.06256172
0.79207495 0.06256172 0.06256172
0.81956565 0.06256172 0.06256172
0.84692481 0.06256172 0.06256172
0.87419150 0.06256172 0.06256172
0.90139478 0.06256172 0.06256172
0.06256172 0.54658429 0.06256172
0.06256172 0.54658361 0.06256172
0.06256172 0.54658111 0.06256172
0.06256172 0.54657562 0.06256172
0.06256172 0.54656551 0.06256172
0.06256172 0.54654857 0.06256172
0.06256172 0.54652179 0.06256172
0.06256172 0.54648113 0.06256172
0.06256172 0.54642120 0.06256172
0.06256172 0.54633481 0.06256172
0.06256172 0.54621237 0.06256172
0.06256172 0.54604120 0.06256172
0.06256172 0.54580439 0.06256172
0.06256172 0.54547949 0.06256172
0.06256172 0.54503653 0.06256172
0.06256172 0.54443532 0.06256172
0.06256172 0.54362169 0.06256172
0.34051370 0.54252190 0.06256172
0.44075553 0.54103445 0.06256172
0.49773291 0.53901735 0.06256172
0.54175215 0.53626784 0.06256172
0.57956716 0.53248812 0.06256172
0.61383851 0.52722380 0.06256172
0.64588819 0.51974371 0.06256172
0.67646489 0.50877715 0.06256172
0.70602957 0.49183850 0.06256172
0.73488268 0.46297075 0.06256172
0.76322811 0.39980397 0.06256172
0.79120833 0.06256172 0.06256172
0.81892507 0.06256172 0.06256172
0.84645213 0.06256172 0.06256172
0.87384367 0.06256172 0.06256172
0.90113975 0.06256172 0.06256172
0.06256172 0.57274846 0.06256172
0.06256172 0.57274795 0.06256172
0.06256172 0.57274606 0.06256172
0.06256172 0.57274190 0.06256172
0.06256172 0.57273425 0.06256172
0.06256172 0.57272143 0.06256172
0.06256172 0.57270116 0.06256172
0.06256172 0.57267040 0.06256172
0.06256172 0.57262506 0.06256172
0.06256172 0.57255970 0.06256172
0.06256172 0.57246711 0.06256172
0.06256172 0.57233770 0.06256172
0.06256172 0.57215878 0.06256172
0.06256172 0.57191349 0.06256172
0.06256172 0.57157939 0.06256172
0.06256172 0.57112658 0.06256172
0.06256172 0.57051494 0.06256172
0.06256172 0.56969033 0.06256172
0.36788861 0.56857898 0.06256172
0.46650589 0.56707921 0.06256172
0.52361939 0.56504858 0.06256172
0.56784791 0.56228330 0.06256172
0.60584386 0.55848356 0.06256172
0.64026105 0.55319100 0.06256172
0.67242684 0.54566676 0.06256172
0.70309623 0.53462452 0.06256172
0.73273551 0.51754434 0.06256172
