src/ffmpeg_scripts/luts/rec2020-sRGB_0-Native.cube
TITLE "rec2020-srgb_0-Native"
LUT_3D_SIZE 33
# PQ (EOTF Only)/Rec2020 -> PQ (EOTF Only)/Rec709, CineEI Shift 0.00, Black Level 0.00% IRE, Input 100% -> Output 109% - Created with LUTCalc v4.01 by Ben Turley October 2020
0.06256172 0.06256172 0.06256172
0.09647936 0.06256172 0.06256172
0.12855935 0.06256172 0.06256172
0.15975874 0.06256172 0.06256172
0.19035250 0.06256172 0.06256172
0.22048056 0.06256172 0.06256172
0.25022884 0.06256172 0.06256172
0.27965581 0.06256172 0.06256172
0.30880397 0.06256172 0.06256172
0.33770570 0.06256172 0.06256172
0.36638646 0.06256172 0.06256172
0.39486689 0.06256172 0.06256172
0.42316403 0.06256172 0.06256172
0.45129219 0.06256172 0.06256172
0.47926358 0.06256172 0.06256172
0.50708876 0.06256172 0.06256172
0.53477690 0.06256172 0.06256172
0.56233610 0.06256172 0.06256172
0.58977355 0.06256172 0.06256172
0.61709564 0.06256172 0.06256172
0.64430815 0.06256172 0.06256172
0.67141628 0.06256172 0.06256172
0.69842476 0.06256172 0.06256172
0.72533790 0.06256172 0.06256172
0.75215966 0.06256172 0.06256172
0.77889369 0.06256172 0.06256172
0.80554332 0.06256172 0.06256172
0.83211167 0.06256172 0.06256172
0.85860163 0.06256172 0.06256172
0.88501587 0.06256172 0.06256172
0.91135691 0.06256172 0.06256172
0.91886608 0.06256172 0.06256172
0.91886608 0.06256172 0.06256172
0.06256172 0.09095084 0.06256172
0.09022921 0.08942672 0.06256172
0.12648481 0.08259038 0.06256172
0.15875482 0.06256172 0.06256172
0.18979154 0.06256172 0.06256172
0.22014084 0.06256172 0.06256172
0.25001208 0.06256172 0.06256172
0.27951232 0.06256172 0.06256172
0.30870637 0.06256172 0.06256172
0.33763789 0.06256172 0.06256172
0.36633858 0.06256172 0.06256172
0.39483263 0.06256172 0.06256172
0.42313925 0.06256172 0.06256172
0.45127411 0.06256172 0.06256172
0.47925030 0.06256172 0.06256172
0.50707894 0.06256172 0.06256172
0.53476961 0.06256172 0.06256172
0.56233067 0.06256172 0.06256172
0.58976949 0.06256172 0.06256172
0.61709260 0.06256172 0.06256172
0.64430587 0.06256172 0.06256172
0.67141457 0.06256172 0.06256172
0.69842347 0.06256172 0.06256172
0.72533694 0.06256172 0.06256172
0.75215894 0.06256172 0.06256172
0.77889314 0.06256172 0.06256172
0.80554291 0.06256172 0.06256172
0.83211137 0.06256172 0.06256172
0.85860140 0.06256172 0.06256172
0.88501570 0.06256172 0.06256172
0.91135678 0.06256172 0.06256172
0.91886608 0.06256172 0.06256172
0.91886608 0.06256172 0.06256172
0.06256172 0.11896100 0.06256172
0.06256172 0.11840209 0.06256172
0.11768881 0.11626839 0.06256172
0.15487736 0.11104977 0.06256172
0.18768188 0.09827509 0.06256172
0.21887704 0.06256172 0.06256172
0.24920993 0.06256172 0.06256172
0.27898283 0.06256172 0.06256172
0.30834676 0.06256172 0.06256172
0.33738834 0.06256172 0.06256172
0.36616245 0.06256172 0.06256172
0.39470665 0.06256172 0.06256172
0.42304816 0.06256172 0.06256172
0.45120767 0.06256172 0.06256172
0.47920149 0.06256172 0.06256172
0.50704287 0.06256172 0.06256172
0.53474284 0.06256172 0.06256172
0.56231072 0.06256172 0.06256172
0.58975458 0.06256172 0.06256172
0.61708144 0.06256172 0.06256172
0.64429750 0.06256172 0.06256172
0.67140828 0.06256172 0.06256172
0.69841875 0.06256172 0.06256172
0.72533339 0.06256172 0.06256172
0.75215628 0.06256172 0.06256172
0.77889115 0.06256172 0.06256172
0.80554142 0.06256172 0.06256172
0.83211026 0.06256172 0.06256172
0.85860057 0.06256172 0.06256172
0.88501509 0.06256172 0.06256172
0.91135633 0.06256172 0.06256172
0.91886608 0.06256172 0.06256172
0.91886608 0.06256172 0.06256172
0.06256172 0.14678009 0.06256172
0.06256172 0.14650175 0.06256172
0.07664417 0.14546421 0.06256172
0.14504271 0.14309783 0.06256172
0.18275191 0.13837539 0.06256172
0.21601039 0.12902480 0.06256172
0.24741534 0.10677585 0.06256172
0.27780680 0.06256172 0.06256172
0.30755135 0.06256172 0.06256172
0.33683773 0.06256172 0.06256172
0.36577447 0.06256172 0.06256172
0.39442942 0.06256172 0.06256172
0.42284785 0.06256172 0.06256172
0.45106163 0.06256172 0.06256172
0.47909424 0.06256172 0.06256172
0.50696364 0.06256172 0.06256172
0.53468403 0.06256172 0.06256172
0.56226691 0.06256172 0.06256172
0.58972184 0.06256172 0.06256172
0.61705692 0.06256172 0.06256172
0.64427911 0.06256172 0.06256172
0.67139448 0.06256172 0.06256172
0.69840839 0.06256172 0.06256172
0.72532561 0.06256172 0.06256172
0.75215045 0.06256172 0.06256172
0.77888678 0.06256172 0.06256172
0.80553815 0.06256172 0.06256172
0.83210782 0.06256172 0.06256172
0.85859876 0.06256172 0.06256172
0.88501374 0.06256172 0.06256172
0.91135533 0.06256172 0.06256172
0.91886608 0.06256172 0.06256172
0.91886608 0.06256172 0.06256172
0.06256172 0.17446477 0.06256172
0.06256172 0.17430664 0.06256172
0.06256172 0.17372165 0.06256172
0.11735761 0.17241415 0.06256172
0.17232201 0.16991861 0.06256172
0.21036303 0.16544482 0.06256172
0.24398376 0.15744742 0.06256172
0.27559148 0.14196866 0.06256172
0.30606551 0.09425522 0.06256172
0.33581429 0.06256172 0.06256172
0.36505556 0.06256172 0.06256172
0.39391677 0.06256172 0.06256172
0.42247794 0.06256172 0.06256172
0.45079219 0.06256172 0.06256172
0.47889649 0.06256172 0.06256172
0.50681762 0.06256172 0.06256172
0.53457568 0.06256172 0.06256172
0.56218620 0.06256172 0.06256172
0.58966154 0.06256172 0.06256172
0.61701177 0.06256172 0.06256172
0.64424525 0.06256172 0.06256172
0.67136907 0.06256172 0.06256172
0.69838931 0.06256172 0.06256172
0.72531129 0.06256172 0.06256172
0.75213970 0.06256172 0.06256172
0.77887873 0.06256172 0.06256172
0.80553213 0.06256172 0.06256172
0.83210332 0.06256172 0.06256172
0.85859541 0.06256172 0.06256172
0.88501126 0.06256172 0.06256172
0.91135350 0.06256172 0.06256172
0.91886608 0.06256172 0.06256172
0.91886608 0.06256172 0.06256172
0.06256172 0.20204439 0.06256172
0.06256172 0.20194747 0.06256172
0.06256172 0.20159009 0.06256172
0.06256172 0.20079788 0.06256172
0.14796613 0.19931138 0.06256172
0.19954287 0.19673257 0.06256172
0.23781138 0.19240960 0.06256172
0.27172054 0.18515478 0.06256172
0.30350904 0.17236273 0.06256172
0.33406920 0.14546491 0.06256172
0.36383652 0.06256172 0.06256172
0.39305058 0.06256172 0.06256172
0.42185440 0.06256172 0.06256172
0.45033873 0.06256172 0.06256172
0.47856406 0.06256172 0.06256172
0.50657234 0.06256172 0.06256172
0.53439378 0.06256172 0.06256172
0.56205076 0.06256172 0.06256172
0.58956039 0.06256172 0.06256172
0.61693605 0.06256172 0.06256172
0.64418847 0.06256172 0.06256172
0.67132645 0.06256172 0.06256172
0.69835731 0.06256172 0.06256172
0.72528727 0.06256172 0.06256172
0.75212169 0.06256172 0.06256172
0.77886523 0.06256172 0.06256172
0.80552204 0.06256172 0.06256172
0.83209579 0.06256172 0.06256172
0.85858980 0.06256172 0.06256172
0.88500709 0.06256172 0.06256172
0.91135042 0.06256172 0.06256172
0.91886608 0.06256172 0.06256172
0.91886608 0.06256172 0.06256172
0.06256172 0.22953724 0.06256172
0.06256172 0.22947481 0.06256172
0.06256172 0.22924496 0.06256172
0.06256172 0.22873748 0.06256172
0.06256172 0.22779287 0.06256172
0.17685820 0.22617807 0.06256172
0.22671538 0.22354089 0.06256172
0.26514697 0.21931937 0.06256172
0.29928725 0.21253603 0.06256172
0.33123190 0.20123060 0.06256172
0.36187302 0.18025335 0.06256172
0.39166368 0.11716453 0.06256172
0.42085991 0.06256172 0.06256172
0.44961742 0.06256172 0.06256172
0.47803622 0.06256172 0.06256172
0.50618339 0.06256172 0.06256172
0.53410559 0.06256172 0.06256172
0.56183632 0.06256172 0.06256172
0.58940030 0.06256172 0.06256172
0.61681625 0.06256172 0.06256172
0.64409868 0.06256172 0.06256172
0.67125907 0.06256172 0.06256172
0.69830673 0.06256172 0.06256172
0.72524931 0.06256172 0.06256172
0.75209321 0.06256172 0.06256172
0.77884390 0.06256172 0.06256172
0.80550608 0.06256172 0.06256172
0.83208388 0.06256172 0.06256172
0.85858094 0.06256172 0.06256172
0.88500052 0.06256172 0.06256172
0.91134555 0.06256172 0.06256172
0.91886608 0.06256172 0.06256172
0.91886608 0.06256172 0.06256172
0.06256172 0.25695591 0.06256172
0.06256172 0.25691425 0.06256172
0.06256172 0.25676101 0.06256172
0.06256172 0.25642338 0.06256172
0.06256172 0.25579762 0.06256172
0.06256172 0.25473602 0.06256172
0.20505446 0.25302468 0.06256172
0.25384648 0.25034437 0.06256172
0.29239824 0.24619564 0.06256172
0.32672494 0.23973777 0.06256172
0.35880216 0.22938092 0.06256172
0.38951534 0.21143630 0.06256172
0.41932898 0.17217545 0.06256172
0.44851163 0.06256172 0.06256172
0.47722933 0.06256172 0.06256172
0.50558999 0.06256172 0.06256172
0.53366655 0.06256172 0.06256172
0.56150997 0.06256172 0.06256172
0.58915685 0.06256172 0.06256172
0.61663416 0.06256172 0.06256172
0.64396224 0.06256172 0.06256172
0.67115673 0.06256172 0.06256172
0.69822993 0.06256172 0.06256172
0.72519167 0.06256172 0.06256172
0.75204999 0.06256172 0.06256172
0.77881152 0.06256172 0.06256172
0.80548186 0.06256172 0.06256172
0.83206580 0.06256172 0.06256172
0.85856748 0.06256172 0.06256172
0.88499053 0.06256172 0.06256172
0.91133817 0.06256172 0.06256172
0.91886608 0.06256172 0.06256172
0.91886608 0.06256172 0.06256172
0.06256172 0.28430962 0.06256172
0.06256172 0.28428109 0.06256172
0.06256172 0.28417616 0.06256172
0.06256172 0.28394529 0.06256172
0.06256172 0.28351842 0.06256172
0.06256172 0.28279736 0.06256172
0.14035139 0.28164334 0.06256172
0.23288087 0.27985694 0.06256172
0.28094127 0.27714360 0.06256172
0.31958303 0.27304940 0.06256172
0.35406061 0.26682859 0.06256172
0.38624896 0.25712789 0.06256172
0.41702388 0.24104741 0.06256172
0.44685731 0.20989944 0.06256172
0.47602743 0.06256172 0.06256172
0.50470876 0.06256172 0.06256172
0.53301594 0.06256172 0.06256172
0.56102708 0.06256172 0.06256172
0.58879703 0.06256172 0.06256172
0.61636526 0.06256172 0.06256172
0.64376088 0.06256172 0.06256172
0.67100575 0.06256172 0.06256172
0.69811665 0.06256172 0.06256172
0.72510669 0.06256172 0.06256172
0.75198626 0.06256172 0.06256172
0.77876379 0.06256172 0.06256172
0.80544617 0.06256172 0.06256172
0.83203917 0.06256172 0.06256172
0.85854766 0.06256172 0.06256172
0.88497582 0.06256172 0.06256172
0.91132729 0.06256172 0.06256172
0.91886608 0.06256172 0.06256172
0.91886608 0.06256172 0.06256172
0.06256172 0.31160546 0.06256172
0.06256172 0.31158551 0.06256172
0.06256172 0.31151220 0.06256172
0.06256172 0.31135099 0.06256172
0.06256172 0.31105338 0.06256172
0.06256172 0.31055197 0.06256172
0.06256172 0.30975292 0.06256172
0.18063974 0.30852442 0.06256172
0.26047876 0.30667832 0.06256172
0.30800369 0.30393903 0.06256172
0.34671325 0.29988693 0.06256172
0.38131301 0.29384518 0.06256172
0.41359332 0.28462215 0.06256172
0.44441931 0.26980120 0.06256172
0.47426775 0.24300351 0.06256172
0.50342436 0.16725497 0.06256172
0.53207066 0.06256172 0.06256172
0.56032708 0.06256172 0.06256172
0.58827627 0.06256172 0.06256172
0.61597655 0.06256172 0.06256172
0.64347005 0.06256172 0.06256172
0.67078783 0.06256172 0.06256172
0.69795324 0.06256172 0.06256172
0.72498413 0.06256172 0.06256172
0.75189439 0.06256172 0.06256172
0.77869499 0.06256172 0.06256172
0.80539473 0.06256172 0.06256172
0.83200079 0.06256172 0.06256172
0.85851909 0.06256172 0.06256172
0.88495462 0.06256172 0.06256172
0.91131162 0.06256172 0.06256172
0.91886608 0.06256172 0.06256172
0.91886608 0.06256172 0.06256172
0.06256172 0.33884904 0.06256172
0.06256172 0.33883487 0.06256172
0.06256172 0.33878282 0.06256172
0.06256172 0.33866841 0.06256172
0.06256172 0.33845740 0.06256172
0.06256172 0.33810248 0.06256172
0.06256172 0.33753838 0.06256172
0.06256172 0.33667477 0.06256172
0.21439052 0.33538539 0.06256172
0.28792087 0.33349104 0.06256172
0.33503683 0.33073102 0.06256172
0.37379735 0.32671211 0.06256172
0.40849562 0.32080903 0.06256172
0.44085081 0.31194581 0.06256172
0.47171737 0.29802578 0.06256172
0.50157520 0.27395844 0.06256172
0.53071602 0.21875330 0.06256172
0.55932721 0.06256172 0.06256172
0.58753418 0.06256172 0.06256172
0.61542358 0.06256172 0.06256172
0.64305684 0.06256172 0.06256172
0.67047850 0.06256172 0.06256172
0.69772143 0.06256172 0.06256172
0.72481038 0.06256172 0.06256172
0.75176419 0.06256172 0.06256172
0.77859752 0.06256172 0.06256172
0.80532187 0.06256172 0.06256172
0.83194643 0.06256172 0.06256172
0.85847864 0.06256172 0.06256172
0.88492461 0.06256172 0.06256172
0.91128943 0.06256172 0.06256172
0.91886608 0.06256172 0.06256172
0.91886608 0.06256172 0.06256172
0.06256172 0.36604493 0.06256172
0.06256172 0.36603474 0.06256172
0.06256172 0.36599731 0.06256172
0.06256172 0.36591506 0.06256172
0.06256172 0.36576346 0.06256172
0.06256172 0.36550872 0.06256172
0.06256172 0.36510457 0.06256172
0.06256172 0.36448750 0.06256172
0.06256172 0.36357003 0.06256172
0.24561096 0.36223042 0.06256172
0.31524909 0.36029666 0.06256172
0.36204324 0.35751987 0.06256172
0.40084152 0.35352751 0.06256172
0.43561850 0.34773367 0.06256172
0.46803332 0.33914770 0.06256172
0.49893032 0.32589596 0.06256172
0.52879150 0.30368930 0.06256172
0.55791342 0.25770512 0.06256172
0.58648842 0.06256172 0.06256172
0.61464622 0.06256172 0.06256172
0.64247699 0.06256172 0.06256172
0.67004498 0.06256172 0.06256172
0.69739689 0.06256172 0.06256172
0.72456728 0.06256172 0.06256172
0.75158214 0.06256172 0.06256172
0.77846128 0.06256172 0.06256172
0.80522006 0.06256172 0.06256172
0.83187049 0.06256172 0.06256172
0.85842214 0.06256172 0.06256172
0.88488270 0.06256172 0.06256172
0.91125844 0.06256172 0.06256172
0.91886608 0.06256172 0.06256172
0.91886608 0.06256172 0.06256172
0.06256172 0.39319693 0.06256172
0.06256172 0.39318953 0.06256172
0.06256172 0.39316233 0.06256172
0.06256172 0.39310258 0.06256172
0.06256172 0.39299250 0.06256172
0.06256172 0.39280766 0.06256172
0.06256172 0.39251474 0.06256172
0.06256172 0.39206831 0.06256172
0.06256172 0.39140635 0.06256172
0.06256172 0.39044373 0.06256172
0.27550695 0.38906243 0.06256172
0.34248956 0.38709626 0.06256172
0.38902502 0.38430583 0.06256172
0.42785047 0.38033488 0.06256172
0.46268931 0.37462802 0.06256172
0.49515007 0.36625876 0.06256172
0.52606789 0.35351426 0.06256172
0.55592618 0.33263844 0.06256172
0.58502554 0.29201976 0.06256172
0.61356254 0.06256172 0.06256172
0.64167069 0.06256172 0.06256172
0.66944328 0.06256172 0.06256172
0.69694705 0.06256172 0.06256172
0.72423068 0.06256172 0.06256172
0.75133024 0.06256172 0.06256172
0.77827289 0.06256172 0.06256172
0.80507933 0.06256172 0.06256172
0.83176556 0.06256172 0.06256172
0.85834409 0.06256172 0.06256172
0.88482480 0.06256172 0.06256172
0.91121565 0.06256172 0.06256172
0.91886608 0.06256172 0.06256172
0.91886608 0.06256172 0.06256172
0.06256172 0.42030826 0.06256172
0.06256172 0.42030283 0.06256172
0.06256172 0.42028291 0.06256172
0.06256172 0.42023914 0.06256172
0.06256172 0.42015851 0.06256172
0.06256172 0.42002321 0.06256172
0.06256172 0.41980895 0.06256172
0.06256172 0.41948281 0.06256172
0.06256172 0.41900011 0.06256172
0.06256172 0.41830007 0.06256172
0.06256172 0.41729955 0.06256172
0.30459808 0.41588356 0.06256172
0.36965962 0.41389066 0.06256172
0.41598397 0.41108909 0.06256172
0.45482789 0.40713550 0.06256172
0.48971404 0.40149822 0.06256172
0.52220835 0.39329960 0.06256172
0.55313785 0.38094506 0.06256172
0.58298700 0.36104845 0.06256172
0.61205979 0.32391106 0.06256172
0.64055651 0.18519067 0.06256172
0.66861396 0.06256172 0.06256172
0.69632822 0.06256172 0.06256172
0.72376827 0.06256172 0.06256172
0.75098456 0.06256172 0.06256172
0.77801456 0.06256172 0.06256172
0.80488648 0.06256172 0.06256172
0.83162183 0.06256172 0.06256172
0.85823721 0.06256172 0.06256172
0.88474555 0.06256172 0.06256172
0.91115709 0.06256172 0.06256172
0.91886608 0.06256172 0.06256172
0.91886608 0.06256172 0.06256172
0.06256172 0.44738166 0.06256172
0.06256172 0.44737766 0.06256172
0.06256172 0.44736295 0.06256172
0.06256172 0.44733067 0.06256172
0.06256172 0.44727121 0.06256172
0.06256172 0.44717146 0.06256172
0.06256172 0.44701359 0.06256172
0.06256172 0.44677348 0.06256172
0.06256172 0.44641857 0.06256172
0.06256172 0.44590483 0.06256172
0.06256172 0.44517255 0.06256172
0.06256172 0.44414023 0.06256172
0.33315214 0.44269541 0.06256172
0.39677135 0.44068050 0.06256172
0.44292159 0.43786985 0.06256172
0.48177672 0.43393031 0.06256172
0.51669745 0.42834865 0.06256172
0.54921404 0.42028443 0.06256172
0.58014655 0.40823085 0.06256172
0.60998032 0.38906478 0.06256172
0.63902232 0.35431531 0.06256172
0.66747610 0.25313578 0.06256172
0.69548138 0.06256172 0.06256172
0.72313673 0.06256172 0.06256172
0.75051313 0.06256172 0.06256172
0.77766264 0.06256172 0.06256172
0.80462398 0.06256172 0.06256172
0.83142631 0.06256172 0.06256172
0.85809188 0.06256172 0.06256172
0.88463783 0.06256172 0.06256172
0.91107750 0.06256172 0.06256172
0.91886608 0.06256172 0.06256172
0.91886608 0.06256172 0.06256172
0.06256172 0.47441951 0.06256172
0.06256172 0.47441655 0.06256172
0.06256172 0.47440564 0.06256172
0.06256172 0.47438169 0.06256172
0.06256172 0.47433760 0.06256172
0.06256172 0.47426364 0.06256172
0.06256172 0.47414663 0.06256172
0.06256172 0.47396878 0.06256172
0.06256172 0.47370612 0.06256172
0.06256172 0.47332642 0.06256172
0.06256172 0.47278622 0.06256172
0.06256172 0.47202675 0.06256172
0.20287478 0.47096787 0.06256172
0.36132336 0.46949919 0.06256172
0.42383346 0.46746624 0.06256172
0.46983924 0.46464824 0.06256172
0.50869936 0.46072002 0.06256172
0.54364337 0.45518250 0.06256172
0.57617187 0.44722336 0.06256172
0.60709915 0.43540075 0.06256172
0.63691141 0.41678011 0.06256172
0.66591829 0.38371155 0.06256172
0.69432621 0.29786392 0.06256172
0.72227753 0.06256172 0.06256172
0.74987303 0.06256172 0.06256172
0.77718552 0.06256172 0.06256172
0.80426848 0.06256172 0.06256172
0.83116174 0.06256172 0.06256172
0.85789536 0.06256172 0.06256172
0.88449223 0.06256172 0.06256172
0.91096997 0.06256172 0.06256172
0.91886608 0.06256172 0.06256172
0.91886608 0.06256172 0.06256172
0.06256172 0.50142392 0.06256172
0.06256172 0.50142171 0.06256172
0.06256172 0.50141358 0.06256172
0.06256172 0.50139574 0.06256172
0.06256172 0.50136289 0.06256172
0.06256172 0.50130780 0.06256172
0.06256172 0.50122067 0.06256172
0.06256172 0.50108829 0.06256172
0.06256172 0.50089291 0.06256172
0.06256172 0.50061073 0.06256172
0.06256172 0.50020982 0.06256172
0.06256172 0.49964725 0.06256172
0.06256172 0.49886500 0.06256172
0.25354915 0.49778411 0.06256172
0.38920758 0.49629585 0.06256172
0.45085244 0.49424829 0.06256172
0.49673806 0.49142442 0.06256172
0.53559779 0.48750518 0.06256172
0.57055492 0.48200216 0.06256172
0.60308575 0.47412375 0.06256172
0.63399995 0.46247527 0.06256172
0.66378468 0.44425613 0.06256172
0.69275201 0.41237361 0.06256172
0.72111098 0.33500469 0.06256172
0.74900631 0.06256172 0.06256172
0.77654077 0.06256172 0.06256172
0.80378880 0.06256172 0.06256172
0.83080517 0.06256172 0.06256172
0.85763073 0.06256172 0.06256172
0.88429629 0.06256172 0.06256172
0.91082533 0.06256172 0.06256172
0.91886608 0.06256172 0.06256172
0.91886608 0.06256172 0.06256172
0.06256172 0.52839671 0.06256172
0.06256172 0.52839506 0.06256172
0.06256172 0.52838898 0.06256172
0.06256172 0.52837564 0.06256172
0.06256172 0.52835108 0.06256172
0.06256172 0.52830990 0.06256172
0.06256172 0.52824478 0.06256172
0.06256172 0.52814587 0.06256172
0.06256172 0.52799996 0.06256172
0.06256172 0.52778937 0.06256172
0.06256172 0.52749045 0.06256172
0.06256172 0.52707158 0.06256172
0.06256172 0.52649026 0.06256172
0.06256172 0.52568914 0.06256172
0.29322949 0.52459022 0.06256172
0.41686775 0.52308616 0.06256172
0.47783326 0.52102695 0.06256172
0.52361908 0.51819849 0.06256172
0.56247366 0.51428623 0.06256172
0.59743469 0.50880940 0.06256172
0.62995888 0.50099103 0.06256172
0.66085249 0.48946916 0.06256172
0.69060378 0.47153514 0.06256172
0.71952710 0.44046929 0.06256172
0.74783389 0.36821943 0.06256172
0.77567102 0.06256172 0.06256172
0.80314305 0.06256172 0.06256172
0.83032588 0.06256172 0.06256172
0.85727542 0.06256172 0.06256172
0.88403344 0.06256172 0.06256172
0.91063142 0.06256172 0.06256172
0.91886608 0.06256172 0.06256172
0.91886608 0.06256172 0.06256172
0.06256172 0.55533954 0.06256172
0.06256172 0.55533830 0.06256172
0.06256172 0.55533375 0.06256172
0.06256172 0.55532374 0.06256172
0.06256172 0.55530533 0.06256172
0.06256172 0.55527446 0.06256172
0.06256172 0.55522565 0.06256172
0.06256172 0.55515154 0.06256172
0.06256172 0.55504224 0.06256172
0.06256172 0.55488456 0.06256172
0.06256172 0.55466092 0.06256172
0.06256172 0.55434783 0.06256172
0.06256172 0.55391393 0.06256172
0.06256172 0.55331712 0.06256172
0.06256172 0.55250064 0.06256172
0.32827448 0.55138726 0.06256172
0.44434698 0.54987071 0.06256172
0.50477980 0.54780249 0.06256172
0.55048322 0.54497057 0.06256172
0.58932838 0.54106352 0.06256172
0.62428481 0.53560563 0.06256172
0.65679395 0.52782927 0.06256172
0.68765975 0.51639314 0.06256172
0.71737178 0.49864663 0.06256172
0.74624663 0.46810581 0.06256172
0.77449793 0.39895184 0.06256172
0.80227451 0.06256172 0.06256172
0.82968255 0.06256172 0.06256172
0.85679926 0.06256172 0.06256172
0.88368160 0.06256172 0.06256172
0.91037209 0.06256172 0.06256172
0.91886608 0.06256172 0.06256172
0.91886608 0.06256172 0.06256172
0.06256172 0.58225388 0.06256172
0.06256172 0.58225294 0.06256172
0.06256172 0.58224952 0.06256172
0.06256172 0.58224201 0.06256172
0.06256172 0.58222818 0.06256172
0.06256172 0.58220499 0.06256172
0.06256172 0.58216833 0.06256172
0.06256172 0.58211268 0.06256172
0.06256172 0.58203062 0.06256172
0.06256172 0.58191229 0.06256172
0.06256172 0.58174454 0.06256172
0.06256172 0.58150987 0.06256172
0.06256172 0.58118497 0.06256172
0.06256172 0.58073872 0.06256172
0.06256172 0.58012938 0.06256172
0.06256172 0.57930069 0.06256172
0.36073891 0.57817603 0.06256172
0.47167569 0.57665000 0.06256172
0.53169510 0.57457511 0.06256172
0.57733130 0.57174074 0.06256172
0.61616315 0.56783733 0.06256172
0.65110708 0.56239189 0.06256172
0.68359316 0.55464150 0.06256172
0.71442417 0.54325503 0.06256172
0.74409127 0.52561126 0.06256172
0.77291317 0.49535291 0.06256172
0.80110560 0.42789615 0.06256172
0.82881917 0.06256172 0.06256172
0.85616156 0.06256172 0.06256172
0.88321113 0.06256172 0.06256172
0.91002573 0.06256172 0.06256172
0.91886608 0.06256172 0.06256172
0.91886608 0.06256172 0.06256172
0.06256172 0.60914105 0.06256172
0.06256172 0.60914035 0.06256172
0.06256172 0.60913777 0.06256172
0.06256172 0.60913212 0.06256172
0.06256172 0.60912172 0.06256172
0.06256172 0.60910428 0.06256172
0.06256172 0.60907671 0.06256172
0.06256172 0.60903485 0.06256172
0.06256172 0.60897316 0.06256172
0.06256172 0.60888421 0.06256172
0.06256172 0.60875817 0.06256172
0.06256172 0.60858193 0.06256172
0.06256172 0.60833812 0.06256172
0.06256172 0.60800358 0.06256172
0.06256172 0.60754745 0.06256172
0.06256172 0.60692829 0.06256172
0.06256172 0.60609025 0.06256172
0.39154555 0.60495723 0.06256172
0.49887586 0.60342441 0.06256172
0.55858165 0.60134500 0.06256172
0.60416406 0.59850911 0.06256172
0.64297899 0.59460789 0.06256172
0.67790300 0.58916899 0.06256172
0.71035838 0.58142999 0.06256172
0.74114784 0.57006046 0.06256172
0.77076438 0.55244327 0.06256172
0.79952887 0.52225532 0.06256172
0.82765901 0.45541296 0.06256172
0.85530707 0.06256172 0.06256172
0.88258205 0.06256172 0.06256172
0.90956334 0.06256172 0.06256172
0.91886608 0.06256172 0.06256172
0.91886608 0.06256172 0.06256172
0.06256172 0.63600226 0.06256172
0.06256172 0.63600173 0.06256172
0.06256172 0.63599979 0.06256172
0.06256172 0.63599554 0.06256172
0.06256172 0.63598771 0.06256172
0.06256172 0.63597458 0.06256172
0.06256172 0.63595383 0.06256172
0.06256172 0.63592233 0.06256172
0.06256172 0.63587590 0.06256172
0.06256172 0.63580898 0.06256172
0.06256172 0.63571417 0.06256172
0.06256172 0.63558167 0.06256172
0.06256172 0.63539846 0.06256172
0.06256172 0.63514726 0.06256172
0.06256172 0.63480512 0.06256172
0.06256172 0.63434136 0.06256172
0.06256172 0.63371487 0.06256172
0.06256172 0.63287011 0.06256172
0.42118233 0.63173139 0.06256172
0.52596359 0.63019427 0.06256172
0.58544142 0.62811231 0.06256172
0.63098217 0.62527574 0.06256172
0.66977681 0.62137539 0.06256172
0.70467382 0.61593757 0.06256172
0.73709114 0.60819641 0.06256172
0.76783244 0.59681336 0.06256172
0.79739290 0.57915206 0.06256172
