src/ffmpeg_scripts/luts/rec2020-sRGB_-0p67.cube
TITLE "rec2020-srgb_-0p67"
LUT_3D_SIZE 9
# PQ (EOTF Only)/Rec2020 -> PQ (EOTF Only)/Rec709, CineEI Shift -0.67, Black Level 0.00% IRE, Input 100% -> Output 109% - Created with LUTCalc v4.01 by Ben Turley October 2020
0.06256172 0.06256172 0.06256172
0.17133657 0.06256172 0.06256172
0.27938669 0.06256172 0.06256172
0.38709522 0.06256172 0.06256172
0.49456686 0.06256172 0.06256172
0.60185484 0.06256172 0.06256172
0.70899195 0.06256172 0.06256172
0.81600056 0.06256172 0.06256172
0.91886608 0.06256172 0.06256172
0.06256172 0.15721489 0.06256172
0.15531876 0.15319448 0.06256172
0.27684322 0.08804814 0.06256172
0.38644117 0.06256172 0.06256172
0.49437131 0.06256172 0.06256172
0.60179277 0.06256172 0.06256172
0.70897199 0.06256172 0.06256172
0.81599428 0.06256172 0.06256172
0.91886608 0.06256172 0.06256172
0.06256172 0.25670423 0.06256172
0.06256172 0.25597416 0.06256172
0.25359731 0.25009806 0.06256172
0.38124495 0.21704409 0.06256172
0.49285580 0.06256172 0.06256172
0.60131479 0.06256172 0.06256172
0.70881862 0.06256172 0.06256172
0.81594601 0.06256172 0.06256172
0.91886608 0.06256172 0.06256172
0.06256172 0.35861026 0.06256172
0.06256172 0.35841653 0.06256172
0.06256172 0.35691371 0.06256172
0.35465843 0.35019234 0.06256172
0.48610918 0.32116444 0.06256172
0.59925254 0.06256172 0.06256172
0.70816287 0.06256172 0.06256172
0.81574024 0.06256172 0.06256172
0.91886608 0.06256172 0.06256172
0.06256172 0.46223919 0.06256172
0.06256172 0.46218020 0.06256172
0.06256172 0.46172590 0.06256172
0.06256172 0.45976607 0.06256172
0.45771123 0.45258087 0.06256172
0.59168908 0.42471117 0.06256172
0.70584031 0.06256172 0.06256172
0.81501921 0.06256172 0.06256172
0.91886608 0.06256172 0.06256172
0.06256172 0.56723030 0.06256172
0.06256172 0.56721131 0.06256172
0.06256172 0.56706539 0.06256172
0.06256172 0.56644165 0.06256172
0.06256172 0.56423422 0.06256172
0.56234322 0.55679445 0.06256172
0.69799095 0.52894634 0.06256172
0.81267094 0.06256172 0.06256172
0.91886608 0.06256172 0.06256172
0.06256172 0.67335797 0.06256172
0.06256172 0.67335180 0.06256172
0.06256172 0.67330437 0.06256172
0.06256172 0.67310223 0.06256172
0.06256172 0.67239410 0.06256172
0.06256172 0.67008991 0.06256172
0.66829582 0.66253821 0.06256172
0.80495138 0.63396248 0.06256172
0.91886608 0.06256172 0.06256172
0.06256172 0.78046621 0.06256172
0.06256172 0.78046424 0.06256172
0.06256172 0.78044917 0.06256172
0.06256172 0.78038496 0.06256172
0.06256172 0.78016076 0.06256172
0.06256172 0.77943907 0.06256172
0.06256172 0.77715670 0.06256172
0.77538993 0.76960746 0.06256172
0.91248053 0.73956995 0.06256172
0.06256172 0.88844001 0.06256172
0.06256172 0.88843942 0.06256172
0.06256172 0.88843487 0.06256172
0.06256172 0.88841550 0.06256172
0.06256172 0.88834793 0.06256172
0.06256172 0.88813121 0.06256172
0.06256172 0.88745342 0.06256172
0.06256172 0.88529265 0.06256172
0.88349329 0.87785083 0.06256172
0.06256172 0.06256172 0.15677415
0.16960502 0.06256172 0.15620364
0.27907611 0.06256172 0.15157893
0.38701441 0.06256172 0.12354508
0.49454264 0.06256172 0.06256172
0.60184715 0.06256172 0.06256172
0.70898948 0.06256172 0.06256172
0.81599978 0.06256172 0.06256172
0.91886608 0.06256172 0.06256172
0.06256172 0.15695568 0.15352349
0.15291239 0.15291239 0.15291239
0.27652168 0.08598371 0.14793188
0.38635974 0.06256172 0.11594284
0.49434704 0.06256172 0.06256172
0.60178507 0.06256172 0.06256172
0.70896952 0.06256172 0.06256172
0.81599350 0.06256172 0.06256172
0.91886608 0.06256172 0.06256172
0.06256172 0.25665553 0.11407975
0.06256172 0.25592495 0.11241983
0.25315177 0.25004451 0.09527112
0.38115840 0.21695571 0.06256172
0.49283112 0.06256172 0.06256172
0.60130705 0.06256172 0.06256172
0.70881614 0.06256172 0.06256172
0.81594523 0.06256172 0.06256172
0.91886608 0.06256172 0.06256172
0.06256172 0.35859729 0.06256172
0.06256172 0.35840353 0.06256172
0.06256172 0.35690047 0.06256172
0.35453964 0.35017798 0.06256172
0.48608263 0.32114386 0.06256172
0.59924463 0.06256172 0.06256172
0.70816037 0.06256172 0.06256172
0.81573946 0.06256172 0.06256172
0.91886608 0.06256172 0.06256172
0.06256172 0.46223524 0.06256172
0.06256172 0.46217624 0.06256172
0.06256172 0.46172193 0.06256172
0.06256172 0.45976201 0.06256172
0.45767495 0.45257647 0.06256172
0.59168051 0.42470516 0.06256172
0.70583775 0.06256172 0.06256172
0.81501843 0.06256172 0.06256172
0.91886608 0.06256172 0.06256172
0.06256172 0.56722903 0.06256172
0.06256172 0.56721004 0.06256172
0.06256172 0.56706412 0.06256172
0.06256172 0.56644037 0.06256172
0.06256172 0.56423290 0.06256172
0.56233152 0.55679303 0.06256172
0.69798817 0.52894442 0.06256172
0.81267013 0.06256172 0.06256172
0.91886608 0.06256172 0.06256172
0.06256172 0.67335756 0.06256172
0.06256172 0.67335138 0.06256172
0.06256172 0.67330396 0.06256172
0.06256172 0.67310181 0.06256172
0.06256172 0.67239368 0.06256172
0.06256172 0.67008949 0.06256172
0.66829201 0.66253774 0.06256172
0.80495050 0.63396185 0.06256172
0.91886608 0.06256172 0.06256172
0.06256172 0.78046608 0.06256172
0.06256172 0.78046411 0.06256172
0.06256172 0.78044903 0.06256172
0.06256172 0.78038483 0.06256172
0.06256172 0.78016063 0.06256172
0.06256172 0.77943894 0.06256172
0.06256172 0.77715656 0.06256172
0.77538871 0.76960731 0.06256172
0.91248027 0.73956974 0.06256172
0.06256172 0.88843997 0.06256172
0.06256172 0.88843938 0.06256172
0.06256172 0.88843483 0.06256172
0.06256172 0.88841546 0.06256172
0.06256172 0.88834789 0.06256172
0.06256172 0.88813117 0.06256172
0.06256172 0.88745338 0.06256172
0.06256172 0.88529261 0.06256172
0.88349293 0.87785078 0.06256172
0.06256172 0.06256172 0.25598342
0.15386015 0.06256172 0.25587640
0.27664654 0.06256172 0.25504916
0.38639133 0.06256172 0.25141347
0.49435645 0.06256172 0.23698128
0.60178806 0.06256172 0.11580807
0.70897048 0.06256172 0.06256172
0.81599380 0.06256172 0.06256172
0.91886608 0.06256172 0.06256172
0.06256172 0.15491730 0.25538834
0.12820085 0.15068770 0.25528041
0.27400441 0.06256172 0.25444603
0.38573186 0.06256172 0.25077782
0.49416046 0.06256172 0.23619436
0.60172594 0.06256172 0.10593202
0.70895052 0.06256172 0.06256172
0.81598751 0.06256172 0.06256172
0.91886608 0.06256172 0.06256172
0.06256172 0.25628041 0.25064132
0.06256172 0.25554589 0.25052576
0.24963188 0.24963188 0.24963188
0.38049093 0.21627285 0.24569113
0.49264144 0.06256172 0.22981861
0.60124762 0.06256172 0.06256172
0.70879710 0.06256172 0.06256172
0.81593924 0.06256172 0.06256172
0.91886608 0.06256172 0.06256172
0.06256172 0.35849761 0.22562576
0.06256172 0.35830362 0.22545772
0.06256172 0.35679873 0.22415258
0.35362178 0.35006761 0.21827814
0.48587847 0.32098570 0.19187322
0.59918389 0.06256172 0.06256172
0.70814121 0.06256172 0.06256172
0.81573346 0.06256172 0.06256172
0.91886608 0.06256172 0.06256172
0.06256172 0.46220487 0.06256172
0.06256172 0.46214586 0.06256172
0.06256172 0.46169139 0.06256172
0.06256172 0.45973080 0.06256172
0.45739594 0.45254268 0.06256172
0.59161470 0.42465898 0.06256172
0.70581811 0.06256172 0.06256172
0.81501238 0.06256172 0.06256172
0.91886608 0.06256172 0.06256172
0.06256172 0.56721925 0.06256172
0.06256172 0.56720027 0.06256172
0.06256172 0.56705432 0.06256172
0.06256172 0.56643051 0.06256172
0.06256172 0.56422282 0.06256172
0.56224165 0.55678211 0.06256172
0.69796682 0.52892971 0.06256172
0.81266393 0.06256172 0.06256172
0.91886608 0.06256172 0.06256172
0.06256172 0.67335438 0.06256172
0.06256172 0.67334820 0.06256172
0.06256172 0.67330078 0.06256172
0.06256172 0.67309863 0.06256172
0.06256172 0.67239047 0.06256172
0.06256172 0.67008620 0.06256172
0.66826275 0.66253418 0.06256172
0.80494375 0.63395703 0.06256172
0.91886608 0.06256172 0.06256172
0.06256172 0.78046506 0.06256172
0.06256172 0.78046310 0.06256172
0.06256172 0.78044802 0.06256172
0.06256172 0.78038381 0.06256172
0.06256172 0.78015961 0.06256172
0.06256172 0.77943791 0.06256172
0.06256172 0.77715551 0.06256172
0.77537940 0.76960617 0.06256172
0.91247825 0.73956817 0.06256172
0.06256172 0.88843967 0.06256172
0.06256172 0.88843907 0.06256172
0.06256172 0.88843453 0.06256172
0.06256172 0.88841515 0.06256172
0.06256172 0.88834759 0.06256172
0.06256172 0.88813086 0.06256172
0.06256172 0.88745307 0.06256172
0.06256172 0.88529229 0.06256172
0.88349011 0.87785044 0.06256172
0.06256172 0.06256172 0.35769455
0.06256172 0.06256172 0.35766604
0.26528812 0.06256172 0.35744674
0.38368692 0.06256172 0.35650667
0.49355964 0.06256172 0.35314334
0.60153610 0.06256172 0.34134267
0.70888957 0.06256172 0.28672232
0.81596833 0.06256172 0.06256172
0.91886608 0.06256172 0.06256172
0.06256172 0.14508459 0.35753641
0.06256172 0.13976832 0.35750784
0.26218598 0.06256172 0.35728813
0.38300617 0.06256172 0.35634624
0.49336195 0.06256172 0.35297626
0.60147382 0.06256172 0.34114970
0.70886959 0.06256172 0.28633370
0.81596204 0.06256172 0.06256172
0.91886608 0.06256172 0.06256172
0.06256172 0.25466068 0.35631195
0.06256172 0.25390884 0.35628295
0.23220554 0.24784717 0.35605996
0.37758940 0.21327957 0.35510395
0.49182957 0.06256172 0.35168189
0.60099422 0.06256172 0.33965248
0.70871604 0.06256172 0.28328010
0.81591376 0.06256172 0.06256172
0.91886608 0.06256172 0.06256172
0.06256172 0.35807193 0.35088677
0.06256172 0.35787694 0.35085581
0.06256172 0.35636423 0.35061767
0.34959612 0.34959612 0.34959612
0.48500425 0.32030886 0.34593204
0.59892488 0.06256172 0.33294992
0.70805958 0.06256172 0.26864646
0.81570791 0.06256172 0.06256172
0.91886608 0.06256172 0.06256172
0.06256172 0.46207550 0.32854063
0.06256172 0.46201640 0.32849986
0.06256172 0.46156128 0.32818609
0.06256172 0.45959784 0.32683643
0.45619846 0.45239869 0.32194393
0.59133405 0.42446216 0.30385036
0.70573443 0.06256172 0.13686200
0.81498663 0.06256172 0.06256172
0.91886608 0.06256172 0.06256172
0.06256172 0.56717764 0.06256172
0.06256172 0.56715864 0.06256172
0.06256172 0.56701264 0.06256172
0.06256172 0.56638855 0.06256172
0.06256172 0.56417985 0.06256172
0.56185811 0.55673560 0.06256172
0.69787585 0.52886708 0.06256172
0.81263751 0.06256172 0.06256172
0.91886608 0.06256172 0.06256172
0.06256172 0.67334085 0.06256172
0.06256172 0.67333467 0.06256172
0.06256172 0.67328724 0.06256172
0.06256172 0.67308506 0.06256172
0.06256172 0.67237680 0.06256172
0.06256172 0.67007219 0.06256172
0.66813808 0.66251901 0.06256172
0.80491500 0.63393651 0.06256172
0.91886608 0.06256172 0.06256172
0.06256172 0.78046076 0.06256172
0.06256172 0.78045880 0.06256172
0.06256172 0.78044372 0.06256172
0.06256172 0.78037951 0.06256172
0.06256172 0.78015530 0.06256172
0.06256172 0.77943356 0.06256172
0.06256172 0.77715105 0.06256172
0.77533972 0.76960133 0.06256172
0.91246965 0.73956149 0.06256172
0.06256172 0.88843837 0.06256172
0.06256172 0.88843778 0.06256172
0.06256172 0.88843323 0.06256172
0.06256172 0.88841386 0.06256172
0.06256172 0.88834629 0.06256172
0.06256172 0.88812956 0.06256172
0.06256172 0.88745175 0.06256172
0.06256172 0.88529095 0.06256172
0.88347813 0.87784897 0.06256172
0.06256172 0.06256172 0.46119095
0.06256172 0.06256172 0.46118225
0.19747952 0.06256172 0.46111546
0.37352474 0.06256172 0.46083056
0.49072651 0.06256172 0.45983027
0.60065241 0.06256172 0.45655032
0.70860693 0.06256172 0.44550744
0.81587948 0.06256172 0.39788393
0.91886608 0.06256172 0.06256172
0.06256172 0.06256172 0.46114276
0.06256172 0.06256172 0.46113406
0.18819893 0.06256172 0.46106723
0.37275707 0.06256172 0.46078218
0.49052262 0.06256172 0.45978135
0.60058955 0.06256172 0.45649959
0.70858690 0.06256172 0.44545009
0.81587318 0.06256172 0.39778549
0.91886608 0.06256172 0.06256172
0.06256172 0.24869944 0.46077184
0.06256172 0.24787961 0.46076311
0.06256172 0.24123361 0.46069600
0.36661724 0.20153262 0.46040978
0.48894176 0.06256172 0.45940480
0.60010542 0.06256172 0.45610909
0.70843289 0.06256172 0.44500845
0.81582485 0.06256172 0.39702582
0.91886608 0.06256172 0.06256172
0.06256172 0.35657060 0.45917564
0.06256172 0.35637205 0.45916675
0.06256172 0.35483138 0.45909845
0.33377617 0.34793092 0.45880712
0.48188960 0.31790281 0.45778408
0.59801631 0.06256172 0.45442758
0.70777443 0.06256172 0.44310372
0.81561881 0.06256172 0.39371507
0.91886608 0.06256172 0.06256172
0.06256172 0.46162301 0.45337952
0.06256172 0.46156362 0.45337004
0.06256172 0.46110621 0.45329721
0.06256172 0.45913277 0.45298651
0.45189490 0.45189490 0.45189490
0.59034903 0.42377253 0.44830721
0.70544213 0.06256172 0.43612708
0.81489682 0.06256172 0.38106048
0.91886608 0.06256172 0.06256172
0.06256172 0.56703241 0.43181313
0.06256172 0.56701338 0.43180106
0.06256172 0.56686715 0.43170839
0.06256172 0.56624210 0.43131277
0.06256172 0.56402992 0.42991962
0.56050862 0.55657329 0.42530487
0.69755804 0.52864839 0.40917537
0.81254534 0.06256172 0.31919126
0.91886608 0.06256172 0.06256172
0.06256172 0.67329366 0.23953993
0.06256172 0.67328748 0.23940391
0.06256172 0.67324003 0.23835015
0.06256172 0.67303775 0.23366839
0.06256172 0.67232913 0.21407707
0.06256172 0.67002334 0.06256172
0.66770217 0.66246609 0.06256172
0.80481469 0.63386491 0.06256172
0.91886608 0.06256172 0.06256172
0.06256172 0.78044576 0.06256172
0.06256172 0.78044380 0.06256172
0.06256172 0.78042872 0.06256172
0.06256172 0.78036449 0.06256172
0.06256172 0.78014025 0.06256172
0.06256172 0.77941840 0.06256172
0.06256172 0.77713551 0.06256172
0.77520128 0.76958446 0.06256172
0.91243967 0.73953817 0.06256172
0.06256172 0.88843384 0.06256172
0.06256172 0.88843325 0.06256172
0.06256172 0.88842870 0.06256172
0.06256172 0.88840933 0.06256172
0.06256172 0.88834176 0.06256172
0.06256172 0.88812502 0.06256172
0.06256172 0.88744718 0.06256172
0.06256172 0.88528625 0.06256172
0.88343633 0.87784387 0.06256172
0.06256172 0.06256172 0.56609976
0.06256172 0.06256172 0.56609696
0.06256172 0.06256172 0.56607546
0.32883494 0.06256172 0.56598386
0.48101616 0.06256172 0.56566382
0.59776548 0.06256172 0.56463151
0.70769605 0.06256172 0.56134495
0.81559434 0.06256172 0.55021903
0.91886608 0.06256172 0.50052157
0.06256172 0.06256172 0.56608424
0.06256172 0.06256172 0.56608144
0.06256172 0.06256172 0.56605993
0.32750918 0.06256172 0.56596832
0.48078947 0.06256172 0.56564823
0.59770067 0.06256172 0.56461574
0.70767581 0.06256172 0.56132863
0.81558803 0.06256172 0.55020065
0.91886608 0.06256172 0.50049022
0.06256172 0.22506480 0.56596500
0.06256172 0.22389255 0.56596220
0.06256172 0.21409092 0.56594066
0.31651807 0.12129428 0.56584893
0.47902980 0.06256172 0.56552843
0.59720147 0.06256172 0.56449462
0.70752030 0.06256172 0.56120320
0.81553954 0.06256172 0.55005942
0.91886608 0.06256172 0.50024916
0.06256172 0.35157090 0.56545569
0.06256172 0.35135996 0.56545287
0.06256172 0.34972196 0.56543122
0.23370010 0.34235836 0.56533899
0.47113462 0.30966050 0.56501675
0.59504639 0.06256172 0.56397727
0.70685540 0.06256172 0.56066735
0.81533285 0.06256172 0.54945580
0.91886608 0.06256172 0.49921588
0.06256172 0.46015853 0.56365823
0.06256172 0.46009816 0.56365536
0.06256172 0.45963327 0.56363329
0.06256172 0.45762708 0.56353928
0.43653685 0.45026230 0.56321080
0.58712353 0.42152708 0.56215104
0.70449989 0.06256172 0.55877499
0.81460858 0.06256172 0.54732050
0.91886608 0.06256172 0.49552027
0.06256172 0.56656581 0.55765904
0.06256172 0.56654669 0.55765598
0.06256172 0.56639973 0.55763245
0.06256172 0.56577154 0.55753224
0.06256172 0.56354814 0.55718203
0.55605160 0.55605160 0.55605160
0.69653296 0.52794456 0.55244456
0.81224955 0.06256172 0.54013489
0.91886608 0.06256172 0.48257434
0.06256172 0.67314239 0.53608002
0.06256172 0.67313621 0.53607616
0.06256172 0.67308867 0.53604654
0.06256172 0.67288607 0.53592033
0.06256172 0.67217631 0.53547901
0.06256172 0.66986674 0.53405148
0.66629247 0.66229643 0.52946463
0.80449269 0.63363527 0.51340761
0.91886608 0.06256172 0.42377945
0.06256172 0.78039771 0.37333467
0.06256172 0.78039574 0.37331101
0.06256172 0.78038065 0.37312911
0.06256172 0.78031640 0.37235035
0.06256172 0.78009203 0.36957776
0.06256172 0.77936980 0.36002725
0.06256172 0.77708569 0.32030859
0.77475652 0.76953041 0.06256172
0.91234358 0.73946348 0.06256172
0.06256172 0.88841934 0.06256172
0.06256172 0.88841875 0.06256172
0.06256172 0.88841420 0.06256172
0.06256172 0.88839483 0.06256172
0.06256172 0.88832725 0.06256172
0.06256172 0.88811047 0.06256172
0.06256172 0.88743252 0.06256172
0.06256172 0.88527123 0.06256172
0.88330235 0.87782752 0.06256172
0.06256172 0.06256172 0.67218767
0.06256172 0.06256172 0.67218676
0.06256172 0.06256172 0.67217976
0.06256172 0.06256172 0.67214998
0.44176889 0.06256172 0.67204607
0.58817294 0.06256172 0.67171253
0.70480395 0.06256172 0.67066711
0.81470138 0.06256172 0.66731054
0.91886608 0.06256172 0.65544995
0.06256172 0.06256172 0.67218262
0.06256172 0.06256172 0.67218171
0.06256172 0.06256172 0.67217471
0.06256172 0.06256172 0.67214493
0.44141895 0.06256172 0.67204101
0.58810119 0.06256172 0.67170746
0.70478308 0.06256172 0.67066198
0.81469500 0.06256172 0.66730522
0.91886608 0.06256172 0.65544392
0.06256172 0.06256172 0.67214385
0.06256172 0.06256172 0.67214294
0.06256172 0.06256172 0.67213594
0.06256172 0.06256172 0.67210614
0.43868520 0.06256172 0.67200218
0.58754842 0.06256172 0.67166849
0.70462271 0.06256172 0.67062258
0.81464604 0.06256172 0.66726439
0.91886608 0.06256172 0.65539764
0.06256172 0.33372198 0.67197862
0.06256172 0.33345933 0.67197771
0.06256172 0.33141341 0.67197070
0.06256172 0.32206681 0.67194085
0.42600682 0.27626837 0.67183671
0.58515834 0.06256172 0.67150243
0.70393691 0.06256172 0.67045467
0.81443731 0.06256172 0.66709040
0.91886608 0.06256172 0.65520034
0.06256172 0.45544389 0.67140034
0.06256172 0.45538029 0.67139942
0.06256172 0.45489042 0.67139236
0.06256172 0.45277476 0.67136233
0.35727782 0.44498405 0.67125755
0.57631774 0.41415014 0.67092121
0.70150616 0.06256172 0.66986694
0.81370584 0.06256172 0.66648130
0.91886608 0.06256172 0.65450928
0.06256172 0.56509897 0.66952418
0.06256172 0.56507954 0.66952324
0.06256172 0.56493027 0.66951605
0.06256172 0.56429217 0.66948541
0.06256172 0.56203307 0.66937853
0.54065071 0.55440955 0.66903542
0.69327006 0.52571994 0.66795977
0.81132300 0.06256172 0.66450379
0.91886608 0.06256172 0.65226155
0.06256172 0.67267016 0.66343605
0.06256172 0.67266394 0.66343505
0.06256172 0.67261617 0.66342737
0.06256172 0.67241254 0.66339470
0.06256172 0.67169920 0.66328069
0.06256172 0.66937779 0.66291466
0.66176658 0.66176658 0.66176658
0.80348348 0.63291714 0.65807188
0.91886608 0.06256172 0.64490504
0.06256172 0.78024802 0.64131089
0.06256172 0.78024606 0.64130962
0.06256172 0.78023094 0.64129993
0.06256172 0.78016658 0.64125863
0.06256172 0.77994185 0.64111453
0.06256172 0.77921844 0.64065156
0.06256172 0.77693053 0.63919637
0.77335879 0.76936201 0.63448062
0.91204392 0.73923067 0.61722532
0.06256172 0.88837422 0.45375246
0.06256172 0.88837363 0.45374302
0.06256172 0.88836907 0.45367049
0.06256172 0.88834969 0.45336108
0.06256172 0.88828207 0.45227403
0.06256172 0.88806518 0.44870172
0.06256172 0.88738688 0.43657894
0.06256172 0.88522446 0.38190770
0.88288414 0.87777662 0.06256172
0.06256172 0.06256172 0.77929327
0.06256172 0.06256172 0.77929299
0.06256172 0.06256172 0.77929076
0.06256172 0.06256172 0.77928129
0.06256172 0.06256172 0.77924826
0.54956739 0.06256172 0.77914239
0.69510750 0.06256172 0.77881221
0.81184198 0.06256172 0.77776873
0.91886608 0.06256172 0.77428034
0.06256172 0.06256172 0.77929167
0.06256172 0.06256172 0.77929138
0.06256172 0.06256172 0.77928915
0.06256172 0.06256172 0.77927968
0.06256172 0.06256172 0.77924665
0.54945922 0.06256172 0.77914078
0.69508437 0.06256172 0.77881060
0.81183540 0.06256172 0.77776710
0.91886608 0.06256172 0.77427865
0.06256172 0.06256172 0.77927934
0.06256172 0.06256172 0.77927905
0.06256172 0.06256172 0.77927682
0.06256172 0.06256172 0.77926735
0.06256172 0.06256172 0.77923431
0.54862441 0.06256172 0.77912843
0.69490656 0.06256172 0.77879820
0.81178488 0.06256172 0.77775456
0.91886608 0.06256172 0.77426563
0.06256172 0.20035005 0.77922683
0.06256172 0.19859289 0.77922654
0.06256172 0.18296007 0.77922431
0.06256172 0.06256172 0.77921483
0.06256172 0.06256172 0.77918178
0.54498502 0.06256172 0.77907584
0.69414585 0.06256172 0.77874542
0.81156947 0.06256172 0.77770118
0.91886608 0.06256172 0.77421018
0.06256172 0.43881529 0.77904353
0.06256172 0.43873875 0.77904324
0.06256172 0.43814879 0.77904101
0.06256172 0.43559276 0.77903151
0.06256172 0.42605973 0.77899839
0.53106036 0.38587923 0.77889224
0.69144473 0.06256172 0.77856116
0.81081451 0.06256172 0.77751482
0.91886608 0.06256172 0.77401664
0.06256172 0.56034323 0.77845406
0.06256172 0.56032280 0.77845377
0.06256172 0.56016577 0.77845152
0.06256172 0.55949436 0.77844196
0.06256172 0.55711540 0.77840863
0.46321858 0.54906372 0.77830180
0.68223330 0.51837506 0.77796859
0.80835382 0.06256172 0.77691547
0.91886608 0.06256172 0.77339407
0.06256172 0.67117327 0.77659544
0.06256172 0.67116695 0.77659514
0.06256172 0.67111842 0.77659285
0.06256172 0.67091154 0.77658310
0.06256172 0.67018672 0.77654908
0.06256172 0.66782736 0.77644007
0.64597526 0.66008492 0.77610007
0.80024339 0.63062838 0.77502528
0.91845447 0.06256172 0.77142965
0.06256172 0.77977690 0.77050979
0.06256172 0.77977492 0.77050947
0.06256172 0.77975973 0.77050703
0.06256172 0.77969504 0.77049661
0.06256172 0.77946915 0.77046028
0.06256172 0.77874201 0.77034384
0.06256172 0.77644211 0.76998060
0.76883178 0.76883178 0.76883178
0.91109710 0.73849659 0.76498189
0.06256172 0.88823251 0.74731532
0.06256172 0.88823192 0.74731491
0.06256172 0.88822736 0.74731177
0.06256172 0.88820794 0.74729839
0.06256172 0.88814022 0.74725174
0.06256172 0.88792298 0.74710220
0.06256172 0.88724357 0.74663534
0.06256172 0.88507757 0.74515546
0.88155922 0.87761677 0.74015775
0.06256172 0.06256172 0.88729757
0.06256172 0.06256172 0.88729748
0.06256172 0.06256172 0.88729681
0.06256172 0.06256172 0.88729395
0.06256172 0.06256172 0.88728398
0.06256172 0.06256172 0.88725204
0.65400285 0.06256172 0.88715260
0.80183723 0.06256172 0.88683993
0.91886608 0.06256172 0.88581216
0.06256172 0.06256172 0.88729708
0.06256172 0.06256172 0.88729700
0.06256172 0.06256172 0.88729632
0.06256172 0.06256172 0.88729346
0.06256172 0.06256172 0.88728349
0.06256172 0.06256172 0.88725156
0.65396709 0.06256172 0.88715212
0.80182989 0.06256172 0.88683945
0.91886608 0.06256172 0.88581166
0.06256172 0.06256172 0.88729336
0.06256172 0.06256172 0.88729327
0.06256172 0.06256172 0.88729260
0.06256172 0.06256172 0.88728974
0.06256172 0.06256172 0.88727977
0.06256172 0.06256172 0.88724784
0.65369206 0.06256172 0.88714839
0.80177351 0.06256172 0.88683570
0.91886253 0.06256172 0.88580788
0.06256172 0.06256172 0.88727751
0.06256172 0.06256172 0.88727743
0.06256172 0.06256172 0.88727675
0.06256172 0.06256172 0.88727389
0.06256172 0.06256172 0.88726392
0.06256172 0.06256172 0.88723198
0.65251225 0.06256172 0.88713252
0.80153311 0.06256172 0.88681977
0.91879810 0.06256172 0.88579176
0.06256172 0.33850326 0.88722225
0.06256172 0.33825572 0.88722216
0.06256172 0.33632926 0.88722149
0.06256172 0.32757065 0.88721862
0.06256172 0.28598363 0.88720865
0.06256172 0.06256172 0.88717668
0.64828008 0.06256172 0.88707716
0.80069004 0.06256172 0.88676422
0.91857308 0.06256172 0.88573555
0.06256172 0.54290593 0.88704501
0.06256172 0.54288132 0.88704493
0.06256172 0.54269217 0.88704425
0.06256172 0.54188262 0.88704138
0.06256172 0.53900424 0.88703139
0.06256172 0.52913990 0.88699936
0.63329160 0.48932816 0.88689963
0.79793663 0.06256172 0.88658606
0.91784848 0.06256172 0.88555529
0.06256172 0.66611846 0.88649125
0.06256172 0.66611179 0.88649116
0.06256172 0.66606059 0.88649049
0.06256172 0.66584231 0.88648760
0.06256172 0.66507737 0.88647754
0.06256172 0.66258515 0.88644531
0.56098802 0.65438141 0.88634495
0.78879872 0.62275219 0.88602939
0.91555413 0.06256172 0.88499203
0.06256172 0.77822307 0.88473115
0.06256172 0.77822105 0.88473106
0.06256172 0.77820561 0.88473037
0.06256172 0.77813982 0.88472743
0.06256172 0.77791008 0.88471716
0.06256172 0.77717050 0.88468428
0.06256172 0.77483060 0.88458189
0.75230756 0.76708067 0.88425992
0.90793450 0.73606098 0.88320137
0.06256172 0.88776866 0.87873185
0.06256172 0.88776806 0.87873175
0.06256172 0.88776348 0.87873101
0.06256172 0.88774396 0.87872786
0.06256172 0.88767587 0.87871687
0.06256172 0.88745748 0.87868168
0.06256172 0.88677445 0.87857206
0.06256172 0.88459672 0.87822733
0.87709332 0.87709332 0.87709332
