src/ffmpeg_scripts/luts/rec2020-sRGB_-2p33.cube
TITLE "rec2020-srgb_-2p33"
LUT_3D_SIZE 9
# PQ (EOTF Only)/Rec2020 -> PQ (EOTF Only)/Rec709, CineEI Shift -2.33, Black Level 0.00% IRE, Input 100% -> Output 109% - Created with LUTCalc v4.01 by Ben Turley October 2020
0.06256172 0.06256172 0.06256172
0.13287955 0.06256172 0.06256172
0.21553767 0.06256172 0.06256172
0.30514147 0.06256172 0.06256172
0.39999267 0.06256172 0.06256172
0.49916990 0.06256172 0.06256172
0.60207874 0.06256172 0.06256172
0.70829780 0.06256172 0.06256172
0.81750982 0.06256172 0.06256172
0.06256172 0.12278387 0.06256172
0.12144365 0.11994667 0.06256172
0.21349917 0.07690190 0.06256172
0.30457967 0.06256172 0.06256172
0.39981578 0.06256172 0.06256172
0.49911136 0.06256172 0.06256172
0.60205924 0.06256172 0.06256172
0.70829147 0.06256172 0.06256172
0.81750787 0.06256172 0.06256172
0.06256172 0.19750032 0.06256172
0.06256172 0.19692519 0.06256172
0.19505517 0.19230887 0.06256172
0.30012346 0.16678394 0.06256172
0.39844535 0.06256172 0.06256172
0.49866055 0.06256172 0.06256172
0.60190937 0.06256172 0.06256172
0.70824283 0.06256172 0.06256172
0.81749292 0.06256172 0.06256172
0.06256172 0.28086261 0.06256172
0.06256172 0.28069883 0.06256172
0.06256172 0.27942900 0.06256172
0.27752546 0.27376343 0.06256172
0.39235550 0.24956133 0.06256172
0.49671641 0.06256172 0.06256172
0.60126871 0.06256172 0.06256172
0.70803551 0.06256172 0.06256172
0.81742925 0.06256172 0.06256172
0.06256172 0.37095383 0.06256172
0.06256172 0.37090122 0.06256172
0.06256172 0.37049613 0.06256172
0.06256172 0.36874957 0.06256172
0.36692001 0.36235970 0.06256172
0.48959843 0.33777944 0.06256172
0.59900058 0.06256172 0.06256172
0.70730913 0.06256172 0.06256172
0.81720693 0.06256172 0.06256172
0.06256172 0.46671428 0.06256172
0.06256172 0.46669660 0.06256172
0.06256172 0.46656069 0.06256172
0.06256172 0.46597986 0.06256172
0.06256172 0.46392537 0.06256172
0.46216675 0.45701372 0.06256172
0.59134720 0.43131854 0.06256172
0.70494441 0.06256172 0.06256172
0.81649128 0.06256172 0.06256172
0.06256172 0.56745083 0.06256172
0.06256172 0.56744486 0.06256172
0.06256172 0.56739904 0.06256172
0.06256172 0.56720371 0.06256172
0.06256172 0.56651957 0.06256172
0.06256172 0.56429453 0.06256172
0.56256320 0.55701379 0.06256172
0.69718136 0.52962651 0.06256172
0.81422778 0.06256172 0.06256172
0.06256172 0.67266663 0.06256172
0.06256172 0.67266467 0.06256172
0.06256172 0.67264963 0.06256172
0.06256172 0.67258556 0.06256172
0.06256172 0.67236186 0.06256172
0.06256172 0.67164189 0.06256172
0.06256172 0.66936590 0.06256172
0.66760507 0.66184820 0.06256172
0.80673875 0.63209662 0.06256172
0.06256172 0.78198413 0.06256172
0.06256172 0.78198353 0.06256172
0.06256172 0.78197885 0.06256172
0.06256172 0.78195897 0.06256172
0.06256172 0.78188960 0.06256172
0.06256172 0.78166711 0.06256172
0.06256172 0.78097137 0.06256172
0.06256172 0.77875416 0.06256172
0.77690872 0.77112712 0.06256172
0.06256172 0.06256172 0.12247201
0.13163115 0.06256172 0.12206864
0.21528855 0.06256172 0.11881140
0.30507204 0.06256172 0.09959350
0.39997076 0.06256172 0.06256172
0.49916265 0.06256172 0.06256172
0.60207633 0.06256172 0.06256172
0.70829701 0.06256172 0.06256172
0.81750958 0.06256172 0.06256172
0.06256172 0.12260044 0.12017821
0.11974823 0.11974823 0.11974823
0.21324174 0.07565819 0.11625899
0.30450974 0.06256172 0.09455746
0.39979382 0.06256172 0.06256172
0.49910409 0.06256172 0.06256172
0.60205683 0.06256172 0.06256172
0.70829068 0.06256172 0.06256172
0.81750763 0.06256172 0.06256172
0.06256172 0.19746194 0.09333623
0.06256172 0.19688643 0.09225266
0.19470505 0.19226690 0.08133072
0.30004935 0.16671675 0.06256172
0.39842305 0.06256172 0.06256172
0.49865325 0.06256172 0.06256172
0.60190695 0.06256172 0.06256172
0.70824205 0.06256172 0.06256172
0.81749268 0.06256172 0.06256172
0.06256172 0.28085164 0.06256172
0.06256172 0.28068784 0.06256172
0.06256172 0.27941782 0.06256172
0.27742527 0.27375134 0.06256172
0.39233157 0.24954433 0.06256172
0.49670896 0.06256172 0.06256172
0.60126627 0.06256172 0.06256172
0.70803472 0.06256172 0.06256172
0.81742901 0.06256172 0.06256172
0.06256172 0.37095030 0.06256172
0.06256172 0.37089769 0.06256172
0.06256172 0.37049259 0.06256172
0.06256172 0.36874595 0.06256172
0.36688773 0.36235579 0.06256172
0.48959037 0.33777417 0.06256172
0.59899809 0.06256172 0.06256172
0.70730834 0.06256172 0.06256172
0.81720669 0.06256172 0.06256172
0.06256172 0.46671310 0.06256172
0.06256172 0.46669541 0.06256172
0.06256172 0.46655951 0.06256172
0.06256172 0.46597867 0.06256172
0.06256172 0.46392415 0.06256172
0.46215588 0.45701240 0.06256172
0.59134449 0.43131678 0.06256172
0.70494360 0.06256172 0.06256172
0.81649103 0.06256172 0.06256172
0.06256172 0.56745043 0.06256172
0.06256172 0.56744446 0.06256172
0.06256172 0.56739864 0.06256172
0.06256172 0.56720331 0.06256172
0.06256172 0.56651917 0.06256172
0.06256172 0.56429411 0.06256172
0.56255952 0.55701334 0.06256172
0.69718048 0.52962591 0.06256172
0.81422753 0.06256172 0.06256172
0.06256172 0.67266650 0.06256172
0.06256172 0.67266454 0.06256172
0.06256172 0.67264949 0.06256172
0.06256172 0.67258543 0.06256172
0.06256172 0.67236173 0.06256172
0.06256172 0.67164176 0.06256172
0.06256172 0.66936576 0.06256172
0.66760387 0.66184805 0.06256172
0.80673848 0.63209642 0.06256172
0.06256172 0.78198409 0.06256172
0.06256172 0.78198349 0.06256172
0.06256172 0.78197881 0.06256172
0.06256172 0.78195893 0.06256172
0.06256172 0.78188956 0.06256172
0.06256172 0.78166707 0.06256172
0.06256172 0.78097133 0.06256172
0.06256172 0.77875412 0.06256172
0.77690834 0.77112707 0.06256172
0.06256172 0.06256172 0.19693248
0.12041525 0.06256172 0.19684820
0.21334170 0.06256172 0.19619699
0.30453686 0.06256172 0.19334028
0.39980234 0.06256172 0.18208779
0.49910691 0.06256172 0.09446895
0.60205776 0.06256172 0.06256172
0.70829099 0.06256172 0.06256172
0.81750772 0.06256172 0.06256172
0.06256172 0.12116038 0.19646394
0.10271744 0.11818632 0.19637898
0.21122861 0.06256172 0.19572249
0.30397063 0.06256172 0.19284173
0.39962506 0.06256172 0.18147835
0.49904832 0.06256172 0.08805985
0.60203826 0.06256172 0.06256172
0.70828465 0.06256172 0.06256172
0.81750578 0.06256172 0.06256172
0.06256172 0.19716640 0.19273470
0.06256172 0.19658796 0.19264410
0.19194361 0.19194361 0.19194361
0.29947788 0.16619781 0.18886179
0.39825159 0.06256172 0.17655667
0.49859720 0.06256172 0.06256172
0.60188836 0.06256172 0.06256172
0.70823601 0.06256172 0.06256172
0.81749083 0.06256172 0.06256172
0.06256172 0.28076737 0.17333588
0.06256172 0.28060338 0.17320706
0.06256172 0.27933189 0.17220726
0.27665134 0.27365850 0.16772274
0.39214756 0.24941368 0.14789513
0.49665171 0.06256172 0.06256172
0.60124754 0.06256172 0.06256172
0.70802868 0.06256172 0.06256172
0.81742715 0.06256172 0.06256172
0.06256172 0.37092323 0.06256172
0.06256172 0.37087059 0.06256172
0.06256172 0.37046536 0.06256172
0.06256172 0.36871815 0.06256172
0.36663944 0.36232579 0.06256172
0.48952853 0.33773373 0.06256172
0.59897891 0.06256172 0.06256172
0.70730225 0.06256172 0.06256172
0.81720483 0.06256172 0.06256172
0.06256172 0.46670400 0.06256172
0.06256172 0.46668631 0.06256172
0.06256172 0.46655039 0.06256172
0.06256172 0.46596949 0.06256172
0.06256172 0.46391476 0.06256172
0.46207233 0.45700227 0.06256172
0.59132369 0.43130328 0.06256172
0.70493735 0.06256172 0.06256172
0.81648916 0.06256172 0.06256172
0.06256172 0.56744736 0.06256172
0.06256172 0.56744139 0.06256172
0.06256172 0.56739556 0.06256172
0.06256172 0.56720023 0.06256172
0.06256172 0.56651607 0.06256172
0.06256172 0.56429094 0.06256172
0.56253129 0.55700991 0.06256172
0.69717369 0.52962131 0.06256172
0.81422561 0.06256172 0.06256172
0.06256172 0.67266549 0.06256172
0.06256172 0.67266353 0.06256172
0.06256172 0.67264849 0.06256172
0.06256172 0.67258442 0.06256172
0.06256172 0.67236072 0.06256172
0.06256172 0.67164074 0.06256172
0.06256172 0.66936472 0.06256172
0.66759458 0.66184692 0.06256172
0.80673640 0.63209487 0.06256172
0.06256172 0.78198378 0.06256172
0.06256172 0.78198317 0.06256172
0.06256172 0.78197850 0.06256172
0.06256172 0.78195861 0.06256172
0.06256172 0.78188925 0.06256172
0.06256172 0.78166676 0.06256172
0.06256172 0.78097101 0.06256172
0.06256172 0.77875379 0.06256172
0.77690545 0.77112672 0.06256172
0.06256172 0.06256172 0.28008864
0.06256172 0.06256172 0.28006455
0.20428827 0.06256172 0.27987926
0.30221609 0.06256172 0.27908525
0.39908171 0.06256172 0.27624810
0.49886926 0.06256172 0.26633866
0.60197870 0.06256172 0.22143879
0.70826532 0.06256172 0.06256172
0.81749983 0.06256172 0.06256172
0.06256172 0.11427653 0.27995502
0.06256172 0.11059977 0.27993088
0.20182972 0.06256172 0.27974526
0.30163244 0.06256172 0.27894980
0.39890295 0.06256172 0.27610730
0.49881053 0.06256172 0.26617720
0.60195918 0.06256172 0.22112535
0.70825899 0.06256172 0.06256172
0.81749789 0.06256172 0.06256172
0.06256172 0.19589133 0.27892084
0.06256172 0.19530006 0.27889636
0.17839585 0.19054661 0.27870811
0.29699614 0.16392722 0.27790129
0.39751789 0.06256172 0.27501704
0.49835824 0.06256172 0.26492515
0.60180915 0.06256172 0.21866570
0.70821034 0.06256172 0.06256172
0.81748294 0.06256172 0.06256172
0.06256172 0.28040755 0.27434773
0.06256172 0.28024276 0.27432167
0.06256172 0.27896498 0.27412127
0.27326196 0.27326196 0.27326196
0.39135983 0.24885474 0.27018411
0.49640765 0.06256172 0.25933443
0.60116780 0.06256172 0.20695673
0.70800294 0.06256172 0.06256172
0.81741926 0.06256172 0.06256172
0.06256172 0.37080785 0.25566939
0.06256172 0.37075515 0.25563554
0.06256172 0.37034936 0.25537514
0.06256172 0.36859971 0.25425560
0.36557420 0.36219796 0.25020543
0.48926478 0.33756132 0.23534033
0.59889722 0.06256172 0.10860380
0.70727631 0.06256172 0.06256172
0.81719691 0.06256172 0.06256172
0.06256172 0.46666524 0.06256172
0.06256172 0.46664754 0.06256172
0.06256172 0.46651156 0.06256172
0.06256172 0.46593042 0.06256172
0.06256172 0.46387479 0.06256172
0.46171581 0.45695913 0.06256172
0.59123511 0.43124581 0.06256172
0.70491076 0.06256172 0.06256172
0.81648118 0.06256172 0.06256172
0.06256172 0.56743428 0.06256172
0.06256172 0.56742832 0.06256172
0.06256172 0.56738248 0.06256172
0.06256172 0.56718712 0.06256172
0.06256172 0.56650286 0.06256172
0.06256172 0.56427742 0.06256172
0.56241102 0.55699530 0.06256172
0.69714481 0.52960173 0.06256172
0.81421743 0.06256172 0.06256172
0.06256172 0.67266120 0.06256172
0.06256172 0.67265924 0.06256172
0.06256172 0.67264419 0.06256172
0.06256172 0.67258012 0.06256172
0.06256172 0.67235641 0.06256172
0.06256172 0.67163640 0.06256172
0.06256172 0.66936027 0.06256172
0.66755505 0.66184211 0.06256172
0.80672752 0.63208827 0.06256172
0.06256172 0.78198245 0.06256172
0.06256172 0.78198184 0.06256172
0.06256172 0.78197717 0.06256172
0.06256172 0.78195728 0.06256172
0.06256172 0.78188792 0.06256172
0.06256172 0.78166542 0.06256172
0.06256172 0.78096966 0.06256172
0.06256172 0.77875241 0.06256172
0.77689317 0.77112522 0.06256172
0.06256172 0.06256172 0.37001924
0.06256172 0.06256172 0.37001149
0.15205799 0.06256172 0.36995195
0.29352627 0.06256172 0.36969803
0.39652143 0.06256172 0.36880675
0.49803595 0.06256172 0.36588714
0.60170255 0.06256172 0.35609010
0.70817580 0.06256172 0.31443706
0.81747232 0.06256172 0.06256172
0.06256172 0.06256172 0.36997628
0.06256172 0.06256172 0.36996853
0.14518126 0.06256172 0.36990896
0.29287183 0.06256172 0.36965491
0.39633730 0.06256172 0.36876317
0.49797668 0.06256172 0.36584202
0.60168297 0.06256172 0.35603935
0.70816946 0.06256172 0.31435200
0.81747038 0.06256172 0.06256172
0.06256172 0.19121346 0.36964570
0.06256172 0.19057198 0.36963791
0.06256172 0.18538850 0.36957811
0.28764776 0.15508372 0.36932305
0.39491018 0.06256172 0.36842778
0.49752027 0.06256172 0.36549472
0.60153250 0.06256172 0.35564861
0.70812076 0.06256172 0.31369575
0.81745542 0.06256172 0.06256172
0.06256172 0.27913924 0.36822369
0.06256172 0.27897158 0.36821577
0.06256172 0.27767135 0.36815495
0.26002236 0.27186233 0.36789554
0.38855575 0.24686979 0.36698484
0.49555167 0.06256172 0.36399997
0.60088926 0.06256172 0.35396429
0.70791317 0.06256172 0.31083879
0.81739172 0.06256172 0.06256172
0.06256172 0.37040440 0.36306889
0.06256172 0.37035145 0.36306047
0.06256172 0.36994370 0.36299579
0.06256172 0.36818551 0.36271987
0.36175078 0.36175078 0.36175078
0.48833933 0.33695737 0.35856921
0.59861190 0.06256172 0.34780809
0.70718584 0.06256172 0.29996549
0.81716931 0.06256172 0.06256172
0.06256172 0.46652998 0.34401179
0.06256172 0.46651226 0.34400119
0.06256172 0.46637608 0.34391972
0.06256172 0.46579406 0.34357199
0.06256172 0.46373531 0.34234801
0.46046179 0.45680857 0.33829961
0.59092563 0.43104515 0.32422267
0.70481798 0.06256172 0.24793234
0.81645336 0.06256172 0.06256172
0.06256172 0.56738869 0.18407234
0.06256172 0.56738272 0.18396673
0.06256172 0.56733686 0.18314896
0.06256172 0.56714141 0.17952502
0.06256172 0.56645681 0.16453151
0.06256172 0.56423027 0.06256172
0.56199053 0.55694435 0.06256172
0.69704404 0.52953345 0.06256172
0.81418891 0.06256172 0.06256172
0.06256172 0.67264623 0.06256172
0.06256172 0.67264427 0.06256172
0.06256172 0.67262922 0.06256172
0.06256172 0.67256514 0.06256172
0.06256172 0.67234140 0.06256172
0.06256172 0.67162127 0.06256172
0.06256172 0.66934478 0.06256172
0.66741712 0.66182532 0.06256172
0.80669655 0.63206528 0.06256172
0.06256172 0.78197780 0.06256172
0.06256172 0.78197719 0.06256172
0.06256172 0.78197252 0.06256172
0.06256172 0.78195263 0.06256172
0.06256172 0.78188326 0.06256172
0.06256172 0.78166076 0.06256172
0.06256172 0.78096497 0.06256172
0.06256172 0.77874760 0.06256172
0.77685031 0.77111999 0.06256172
0.06256172 0.06256172 0.46566155
0.06256172 0.06256172 0.46565894
0.06256172 0.06256172 0.46563892
0.25591370 0.06256172 0.46555365
0.38777010 0.06256172 0.46525573
0.49531541 0.06256172 0.46429501
0.60081269 0.06256172 0.46123888
0.70788852 0.06256172 0.45092142
0.81738417 0.06256172 0.40538633
0.06256172 0.06256172 0.46564710
0.06256172 0.06256172 0.46564449
0.06256172 0.06256172 0.46562447
0.25481352 0.06256172 0.46553918
0.38756624 0.06256172 0.46524121
0.49525436 0.06256172 0.46428034
0.60079293 0.06256172 0.46122371
0.70788216 0.06256172 0.45090442
0.81738222 0.06256172 0.40535790
0.06256172 0.17290594 0.46553609
0.06256172 0.17200822 0.46553348
0.06256172 0.16454201 0.46551343
0.24572882 0.09809387 0.46542804
0.38598448 0.06256172 0.46512971
0.49478424 0.06256172 0.46416765
0.60064104 0.06256172 0.46110715
0.70783331 0.06256172 0.45077373
0.81736725 0.06256172 0.40513929
0.06256172 0.27492360 0.46506201
0.06256172 0.27474601 0.46505938
0.06256172 0.27336778 0.46503923
0.17954951 0.26718878 0.46495339
0.37890275 0.24009402 0.46465349
0.49275560 0.06256172 0.46368634
0.59999168 0.06256172 0.46060926
0.70762508 0.06256172 0.45021527
0.81730349 0.06256172 0.40420250
0.06256172 0.36909919 0.46338958
0.06256172 0.36904541 0.46338690
0.06256172 0.36863127 0.46336637
0.06256172 0.36684512 0.46327894
0.34816910 0.36030232 0.46297344
0.48531118 0.33499232 0.46198810
0.59769231 0.06256172 0.45885176
0.70689552 0.06256172 0.44824077
0.81708086 0.06256172 0.40085533
0.06256172 0.46609547 0.45781593
0.06256172 0.46607766 0.45781309
0.06256172 0.46594083 0.45779126
0.06256172 0.46535600 0.45769826
0.06256172 0.46328717 0.45737330
0.45632468 0.45632468 0.45632468
0.58992765 0.43039947 0.45298170
0.70452023 0.06256172 0.44160834
0.81636421 0.06256172 0.38917189
0.06256172 0.56724252 0.43787390
0.06256172 0.56723654 0.43787035
0.06256172 0.56719062 0.43784309
0.06256172 0.56699486 0.43772696
0.06256172 0.56630919 0.43732090
0.06256172 0.56407910 0.43600791
0.56063112 0.55678098 0.43179418
0.69672060 0.52931442 0.41710471
0.81409751 0.06256172 0.33696343
0.06256172 0.67259828 0.29336421
0.06256172 0.67259632 0.29334403
0.06256172 0.67258127 0.29318895
0.06256172 0.67251715 0.29252520
0.06256172 0.67229329 0.29016444
0.06256172 0.67157279 0.28206108
0.06256172 0.66929512 0.24885451
0.66697402 0.66177155 0.06256172
0.80659732 0.63199162 0.06256172
0.06256172 0.78196292 0.06256172
0.06256172 0.78196231 0.06256172
0.06256172 0.78195764 0.06256172
0.06256172 0.78193774 0.06256172
0.06256172 0.78186836 0.06256172
0.06256172 0.78164582 0.06256172
0.06256172 0.78094992 0.06256172
0.06256172 0.77873219 0.06256172
0.77671293 0.77110325 0.06256172
0.06256172 0.06256172 0.56632016
0.06256172 0.06256172 0.56631928
0.06256172 0.06256172 0.56631253
0.06256172 0.06256172 0.56628376
0.35278485 0.06256172 0.56618339
0.48629600 0.06256172 0.56586124
0.59798904 0.06256172 0.56485174
0.70698899 0.06256172 0.56161281
0.81710932 0.06256172 0.55019614
0.06256172 0.06256172 0.56631529
0.06256172 0.06256172 0.56631441
0.06256172 0.06256172 0.56630765
0.06256172 0.06256172 0.56627888
0.35247577 0.06256172 0.56617851
0.48622865 0.06256172 0.56585634
0.59796867 0.06256172 0.56484679
0.70698256 0.06256172 0.56160768
0.81710736 0.06256172 0.55019035
0.06256172 0.06256172 0.56627784
0.06256172 0.06256172 0.56627696
0.06256172 0.06256172 0.56627020
0.06256172 0.06256172 0.56624141
0.35006299 0.06256172 0.56614100
0.48570987 0.06256172 0.56581871
0.59781216 0.06256172 0.56480875
0.70693325 0.06256172 0.56156831
0.81709235 0.06256172 0.55014588
0.06256172 0.25997723 0.56611824
0.06256172 0.25975851 0.56611736
0.06256172 0.25805610 0.56611059
0.06256172 0.25030700 0.56608176
0.33891482 0.21303899 0.56598118
0.48346798 0.06256172 0.56565833
0.59714300 0.06256172 0.56464664
0.70672301 0.06256172 0.56140051
0.81702839 0.06256172 0.54995634
0.06256172 0.36490326 0.56555974
0.06256172 0.36484672 0.56555885
0.06256172 0.36441128 0.56555204
0.06256172 0.36253184 0.56552304
0.27973656 0.35562702 0.56542185
0.47519254 0.32855214 0.56509708
0.59477235 0.06256172 0.56407930
0.70598638 0.06256172 0.56081317
0.81680509 0.06256172 0.54929257
0.06256172 0.46473000 0.56374848
0.06256172 0.46471193 0.56374757
0.06256172 0.46457302 0.56374063
0.06256172 0.46397928 0.56371106
0.06256172 0.46187843 0.56360791
0.44208384 0.45480227 0.56327680
0.58675313 0.42835985 0.56223901
0.70358771 0.06256172 0.55890713
0.81608626 0.06256172 0.54713463
0.06256172 0.56678626 0.55787848
0.06256172 0.56678025 0.55787752
0.06256172 0.56673410 0.55787012
0.06256172 0.56653739 0.55783865
0.06256172 0.56584837 0.55772884
0.06256172 0.56360720 0.55737631
0.55627085 0.55627085 0.55627085
0.69570703 0.52862960 0.55271613
0.81381253 0.06256172 0.54008321
0.06256172 0.67244893 0.53664440
0.06256172 0.67244697 0.53664319
0.06256172 0.67243189 0.53663392
0.06256172 0.67236767 0.53659443
0.06256172 0.67214346 0.53645665
0.06256172 0.67142181 0.53601402
0.06256172 0.66914045 0.53462320
0.66558185 0.66160405 0.53012077
0.80628787 0.63176205 0.51370760
0.06256172 0.78191659 0.36340016
0.06256172 0.78191598 0.36339177
0.06256172 0.78191131 0.36332734
0.06256172 0.78189140 0.36305252
0.06256172 0.78182199 0.36208730
0.06256172 0.78159934 0.35891880
0.06256172 0.78090308 0.34820619
0.06256172 0.77868421 0.30069112
0.77628415 0.77105114 0.06256172
0.06256172 0.06256172 0.67149646
0.06256172 0.06256172 0.67149617
0.06256172 0.06256172 0.67149395
0.06256172 0.06256172 0.67148450
0.06256172 0.06256172 0.67145155
0.45031850 0.06256172 0.67134596
0.58854041 0.06256172 0.67101664
0.70411000 0.06256172 0.66997608
0.81624170 0.06256172 0.66649967
0.06256172 0.06256172 0.67149486
0.06256172 0.06256172 0.67149457
0.06256172 0.06256172 0.67149235
0.06256172 0.06256172 0.67148290
0.06256172 0.06256172 0.67144995
0.45021843 0.06256172 0.67134435
0.58851790 0.06256172 0.67101503
0.70410338 0.06256172 0.66997445
0.81623973 0.06256172 0.66649798
0.06256172 0.06256172 0.67148256
0.06256172 0.06256172 0.67148227
0.06256172 0.06256172 0.67148005
0.06256172 0.06256172 0.67147060
0.06256172 0.06256172 0.67143764
0.44944630 0.06256172 0.67133203
0.58834490 0.06256172 0.67100267
0.70405253 0.06256172 0.66996195
0.81622457 0.06256172 0.66648501
0.06256172 0.15419952 0.67143018
0.06256172 0.15288781 0.67142989
0.06256172 0.14133197 0.67142767
0.06256172 0.06256172 0.67141821
0.06256172 0.06256172 0.67138524
0.44608305 0.06256172 0.67127957
0.58760488 0.06256172 0.67095002
0.70383575 0.06256172 0.66990872
0.81616000 0.06256172 0.66642979
0.06256172 0.35017774 0.67124735
0.06256172 0.35011022 0.67124706
0.06256172 0.34958993 0.67124484
0.06256172 0.34733745 0.67123536
0.06256172 0.33896120 0.67120233
0.43325923 0.30409714 0.67109645
0.58497864 0.06256172 0.67076626
0.70307604 0.06256172 0.66972292
0.81593455 0.06256172 0.66623701
0.06256172 0.46030815 0.67065946
0.06256172 0.46028917 0.67065917
0.06256172 0.46014330 0.67065693
0.06256172 0.45951972 0.67064739
0.06256172 0.45731149 0.67061415
0.37182743 0.44985260 0.67050762
0.57603933 0.42163881 0.67017536
0.70060096 0.06256172 0.66912543
0.81520878 0.06256172 0.66561699
0.06256172 0.56534047 0.66880644
0.06256172 0.56533437 0.66880614
0.06256172 0.56528750 0.66880386
0.06256172 0.56508774 0.66879413
0.06256172 0.56438798 0.66876023
0.06256172 0.56211129 0.66865158
0.54110797 0.55465237 0.66831272
0.69245484 0.52644812 0.66724176
0.81291274 0.06256172 0.66366131
0.06256172 0.67197889 0.66274592
0.06256172 0.67197692 0.66274560
0.06256172 0.67196177 0.66274317
0.06256172 0.67189723 0.66273280
0.06256172 0.67167190 0.66269665
0.06256172 0.67094662 0.66258080
0.06256172 0.66865361 0.66221940
0.66107667 0.66107667 0.66107667
0.80531026 0.63103828 0.65724990
0.06256172 0.78177111 0.63974350
0.06256172 0.78177050 0.63974309
0.06256172 0.78176582 0.63973999
0.06256172 0.78174589 0.63972677
0.06256172 0.78167636 0.63968066
0.06256172 0.78145336 0.63953286
0.06256172 0.78075599 0.63907147
0.06256172 0.77853353 0.63760936
0.77492603 0.77088747 0.63267633
0.06256172 0.06256172 0.78081141
0.06256172 0.06256172 0.78081132
0.06256172 0.06256172 0.78081063
0.06256172 0.06256172 0.78080770
0.06256172 0.06256172 0.78079746
0.06256172 0.06256172 0.78076469
0.54880623 0.06256172 0.78066263
0.69405427 0.06256172 0.78034174
0.81335249 0.06256172 0.77928713
0.06256172 0.06256172 0.78081091
0.06256172 0.06256172 0.78081082
0.06256172 0.06256172 0.78081013
0.06256172 0.06256172 0.78080720
0.06256172 0.06256172 0.78079697
0.06256172 0.06256172 0.78076419
0.54877189 0.06256172 0.78066213
0.69404690 0.06256172 0.78034124
0.81335045 0.06256172 0.77928662
0.06256172 0.06256172 0.78080709
0.06256172 0.06256172 0.78080700
0.06256172 0.06256172 0.78080631
0.06256172 0.06256172 0.78080338
0.06256172 0.06256172 0.78079315
0.06256172 0.06256172 0.78076037
0.54850781 0.06256172 0.78065830
0.69399031 0.06256172 0.78033740
0.81333480 0.06256172 0.77928274
0.06256172 0.06256172 0.78079083
0.06256172 0.06256172 0.78079074
0.06256172 0.06256172 0.78079005
0.06256172 0.06256172 0.78078711
0.06256172 0.06256172 0.78077688
0.06256172 0.06256172 0.78074409
0.54737524 0.06256172 0.78064201
0.69374903 0.06256172 0.78032105
0.81326815 0.06256172 0.77926620
0.06256172 0.26396492 0.78073410
0.06256172 0.26375817 0.78073401
0.06256172 0.26215027 0.78073332
0.06256172 0.25486451 0.78073039
0.06256172 0.22084309 0.78072015
0.06256172 0.06256172 0.78068734
0.54331614 0.06256172 0.78058520
0.69290298 0.06256172 0.78026404
0.81303541 0.06256172 0.77920853
0.06256172 0.44416385 0.78055221
0.06256172 0.44414114 0.78055212
0.06256172 0.44396661 0.78055143
0.06256172 0.44321981 0.78054848
0.06256172 0.44056644 0.78053822
0.06256172 0.43149616 0.78050535
0.52898667 0.39525890 0.78040301
0.69014122 0.06256172 0.78008121
0.81228605 0.06256172 0.77902360
0.06256172 0.56046335 0.77998393
0.06256172 0.56045692 0.77998384
0.06256172 0.56040756 0.77998314
0.06256172 0.56019714 0.77998018
0.06256172 0.55945986 0.77996985
0.06256172 0.55705899 0.77993678
0.46090720 0.54916976 0.77983380
0.68099056 0.51895414 0.77951001
0.80991416 0.06256172 0.77844579
0.06256172 0.67042911 0.77817819
0.06256172 0.67042710 0.77817810
0.06256172 0.67041169 0.77817739
0.06256172 0.67034609 0.77817437
0.06256172 0.67011702 0.77816384
0.06256172 0.66937966 0.77813012
0.06256172 0.66704781 0.77802510
0.64468143 0.65933556 0.77769488
0.80204649 0.62863799 0.77660939
0.06256172 0.78129495 0.77202932
0.06256172 0.78129433 0.77202923
0.06256172 0.78128963 0.77202847
0.06256172 0.78126959 0.77202524
0.06256172 0.78119971 0.77201399
0.06256172 0.78097554 0.77197794
0.06256172 0.78027454 0.77186568
0.06256172 0.77804030 0.77151265
0.77035155 0.77035155 0.77035155
