src/ffmpeg_scripts/luts/rec2020-sRGB_1p67.cube
TITLE "rec2020-srgb_1p67"
LUT_3D_SIZE 9
# PQ (EOTF Only)/Rec2020 -> PQ (EOTF Only)/Rec709, CineEI Shift 1.67, Black Level 0.00% IRE, Input 100% -> Output 109% - Created with LUTCalc v4.01 by Ben Turley October 2020
0.06256172 0.06256172 0.06256172
0.24759898 0.06256172 0.06256172
0.39135347 0.06256172 0.06256172
0.52004377 0.06256172 0.06256172
0.63935721 0.06256172 0.06256172
0.75193043 0.06256172 0.06256172
0.85928310 0.06256172 0.06256172
0.91886608 0.06256172 0.06256172
0.91886608 0.06256172 0.06256172
0.06256172 0.22709724 0.06256172
0.22430245 0.22115877 0.06256172
0.38817049 0.11548248 0.06256172
0.51929327 0.06256172 0.06256172
0.63914663 0.06256172 0.06256172
0.75186688 0.06256172 0.06256172
0.85926351 0.06256172 0.06256172
0.91886608 0.06256172 0.06256172
0.91886608 0.06256172 0.06256172
0.06256172 0.36268263 0.06256172
0.06256172 0.36174874 0.06256172
0.35870331 0.35420565 0.06256172
0.51331896 0.31082300 0.06256172
0.63751381 0.06256172 0.06256172
0.75137743 0.06256172 0.06256172
0.85911295 0.06256172 0.06256172
0.91886608 0.06256172 0.06256172
0.91886608 0.06256172 0.06256172
0.06256172 0.48704253 0.06256172
0.06256172 0.48681580 0.06256172
0.06256172 0.48505589 0.06256172
0.48241114 0.47716083 0.06256172
0.63022926 0.44259449 0.06256172
0.74926457 0.06256172 0.06256172
0.85846915 0.06256172 0.06256172
0.91886608 0.06256172 0.06256172
0.91886608 0.06256172 0.06256172
0.06256172 0.60424344 0.06256172
0.06256172 0.60417879 0.06256172
0.06256172 0.60368091 0.06256172
0.06256172 0.60153158 0.06256172
0.59927551 0.59363131 0.06256172
0.74149944 0.56267505 0.06256172
0.85618765 0.06256172 0.06256172
0.91886608 0.06256172 0.06256172
0.91886608 0.06256172 0.06256172
0.06256172 0.71621139 0.06256172
0.06256172 0.71619166 0.06256172
0.06256172 0.71603995 0.06256172
0.06256172 0.71539140 0.06256172
0.06256172 0.71309466 0.06256172
0.71112532 0.70533682 0.06256172
0.84846271 0.67605741 0.06256172
0.91886608 0.06256172 0.06256172
0.91886608 0.06256172 0.06256172
0.06256172 0.82407332 0.06256172
0.06256172 0.82406718 0.06256172
0.06256172 0.82402000 0.06256172
0.06256172 0.82381892 0.06256172
0.06256172 0.82311436 0.06256172
0.06256172 0.82082048 0.06256172
0.81903300 0.81328826 0.06256172
0.91886608 0.78458342 0.06256172
0.91886608 0.06256172 0.06256172
0.06256172 0.91886608 0.06256172
0.06256172 0.91886608 0.06256172
0.06256172 0.91886608 0.06256172
0.06256172 0.91886608 0.06256172
0.06256172 0.91886608 0.06256172
0.06256172 0.91886608 0.06256172
0.06256172 0.91886608 0.06256172
0.91886608 0.91815104 0.06256172
0.91886608 0.88913499 0.06256172
0.06256172 0.91886608 0.06256172
0.06256172 0.91886608 0.06256172
0.06256172 0.91886608 0.06256172
0.06256172 0.91886608 0.06256172
0.06256172 0.91886608 0.06256172
0.06256172 0.91886608 0.06256172
0.06256172 0.91886608 0.06256172
0.06256172 0.91886608 0.06256172
0.91886608 0.91886608 0.06256172
0.06256172 0.06256172 0.22644855
0.24511337 0.06256172 0.22560803
0.39096522 0.06256172 0.21875884
0.51995106 0.06256172 0.17567811
0.63933113 0.06256172 0.06256172
0.75192255 0.06256172 0.06256172
0.85928067 0.06256172 0.06256172
0.91886608 0.06256172 0.06256172
0.91886608 0.06256172 0.06256172
0.06256172 0.22671581 0.22164655
0.22074029 0.22074029 0.22074029
0.38776755 0.11167336 0.21331131
0.51919980 0.06256172 0.16343647
0.63912049 0.06256172 0.06256172
0.75185900 0.06256172 0.06256172
0.85926108 0.06256172 0.06256172
0.91886608 0.06256172 0.06256172
0.91886608 0.06256172 0.06256172
0.06256172 0.36262035 0.16039213
0.06256172 0.36168576 0.15766404
0.35813159 0.35413668 0.12846908
0.51321928 0.31070464 0.06256172
0.63748722 0.06256172 0.06256172
0.75136951 0.06256172 0.06256172
0.85911051 0.06256172 0.06256172
0.91886608 0.06256172 0.06256172
0.91886608 0.06256172 0.06256172
0.06256172 0.48702735 0.06256172
0.06256172 0.48680058 0.06256172
0.06256172 0.48504037 0.06256172
0.48227172 0.47714392 0.06256172
0.63020054 0.44256971 0.06256172
0.74925647 0.06256172 0.06256172
0.85846669 0.06256172 0.06256172
0.91886608 0.06256172 0.06256172
0.91886608 0.06256172 0.06256172
0.06256172 0.60423911 0.06256172
0.06256172 0.60417446 0.06256172
0.06256172 0.60367655 0.06256172
0.06256172 0.60152712 0.06256172
0.59923566 0.59362647 0.06256172
0.74149063 0.56266832 0.06256172
0.85618513 0.06256172 0.06256172
0.91886608 0.06256172 0.06256172
0.91886608 0.06256172 0.06256172
0.06256172 0.71621007 0.06256172
0.06256172 0.71619033 0.06256172
0.06256172 0.71603863 0.06256172
0.06256172 0.71539006 0.06256172
0.06256172 0.71309329 0.06256172
0.71111313 0.70533533 0.06256172
0.84845997 0.67605539 0.06256172
0.91886608 0.06256172 0.06256172
0.91886608 0.06256172 0.06256172
0.06256172 0.82407291 0.06256172
0.06256172 0.82406677 0.06256172
0.06256172 0.82401959 0.06256172
0.06256172 0.82381850 0.06256172
0.06256172 0.82311394 0.06256172
0.06256172 0.82082005 0.06256172
0.81902920 0.81328780 0.06256172
0.91886608 0.78458279 0.06256172
0.91886608 0.06256172 0.06256172
0.06256172 0.91886608 0.06256172
0.06256172 0.91886608 0.06256172
0.06256172 0.91886608 0.06256172
0.06256172 0.91886608 0.06256172
0.06256172 0.91886608 0.06256172
0.06256172 0.91886608 0.06256172
0.06256172 0.91886608 0.06256172
0.91886608 0.91815090 0.06256172
0.91886608 0.88913479 0.06256172
0.06256172 0.91886608 0.06256172
0.06256172 0.91886608 0.06256172
0.06256172 0.91886608 0.06256172
0.06256172 0.91886608 0.06256172
0.06256172 0.91886608 0.06256172
0.06256172 0.91886608 0.06256172
0.06256172 0.91886608 0.06256172
0.06256172 0.91886608 0.06256172
0.91886608 0.91886608 0.06256172
0.06256172 0.06256172 0.36176059
0.22214533 0.06256172 0.36162363
0.38792403 0.06256172 0.36056446
0.51923606 0.06256172 0.35589836
0.63913063 0.06256172 0.33719101
0.75186205 0.06256172 0.16321687
0.85926202 0.06256172 0.06256172
0.91886608 0.06256172 0.06256172
0.91886608 0.06256172 0.06256172
0.06256172 0.22370937 0.36099884
0.18304319 0.21743147 0.36086063
0.38460864 0.06256172 0.35979165
0.51847898 0.06256172 0.35508069
0.63891954 0.06256172 0.33616216
0.75179846 0.06256172 0.14684903
0.85924243 0.06256172 0.06256172
0.91886608 0.06256172 0.06256172
0.91886608 0.06256172 0.06256172
0.06256172 0.36214057 0.35490502
0.06256172 0.36120056 0.35475628
0.35360517 0.35360517 0.35360517
0.51245028 0.30978980 0.34851690
0.63728276 0.06256172 0.32779127
0.75130865 0.06256172 0.06256172
0.85909183 0.06256172 0.06256172
0.91886608 0.06256172 0.06256172
0.91886608 0.06256172 0.06256172
0.06256172 0.48691069 0.32225148
0.06256172 0.48668363 0.32202886
0.06256172 0.48492116 0.32029830
0.48119401 0.47701395 0.31247406
0.62997970 0.44237918 0.27653974
0.74919421 0.06256172 0.06256172
0.85844788 0.06256172 0.06256172
0.91886608 0.06256172 0.06256172
0.91886608 0.06256172 0.06256172
0.06256172 0.60420583 0.06256172
0.06256172 0.60414116 0.06256172
0.06256172 0.60364308 0.06256172
0.06256172 0.60149288 0.06256172
0.59892912 0.59358924 0.06256172
0.74142295 0.56261661 0.06256172
0.85616583 0.06256172 0.06256172
0.91886608 0.06256172 0.06256172
0.91886608 0.06256172 0.06256172
0.06256172 0.71619991 0.06256172
0.06256172 0.71618017 0.06256172
0.06256172 0.71602845 0.06256172
0.06256172 0.71537981 0.06256172
0.06256172 0.71308279 0.06256172
0.71101949 0.70532393 0.06256172
0.84843893 0.67603982 0.06256172
0.91886608 0.06256172 0.06256172
0.91886608 0.06256172 0.06256172
0.06256172 0.82406975 0.06256172
0.06256172 0.82406360 0.06256172
0.06256172 0.82401643 0.06256172
0.06256172 0.82381533 0.06256172
0.06256172 0.82311075 0.06256172
0.06256172 0.82081677 0.06256172
0.81900004 0.81328424 0.06256172
0.91886608 0.78457792 0.06256172
0.91886608 0.06256172 0.06256172
0.06256172 0.91886608 0.06256172
0.06256172 0.91886608 0.06256172
0.06256172 0.91886608 0.06256172
0.06256172 0.91886608 0.06256172
0.06256172 0.91886608 0.06256172
0.06256172 0.91886608 0.06256172
0.06256172 0.91886608 0.06256172
0.91886608 0.91814980 0.06256172
0.91886608 0.88913326 0.06256172
0.06256172 0.91886608 0.06256172
0.06256172 0.91886608 0.06256172
0.06256172 0.91886608 0.06256172
0.06256172 0.91886608 0.06256172
0.06256172 0.91886608 0.06256172
0.06256172 0.91886608 0.06256172
0.06256172 0.91886608 0.06256172
0.06256172 0.91886608 0.06256172
0.91886608 0.91886608 0.06256172
0.06256172 0.06256172 0.48597055
0.06256172 0.06256172 0.48593715
0.37360985 0.06256172 0.48568032
0.51612922 0.06256172 0.48457887
0.63827230 0.06256172 0.48063196
0.75160406 0.06256172 0.46670513
0.85918260 0.06256172 0.40049054
0.91886608 0.06256172 0.06256172
0.91886608 0.06256172 0.06256172
0.06256172 0.20902873 0.48578534
0.06256172 0.20095956 0.48575188
0.36967202 0.06256172 0.48549453
0.51534627 0.06256172 0.48439084
0.63805928 0.06256172 0.48043563
0.75154029 0.06256172 0.46647635
0.85916299 0.06256172 0.40000806
0.91886608 0.06256172 0.06256172
0.91886608 0.06256172 0.06256172
0.06256172 0.36006674 0.48435063
0.06256172 0.35910291 0.48431664
0.33093253 0.35130349 0.48405522
0.50910336 0.30577007 0.48293395
0.63640743 0.06256172 0.47891387
0.75104912 0.06256172 0.46470017
0.85901225 0.06256172 0.39621087
0.91886608 0.06256172 0.06256172
0.91886608 0.06256172 0.06256172
0.06256172 0.48641241 0.47797834
0.06256172 0.48618412 0.47794190
0.06256172 0.48441192 0.47766159
0.47645860 0.47645860 0.47645860
0.62903376 0.44156353 0.47213611
0.74892870 0.06256172 0.45672350
0.85836772 0.06256172 0.37785895
0.91886608 0.06256172 0.06256172
0.91886608 0.06256172 0.06256172
0.06256172 0.60406406 0.45145306
0.06256172 0.60399929 0.45140424
0.06256172 0.60350046 0.45102847
0.06256172 0.60134697 0.44941106
0.59761293 0.59343058 0.44353316
0.74113431 0.56239615 0.42158677
0.85608359 0.06256172 0.19650611
0.91886608 0.06256172 0.06256172
0.91886608 0.06256172 0.06256172
0.06256172 0.71615665 0.06256172
0.06256172 0.71613690 0.06256172
0.06256172 0.71598511 0.06256172
0.06256172 0.71533617 0.06256172
0.06256172 0.71303806 0.06256172
0.71061984 0.70527535 0.06256172
0.84834927 0.67597352 0.06256172
0.91886608 0.06256172 0.06256172
0.91886608 0.06256172 0.06256172
0.06256172 0.82405629 0.06256172
0.06256172 0.82405014 0.06256172
0.06256172 0.82400296 0.06256172
0.06256172 0.82380184 0.06256172
0.06256172 0.82309715 0.06256172
0.06256172 0.82080282 0.06256172
0.81887578 0.81326908 0.06256172
0.91886608 0.78455718 0.06256172
0.91886608 0.06256172 0.06256172
0.06256172 0.91886608 0.06256172
0.06256172 0.91886608 0.06256172
0.06256172 0.91886608 0.06256172
0.06256172 0.91886608 0.06256172
0.06256172 0.91886608 0.06256172
0.06256172 0.91886608 0.06256172
0.06256172 0.91886608 0.06256172
0.91886608 0.91814515 0.06256172
0.91886608 0.88912677 0.06256172
0.06256172 0.91886608 0.06256172
0.06256172 0.91886608 0.06256172
0.06256172 0.91886608 0.06256172
0.06256172 0.91886608 0.06256172
0.06256172 0.91886608 0.06256172
0.06256172 0.91886608 0.06256172
0.06256172 0.91886608 0.06256172
0.06256172 0.91886608 0.06256172
0.91886608 0.91886608 0.06256172
0.06256172 0.06256172 0.60309446
0.06256172 0.06256172 0.60308493
0.28428103 0.06256172 0.60301169
0.50440347 0.06256172 0.60269929
0.63521754 0.06256172 0.60160202
0.75069900 0.06256172 0.59799977
0.85890514 0.06256172 0.58582228
0.91886608 0.06256172 0.53237656
0.91886608 0.06256172 0.06256172
0.06256172 0.06256172 0.60304162
0.06256172 0.06256172 0.60303208
0.27143094 0.06256172 0.60295881
0.50351435 0.06256172 0.60264623
0.63499753 0.06256172 0.60154834
0.75063461 0.06256172 0.59794400
0.85888547 0.06256172 0.58575883
0.91886608 0.06256172 0.53226442
0.91886608 0.06256172 0.06256172
0.06256172 0.35240319 0.60263489
0.06256172 0.35134537 0.60262531
0.06256172 0.34273451 0.60255172
0.49638581 0.28983851 0.60223779
0.63329085 0.06256172 0.60113512
0.75013862 0.06256172 0.59751467
0.85873426 0.06256172 0.58527020
0.91886608 0.06256172 0.53139884
0.91886608 0.06256172 0.06256172
0.06256172 0.48465380 0.60088359
0.06256172 0.48442108 0.60087384
0.06256172 0.48261412 0.60079886
0.45770907 0.47449565 0.60047905
0.62566002 0.43866036 0.59935554
0.74799711 0.06256172 0.59566488
0.85808771 0.06256172 0.58316131
0.91886608 0.06256172 0.52762146
0.91886608 0.06256172 0.06256172
0.06256172 0.60356813 0.59451103
0.06256172 0.60350302 0.59450059
0.06256172 0.60300155 0.59442038
0.06256172 0.60083654 0.59407818
0.59287539 0.59287539 0.59287539
0.74012101 0.56162349 0.58891701
0.85579632 0.06256172 0.57541684
0.91886608 0.06256172 0.51310648
0.91886608 0.06256172 0.06256172
0.06256172 0.71600567 0.57061210
0.06256172 0.71598589 0.57059865
0.06256172 0.71583385 0.57049529
0.06256172 0.71518386 0.57005402
0.06256172 0.71288197 0.56849926
0.70921308 0.70510580 0.56333988
0.84803601 0.67574204 0.54519152
0.91886608 0.06256172 0.44021574
0.91886608 0.06256172 0.06256172
0.06256172 0.82400935 0.34052979
0.06256172 0.82400320 0.34035254
0.06256172 0.82395600 0.33897847
0.06256172 0.82375477 0.33285328
0.06256172 0.82304971 0.30684258
0.06256172 0.82075417 0.06256172
0.81844127 0.81321623 0.06256172
0.91886608 0.78448485 0.06256172
0.91886608 0.06256172 0.06256172
0.06256172 0.91886608 0.06256172
0.06256172 0.91886608 0.06256172
0.06256172 0.91886608 0.06256172
0.06256172 0.91886608 0.06256172
0.06256172 0.91886608 0.06256172
0.06256172 0.91886608 0.06256172
0.06256172 0.91886608 0.06256172
0.91886608 0.91812894 0.06256172
0.91886608 0.88910414 0.06256172
0.06256172 0.91886608 0.06256172
0.06256172 0.91886608 0.06256172
0.06256172 0.91886608 0.06256172
0.06256172 0.91886608 0.06256172
0.06256172 0.91886608 0.06256172
0.06256172 0.91886608 0.06256172
0.06256172 0.91886608 0.06256172
0.06256172 0.91886608 0.06256172
0.91886608 0.91886608 0.06256172
0.06256172 0.06256172 0.71503583
0.06256172 0.06256172 0.71503291
0.06256172 0.06256172 0.71501055
0.45180542 0.06256172 0.71491527
0.62471291 0.06256172 0.71458236
0.74773987 0.06256172 0.71350819
0.85801073 0.06256172 0.71008501
0.91886608 0.06256172 0.69845807
0.91886608 0.06256172 0.64575974
0.06256172 0.06256172 0.71501969
0.06256172 0.06256172 0.71501677
0.06256172 0.06256172 0.71499440
0.45021749 0.06256172 0.71489911
0.62446703 0.06256172 0.71456614
0.74767339 0.06256172 0.71349178
0.85799086 0.06256172 0.71006800
0.91886608 0.06256172 0.69843882
0.91886608 0.06256172 0.64572608
0.06256172 0.32150817 0.71489566
0.06256172 0.31995317 0.71489274
0.06256172 0.30686120 0.71487034
0.43698689 0.17208267 0.71477492
0.62255737 0.06256172 0.71444151
0.74716132 0.06256172 0.71336572
0.85783813 0.06256172 0.70993725
0.91886608 0.06256172 0.69829084
0.91886608 0.06256172 0.64546727
0.06256172 0.47878332 0.71436584
0.06256172 0.47853516 0.71436290
0.06256172 0.47660684 0.71434038
0.33289488 0.46790872 0.71424442
0.61396686 0.42867079 0.71390911
0.74494940 0.06256172 0.71282716
0.85718503 0.06256172 0.70937860
0.91886608 0.06256172 0.69765827
0.91886608 0.06256172 0.64435755
0.06256172 0.60196217 0.71249499
0.06256172 0.60189595 0.71249200
0.06256172 0.60138585 0.71246902
0.06256172 0.59918306 0.71237113
0.57587259 0.59107511 0.71202905
0.73679981 0.55910544 0.71092508
0.85487005 0.06256172 0.70740462
0.91886608 0.06256172 0.69541913
0.91886608 0.06256172 0.64038366
0.06256172 0.71552051 0.70623974
0.06256172 0.71550062 0.70623654
0.06256172 0.71534780 0.70621197
0.06256172 0.71469442 0.70610733
0.06256172 0.71238035 0.70574162
0.70456076 0.70456076 0.70456076
0.84702537 0.67499687 0.70078862
0.91886608 0.06256172 0.68786752
0.91886608 0.06256172 0.62640220
0.06256172 0.82385887 0.68359472
0.06256172 0.82385272 0.68359066
0.06256172 0.82380543 0.68355941
0.06256172 0.82360386 0.68342629
0.06256172 0.82289763 0.68296071
0.06256172 0.82059819 0.68145405
0.81703558 0.81304675 0.67660590
0.91886608 0.78425283 0.65954823
0.91886608 0.06256172 0.56163125
0.06256172 0.91886608 0.50418337
0.06256172 0.91886608 0.50415597
0.06256172 0.91886608 0.50394530
0.06256172 0.91886608 0.50304308
0.06256172 0.91886608 0.49982692
0.06256172 0.91886608 0.48869993
0.06256172 0.91886608 0.44156320
0.91886608 0.91807699 0.06256172
0.91886608 0.88903160 0.06256172
0.06256172 0.91886608 0.06256172
0.06256172 0.91886608 0.06256172
0.06256172 0.91886608 0.06256172
0.06256172 0.91886608 0.06256172
0.06256172 0.91886608 0.06256172
0.06256172 0.91886608 0.06256172
0.06256172 0.91886608 0.06256172
0.06256172 0.91886608 0.06256172
0.91886608 0.91886608 0.06256172
0.06256172 0.06256172 0.82290893
0.06256172 0.06256172 0.82290803
0.06256172 0.06256172 0.82290106
0.06256172 0.06256172 0.82287142
0.58168203 0.06256172 0.82276801
0.73788087 0.06256172 0.82243605
0.85516899 0.06256172 0.82139528
0.91886608 0.06256172 0.81805082
0.91886608 0.06256172 0.80619819
0.06256172 0.06256172 0.82290391
0.06256172 0.06256172 0.82290300
0.06256172 0.06256172 0.82289604
0.06256172 0.06256172 0.82286640
0.58129402 0.06256172 0.82276298
0.73780697 0.06256172 0.82243100
0.85514847 0.06256172 0.82139017
0.91886608 0.06256172 0.81804552
0.91886608 0.06256172 0.80619215
0.06256172 0.06256172 0.82286532
0.06256172 0.06256172 0.82286442
0.06256172 0.06256172 0.82285745
0.06256172 0.06256172 0.82282780
0.57826019 0.06256172 0.82272434
0.73723757 0.06256172 0.82239221
0.85499080 0.06256172 0.82135094
0.91886608 0.06256172 0.81800482
0.91886608 0.06256172 0.80614579
0.06256172 0.45764445 0.82270089
0.06256172 0.45733121 0.82269998
0.06256172 0.45488899 0.82269300
0.06256172 0.44368107 0.82266329
0.56412559 0.38745002 0.82255965
0.73477401 0.06256172 0.82222692
0.85431646 0.06256172 0.82118374
0.91886608 0.06256172 0.81783133
0.91886608 0.06256172 0.80594815
0.06256172 0.59678310 0.82212529
0.06256172 0.59671314 0.82212437
0.06256172 0.59617420 0.82211735
0.06256172 0.59384492 0.82208745
0.48548246 0.58524319 0.82198314
0.72563904 0.55080838 0.82164829
0.85192495 0.06256172 0.82059840
0.91886608 0.06256172 0.81722391
0.91886608 0.06256172 0.80525580
0.06256172 0.71399467 0.82025696
0.06256172 0.71397446 0.82025603
0.06256172 0.71381912 0.82024886
0.06256172 0.71315498 0.82021834
0.06256172 0.71080216 0.82011186
0.68841048 0.70284433 0.81977002
0.84380590 0.67263989 0.81869805
0.91886608 0.06256172 0.81525089
0.91886608 0.06256172 0.80300255
0.06256172 0.82338905 0.81418494
0.06256172 0.82338286 0.81418394
0.06256172 0.82333533 0.81417628
0.06256172 0.82313271 0.81414365
0.06256172 0.82242278 0.81402980
0.06256172 0.82011113 0.81366426
0.81251739 0.81251739 0.81251739
0.91886608 0.78352713 0.80882308
0.91886608 0.06256172 0.79561396
0.06256172 0.91886608 0.79199625
0.06256172 0.91886608 0.79199498
0.06256172 0.91886608 0.79198521
0.06256172 0.91886608 0.79194361
0.06256172 0.91886608 0.79179846
0.06256172 0.91886608 0.79133204
0.06256172 0.91886608 0.78986544
0.91886608 0.91791514 0.78510682
0.91886608 0.88880554 0.76761643
0.06256172 0.91886608 0.59492169
0.06256172 0.91886608 0.59491130
0.06256172 0.91886608 0.59483144
0.06256172 0.91886608 0.59449073
0.06256172 0.91886608 0.59329322
0.06256172 0.91886608 0.58935269
0.06256172 0.91886608 0.57591940
0.06256172 0.91886608 0.51408212
0.91886608 0.91886608 0.06256172
0.06256172 0.06256172 0.91886608
0.06256172 0.06256172 0.91886608
0.06256172 0.06256172 0.91886608
0.06256172 0.06256172 0.91886608
0.06256172 0.06256172 0.91886608
0.69777522 0.06256172 0.91886608
0.84561937 0.06256172 0.91886608
0.91886608 0.06256172 0.91886608
0.91886608 0.06256172 0.91886608
0.06256172 0.06256172 0.91886608
0.06256172 0.06256172 0.91886608
0.06256172 0.06256172 0.91886608
0.06256172 0.06256172 0.91886608
0.06256172 0.06256172 0.91886608
0.69766185 0.06256172 0.91886608
0.84559654 0.06256172 0.91886608
0.91886608 0.06256172 0.91886608
0.91886608 0.06256172 0.91886608
0.06256172 0.06256172 0.91886608
0.06256172 0.06256172 0.91886608
0.06256172 0.06256172 0.91886608
0.06256172 0.06256172 0.91886608
0.06256172 0.06256172 0.91886608
0.69678672 0.06256172 0.91886608
0.84542111 0.06256172 0.91886608
0.91886608 0.06256172 0.91886608
0.91886608 0.06256172 0.91886608
0.06256172 0.28822032 0.91886608
0.06256172 0.28581085 0.91886608
0.06256172 0.26409640 0.91886608
0.06256172 0.06256172 0.91886608
0.06256172 0.06256172 0.91886608
0.69296751 0.06256172 0.91886608
0.84467042 0.06256172 0.91886608
0.91886608 0.06256172 0.91886608
0.91886608 0.06256172 0.91886608
0.06256172 0.57840468 0.91886608
0.06256172 0.57831967 0.91886608
0.06256172 0.57766432 0.91886608
0.06256172 0.57482240 0.91886608
0.06256172 0.56418481 0.91886608
0.67829376 0.51864819 0.91886608
0.84200314 0.06256172 0.91886608
0.91886608 0.06256172 0.91886608
0.91886608 0.06256172 0.91886608
0.06256172 0.70904062 0.91886608
0.06256172 0.70901931 0.91886608
0.06256172 0.70885555 0.91886608
0.06256172 0.70815522 0.91886608
0.06256172 0.70567204 0.91886608
0.60531633 0.69724730 0.91886608
0.83288692 0.66483971 0.91886608
0.91886608 0.06256172 0.91886608
0.91886608 0.06256172 0.91886608
0.06256172 0.82189924 0.91886608
0.06256172 0.82189295 0.91886608
0.06256172 0.82184463 0.91886608
0.06256172 0.82163866 0.91886608
0.06256172 0.82091689 0.91886608
0.06256172 0.81856606 0.91886608
0.79669018 0.81083657 0.91886608
0.91886608 0.78121281 0.91886608
0.91886608 0.06256172 0.91886608
0.06256172 0.91886608 0.91886608
0.06256172 0.91886608 0.91886608
0.06256172 0.91886608 0.91886608
0.06256172 0.91886608 0.91886608
0.06256172 0.91886608 0.91886608
0.06256172 0.91886608 0.91885867
0.06256172 0.91886608 0.91850963
0.91740546 0.91740546 0.91740546
0.91886608 0.88809257 0.91370205
0.06256172 0.91886608 0.89664557
0.06256172 0.91886608 0.89664518
0.06256172 0.91886608 0.89664213
0.06256172 0.91886608 0.89662918
0.06256172 0.91886608 0.89658401
0.06256172 0.91886608 0.89643918
0.06256172 0.91886608 0.89598701
0.06256172 0.91886608 0.89455321
0.91886608 0.91886608 0.88970568
0.06256172 0.06256172 0.91886608
0.06256172 0.06256172 0.91886608
0.06256172 0.06256172 0.91886608
0.06256172 0.06256172 0.91886608
0.06256172 0.06256172 0.91886608
0.06256172 0.06256172 0.91886608
0.80474829 0.06256172 0.91886608
0.91886608 0.06256172 0.91886608
0.91886608 0.06256172 0.91886608
0.06256172 0.06256172 0.91886608
0.06256172 0.06256172 0.91886608
0.06256172 0.06256172 0.91886608
0.06256172 0.06256172 0.91886608
0.06256172 0.06256172 0.91886608
0.06256172 0.06256172 0.91886608
0.80471246 0.06256172 0.91886608
0.91886608 0.06256172 0.91886608
0.91886608 0.06256172 0.91886608
0.06256172 0.06256172 0.91886608
0.06256172 0.06256172 0.91886608
0.06256172 0.06256172 0.91886608
0.06256172 0.06256172 0.91886608
0.06256172 0.06256172 0.91886608
0.06256172 0.06256172 0.91886608
0.80443680 0.06256172 0.91886608
0.91886608 0.06256172 0.91886608
0.91886608 0.06256172 0.91886608
0.06256172 0.06256172 0.91886608
0.06256172 0.06256172 0.91886608
0.06256172 0.06256172 0.91886608
0.06256172 0.06256172 0.91886608
0.06256172 0.06256172 0.91886608
0.06256172 0.06256172 0.91886608
0.80325396 0.06256172 0.91886608
0.91886608 0.06256172 0.91886608
0.91886608 0.06256172 0.91886608
0.06256172 0.46333545 0.91886608
0.06256172 0.46304132 0.91886608
0.06256172 0.46075043 0.91886608
0.06256172 0.45029115 0.91886608
0.06256172 0.39957329 0.91886608
0.06256172 0.06256172 0.91886608
0.79900638 0.06256172 0.91886608
0.91886608 0.06256172 0.91886608
0.91886608 0.06256172 0.91886608
0.06256172 0.69078275 0.91886608
0.06256172 0.69075688 0.91886608
0.06256172 0.69055800 0.91886608
0.06256172 0.68970664 0.91886608
0.06256172 0.68667694 0.91886608
0.06256172 0.67626227 0.91886608
0.78390557 0.63370813 0.91886608
0.91886608 0.06256172 0.91886608
0.91886608 0.06256172 0.91886608
0.06256172 0.81686201 0.91886608
0.06256172 0.81685536 0.91886608
0.06256172 0.81680428 0.91886608
0.06256172 0.81658654 0.91886608
0.06256172 0.81582333 0.91886608
0.06256172 0.81333515 0.91886608
0.70971293 0.80512766 0.91886608
0.91886608 0.77323213 0.91886608
0.91886608 0.06256172 0.91886608
0.06256172 0.91886608 0.91886608
0.06256172 0.91886608 0.91886608
0.06256172 0.91886608 0.91886608
0.06256172 0.91886608 0.91886608
0.06256172 0.91886608 0.91886608
0.06256172 0.91886608 0.91886608
0.06256172 0.91886608 0.91886608
0.90147585 0.91572158 0.91886608
0.91886608 0.88572572 0.91886608
0.06256172 0.91886608 0.91886608
0.06256172 0.91886608 0.91886608
0.06256172 0.91886608 0.91886608
0.06256172 0.91886608 0.91886608
0.06256172 0.91886608 0.91886608
0.06256172 0.91886608 0.91886608
0.06256172 0.91886608 0.91886608
0.06256172 0.91886608 0.91886608
0.91886608 0.91886608 0.91886608
