src/ffmpeg_scripts/luts/rec2020-sRGB_1p33.cube
TITLE "rec2020-srgb_1p33"
LUT_3D_SIZE 33
# PQ (EOTF Only)/Rec2020 -> PQ (EOTF Only)/Rec709, CineEI Shift 1.33, Black Level 0.00% IRE, Input 100% -> Output 109% - Created with LUTCalc v4.01 by Ben Turley October 2020
0.06256172 0.06256172 0.06256172
0.11362613 0.06256172 0.06256172
0.15697970 0.06256172 0.06256172
0.19706660 0.06256172 0.06256172
0.23502496 0.06256172 0.06256172
0.27140734 0.06256172 0.06256172
0.30654195 0.06256172 0.06256172
0.34064633 0.06256172 0.06256172
0.37387520 0.06256172 0.06256172
0.40634415 0.06256172 0.06256172
0.43814272 0.06256172 0.06256172
0.46934230 0.06256172 0.06256172
0.50000108 0.06256172 0.06256172
0.53016739 0.06256172 0.06256172
0.55988197 0.06256172 0.06256172
0.58917961 0.06256172 0.06256172
0.61809038 0.06256172 0.06256172
0.64664047 0.06256172 0.06256172
0.67485295 0.06256172 0.06256172
0.70274823 0.06256172 0.06256172
0.73034452 0.06256172 0.06256172
0.75765816 0.06256172 0.06256172
0.78470390 0.06256172 0.06256172
0.81149508 0.06256172 0.06256172
0.83804387 0.06256172 0.06256172
0.86436138 0.06256172 0.06256172
0.89045779 0.06256172 0.06256172
0.91634250 0.06256172 0.06256172
0.91886608 0.06256172 0.06256172
0.91886608 0.06256172 0.06256172
0.91886608 0.06256172 0.06256172
0.91886608 0.06256172 0.06256172
0.91886608 0.06256172 0.06256172
0.06256172 0.10583221 0.06256172
0.10480553 0.10366108 0.06256172
0.15425234 0.09378369 0.06256172
0.19580063 0.06256172 0.06256172
0.23433887 0.06256172 0.06256172
0.27100187 0.06256172 0.06256172
0.30628846 0.06256172 0.06256172
0.34048146 0.06256172 0.06256172
0.37376477 0.06256172 0.06256172
0.40626849 0.06256172 0.06256172
0.43808996 0.06256172 0.06256172
0.46930498 0.06256172 0.06256172
0.49997438 0.06256172 0.06256172
0.53014810 0.06256172 0.06256172
0.55986793 0.06256172 0.06256172
0.58916932 0.06256172 0.06256172
0.61808280 0.06256172 0.06256172
0.64663487 0.06256172 0.06256172
0.67484879 0.06256172 0.06256172
0.70274513 0.06256172 0.06256172
0.73034221 0.06256172 0.06256172
0.75765645 0.06256172 0.06256172
0.78470262 0.06256172 0.06256172
0.81149413 0.06256172 0.06256172
0.83804316 0.06256172 0.06256172
0.86436084 0.06256172 0.06256172
0.89045740 0.06256172 0.06256172
0.91634221 0.06256172 0.06256172
0.91886608 0.06256172 0.06256172
0.91886608 0.06256172 0.06256172
0.91886608 0.06256172 0.06256172
0.91886608 0.06256172 0.06256172
0.91886608 0.06256172 0.06256172
0.06256172 0.14428368 0.06256172
0.06256172 0.14353807 0.06256172
0.14258544 0.14068476 0.06256172
0.19089749 0.13365835 0.06256172
0.23175556 0.11613242 0.06256172
0.26949253 0.06256172 0.06256172
0.30535007 0.06256172 0.06256172
0.33987293 0.06256172 0.06256172
0.37335787 0.06256172 0.06256172
0.40599001 0.06256172 0.06256172
0.43789588 0.06256172 0.06256172
0.46916775 0.06256172 0.06256172
0.49987620 0.06256172 0.06256172
0.53007719 0.06256172 0.06256172
0.55981631 0.06256172 0.06256172
0.58913151 0.06256172 0.06256172
0.61805495 0.06256172 0.06256172
0.64661428 0.06256172 0.06256172
0.67483352 0.06256172 0.06256172
0.70273377 0.06256172 0.06256172
0.73033375 0.06256172 0.06256172
0.75765013 0.06256172 0.06256172
0.78469790 0.06256172 0.06256172
0.81149061 0.06256172 0.06256172
0.83804053 0.06256172 0.06256172
0.86435889 0.06256172 0.06256172
0.89045594 0.06256172 0.06256172
0.91634113 0.06256172 0.06256172
0.91886608 0.06256172 0.06256172
0.91886608 0.06256172 0.06256172
0.91886608 0.06256172 0.06256172
0.91886608 0.06256172 0.06256172
0.91886608 0.06256172 0.06256172
0.06256172 0.18058576 0.06256172
0.06256172 0.18022948 0.06256172
0.08496860 0.17890029 0.06256172
0.17835981 0.17586214 0.06256172
0.22569947 0.16977075 0.06256172
0.26606365 0.15759041 0.06256172
0.30324896 0.12784967 0.06256172
0.33852070 0.06256172 0.06256172
0.37245760 0.06256172 0.06256172
0.40537549 0.06256172 0.06256172
0.43746830 0.06256172 0.06256172
0.46886573 0.06256172 0.06256172
0.49966029 0.06256172 0.06256172
0.52992132 0.06256172 0.06256172
0.55970289 0.06256172 0.06256172
0.58904844 0.06256172 0.06256172
0.61799379 0.06256172 0.06256172
0.64656906 0.06256172 0.06256172
0.67479997 0.06256172 0.06256172
0.70270883 0.06256172 0.06256172
0.73031516 0.06256172 0.06256172
0.75763627 0.06256172 0.06256172
0.78468756 0.06256172 0.06256172
0.81148289 0.06256172 0.06256172
0.83803477 0.06256172 0.06256172
0.86435459 0.06256172 0.06256172
0.89045275 0.06256172 0.06256172
0.91633875 0.06256172 0.06256172
0.91886608 0.06256172 0.06256172
0.91886608 0.06256172 0.06256172
0.91886608 0.06256172 0.06256172
0.91886608 0.06256172 0.06256172
0.91886608 0.06256172 0.06256172
0.06256172 0.21545597 0.06256172
0.06256172 0.21525971 0.06256172
0.06256172 0.21453340 0.06256172
0.14214269 0.21290848 0.06256172
0.21279390 0.20980117 0.06256172
0.25928680 0.20421062 0.06256172
0.29922444 0.19414981 0.06256172
0.33597102 0.17440913 0.06256172
0.37077488 0.11050525 0.06256172
0.40423283 0.06256172 0.06256172
0.43667584 0.06256172 0.06256172
0.46830716 0.06256172 0.06256172
0.49926152 0.06256172 0.06256172
0.52963372 0.06256172 0.06256172
0.55949374 0.06256172 0.06256172
0.58889534 0.06256172 0.06256172
0.61788111 0.06256172 0.06256172
0.64648576 0.06256172 0.06256172
0.67473819 0.06256172 0.06256172
0.70266289 0.06256172 0.06256172
0.73028094 0.06256172 0.06256172
0.75761074 0.06256172 0.06256172
0.78466851 0.06256172 0.06256172
0.81146867 0.06256172 0.06256172
0.83802417 0.06256172 0.06256172
0.86434669 0.06256172 0.06256172
0.89044686 0.06256172 0.06256172
0.91633439 0.06256172 0.06256172
0.91886608 0.06256172 0.06256172
0.91886608 0.06256172 0.06256172
0.91886608 0.06256172 0.06256172
0.91886608 0.06256172 0.06256172
0.91886608 0.06256172 0.06256172
0.06256172 0.24924954 0.06256172
0.06256172 0.24913220 0.06256172
0.06256172 0.24869944 0.06256172
0.06256172 0.24773967 0.06256172
0.18210253 0.24593709 0.06256172
0.24621795 0.24280460 0.06256172
0.29196264 0.23753801 0.06256172
0.33150808 0.22865461 0.06256172
0.36787672 0.21284454 0.06256172
0.40228322 0.17890119 0.06256172
0.43533153 0.06256172 0.06256172
0.46736313 0.06256172 0.06256172
0.49858923 0.06256172 0.06256172
0.52914965 0.06256172 0.06256172
0.55914214 0.06256172 0.06256172
0.58863815 0.06256172 0.06256172
0.61769192 0.06256172 0.06256172
0.64634598 0.06256172 0.06256172
0.67463455 0.06256172 0.06256172
0.70258584 0.06256172 0.06256172
0.73022355 0.06256172 0.06256172
0.75756794 0.06256172 0.06256172
0.78463657 0.06256172 0.06256172
0.81144483 0.06256172 0.06256172
0.83800639 0.06256172 0.06256172
0.86433344 0.06256172 0.06256172
0.89043700 0.06256172 0.06256172
0.91632706 0.06256172 0.06256172
0.91886608 0.06256172 0.06256172
0.91886608 0.06256172 0.06256172
0.91886608 0.06256172 0.06256172
0.91886608 0.06256172 0.06256172
0.91886608 0.06256172 0.06256172
0.06256172 0.28218036 0.06256172
0.06256172 0.28210634 0.06256172
0.06256172 0.28183378 0.06256172
0.06256172 0.28123184 0.06256172
0.06256172 0.28011084 0.06256172
0.21842282 0.27819277 0.06256172
0.27883124 0.27505553 0.06256172
0.32390613 0.27002096 0.06256172
0.36308230 0.26189789 0.06256172
0.39911002 0.24826399 0.06256172
0.43316480 0.22261960 0.06256172
0.46585094 0.14188446 0.06256172
0.49751667 0.06256172 0.06256172
0.52837949 0.06256172 0.06256172
0.55858378 0.06256172 0.06256172
0.58823027 0.06256172 0.06256172
0.61739218 0.06256172 0.06256172
0.64612465 0.06256172 0.06256172
0.67447052 0.06256172 0.06256172
0.70246394 0.06256172 0.06256172
0.73013278 0.06256172 0.06256172
0.75750026 0.06256172 0.06256172
0.78458607 0.06256172 0.06256172
0.81140715 0.06256172 0.06256172
0.83797828 0.06256172 0.06256172
0.86431250 0.06256172 0.06256172
0.89042142 0.06256172 0.06256172
0.91631549 0.06256172 0.06256172
0.91886608 0.06256172 0.06256172
0.91886608 0.06256172 0.06256172
0.91886608 0.06256172 0.06256172
0.91886608 0.06256172 0.06256172
0.91886608 0.06256172 0.06256172
0.06256172 0.31439179 0.06256172
0.06256172 0.31434328 0.06256172
0.06256172 0.31416482 0.06256172
0.06256172 0.31377158 0.06256172
0.06256172 0.31304253 0.06256172
0.06256172 0.31180504 0.06256172
0.25288922 0.30980844 0.06256172
0.31076749 0.30667705 0.06256172
0.35523612 0.30181953 0.06256172
0.39406083 0.29423224 0.06256172
0.42977246 0.28199501 0.06256172
0.46350689 0.26057700 0.06256172
0.49586480 0.21261161 0.06256172
0.52719844 0.06256172 0.06256172
0.55773005 0.06256172 0.06256172
0.58760790 0.06256172 0.06256172
0.61693547 0.06256172 0.06256172
0.64578779 0.06256172 0.06256172
0.67422106 0.06256172 0.06256172
0.70227866 0.06256172 0.06256172
0.72999486 0.06256172 0.06256172
0.75739746 0.06256172 0.06256172
0.78450938 0.06256172 0.06256172
0.81134993 0.06256172 0.06256172
0.83793561 0.06256172 0.06256172
0.86428070 0.06256172 0.06256172
0.89039777 0.06256172 0.06256172
0.91629792 0.06256172 0.06256172
0.91886608 0.06256172 0.06256172
0.91886608 0.06256172 0.06256172
0.91886608 0.06256172 0.06256172
0.91886608 0.06256172 0.06256172
0.91886608 0.06256172 0.06256172
0.06256172 0.34598667 0.06256172
0.06256172 0.34595397 0.06256172
0.06256172 0.34583371 0.06256172
0.06256172 0.34556909 0.06256172
0.06256172 0.34507972 0.06256172
0.06256172 0.34425284 0.06256172
0.17232425 0.34292876 0.06256172
0.28614015 0.34087743 0.06256172
0.34212281 0.33775774 0.06256172
0.38603751 0.33304130 0.06256172
0.42452576 0.32585364 0.06256172
0.45993916 0.31459204 0.06256172
0.49337586 0.29577353 0.06256172
0.52543069 0.25872918 0.06256172
0.55645797 0.06256172 0.06256172
0.58668345 0.06256172 0.06256172
0.61625858 0.06256172 0.06256172
0.64528930 0.06256172 0.06256172
0.67385234 0.06256172 0.06256172
0.70200501 0.06256172 0.06256172
0.72979131 0.06256172 0.06256172
0.75724580 0.06256172 0.06256172
0.78439629 0.06256172 0.06256172
0.81126558 0.06256172 0.06256172
0.83787271 0.06256172 0.06256172
0.86423384 0.06256172 0.06256172
0.89036290 0.06256172 0.06256172
0.91627204 0.06256172 0.06256172
0.91886608 0.06256172 0.06256172
0.91886608 0.06256172 0.06256172
0.91886608 0.06256172 0.06256172
0.91886608 0.06256172 0.06256172
0.91886608 0.06256172 0.06256172
0.06256172 0.37704245 0.06256172
0.06256172 0.37701991 0.06256172
0.06256172 0.37693708 0.06256172
0.06256172 0.37675494 0.06256172
0.06256172 0.37641864 0.06256172
0.06256172 0.37585194 0.06256172
0.06256172 0.37494854 0.06256172
0.22309636 0.37355890 0.06256172
0.31848956 0.37146904 0.06256172
0.37296961 0.36836444 0.06256172
0.41637415 0.36376395 0.06256172
0.45453901 0.35688647 0.06256172
0.48966779 0.34634481 0.06256172
0.52282371 0.32929151 0.06256172
0.55459465 0.29807316 0.06256172
0.58533561 0.20647577 0.06256172
0.61527490 0.06256172 0.06256172
0.64456655 0.06256172 0.06256172
0.67331863 0.06256172 0.06256172
0.70160942 0.06256172 0.06256172
0.72949729 0.06256172 0.06256172
0.75702689 0.06256172 0.06256172
0.78423312 0.06256172 0.06256172
0.81114392 0.06256172 0.06256172
0.83778202 0.06256172 0.06256172
0.86416630 0.06256172 0.06256172
0.89031266 0.06256172 0.06256172
0.91623474 0.06256172 0.06256172
0.91886608 0.06256172 0.06256172
0.91886608 0.06256172 0.06256172
0.91886608 0.06256172 0.06256172
0.91886608 0.06256172 0.06256172
0.91886608 0.06256172 0.06256172
0.06256172 0.40761953 0.06256172
0.06256172 0.40760374 0.06256172
0.06256172 0.40754568 0.06256172
0.06256172 0.40741809 0.06256172
0.06256172 0.40718275 0.06256172
0.06256172 0.40678683 0.06256172
0.06256172 0.40615745 0.06256172
0.06256172 0.40519358 0.06256172
0.26412280 0.40375381 0.06256172
0.35012121 0.40163695 0.06256172
0.40336445 0.39854941 0.06256172
0.44629589 0.39404645 0.06256172
0.48414901 0.38741679 0.06256172
0.51900394 0.37742693 0.06256172
0.55189219 0.36164768 0.06256172
0.58339420 0.33408945 0.06256172
0.61386475 0.26934467 0.06256172
0.64353397 0.06256172 0.06256172
0.67255796 0.06256172 0.06256172
0.70104659 0.06256172 0.06256172
0.72907953 0.06256172 0.06256172
0.75671613 0.06256172 0.06256172
0.78400167 0.06256172 0.06256172
0.81097143 0.06256172 0.06256172
0.83765349 0.06256172 0.06256172
0.86407059 0.06256172 0.06256172
0.89024149 0.06256172 0.06256172
0.91618191 0.06256172 0.06256172
0.91886608 0.06256172 0.06256172
0.91886608 0.06256172 0.06256172
0.91886608 0.06256172 0.06256172
0.91886608 0.06256172 0.06256172
0.91886608 0.06256172 0.06256172
0.06256172 0.43776637 0.06256172
0.06256172 0.43775514 0.06256172
0.06256172 0.43771389 0.06256172
0.06256172 0.43762325 0.06256172
0.06256172 0.43745616 0.06256172
0.06256172 0.43717539 0.06256172
0.06256172 0.43672987 0.06256172
0.06256172 0.43604949 0.06256172
0.06256172 0.43503756 0.06256172
0.30113392 0.43355932 0.06256172
0.38115519 0.43142397 0.06256172
0.43335271 0.42835463 0.06256172
0.47584281 0.42393518 0.06256172
0.51339463 0.41750784 0.06256172
0.54798452 0.40795258 0.06256172
0.58061547 0.39313095 0.06256172
0.61186044 0.36808120 0.06256172
0.64207342 0.31526400 0.06256172
0.67148576 0.06256172 0.06256172
0.70025523 0.06256172 0.06256172
0.72849321 0.06256172 0.06256172
0.75628058 0.06256172 0.06256172
0.78367759 0.06256172 0.06256172
0.81073010 0.06256172 0.06256172
0.83747377 0.06256172 0.06256172
0.86393683 0.06256172 0.06256172
0.89014205 0.06256172 0.06256172
0.91610810 0.06256172 0.06256172
0.91886608 0.06256172 0.06256172
0.91886608 0.06256172 0.06256172
0.91886608 0.06256172 0.06256172
0.91886608 0.06256172 0.06256172
0.91886608 0.06256172 0.06256172
0.06256172 0.46752266 0.06256172
0.06256172 0.46751459 0.06256172
0.06256172 0.46748494 0.06256172
0.06256172 0.46741982 0.06256172
0.06256172 0.46729982 0.06256172
0.06256172 0.46709833 0.06256172
0.06256172 0.46677898 0.06256172
0.06256172 0.46629221 0.06256172
0.06256172 0.46557027 0.06256172
0.06256172 0.46452010 0.06256172
0.33587367 0.46301247 0.06256172
0.41167610 0.46086507 0.06256172
0.46297164 0.45781456 0.06256172
0.50504786 0.45346763 0.06256172
0.54230778 0.44720820 0.06256172
0.57663999 0.43800201 0.06256172
0.60902199 0.42392050 0.06256172
0.64001952 0.40068359 0.06256172
0.66998541 0.35480423 0.06256172
0.69915180 0.06256172 0.06256172
0.72767778 0.06256172 0.06256172
0.75567599 0.06256172 0.06256172
0.78322836 0.06256172 0.06256172
0.81039592 0.06256172 0.06256172
0.83722509 0.06256172 0.06256172
0.86375185 0.06256172 0.06256172
0.89000459 0.06256172 0.06256172
0.91600613 0.06256172 0.06256172
0.91886608 0.06256172 0.06256172
0.91886608 0.06256172 0.06256172
0.91886608 0.06256172 0.06256172
0.91886608 0.06256172 0.06256172
0.91886608 0.06256172 0.06256172
0.06256172 0.49692155 0.06256172
0.06256172 0.49691569 0.06256172
0.06256172 0.49689419 0.06256172
0.06256172 0.49684697 0.06256172
0.06256172 0.49675998 0.06256172
0.06256172 0.49661398 0.06256172
0.06256172 0.49638279 0.06256172
0.06256172 0.49603082 0.06256172
0.06256172 0.49550983 0.06256172
0.06256172 0.49475409 0.06256172
0.06256172 0.49367362 0.06256172
0.36911178 0.49214381 0.06256172
0.44174682 0.48998937 0.06256172
0.49225232 0.48695802 0.06256172
0.53393863 0.48267478 0.06256172
0.57091511 0.47655641 0.06256172
0.60499588 0.46763456 0.06256172
0.63713576 0.45413604 0.06256172
0.66789371 0.43225435 0.06256172
0.69762115 0.39090296 0.06256172
0.72655072 0.22869871 0.06256172
0.75484253 0.06256172 0.06256172
0.78261028 0.06256172 0.06256172
0.80993681 0.06256172 0.06256172
0.83688381 0.06256172 0.06256172
0.86349818 0.06256172 0.06256172
0.88981621 0.06256172 0.06256172
0.91586643 0.06256172 0.06256172
0.91886608 0.06256172 0.06256172
0.91886608 0.06256172 0.06256172
0.91886608 0.06256172 0.06256172
0.91886608 0.06256172 0.06256172
0.91886608 0.06256172 0.06256172
0.06256172 0.52599110 0.06256172
0.06256172 0.52598682 0.06256172
0.06256172 0.52597111 0.06256172
0.06256172 0.52593661 0.06256172
0.06256172 0.52587307 0.06256172
0.06256172 0.52576646 0.06256172
0.06256172 0.52559773 0.06256172
0.06256172 0.52534109 0.06256172
0.06256172 0.52496171 0.06256172
0.06256172 0.52441245 0.06256172
0.06256172 0.52362940 0.06256172
0.06256172 0.52252515 0.06256172
0.40125805 0.52097901 0.06256172
0.47141601 0.51882152 0.06256172
0.52122111 0.51580945 0.06256172
0.56253856 0.51158262 0.06256172
0.59923925 0.50558385 0.06256172
0.63307389 0.49689583 0.06256172
0.66497731 0.48386209 0.06256172
0.69550214 0.46301504 0.06256172
0.72499833 0.42480787 0.06256172
0.75369876 0.30993813 0.06256172
0.78176436 0.06256172 0.06256172
0.80930969 0.06256172 0.06256172
0.83641833 0.06256172 0.06256172
0.86315260 0.06256172 0.06256172
0.88955977 0.06256172 0.06256172
0.91567639 0.06256172 0.06256172
0.91886608 0.06256172 0.06256172
0.91886608 0.06256172 0.06256172
0.91886608 0.06256172 0.06256172
0.91886608 0.06256172 0.06256172
0.91886608 0.06256172 0.06256172
0.06256172 0.55475540 0.06256172
0.06256172 0.55475225 0.06256172
0.06256172 0.55474070 0.06256172
0.06256172 0.55471534 0.06256172
0.06256172 0.55466863 0.06256172
0.06256172 0.55459029 0.06256172
0.06256172 0.55446636 0.06256172
0.06256172 0.55427797 0.06256172
0.06256172 0.55399972 0.06256172
0.06256172 0.55359745 0.06256172
0.06256172 0.55302506 0.06256172
0.06256172 0.55222015 0.06256172
0.25025451 0.55109758 0.06256172
0.43255793 0.54953993 0.06256172
0.50072251 0.54738261 0.06256172
0.54990065 0.54438984 0.06256172
0.59086782 0.54021336 0.06256172
0.62729961 0.53431662 0.06256172
0.66089271 0.52582192 0.06256172
0.69256436 0.51316097 0.06256172
0.72286142 0.49311252 0.06256172
0.75213236 0.45716446 0.06256172
0.78061017 0.36146353 0.06256172
0.80845637 0.06256172 0.06256172
0.83578625 0.06256172 0.06256172
0.86268403 0.06256172 0.06256172
0.88921247 0.06256172 0.06256172
0.91541924 0.06256172 0.06256172
0.91886608 0.06256172 0.06256172
0.91886608 0.06256172 0.06256172
0.91886608 0.06256172 0.06256172
0.91886608 0.06256172 0.06256172
0.91886608 0.06256172 0.06256172
0.06256172 0.58323532 0.06256172
0.06256172 0.58323299 0.06256172
0.06256172 0.58322446 0.06256172
0.06256172 0.58320572 0.06256172
0.06256172 0.58317122 0.06256172
0.06256172 0.58311336 0.06256172
0.06256172 0.58302185 0.06256172
0.06256172 0.58288281 0.06256172
0.06256172 0.58267759 0.06256172
0.06256172 0.58238118 0.06256172
0.06256172 0.58196000 0.06256172
0.06256172 0.58136890 0.06256172
0.06256172 0.58054681 0.06256172
0.31042057 0.57941054 0.06256172
0.46317094 0.57784544 0.06256172
0.52969804 0.57569096 0.06256172
0.57831055 0.57271741 0.06256172
0.61894397 0.56858611 0.06256172
0.65511305 0.56277675 0.06256172
0.68846854 0.55444212 0.06256172
0.71991232 0.54208020 0.06256172
0.74998607 0.52264915 0.06256172
0.77903683 0.48834828 0.06256172
0.80729755 0.40332854 0.06256172
0.83493025 0.06256172 0.06256172
0.86205076 0.06256172 0.06256172
0.88874383 0.06256172 0.06256172
0.91507263 0.06256172 0.06256172
0.91886608 0.06256172 0.06256172
0.91886608 0.06256172 0.06256172
0.91886608 0.06256172 0.06256172
0.91886608 0.06256172 0.06256172
0.91886608 0.06256172 0.06256172
0.06256172 0.61144914 0.06256172
0.06256172 0.61144741 0.06256172
0.06256172 0.61144108 0.06256172
0.06256172 0.61142719 0.06256172
0.06256172 0.61140160 0.06256172
0.06256172 0.61135869 0.06256172
0.06256172 0.61129084 0.06256172
0.06256172 0.61118778 0.06256172
0.06256172 0.61103575 0.06256172
0.06256172 0.61081631 0.06256172
0.06256172 0.61050481 0.06256172
0.06256172 0.61006825 0.06256172
0.06256172 0.60946231 0.06256172
0.06256172 0.60862709 0.06256172
0.35618438 0.60748108 0.06256172
0.49320720 0.60591197 0.06256172
0.55836906 0.60376258 0.06256172
0.60646801 0.60080814 0.06256172
0.64678243 0.59671757 0.06256172
0.68269435 0.59098314 0.06256172
0.71581559 0.58278066 0.06256172
0.74703474 0.57065699 0.06256172
0.77688889 0.55169902 0.06256172
0.80572372 0.51859527 0.06256172
0.83377209 0.44016162 0.06256172
0.86119638 0.06256172 0.06256172
0.88811286 0.06256172 0.06256172
0.91460670 0.06256172 0.06256172
0.91886608 0.06256172 0.06256172
0.91886608 0.06256172 0.06256172
0.91886608 0.06256172 0.06256172
0.91886608 0.06256172 0.06256172
0.91886608 0.06256172 0.06256172
0.06256172 0.63941298 0.06256172
0.06256172 0.63941170 0.06256172
0.06256172 0.63940699 0.06256172
0.06256172 0.63939665 0.06256172
0.06256172 0.63937761 0.06256172
0.06256172 0.63934569 0.06256172
0.06256172 0.63929522 0.06256172
0.06256172 0.63921859 0.06256172
0.06256172 0.63910556 0.06256172
0.06256172 0.63894251 0.06256172
0.06256172 0.63871123 0.06256172
0.06256172 0.63838743 0.06256172
0.06256172 0.63793862 0.06256172
0.06256172 0.63732123 0.06256172
0.06256172 0.63647643 0.06256172
0.39579800 0.63532412 0.06256172
0.52274634 0.63375398 0.06256172
0.58675798 0.63161160 0.06256172
0.63438821 0.62867613 0.06256172
0.67439683 0.62462241 0.06256172
0.71005655 0.61895213 0.06256172
0.74294639 0.61085789 0.06256172
0.77394360 0.59892110 0.06256172
0.80358121 0.58031729 0.06256172
0.83220369 0.54806147 0.06256172
0.86004377 0.47378841 0.06256172
0.88726407 0.06256172 0.06256172
0.91398124 0.06256172 0.06256172
0.91886608 0.06256172 0.06256172
0.91886608 0.06256172 0.06256172
0.91886608 0.06256172 0.06256172
0.91886608 0.06256172 0.06256172
0.91886608 0.06256172 0.06256172
0.06256172 0.66714120 0.06256172
0.06256172 0.66714024 0.06256172
0.06256172 0.66713673 0.06256172
0.06256172 0.66712901 0.06256172
0.06256172 0.66711482 0.06256172
0.06256172 0.66709101 0.06256172
0.06256172 0.66705338 0.06256172
0.06256172 0.66699625 0.06256172
0.06256172 0.66691201 0.06256172
0.06256172 0.66679053 0.06256172
0.06256172 0.66661830 0.06256172
0.06256172 0.66637736 0.06256172
0.06256172 0.66604375 0.06256172
0.06256172 0.66558550 0.06256172
0.06256172 0.66495969 0.06256172
0.06256172 0.66410842 0.06256172
0.43191248 0.66295284 0.06256172
0.55184802 0.66138428 0.06256172
0.61488401 0.65925057 0.06256172
0.66208465 0.65633395 0.06256172
0.70179932 0.65231363 0.06256172
0.73721124 0.64669804 0.06256172
0.76987210 0.63869114 0.06256172
0.80064952 0.62689674 0.06256172
0.83007312 0.60854588 0.06256172
0.85848626 0.57685342 0.06256172
0.88612153 0.50509701 0.06256172
0.91314172 0.06256172 0.06256172
0.91886608 0.06256172 0.06256172
0.91886608 0.06256172 0.06256172
0.91886608 0.06256172 0.06256172
0.91886608 0.06256172 0.06256172
0.91886608 0.06256172 0.06256172
0.06256172 0.69464660 0.06256172
0.06256172 0.69464588 0.06256172
0.06256172 0.69464326 0.06256172
0.06256172 0.69463750 0.06256172
0.06256172 0.69462689 0.06256172
0.06256172 0.69460911 0.06256172
0.06256172 0.69458100 0.06256172
0.06256172 0.69453833 0.06256172
0.06256172 0.69447543 0.06256172
0.06256172 0.69438475 0.06256172
0.06256172 0.69425623 0.06256172
0.06256172 0.69407654 0.06256172
0.06256172 0.69382793 0.06256172
0.06256172 0.69348679 0.06256172
0.06256172 0.69302160 0.06256172
0.06256172 0.69239008 0.06256172
0.06256172 0.69153513 0.06256172
0.46572210 0.69037897 0.06256172
0.58055823 0.68881431 0.06256172
0.64276382 0.68669075 0.06256172
0.68956940 0.68379282 0.06256172
0.72900082 0.67980284 0.06256172
0.76416880 0.67423351 0.06256172
0.79660264 0.66629535 0.06256172
0.82716201 0.65460385 0.06256172
0.85637364 0.63641706 0.06256172
0.88457997 0.60504489 0.06256172
0.91201341 0.53456225 0.06256172
0.91886608 0.06256172 0.06256172
0.91886608 0.06256172 0.06256172
0.91886608 0.06256172 0.06256172
0.91886608 0.06256172 0.06256172
0.91886608 0.06256172 0.06256172
0.06256172 0.72194073 0.06256172
0.06256172 0.72194020 0.06256172
0.06256172 0.72193824 0.06256172
0.06256172 0.72193393 0.06256172
0.06256172 0.72192600 0.06256172
0.06256172 0.72191270 0.06256172
0.06256172 0.72189168 0.06256172
0.06256172 0.72185978 0.06256172
0.06256172 0.72181276 0.06256172
0.06256172 0.72174498 0.06256172
0.06256172 0.72164895 0.06256172
0.06256172 0.72151474 0.06256172
0.06256172 0.72132916 0.06256172
0.06256172 0.72107471 0.06256172
0.06256172 0.72072811 0.06256172
0.06256172 0.72025826 0.06256172
0.06256172 0.71962345 0.06256172
0.06256172 0.71876733 0.06256172
0.49786445 0.71761301 0.06256172
0.60891324 0.71605433 0.06256172
0.67041201 0.71394223 0.06256172
0.71685335 0.71106289 0.06256172
0.75601113 0.70710046 0.06256172
0.79093855 0.70156975 0.06256172
0.82314694 0.69368343 0.06256172
0.85348959 0.68205898 0.06256172
0.88249088 0.66395572 0.06256172
