src/ffmpeg_scripts/luts/rec2020-sRGB_1p33.cube
TITLE "rec2020-srgb_1p33"
LUT_3D_SIZE 5
# PQ (EOTF Only)/Rec2020 -> PQ (EOTF Only)/Rec709, CineEI Shift 1.33, Black Level 0.00% IRE, Input 100% -> Output 109% - Created with LUTCalc v4.01 by Ben Turley October 2020
0.06256172 0.06256172 0.06256172
0.37387520 0.06256172 0.06256172
0.61809038 0.06256172 0.06256172
0.83804387 0.06256172 0.06256172
0.91886608 0.06256172 0.06256172
0.06256172 0.34598667 0.06256172
0.34212281 0.33775774 0.06256172
0.61625858 0.06256172 0.06256172
0.83787271 0.06256172 0.06256172
0.91886608 0.06256172 0.06256172
0.06256172 0.58323532 0.06256172
0.06256172 0.58267759 0.06256172
0.57831055 0.57271741 0.06256172
0.83493025 0.06256172 0.06256172
0.91886608 0.06256172 0.06256172
0.06256172 0.80265529 0.06256172
0.06256172 0.80260175 0.06256172
0.06256172 0.80169233 0.06256172
0.79759445 0.79182789 0.06256172
0.91886608 0.06256172 0.06256172
0.06256172 0.91886608 0.06256172
0.06256172 0.91886608 0.06256172
0.06256172 0.91886608 0.06256172
0.06256172 0.91886608 0.06256172
0.91886608 0.91886608 0.06256172
0.06256172 0.06256172 0.34509123
0.37053487 0.06256172 0.34392975
0.61786521 0.06256172 0.32126521
0.83802267 0.06256172 0.06256172
0.91886608 0.06256172 0.06256172
0.06256172 0.34546024 0.33843635
0.33717514 0.33717514 0.33717514
0.61602900 0.06256172 0.31216826
0.83785147 0.06256172 0.06256172
0.91886608 0.06256172 0.06256172
0.06256172 0.58319803 0.06256172
0.06256172 0.58264008 0.06256172
0.57796723 0.57267572 0.06256172
0.83490830 0.06256172 0.06256172
0.91886608 0.06256172 0.06256172
0.06256172 0.80265170 0.06256172
0.06256172 0.80259816 0.06256172
0.06256172 0.80168870 0.06256172
0.79756136 0.79182385 0.06256172
0.91886608 0.06256172 0.06256172
0.06256172 0.91886608 0.06256172
0.06256172 0.91886608 0.06256172
0.06256172 0.91886608 0.06256172
0.06256172 0.91886608 0.06256172
0.91886608 0.91886608 0.06256172
0.06256172 0.06256172 0.58209618
0.27020245 0.06256172 0.58201412
0.61397706 0.06256172 0.58061665
0.83766367 0.06256172 0.56498259
0.91886608 0.06256172 0.06256172
0.06256172 0.33600905 0.58164056
0.06256172 0.32663499 0.58155811
0.61206300 0.06256172 0.58015381
0.83749178 0.06256172 0.56443592
0.91886608 0.06256172 0.06256172
0.06256172 0.58256578 0.57358903
0.06256172 0.58200406 0.57349921
0.57196849 0.57196849 0.57196849
0.83453665 0.06256172 0.55468257
0.91886608 0.06256172 0.06256172
0.06256172 0.80259105 0.32449894
0.06256172 0.80253748 0.32299627
0.06256172 0.80162741 0.29193285
0.79700039 0.79175559 0.06256172
0.91886608 0.06256172 0.06256172
0.06256172 0.91886608 0.06256172
0.06256172 0.91886608 0.06256172
0.06256172 0.91886608 0.06256172
0.06256172 0.91886608 0.06256172
0.91886608 0.91886608 0.06256172
0.06256172 0.06256172 0.80148605
0.06256172 0.06256172 0.80147815
0.56088339 0.06256172 0.80134455
0.83390571 0.06256172 0.79996619
0.91886608 0.06256172 0.78471322
0.06256172 0.06256172 0.80144226
0.06256172 0.06256172 0.80143436
0.55749637 0.06256172 0.80130069
0.83372650 0.06256172 0.79992167
0.91886608 0.06256172 0.78466064
0.06256172 0.57584042 0.80069917
0.06256172 0.57523703 0.80069121
0.46598946 0.56440918 0.80055645
0.83064329 0.06256172 0.79916608
0.91886608 0.06256172 0.78376775
0.06256172 0.80196816 0.79272786
0.06256172 0.80191422 0.79271917
0.06256172 0.80099789 0.79257216
0.79105422 0.79105422 0.79105422
0.91886608 0.06256172 0.77409709
0.06256172 0.91886608 0.57399593
0.06256172 0.91886608 0.57390650
0.06256172 0.91886608 0.57238244
0.06256172 0.91886608 0.55517986
0.91886608 0.91886608 0.06256172
0.06256172 0.06256172 0.91886608
0.06256172 0.06256172 0.91886608
0.06256172 0.06256172 0.91886608
0.78325861 0.06256172 0.91886608
0.91886608 0.06256172 0.91886608
0.06256172 0.06256172 0.91886608
0.06256172 0.06256172 0.91886608
0.06256172 0.06256172 0.91886608
0.78294612 0.06256172 0.91886608
0.91886608 0.06256172 0.91886608
0.06256172 0.44424574 0.91886608
0.06256172 0.44171050 0.91886608
0.06256172 0.38188625 0.91886608
0.77749911 0.06256172 0.91886608
0.91886608 0.06256172 0.91886608
0.06256172 0.79541501 0.91886608
0.06256172 0.79535707 0.91886608
0.06256172 0.79437238 0.91886608
0.68815974 0.78363920 0.91886608
0.91886608 0.06256172 0.91886608
0.06256172 0.91886608 0.91886608
0.06256172 0.91886608 0.91886608
0.06256172 0.91886608 0.91886608
0.06256172 0.91886608 0.91886608
0.91886608 0.91886608 0.91886608
