src/ffmpeg_scripts/luts/rec2020-sRGB_3p33.cube
TITLE "rec2020-srgb_3p33"
LUT_3D_SIZE 5
# PQ (EOTF Only)/Rec2020 -> PQ (EOTF Only)/Rec709, CineEI Shift 3.33, Black Level 0.00% IRE, Input 100% -> Output 109% - Created with LUTCalc v4.01 by Ben Turley October 2020
0.06256172 0.06256172 0.06256172
0.48499719 0.06256172 0.06256172
0.74692448 0.06256172 0.06256172
0.91886608 0.06256172 0.06256172
0.91886608 0.06256172 0.06256172
0.06256172 0.45294457 0.06256172
0.44845854 0.44337676 0.06256172
0.74505873 0.06256172 0.06256172
0.91886608 0.06256172 0.06256172
0.91886608 0.06256172 0.06256172
0.06256172 0.71120650 0.06256172
0.06256172 0.71063116 0.06256172
0.70612192 0.70033555 0.06256172
0.91886608 0.06256172 0.06256172
0.91886608 0.06256172 0.06256172
0.06256172 0.91886608 0.06256172
0.06256172 0.91886608 0.06256172
0.06256172 0.91886608 0.06256172
0.91886608 0.91881754 0.06256172
0.91886608 0.06256172 0.06256172
0.06256172 0.91886608 0.06256172
0.06256172 0.91886608 0.06256172
0.06256172 0.91886608 0.06256172
0.06256172 0.91886608 0.06256172
0.91886608 0.91886608 0.06256172
0.06256172 0.06256172 0.45190596
0.48118733 0.06256172 0.45055785
0.74669520 0.06256172 0.42403935
0.91886608 0.06256172 0.06256172
0.91886608 0.06256172 0.06256172
0.06256172 0.45233404 0.44416777
0.44269737 0.44269737 0.44269737
0.74482481 0.06256172 0.41327678
0.91886608 0.06256172 0.06256172
0.91886608 0.06256172 0.06256172
0.06256172 0.71116804 0.06256172
0.06256172 0.71059246 0.06256172
0.70576710 0.70029237 0.06256172
0.91886608 0.06256172 0.06256172
0.91886608 0.06256172 0.06256172
0.06256172 0.91886608 0.06256172
0.06256172 0.91886608 0.06256172
0.06256172 0.91886608 0.06256172
0.91886608 0.91881365 0.06256172
0.91886608 0.06256172 0.06256172
0.06256172 0.91886608 0.06256172
0.06256172 0.91886608 0.06256172
0.06256172 0.91886608 0.06256172
0.06256172 0.91886608 0.06256172
0.91886608 0.91886608 0.06256172
0.06256172 0.06256172 0.71003125
0.36264889 0.06256172 0.70994657
0.74273319 0.06256172 0.70850405
0.91886608 0.06256172 0.69231267
0.91886608 0.06256172 0.06256172
0.06256172 0.44133677 0.70956105
0.06256172 0.43035964 0.70947594
0.74078072 0.06256172 0.70802612
0.91886608 0.06256172 0.69174471
0.91886608 0.06256172 0.06256172
0.06256172 0.71051580 0.70123810
0.06256172 0.70993619 0.70114512
0.69955980 0.69955980 0.69955980
0.91886608 0.06256172 0.68159087
0.91886608 0.06256172 0.06256172
0.06256172 0.91886608 0.42784834
0.06256172 0.91886608 0.42607943
0.06256172 0.91886608 0.38907426
0.91886608 0.91874790 0.06256172
0.91886608 0.06256172 0.06256172
0.06256172 0.91886608 0.06256172
0.06256172 0.91886608 0.06256172
0.06256172 0.91886608 0.06256172
0.06256172 0.91886608 0.06256172
0.91886608 0.91886608 0.06256172
0.06256172 0.06256172 0.91886608
0.06256172 0.06256172 0.91886608
0.68805088 0.06256172 0.91886608
0.91886608 0.06256172 0.91886608
0.91886608 0.06256172 0.91195707
0.06256172 0.06256172 0.91886608
0.06256172 0.06256172 0.91886608
0.68452426 0.06256172 0.91886608
0.91886608 0.06256172 0.91886608
0.91886608 0.06256172 0.91190632
0.06256172 0.70356801 0.91886608
0.06256172 0.70294377 0.91886608
0.58730607 0.69171692 0.91886608
0.91886608 0.06256172 0.91886608
0.91886608 0.06256172 0.91104434
0.06256172 0.91886608 0.91886608
0.06256172 0.91886608 0.91886608
0.06256172 0.91886608 0.91886608
0.91807218 0.91807218 0.91807218
0.91886608 0.06256172 0.90169423
0.06256172 0.91886608 0.70165935
0.06256172 0.91886608 0.70156677
0.06256172 0.91886608 0.69998861
0.06256172 0.91886608 0.68210954
0.91886608 0.91886608 0.06256172
0.06256172 0.06256172 0.91886608
0.06256172 0.06256172 0.91886608
0.06256172 0.06256172 0.91886608
0.91055272 0.06256172 0.91886608
0.91886608 0.06256172 0.91886608
0.06256172 0.06256172 0.91886608
0.06256172 0.06256172 0.91886608
0.06256172 0.06256172 0.91886608
0.91025095 0.06256172 0.91886608
0.91886608 0.06256172 0.91886608
0.06256172 0.56360004 0.91886608
0.06256172 0.56081930 0.91886608
0.06256172 0.49410322 0.91886608
0.90498645 0.06256172 0.91886608
0.91886608 0.06256172 0.91886608
0.06256172 0.91886608 0.91886608
0.06256172 0.91886608 0.91886608
0.06256172 0.91886608 0.91886608
0.81740477 0.91092022 0.91886608
0.91886608 0.06256172 0.91886608
0.06256172 0.91886608 0.91886608
0.06256172 0.91886608 0.91886608
0.06256172 0.91886608 0.91886608
0.06256172 0.91886608 0.91886608
0.91886608 0.91886608 0.91886608
