src/ffmpeg_scripts/luts/rec2020-sRGB_-0p33.cube
TITLE "rec2020-srgb_-0p33"
LUT_3D_SIZE 33
# PQ (EOTF Only)/Rec2020 -> PQ (EOTF Only)/Rec709, CineEI Shift -0.33, Black Level 0.00% IRE, Input 100% -> Output 109% - Created with LUTCalc v4.01 by Ben Turley October 2020
0.06256172 0.06256172 0.06256172
0.09303969 0.06256172 0.06256172
0.12261743 0.06256172 0.06256172
0.15175049 0.06256172 0.06256172
0.18057350 0.06256172 0.06256172
0.20915575 0.06256172 0.06256172
0.23754016 0.06256172 0.06256172
0.26575613 0.06256172 0.06256172
0.29382514 0.06256172 0.06256172
0.32176362 0.06256172 0.06256172
0.34958458 0.06256172 0.06256172
0.37729857 0.06256172 0.06256172
0.40491434 0.06256172 0.06256172
0.43243928 0.06256172 0.06256172
0.45987970 0.06256172 0.06256172
0.48724105 0.06256172 0.06256172
0.51452812 0.06256172 0.06256172
0.54174512 0.06256172 0.06256172
0.56889579 0.06256172 0.06256172
0.59598349 0.06256172 0.06256172
0.62301123 0.06256172 0.06256172
0.64998175 0.06256172 0.06256172
0.67689755 0.06256172 0.06256172
0.70376088 0.06256172 0.06256172
0.73057385 0.06256172 0.06256172
0.75733836 0.06256172 0.06256172
0.78405621 0.06256172 0.06256172
0.81072903 0.06256172 0.06256172
0.83735836 0.06256172 0.06256172
0.86394562 0.06256172 0.06256172
0.89049215 0.06256172 0.06256172
0.91699921 0.06256172 0.06256172
0.91886608 0.06256172 0.06256172
0.06256172 0.08799589 0.06256172
0.08733902 0.08660895 0.06256172
0.12069155 0.08040941 0.06256172
0.15080861 0.06256172 0.06256172
0.18004306 0.06256172 0.06256172
0.20883249 0.06256172 0.06256172
0.23733282 0.06256172 0.06256172
0.26561825 0.06256172 0.06256172
0.29373096 0.06256172 0.06256172
0.32169796 0.06256172 0.06256172
0.34953806 0.06256172 0.06256172
0.37726518 0.06256172 0.06256172
0.40489013 0.06256172 0.06256172
0.43242157 0.06256172 0.06256172
0.45986665 0.06256172 0.06256172
0.48723139 0.06256172 0.06256172
0.51452093 0.06256172 0.06256172
0.54173975 0.06256172 0.06256172
0.56889177 0.06256172 0.06256172
0.59598047 0.06256172 0.06256172
0.62300896 0.06256172 0.06256172
0.64998005 0.06256172 0.06256172
0.67689626 0.06256172 0.06256172
0.70375992 0.06256172 0.06256172
0.73057312 0.06256172 0.06256172
0.75733782 0.06256172 0.06256172
0.78405580 0.06256172 0.06256172
0.81072873 0.06256172 0.06256172
0.83735813 0.06256172 0.06256172
0.86394545 0.06256172 0.06256172
0.89049203 0.06256172 0.06256172
0.91699911 0.06256172 0.06256172
0.91886608 0.06256172 0.06256172
0.06256172 0.11372053 0.06256172
0.06256172 0.11320358 0.06256172
0.11254403 0.11123124 0.06256172
0.14717332 0.10641552 0.06256172
0.17804882 0.09468203 0.06256172
0.20763011 0.06256172 0.06256172
0.23656554 0.06256172 0.06256172
0.26510943 0.06256172 0.06256172
0.29338399 0.06256172 0.06256172
0.32145629 0.06256172 0.06256172
0.34936693 0.06256172 0.06256172
0.37714241 0.06256172 0.06256172
0.40480111 0.06256172 0.06256172
0.43235647 0.06256172 0.06256172
0.45981871 0.06256172 0.06256172
0.48719588 0.06256172 0.06256172
0.51449452 0.06256172 0.06256172
0.54172003 0.06256172 0.06256172
0.56887700 0.06256172 0.06256172
0.59596939 0.06256172 0.06256172
0.62300064 0.06256172 0.06256172
0.64997379 0.06256172 0.06256172
0.67689156 0.06256172 0.06256172
0.70375638 0.06256172 0.06256172
0.73057046 0.06256172 0.06256172
0.75733582 0.06256172 0.06256172
0.78405431 0.06256172 0.06256172
0.81072761 0.06256172 0.06256172
0.83735730 0.06256172 0.06256172
0.86394483 0.06256172 0.06256172
0.89049157 0.06256172 0.06256172
0.91699878 0.06256172 0.06256172
0.91886608 0.06256172 0.06256172
0.06256172 0.13959541 0.06256172
0.06256172 0.13933527 0.06256172
0.07505055 0.13836574 0.06256172
0.13797197 0.13615572 0.06256172
0.17339239 0.13175052 0.06256172
0.20490386 0.12304974 0.06256172
0.23484937 0.10248079 0.06256172
0.26397948 0.06256172 0.06256172
0.29261660 0.06256172 0.06256172
0.32092312 0.06256172 0.06256172
0.34898999 0.06256172 0.06256172
0.37687224 0.06256172 0.06256172
0.40460536 0.06256172 0.06256172
0.43221338 0.06256172 0.06256172
0.45971337 0.06256172 0.06256172
0.48711789 0.06256172 0.06256172
0.51443650 0.06256172 0.06256172
0.54167671 0.06256172 0.06256172
0.56884457 0.06256172 0.06256172
0.59594506 0.06256172 0.06256172
0.62298236 0.06256172 0.06256172
0.64996005 0.06256172 0.06256172
0.67688122 0.06256172 0.06256172
0.70374861 0.06256172 0.06256172
0.73056462 0.06256172 0.06256172
0.75733144 0.06256172 0.06256172
0.78405103 0.06256172 0.06256172
0.81072516 0.06256172 0.06256172
0.83735547 0.06256172 0.06256172
0.86394348 0.06256172 0.06256172
0.89049057 0.06256172 0.06256172
0.91699803 0.06256172 0.06256172
0.91886608 0.06256172 0.06256172
0.06256172 0.16557748 0.06256172
0.06256172 0.16542852 0.06256172
0.06256172 0.16487750 0.06256172
0.11223785 0.16364621 0.06256172
0.16355946 0.16129729 0.06256172
0.19953758 0.15709020 0.06256172
0.23156916 0.14958240 0.06256172
0.26185149 0.13510176 0.06256172
0.29118330 0.09100822 0.06256172
0.31993219 0.06256172 0.06256172
0.34829157 0.06256172 0.06256172
0.37637268 0.06256172 0.06256172
0.40424387 0.06256172 0.06256172
0.43194938 0.06256172 0.06256172
0.45951914 0.06256172 0.06256172
0.48697414 0.06256172 0.06256172
0.51432960 0.06256172 0.06256172
0.54159692 0.06256172 0.06256172
0.56878485 0.06256172 0.06256172
0.59590026 0.06256172 0.06256172
0.62294870 0.06256172 0.06256172
0.64993474 0.06256172 0.06256172
0.67686219 0.06256172 0.06256172
0.70373430 0.06256172 0.06256172
0.73055387 0.06256172 0.06256172
0.75732338 0.06256172 0.06256172
0.78404498 0.06256172 0.06256172
0.81072064 0.06256172 0.06256172
0.83735210 0.06256172 0.06256172
0.86394097 0.06256172 0.06256172
0.89048871 0.06256172 0.06256172
0.91699667 0.06256172 0.06256172
0.91886608 0.06256172 0.06256172
0.06256172 0.19164414 0.06256172
0.06256172 0.19155226 0.06256172
0.06256172 0.19121346 0.06256172
0.06256172 0.19046253 0.06256172
0.14070419 0.18905383 0.06256172
0.18927318 0.18661106 0.06256172
0.22567389 0.18251922 0.06256172
0.25813483 0.17566126 0.06256172
0.28871790 0.16359780 0.06256172
0.31824281 0.13836640 0.06256172
0.34710741 0.06256172 0.06256172
0.37552866 0.06256172 0.06256172
0.40363456 0.06256172 0.06256172
0.43150511 0.06256172 0.06256172
0.45919264 0.06256172 0.06256172
0.48673268 0.06256172 0.06256172
0.51415015 0.06256172 0.06256172
0.54146303 0.06256172 0.06256172
0.56868465 0.06256172 0.06256172
0.59582511 0.06256172 0.06256172
0.62289226 0.06256172 0.06256172
0.64989231 0.06256172 0.06256172
0.67683028 0.06256172 0.06256172
0.70371031 0.06256172 0.06256172
0.73053585 0.06256172 0.06256172
0.75730986 0.06256172 0.06256172
0.78403486 0.06256172 0.06256172
0.81071307 0.06256172 0.06256172
0.83734646 0.06256172 0.06256172
0.86393678 0.06256172 0.06256172
0.89048561 0.06256172 0.06256172
0.91699438 0.06256172 0.06256172
0.91886608 0.06256172 0.06256172
0.06256172 0.21778123 0.06256172
0.06256172 0.21772172 0.06256172
0.06256172 0.21750264 0.06256172
0.06256172 0.21701896 0.06256172
0.06256172 0.21611878 0.06256172
0.16783288 0.21458029 0.06256172
0.21509216 0.21206874 0.06256172
0.25182826 0.20805091 0.06256172
0.28464836 0.20160171 0.06256172
0.31549685 0.19087269 0.06256172
0.34520042 0.17103453 0.06256172
0.37417741 0.11205938 0.06256172
0.40266284 0.06256172 0.06256172
0.43079845 0.06256172 0.06256172
0.45867425 0.06256172 0.06256172
0.48634980 0.06256172 0.06256172
0.51386585 0.06256172 0.06256172
0.54125105 0.06256172 0.06256172
0.56852609 0.06256172 0.06256172
0.59570624 0.06256172 0.06256172
0.62280300 0.06256172 0.06256172
0.64982522 0.06256172 0.06256172
0.67677984 0.06256172 0.06256172
0.70367239 0.06256172 0.06256172
0.73050737 0.06256172 0.06256172
0.75728848 0.06256172 0.06256172
0.78401885 0.06256172 0.06256172
0.81070111 0.06256172 0.06256172
0.83733755 0.06256172 0.06256172
0.86393016 0.06256172 0.06256172
0.89048070 0.06256172 0.06256172
0.91699076 0.06256172 0.06256172
0.91886608 0.06256172 0.06256172
0.06256172 0.24397891 0.06256172
0.06256172 0.24393901 0.06256172
0.06256172 0.24379226 0.06256172
0.06256172 0.24346895 0.06256172
0.06256172 0.24286976 0.06256172
0.06256172 0.24185339 0.06256172
0.19449879 0.24021531 0.06256172
0.24100187 0.23765069 0.06256172
0.27801281 0.23368325 0.06256172
0.31113693 0.22751312 0.06256172
0.34221877 0.21763223 0.06256172
0.37208468 0.20055697 0.06256172
0.40116715 0.16342148 0.06256172
0.42971520 0.06256172 0.06256172
0.45788183 0.06256172 0.06256172
0.48576569 0.06256172 0.06256172
0.51343273 0.06256172 0.06256172
0.54092844 0.06256172 0.06256172
0.56828496 0.06256172 0.06256172
0.59552555 0.06256172 0.06256172
0.62266737 0.06256172 0.06256172
0.64972331 0.06256172 0.06256172
0.67670323 0.06256172 0.06256172
0.70361481 0.06256172 0.06256172
0.73046412 0.06256172 0.06256172
0.75725604 0.06256172 0.06256172
0.78399455 0.06256172 0.06256172
0.81068295 0.06256172 0.06256172
0.83732401 0.06256172 0.06256172
0.86392010 0.06256172 0.06256172
0.89047326 0.06256172 0.06256172
0.91698527 0.06256172 0.06256172
0.91886608 0.06256172 0.06256172
0.06256172 0.27022995 0.06256172
0.06256172 0.27020250 0.06256172
0.06256172 0.27010161 0.06256172
0.06256172 0.26987960 0.06256172
0.06256172 0.26946913 0.06256172
0.06256172 0.26877585 0.06256172
0.13359292 0.26766642 0.06256172
0.22096929 0.26594942 0.06256172
0.26699158 0.26334235 0.06256172
0.30423304 0.25941049 0.06256172
0.33761702 0.25344098 0.06256172
0.36890375 0.24414361 0.06256172
0.39891553 0.22876385 0.06256172
0.42809479 0.19909734 0.06256172
0.45670159 0.06256172 0.06256172
0.48489830 0.06256172 0.06256172
0.51279093 0.06256172 0.06256172
0.54045110 0.06256172 0.06256172
0.56792858 0.06256172 0.06256172
0.59525872 0.06256172 0.06256172
0.62246720 0.06256172 0.06256172
0.64957297 0.06256172 0.06256172
0.67659026 0.06256172 0.06256172
0.70352992 0.06256172 0.06256172
0.73040037 0.06256172 0.06256172
0.75720823 0.06256172 0.06256172
0.78395874 0.06256172 0.06256172
0.81065619 0.06256172 0.06256172
0.83730407 0.06256172 0.06256172
0.86390528 0.06256172 0.06256172
0.89046229 0.06256172 0.06256172
0.91697719 0.06256172 0.06256172
0.91886608 0.06256172 0.06256172
0.06256172 0.29652876 0.06256172
0.06256172 0.29650951 0.06256172
0.06256172 0.29643874 0.06256172
0.06256172 0.29628314 0.06256172
0.06256172 0.29599589 0.06256172
0.06256172 0.29551196 0.06256172
0.06256172 0.29474082 0.06256172
0.17139907 0.29355540 0.06256172
0.24735355 0.29177440 0.06256172
0.29305299 0.28913251 0.06256172
0.33049121 0.28522627 0.06256172
0.36409899 0.27940599 0.06256172
0.39556547 0.27053049 0.06256172
0.42570722 0.25629280 0.06256172
0.45497384 0.23063250 0.06256172
0.48363419 0.15879184 0.06256172
0.51185851 0.06256172 0.06256172
0.53975918 0.06256172 0.06256172
0.56741281 0.06256172 0.06256172
0.59487302 0.06256172 0.06256172
0.62217811 0.06256172 0.06256172
0.64935598 0.06256172 0.06256172
0.67642727 0.06256172 0.06256172
0.70340750 0.06256172 0.06256172
0.73030847 0.06256172 0.06256172
0.75713930 0.06256172 0.06256172
0.78390714 0.06256172 0.06256172
0.81061763 0.06256172 0.06256172
0.83727533 0.06256172 0.06256172
0.86388393 0.06256172 0.06256172
0.89044648 0.06256172 0.06256172
0.91696553 0.06256172 0.06256172
0.91886608 0.06256172 0.06256172
0.06256172 0.32287091 0.06256172
0.06256172 0.32285719 0.06256172
0.06256172 0.32280677 0.06256172
0.06256172 0.32269597 0.06256172
0.06256172 0.32249161 0.06256172
0.06256172 0.32214787 0.06256172
0.06256172 0.32160160 0.06256172
0.06256172 0.32076533 0.06256172
0.20336400 0.31951695 0.06256172
0.27370359 0.31768318 0.06256172
0.31917950 0.31501219 0.06256172
0.35678792 0.31112453 0.06256172
0.39058949 0.30541775 0.06256172
0.42221350 0.29685729 0.06256172
0.45247019 0.28343283 0.06256172
0.48181446 0.26028328 0.06256172
0.51052241 0.20751239 0.06256172
0.53877091 0.06256172 0.06256172
0.56667787 0.06256172 0.06256172
0.59432434 0.06256172 0.06256172
0.62176738 0.06256172 0.06256172
0.64904798 0.06256172 0.06256172
0.67619609 0.06256172 0.06256172
0.70323393 0.06256172 0.06256172
0.73017822 0.06256172 0.06256172
0.75704165 0.06256172 0.06256172
0.78383404 0.06256172 0.06256172
0.81056302 0.06256172 0.06256172
0.83723464 0.06256172 0.06256172
0.86385370 0.06256172 0.06256172
0.89042411 0.06256172 0.06256172
0.91694904 0.06256172 0.06256172
0.91886608 0.06256172 0.06256172
0.06256172 0.34925275 0.06256172
0.06256172 0.34924285 0.06256172
0.06256172 0.34920648 0.06256172
0.06256172 0.34912658 0.06256172
0.06256172 0.34897929 0.06256172
0.06256172 0.34873181 0.06256172
0.06256172 0.34833918 0.06256172
0.06256172 0.34773974 0.06256172
0.06256172 0.34684856 0.06256172
0.23312434 0.34554749 0.06256172
0.30004660 0.34366972 0.06256172
0.34536572 0.34097405 0.06256172
0.38312286 0.33709979 0.06256172
0.41709288 0.33148050 0.06256172
0.44885462 0.32316017 0.06256172
0.47921216 0.31033526 0.06256172
0.50862447 0.28889171 0.06256172
0.53737363 0.24469644 0.06256172
0.56564223 0.06256172 0.06256172
0.59355304 0.06256172 0.06256172
0.62119102 0.06256172 0.06256172
0.64861633 0.06256172 0.06256172
0.67587242 0.06256172 0.06256172
0.70299111 0.06256172 0.06256172
0.72999609 0.06256172 0.06256172
0.75690516 0.06256172 0.06256172
0.78373190 0.06256172 0.06256172
0.81048674 0.06256172 0.06256172
0.83717781 0.06256172 0.06256172
0.86381149 0.06256172 0.06256172
0.89039286 0.06256172 0.06256172
0.91692600 0.06256172 0.06256172
0.91886608 0.06256172 0.06256172
0.06256172 0.37567126 0.06256172
0.06256172 0.37566404 0.06256172
0.06256172 0.37563754 0.06256172
0.06256172 0.37557933 0.06256172
0.06256172 0.37547207 0.06256172
0.06256172 0.37529197 0.06256172
0.06256172 0.37500657 0.06256172
0.06256172 0.37457162 0.06256172
0.06256172 0.37392672 0.06256172
0.06256172 0.37298899 0.06256172
0.26177031 0.37164356 0.06256172
0.32639764 0.36972878 0.06256172
0.37160713 0.36701197 0.06256172
0.40949528 0.36314716 0.06256172
0.44361198 0.35759568 0.06256172
0.47549372 0.34946051 0.06256172
0.50593895 0.33708694 0.06256172
0.53540985 0.31685798 0.06256172
0.56419366 0.27764844 0.06256172
0.59247790 0.06256172 0.06256172
0.62038961 0.06256172 0.06256172
0.64801725 0.06256172 0.06256172
0.67542380 0.06256172 0.06256172
0.70265489 0.06256172 0.06256172
0.72974410 0.06256172 0.06256172
0.75671642 0.06256172 0.06256172
0.78359072 0.06256172 0.06256172
0.81038133 0.06256172 0.06256172
0.83709930 0.06256172 0.06256172
0.86375318 0.06256172 0.06256172
0.89034971 0.06256172 0.06256172
0.91689420 0.06256172 0.06256172
0.91886608 0.06256172 0.06256172
0.06256172 0.40212386 0.06256172
0.06256172 0.40211856 0.06256172
0.06256172 0.40209909 0.06256172
0.06256172 0.40205633 0.06256172
0.06256172 0.40197756 0.06256172
0.06256172 0.40184537 0.06256172
0.06256172 0.40163605 0.06256172
0.06256172 0.40131743 0.06256172
0.06256172 0.40084588 0.06256172
0.06256172 0.40016205 0.06256172
0.06256172 0.39918477 0.06256172
0.28976804 0.39780184 0.06256172
0.35276535 0.39585580 0.06256172
0.39789990 0.39312073 0.06256172
0.43590416 0.38926228 0.06256172
0.47014861 0.38376325 0.06256172
0.50213435 0.37577129 0.06256172
0.53265493 0.36374092 0.06256172
0.56217529 0.34439970 0.06256172
0.59098709 0.30841609 0.06256172
0.61928224 0.17569516 0.06256172
0.64719156 0.06256172 0.06256172
0.67480665 0.06256172 0.06256172
0.70219302 0.06256172 0.06256172
0.72939829 0.06256172 0.06256172
0.75645763 0.06256172 0.06256172
0.78339725 0.06256172 0.06256172
0.81023694 0.06256172 0.06256172
0.83699179 0.06256172 0.06256172
0.86367336 0.06256172 0.06256172
0.89029065 0.06256172 0.06256172
0.91685067 0.06256172 0.06256172
0.91886608 0.06256172 0.06256172
0.06256172 0.42860836 0.06256172
0.06256172 0.42860444 0.06256172
0.06256172 0.42859004 0.06256172
0.06256172 0.42855842 0.06256172
0.06256172 0.42850018 0.06256172
0.06256172 0.42840248 0.06256172
0.06256172 0.42824786 0.06256172
0.06256172 0.42801269 0.06256172
0.06256172 0.42766509 0.06256172
0.06256172 0.42716195 0.06256172
0.06256172 0.42644483 0.06256172
0.06256172 0.42543395 0.06256172
0.31735517 0.42401930 0.06256172
0.37915472 0.42204678 0.06256172
0.42424075 0.41929587 0.06256172
0.46234836 0.41544127 0.06256172
0.49670388 0.40998236 0.06256172
0.52877907 0.40210058 0.06256172
0.55936343 0.39033111 0.06256172
0.58892440 0.37164585 0.06256172
0.61775758 0.33786415 0.06256172
0.64605876 0.24032165 0.06256172
0.67396217 0.06256172 0.06256172
0.70156222 0.06256172 0.06256172
0.72892670 0.06256172 0.06256172
0.75610507 0.06256172 0.06256172
0.78313390 0.06256172 0.06256172
0.81004052 0.06256172 0.06256172
0.83684561 0.06256172 0.06256172
0.86356487 0.06256172 0.06256172
0.89021040 0.06256172 0.06256172
0.91679154 0.06256172 0.06256172
0.91886608 0.06256172 0.06256172
0.06256172 0.45512284 0.06256172
0.06256172 0.45511992 0.06256172
0.06256172 0.45510922 0.06256172
0.06256172 0.45508571 0.06256172
0.06256172 0.45504241 0.06256172
0.06256172 0.45496980 0.06256172
0.06256172 0.45485492 0.06256172
0.06256172 0.45468031 0.06256172
0.06256172 0.45442245 0.06256172
0.06256172 0.45404969 0.06256172
0.06256172 0.45351939 0.06256172
0.06256172 0.45277388 0.06256172
0.19243148 0.45173453 0.06256172
0.34466665 0.45029310 0.06256172
0.40556857 0.44829818 0.06256172
0.45062683 0.44553348 0.06256172
0.48882671 0.44168067 0.06256172
0.52327842 0.43625173 0.06256172
0.55542970 0.42845331 0.06256172
0.58606696 0.41687983 0.06256172
0.61566001 0.39867744 0.06256172
0.64450801 0.36643347 0.06256172
0.67281028 0.28327687 0.06256172
0.70070409 0.06256172 0.06256172
0.72828641 0.06256172 0.06256172
0.75562710 0.06256172 0.06256172
0.78277726 0.06256172 0.06256172
0.80977475 0.06256172 0.06256172
0.83664793 0.06256172 0.06256172
0.86341823 0.06256172 0.06256172
0.89010196 0.06256172 0.06256172
0.91671166 0.06256172 0.06256172
0.91886608 0.06256172 0.06256172
0.06256172 0.48166560 0.06256172
0.06256172 0.48166342 0.06256172
0.06256172 0.48165543 0.06256172
0.06256172 0.48163787 0.06256172
0.06256172 0.48160555 0.06256172
0.06256172 0.48155134 0.06256172
0.06256172 0.48146561 0.06256172
0.06256172 0.48133535 0.06256172
0.06256172 0.48114310 0.06256172
0.06256172 0.48086546 0.06256172
0.06256172 0.48047100 0.06256172
0.06256172 0.47991749 0.06256172
0.06256172 0.47914790 0.06256172
0.24071729 0.47808457 0.06256172
0.37178493 0.47662065 0.06256172
0.43200842 0.47460686 0.06256172
0.47705560 0.47183013 0.06256172
0.51533801 0.46797738 0.06256172
0.54987250 0.46256983 0.06256172
0.58208754 0.45483246 0.06256172
0.61276742 0.44340205 0.06256172
0.64238431 0.42554744 0.06256172
0.67124067 0.39437466 0.06256172
0.69953903 0.31914839 0.06256172
0.72741945 0.06256172 0.06256172
0.75498122 0.06256172 0.06256172
0.78229606 0.06256172 0.06256172
0.80941655 0.06256172 0.06256172
0.83638174 0.06256172 0.06256172
0.86322088 0.06256172 0.06256172
0.88995610 0.06256172 0.06256172
0.91660425 0.06256172 0.06256172
0.91886608 0.06256172 0.06256172
0.06256172 0.50823516 0.06256172
0.06256172 0.50823353 0.06256172
0.06256172 0.50822754 0.06256172
0.06256172 0.50821439 0.06256172
0.06256172 0.50819017 0.06256172
0.06256172 0.50814956 0.06256172
0.06256172 0.50808535 0.06256172
0.06256172 0.50798781 0.06256172
0.06256172 0.50784394 0.06256172
0.06256172 0.50763628 0.06256172
0.06256172 0.50734154 0.06256172
0.06256172 0.50692853 0.06256172
0.06256172 0.50635537 0.06256172
0.06256172 0.50556554 0.06256172
0.27881314 0.50448218 0.06256172
0.39876304 0.50299957 0.06256172
0.45847493 0.50097000 0.06256172
0.50352486 0.49818278 0.06256172
0.54188110 0.49432859 0.06256172
0.57648614 0.48893505 0.06256172
0.60875345 0.48123965 0.06256172
0.63946619 0.46990788 0.06256172
0.66909894 0.45229133 0.06256172
0.69795732 0.42184003 0.06256172
0.72624679 0.35136567 0.06256172
0.75410998 0.06256172 0.06256172
0.78164828 0.06256172 0.06256172
0.80893509 0.06256172 0.06256172
0.83602436 0.06256172 0.06256172
0.86295616 0.06256172 0.06256172
0.88976057 0.06256172 0.06256172
0.91646034 0.06256172 0.06256172
0.91886608 0.06256172 0.06256172
0.06256172 0.53483019 0.06256172
0.06256172 0.53482897 0.06256172
0.06256172 0.53482447 0.06256172
0.06256172 0.53481459 0.06256172
0.06256172 0.53479639 0.06256172
0.06256172 0.53476589 0.06256172
0.06256172 0.53471766 0.06256172
0.06256172 0.53464443 0.06256172
0.06256172 0.53453644 0.06256172
0.06256172 0.53438065 0.06256172
0.06256172 0.53415968 0.06256172
0.06256172 0.53385034 0.06256172
0.06256172 0.53342165 0.06256172
0.06256172 0.53283203 0.06256172
0.06256172 0.53202543 0.06256172
0.31263564 0.53092559 0.06256172
0.42563640 0.52942764 0.06256172
0.48496822 0.52738505 0.06256172
0.53003261 0.52458873 0.06256172
0.56845486 0.52073177 0.06256172
0.60311920 0.51534574 0.06256172
0.63542800 0.50767563 0.06256172
0.66616427 0.49640409 0.06256172
0.69580517 0.47893307 0.06256172
0.72465932 0.44892576 0.06256172
0.75293495 0.38128034 0.06256172
0.78077703 0.06256172 0.06256172
0.80828887 0.06256172 0.06256172
0.83554541 0.06256172 0.06256172
0.86260181 0.06256172 0.06256172
0.88949907 0.06256172 0.06256172
0.91626800 0.06256172 0.06256172
0.91886608 0.06256172 0.06256172
0.06256172 0.56144950 0.06256172
0.06256172 0.56144857 0.06256172
0.06256172 0.56144519 0.06256172
0.06256172 0.56143775 0.06256172
0.06256172 0.56142406 0.06256172
0.06256172 0.56140110 0.06256172
0.06256172 0.56136481 0.06256172
0.06256172 0.56130971 0.06256172
0.06256172 0.56122848 0.06256172
0.06256172 0.56111134 0.06256172
0.06256172 0.56094527 0.06256172
0.06256172 0.56071296 0.06256172
0.06256172 0.56039133 0.06256172
0.06256172 0.55994959 0.06256172
0.06256172 0.55934644 0.06256172
0.06256172 0.55852619 0.06256172
0.34409914 0.55741308 0.06256172
0.45242928 0.55590284 0.06256172
0.51148808 0.55384970 0.06256172
0.55657707 0.55104552 0.06256172
0.59505817 0.54718461 0.06256172
0.62977136 0.54180026 0.06256172
0.66211146 0.53414049 0.06256172
0.69286233 0.52289505 0.06256172
0.72250389 0.50548876 0.06256172
0.75134768 0.47569322 0.06256172
0.77960456 0.40953994 0.06256172
0.80742165 0.06256172 0.06256172
0.83490401 0.06256172 0.06256172
0.86212799 0.06256172 0.06256172
0.88914982 0.06256172 0.06256172
0.91601134 0.06256172 0.06256172
0.91886608 0.06256172 0.06256172
0.06256172 0.58809199 0.06256172
0.06256172 0.58809129 0.06256172
0.06256172 0.58808874 0.06256172
0.06256172 0.58808314 0.06256172
0.06256172 0.58807282 0.06256172
0.06256172 0.58805552 0.06256172
0.06256172 0.58802818 0.06256172
0.06256172 0.58798667 0.06256172
0.06256172 0.58792548 0.06256172
0.06256172 0.58783726 0.06256172
0.06256172 0.58771225 0.06256172
0.06256172 0.58753747 0.06256172
0.06256172 0.58729566 0.06256172
0.06256172 0.58696389 0.06256172
0.06256172 0.58651153 0.06256172
0.06256172 0.58589753 0.06256172
0.06256172 0.58506650 0.06256172
0.37406233 0.58394304 0.06256172
0.47915858 0.58242329 0.06256172
0.53803403 0.58036186 0.06256172
0.58315661 0.57755095 0.06256172
0.62169000 0.57368500 0.06256172
0.65644223 0.56829699 0.06256172
0.68880393 0.56063389 0.06256172
0.71956078 0.54938340 0.06256172
0.74919571 0.53196875 0.06256172
0.77802313 0.50218064 0.06256172
0.80625637 0.43647761 0.06256172
0.83404459 0.06256172 0.06256172
0.86149446 0.06256172 0.06256172
0.88868357 0.06256172 0.06256172
0.91566911 0.06256172 0.06256172
0.91886608 0.06256172 0.06256172
0.06256172 0.61475669 0.06256172
0.06256172 0.61475617 0.06256172
0.06256172 0.61475424 0.06256172
0.06256172 0.61475002 0.06256172
0.06256172 0.61474224 0.06256172
0.06256172 0.61472919 0.06256172
0.06256172 0.61470857 0.06256172
0.06256172 0.61467728 0.06256172
0.06256172 0.61463115 0.06256172
0.06256172 0.61456466 0.06256172
0.06256172 0.61447047 0.06256172
0.06256172 0.61433882 0.06256172
0.06256172 0.61415680 0.06256172
0.06256172 0.61390724 0.06256172
0.06256172 0.61356732 0.06256172
0.06256172 0.61310660 0.06256172
0.06256172 0.61248422 0.06256172
0.06256172 0.61164506 0.06256172
0.40297788 0.61051395 0.06256172
0.50583611 0.60898723 0.06256172
0.56460546 0.60691961 0.06256172
0.60976978 0.60410302 0.06256172
0.64834932 0.60023100 0.06256172
0.68313132 0.59483434 0.06256172
0.71550532 0.58715512 0.06256172
0.74625983 0.57587041 0.06256172
0.77588098 0.55837908 0.06256172
