src/ffmpeg_scripts/luts/rec2020-sRGB_3p67.cube
TITLE "rec2020-srgb_3p67"
LUT_3D_SIZE 33
# PQ (EOTF Only)/Rec2020 -> PQ (EOTF Only)/Rec709, CineEI Shift 3.67, Black Level 0.00% IRE, Input 100% -> Output 109% - Created with LUTCalc v4.01 by Ben Turley October 2020
0.06256172 0.06256172 0.06256172
0.15964809 0.06256172 0.06256172
0.22675115 0.06256172 0.06256172
0.28371302 0.06256172 0.06256172
0.33463153 0.06256172 0.06256172
0.38134145 0.06256172 0.06256172
0.42487291 0.06256172 0.06256172
0.46587942 0.06256172 0.06256172
0.50480923 0.06256172 0.06256172
0.54198699 0.06256172 0.06256172
0.57765758 0.06256172 0.06256172
0.61201154 0.06256172 0.06256172
0.64520090 0.06256172 0.06256172
0.67734940 0.06256172 0.06256172
0.70855955 0.06256172 0.06256172
0.73891743 0.06256172 0.06256172
0.76849624 0.06256172 0.06256172
0.79735890 0.06256172 0.06256172
0.82555998 0.06256172 0.06256172
0.85314723 0.06256172 0.06256172
0.88016270 0.06256172 0.06256172
0.90664370 0.06256172 0.06256172
0.91886608 0.06256172 0.06256172
0.91886608 0.06256172 0.06256172
0.91886608 0.06256172 0.06256172
0.91886608 0.06256172 0.06256172
0.91886608 0.06256172 0.06256172
0.91886608 0.06256172 0.06256172
0.91886608 0.06256172 0.06256172
0.91886608 0.06256172 0.06256172
0.91886608 0.06256172 0.06256172
0.91886608 0.06256172 0.06256172
0.91886608 0.06256172 0.06256172
0.06256172 0.14668063 0.06256172
0.14494480 0.14300168 0.06256172
0.22272597 0.12583432 0.06256172
0.28196947 0.06256172 0.06256172
0.33373252 0.06256172 0.06256172
0.38083059 0.06256172 0.06256172
0.42456375 0.06256172 0.06256172
0.46568386 0.06256172 0.06256172
0.50468139 0.06256172 0.06256172
0.54190128 0.06256172 0.06256172
0.57759896 0.06256172 0.06256172
0.61197081 0.06256172 0.06256172
0.64517222 0.06256172 0.06256172
0.67732900 0.06256172 0.06256172
0.70854490 0.06256172 0.06256172
0.73890684 0.06256172 0.06256172
0.76848853 0.06256172 0.06256172
0.79735327 0.06256172 0.06256172
0.82555585 0.06256172 0.06256172
0.85314419 0.06256172 0.06256172
0.88016046 0.06256172 0.06256172
0.90664204 0.06256172 0.06256172
0.91886608 0.06256172 0.06256172
0.91886608 0.06256172 0.06256172
0.91886608 0.06256172 0.06256172
0.91886608 0.06256172 0.06256172
0.91886608 0.06256172 0.06256172
0.91886608 0.06256172 0.06256172
0.91886608 0.06256172 0.06256172
0.91886608 0.06256172 0.06256172
0.91886608 0.06256172 0.06256172
0.91886608 0.06256172 0.06256172
0.91886608 0.06256172 0.06256172
0.06256172 0.20781927 0.06256172
0.06256172 0.20669137 0.06256172
0.20524758 0.20235756 0.06256172
0.27518584 0.19156067 0.06256172
0.33034103 0.16374523 0.06256172
0.37892718 0.06256172 0.06256172
0.42341870 0.06256172 0.06256172
0.46496182 0.06256172 0.06256172
0.50421024 0.06256172 0.06256172
0.54158576 0.06256172 0.06256172
0.57738332 0.06256172 0.06256172
0.61182101 0.06256172 0.06256172
0.64506679 0.06256172 0.06256172
0.67725399 0.06256172 0.06256172
0.70849106 0.06256172 0.06256172
0.73886791 0.06256172 0.06256172
0.76846022 0.06256172 0.06256172
0.79733257 0.06256172 0.06256172
0.82554066 0.06256172 0.06256172
0.85313301 0.06256172 0.06256172
0.88015221 0.06256172 0.06256172
0.90663595 0.06256172 0.06256172
0.91886608 0.06256172 0.06256172
0.91886608 0.06256172 0.06256172
0.91886608 0.06256172 0.06256172
0.91886608 0.06256172 0.06256172
0.91886608 0.06256172 0.06256172
0.91886608 0.06256172 0.06256172
0.91886608 0.06256172 0.06256172
0.91886608 0.06256172 0.06256172
0.91886608 0.06256172 0.06256172
0.91886608 0.06256172 0.06256172
0.91886608 0.06256172 0.06256172
0.06256172 0.26075220 0.06256172
0.06256172 0.26024927 0.06256172
0.10978236 0.25837040 0.06256172
0.25760524 0.25406032 0.06256172
0.32234911 0.24535161 0.06256172
0.37459236 0.22764951 0.06256172
0.42085148 0.18249092 0.06256172
0.46335616 0.06256172 0.06256172
0.50316736 0.06256172 0.06256172
0.54088928 0.06256172 0.06256172
0.57690814 0.06256172 0.06256172
0.61149131 0.06256172 0.06256172
0.64483490 0.06256172 0.06256172
0.67708910 0.06256172 0.06256172
0.70837275 0.06256172 0.06256172
0.73878239 0.06256172 0.06256172
0.76839802 0.06256172 0.06256172
0.79728712 0.06256172 0.06256172
0.82550732 0.06256172 0.06256172
0.85310847 0.06256172 0.06256172
0.88013411 0.06256172 0.06256172
0.90662257 0.06256172 0.06256172
0.91886608 0.06256172 0.06256172
0.91886608 0.06256172 0.06256172
0.91886608 0.06256172 0.06256172
0.91886608 0.06256172 0.06256172
0.91886608 0.06256172 0.06256172
0.91886608 0.06256172 0.06256172
0.91886608 0.06256172 0.06256172
0.91886608 0.06256172 0.06256172
0.91886608 0.06256172 0.06256172
0.91886608 0.06256172 0.06256172
0.91886608 0.06256172 0.06256172
0.06256172 0.30869436 0.06256172
0.06256172 0.30843099 0.06256172
0.06256172 0.30745577 0.06256172
0.20457549 0.30527063 0.06256172
0.30511637 0.30107894 0.06256172
0.36598045 0.29349307 0.06256172
0.41592096 0.27969101 0.06256172
0.46032406 0.25199123 0.06256172
0.50121633 0.15449833 0.06256172
0.53959352 0.06256172 0.06256172
0.57602715 0.06256172 0.06256172
0.61088139 0.06256172 0.06256172
0.64440657 0.06256172 0.06256172
0.67678482 0.06256172 0.06256172
0.70815458 0.06256172 0.06256172
0.73862476 0.06256172 0.06256172
0.76828343 0.06256172 0.06256172
0.79720339 0.06256172 0.06256172
0.82544590 0.06256172 0.06256172
0.85306327 0.06256172 0.06256172
0.88010077 0.06256172 0.06256172
0.90659794 0.06256172 0.06256172
0.91886608 0.06256172 0.06256172
0.91886608 0.06256172 0.06256172
0.91886608 0.06256172 0.06256172
0.91886608 0.06256172 0.06256172
0.91886608 0.06256172 0.06256172
0.91886608 0.06256172 0.06256172
0.91886608 0.06256172 0.06256172
0.91886608 0.06256172 0.06256172
0.91886608 0.06256172 0.06256172
0.91886608 0.06256172 0.06256172
0.91886608 0.06256172 0.06256172
0.06256172 0.35311245 0.06256172
0.06256172 0.35296120 0.06256172
0.06256172 0.35240320 0.06256172
0.06256172 0.35116472 0.06256172
0.26289003 0.34883513 0.06256172
0.34919841 0.34477573 0.06256172
0.40697960 0.33791832 0.06256172
0.45500209 0.32625617 0.06256172
0.49785062 0.30518455 0.06256172
0.53738050 0.25837168 0.06256172
0.57453171 0.06256172 0.06256172
0.60985015 0.06256172 0.06256172
0.64368424 0.06256172 0.06256172
0.67627259 0.06256172 0.06256172
0.70778774 0.06256172 0.06256172
0.73835994 0.06256172 0.06256172
0.76809103 0.06256172 0.06256172
0.79706288 0.06256172 0.06256172
0.82534285 0.06256172 0.06256172
0.85298746 0.06256172 0.06256172
0.88004486 0.06256172 0.06256172
0.90655664 0.06256172 0.06256172
0.91886608 0.06256172 0.06256172
0.91886608 0.06256172 0.06256172
0.91886608 0.06256172 0.06256172
0.91886608 0.06256172 0.06256172
0.91886608 0.06256172 0.06256172
0.91886608 0.06256172 0.06256172
0.91886608 0.06256172 0.06256172
0.91886608 0.06256172 0.06256172
0.91886608 0.06256172 0.06256172
0.91886608 0.06256172 0.06256172
0.91886608 0.06256172 0.06256172
0.06256172 0.39484065 0.06256172
0.06256172 0.39474838 0.06256172
0.06256172 0.39440854 0.06256172
0.06256172 0.39365771 0.06256172
0.06256172 0.39225828 0.06256172
0.31266746 0.38986032 0.06256172
0.39065902 0.38592862 0.06256172
0.44589336 0.37959390 0.06256172
0.49226754 0.36930568 0.06256172
0.53377260 0.35184146 0.06256172
0.57211888 0.31826206 0.06256172
0.60819713 0.20418319 0.06256172
0.64253133 0.06256172 0.06256172
0.67545737 0.06256172 0.06256172
0.70720507 0.06256172 0.06256172
0.73793990 0.06256172 0.06256172
0.76778616 0.06256172 0.06256172
0.79684038 0.06256172 0.06256172
0.82517977 0.06256172 0.06256172
0.85286753 0.06256172 0.06256172
0.87995644 0.06256172 0.06256172
0.90649133 0.06256172 0.06256172
0.91886608 0.06256172 0.06256172
0.91886608 0.06256172 0.06256172
0.91886608 0.06256172 0.06256172
0.91886608 0.06256172 0.06256172
0.91886608 0.06256172 0.06256172
0.91886608 0.06256172 0.06256172
0.91886608 0.06256172 0.06256172
0.91886608 0.06256172 0.06256172
0.91886608 0.06256172 0.06256172
0.91886608 0.06256172 0.06256172
0.91886608 0.06256172 0.06256172
0.06256172 0.43441350 0.06256172
0.06256172 0.43435474 0.06256172
0.06256172 0.43413854 0.06256172
0.06256172 0.43366202 0.06256172
0.06256172 0.43277815 0.06256172
0.06256172 0.43127663 0.06256172
0.35779455 0.42885071 0.06256172
0.43001649 0.42503765 0.06256172
0.48308902 0.41910226 0.06256172
0.52801634 0.40978041 0.06256172
0.56833496 0.39460958 0.06256172
0.60563206 0.36762465 0.06256172
0.64075445 0.30487091 0.06256172
0.67420664 0.06256172 0.06256172
0.70631388 0.06256172 0.06256172
0.73729885 0.06256172 0.06256172
0.76732157 0.06256172 0.06256172
0.79650169 0.06256172 0.06256172
0.82493172 0.06256172 0.06256172
0.85268521 0.06256172 0.06256172
0.87982207 0.06256172 0.06256172
0.90639212 0.06256172 0.06256172
0.91886608 0.06256172 0.06256172
0.91886608 0.06256172 0.06256172
0.91886608 0.06256172 0.06256172
0.91886608 0.06256172 0.06256172
0.91886608 0.06256172 0.06256172
0.91886608 0.06256172 0.06256172
0.91886608 0.06256172 0.06256172
0.91886608 0.06256172 0.06256172
0.91886608 0.06256172 0.06256172
0.91886608 0.06256172 0.06256172
0.91886608 0.06256172 0.06256172
0.06256172 0.47220064 0.06256172
0.06256172 0.47216201 0.06256172
0.06256172 0.47201995 0.06256172
0.06256172 0.47170728 0.06256172
0.06256172 0.47112892 0.06256172
0.06256172 0.47015117 0.06256172
0.24901341 0.46858422 0.06256172
0.39976770 0.46615350 0.06256172
0.46762967 0.46244947 0.06256172
0.51882992 0.45683253 0.06256172
0.56246738 0.44823219 0.06256172
0.60172149 0.43465606 0.06256172
0.63807427 0.41167918 0.06256172
0.67233325 0.36526915 0.06256172
0.70498533 0.06256172 0.06256172
0.73634630 0.06256172 0.06256172
0.76663282 0.06256172 0.06256172
0.79600042 0.06256172 0.06256172
0.82456503 0.06256172 0.06256172
0.85241593 0.06256172 0.06256172
0.87962375 0.06256172 0.06256172
0.90624575 0.06256172 0.06256172
0.91886608 0.06256172 0.06256172
0.91886608 0.06256172 0.06256172
0.91886608 0.06256172 0.06256172
0.91886608 0.06256172 0.06256172
0.91886608 0.06256172 0.06256172
0.91886608 0.06256172 0.06256172
0.91886608 0.06256172 0.06256172
0.91886608 0.06256172 0.06256172
0.91886608 0.06256172 0.06256172
0.91886608 0.06256172 0.06256172
0.91886608 0.06256172 0.06256172
0.06256172 0.50847169 0.06256172
0.06256172 0.50844567 0.06256172
0.06256172 0.50834998 0.06256172
0.06256172 0.50813957 0.06256172
0.06256172 0.50775099 0.06256172
0.06256172 0.50709598 0.06256172
0.06256172 0.50605129 0.06256172
0.31889575 0.50444303 0.06256172
0.43936887 0.50202145 0.06256172
0.50376056 0.49841751 0.06256172
0.55331378 0.49306249 0.06256172
0.59578751 0.48502396 0.06256172
0.63407483 0.47262364 0.06256172
0.66956750 0.45235189 0.06256172
0.70303788 0.41450728 0.06256172
0.73495682 0.29657366 0.06256172
0.76563158 0.06256172 0.06256172
0.79527347 0.06256172 0.06256172
0.82403418 0.06256172 0.06256172
0.85202659 0.06256172 0.06256172
0.87933727 0.06256172 0.06256172
0.90603447 0.06256172 0.06256172
0.91886608 0.06256172 0.06256172
0.91886608 0.06256172 0.06256172
0.91886608 0.06256172 0.06256172
0.91886608 0.06256172 0.06256172
0.91886608 0.06256172 0.06256172
0.91886608 0.06256172 0.06256172
0.91886608 0.06256172 0.06256172
0.91886608 0.06256172 0.06256172
0.91886608 0.06256172 0.06256172
0.91886608 0.06256172 0.06256172
0.91886608 0.06256172 0.06256172
0.06256172 0.54343126 0.06256172
0.06256172 0.54341338 0.06256172
0.06256172 0.54334766 0.06256172
0.06256172 0.54320322 0.06256172
0.06256172 0.54293677 0.06256172
0.06256172 0.54248843 0.06256172
0.06256172 0.54177548 0.06256172
0.06256172 0.54068307 0.06256172
0.37213206 0.53905004 0.06256172
0.47707707 0.53664630 0.06256172
0.53860815 0.53313442 0.06256172
0.58669430 0.52799992 0.06256172
0.62810794 0.52041264 0.06256172
0.66550869 0.50891575 0.06256172
0.70021041 0.49059321 0.06256172
0.73295398 0.45808259 0.06256172
0.76419554 0.37874055 0.06256172
0.79423451 0.06256172 0.06256172
0.82327741 0.06256172 0.06256172
0.85147256 0.06256172 0.06256172
0.87893016 0.06256172 0.06256172
0.90573452 0.06256172 0.06256172
0.91886608 0.06256172 0.06256172
0.91886608 0.06256172 0.06256172
0.91886608 0.06256172 0.06256172
0.91886608 0.06256172 0.06256172
0.91886608 0.06256172 0.06256172
0.91886608 0.06256172 0.06256172
0.91886608 0.06256172 0.06256172
0.91886608 0.06256172 0.06256172
0.91886608 0.06256172 0.06256172
0.91886608 0.06256172 0.06256172
0.91886608 0.06256172 0.06256172
0.06256172 0.57723940 0.06256172
0.06256172 0.57722693 0.06256172
0.06256172 0.57718108 0.06256172
0.06256172 0.57708035 0.06256172
0.06256172 0.57689465 0.06256172
0.06256172 0.57658256 0.06256172
0.06256172 0.57608723 0.06256172
0.06256172 0.57533054 0.06256172
0.06256172 0.57420453 0.06256172
0.41826247 0.57255845 0.06256172
0.51321558 0.57017807 0.06256172
0.57232826 0.56675118 0.06256172
0.61909413 0.56180575 0.06256172
0.65953439 0.55458959 0.06256172
0.69611569 0.54380821 0.06256172
0.73008434 0.52695416 0.06256172
0.76215295 0.49808831 0.06256172
0.79276422 0.43546968 0.06256172
0.82221032 0.06256172 0.06256172
0.85069339 0.06256172 0.06256172
0.87835869 0.06256172 0.06256172
0.90531407 0.06256172 0.06256172
0.91886608 0.06256172 0.06256172
0.91886608 0.06256172 0.06256172
0.91886608 0.06256172 0.06256172
0.91886608 0.06256172 0.06256172
0.91886608 0.06256172 0.06256172
0.91886608 0.06256172 0.06256172
0.91886608 0.06256172 0.06256172
0.91886608 0.06256172 0.06256172
0.91886608 0.06256172 0.06256172
0.91886608 0.06256172 0.06256172
0.91886608 0.06256172 0.06256172
0.06256172 0.61002445 0.06256172
0.06256172 0.61001563 0.06256172
0.06256172 0.60998324 0.06256172
0.06256172 0.60991209 0.06256172
0.06256172 0.60978097 0.06256172
0.06256172 0.60956079 0.06256172
0.06256172 0.60921177 0.06256172
0.06256172 0.60867964 0.06256172
0.06256172 0.60789018 0.06256172
0.06256172 0.60674122 0.06256172
0.46020816 0.60509060 0.06256172
0.54801721 0.60273713 0.06256172
0.60504587 0.59938902 0.06256172
0.65061331 0.59460807 0.06256172
0.69015380 0.58770281 0.06256172
0.72597265 0.57750124 0.06256172
0.75925736 0.56178930 0.06256172
0.79069515 0.53556266 0.06256172
0.82071640 0.48258225 0.06256172
0.84960657 0.06256172 0.06256172
0.87756372 0.06256172 0.06256172
0.90473033 0.06256172 0.06256172
0.91886608 0.06256172 0.06256172
0.91886608 0.06256172 0.06256172
0.91886608 0.06256172 0.06256172
0.91886608 0.06256172 0.06256172
0.91886608 0.06256172 0.06256172
0.91886608 0.06256172 0.06256172
0.91886608 0.06256172 0.06256172
0.91886608 0.06256172 0.06256172
0.91886608 0.06256172 0.06256172
0.91886608 0.06256172 0.06256172
0.91886608 0.06256172 0.06256172
0.06256172 0.64189134 0.06256172
0.06256172 0.64188505 0.06256172
0.06256172 0.64186192 0.06256172
0.06256172 0.64181113 0.06256172
0.06256172 0.64171756 0.06256172
0.06256172 0.64156052 0.06256172
0.06256172 0.64131180 0.06256172
0.06256172 0.64093311 0.06256172
0.06256172 0.64037241 0.06256172
0.06256172 0.63955883 0.06256172
0.06256172 0.63839510 0.06256172
0.49928577 0.63674628 0.06256172
0.58165756 0.63442200 0.06256172
0.63686327 0.63114721 0.06256172
0.68133490 0.62651103 0.06256172
0.72003880 0.61987010 0.06256172
0.75514424 0.61014671 0.06256172
0.78778722 0.59534397 0.06256172
0.81863220 0.57110409 0.06256172
0.84809823 0.52440653 0.06256172
0.87646455 0.32631435 0.06256172
0.90392542 0.06256172 0.06256172
0.91886608 0.06256172 0.06256172
0.91886608 0.06256172 0.06256172
0.91886608 0.06256172 0.06256172
0.91886608 0.06256172 0.06256172
0.91886608 0.06256172 0.06256172
0.91886608 0.06256172 0.06256172
0.91886608 0.06256172 0.06256172
0.91886608 0.06256172 0.06256172
0.91886608 0.06256172 0.06256172
0.91886608 0.06256172 0.06256172
0.91886608 0.06256172 0.06256172
0.06256172 0.67292732 0.06256172
0.06256172 0.67292279 0.06256172
0.06256172 0.67290613 0.06256172
0.06256172 0.67286956 0.06256172
0.06256172 0.67280221 0.06256172
0.06256172 0.67268920 0.06256172
0.06256172 0.67251034 0.06256172
0.06256172 0.67223825 0.06256172
0.06256172 0.67183596 0.06256172
0.06256172 0.67125342 0.06256172
0.06256172 0.67042263 0.06256172
0.06256172 0.66925053 0.06256172
0.53621570 0.66760831 0.06256172
0.61427367 0.66531465 0.06256172
0.66786554 0.66210838 0.06256172
0.71132883 0.65760090 0.06256172
0.74925095 0.65118732 0.06256172
0.78368555 0.64186369 0.06256172
0.81572348 0.62779724 0.06256172
0.84600869 0.60509341 0.06256172
0.87494986 0.56278335 0.06256172
0.90282044 0.42900841 0.06256172
0.91886608 0.06256172 0.06256172
0.91886608 0.06256172 0.06256172
0.91886608 0.06256172 0.06256172
0.91886608 0.06256172 0.06256172
0.91886608 0.06256172 0.06256172
0.91886608 0.06256172 0.06256172
0.91886608 0.06256172 0.06256172
0.91886608 0.06256172 0.06256172
0.91886608 0.06256172 0.06256172
0.91886608 0.06256172 0.06256172
0.91886608 0.06256172 0.06256172
0.06256172 0.70320595 0.06256172
0.06256172 0.70320266 0.06256172
0.06256172 0.70319058 0.06256172
0.06256172 0.70316407 0.06256172
0.06256172 0.70311523 0.06256172
0.06256172 0.70303332 0.06256172
0.06256172 0.70290373 0.06256172
0.06256172 0.70270673 0.06256172
0.06256172 0.70241573 0.06256172
0.06256172 0.70199496 0.06256172
0.06256172 0.70139611 0.06256172
0.06256172 0.70055373 0.06256172
0.35440709 0.69937837 0.06256172
0.57144252 0.69774645 0.06256172
0.64597544 0.69548430 0.06256172
0.69812447 0.69234229 0.06256172
0.74065475 0.68795013 0.06256172
0.77784302 0.68173397 0.06256172
0.81164409 0.67274800 0.06256172
0.84310907 0.65928516 0.06256172
0.87286348 0.63779050 0.06256172
0.90130648 0.59867475 0.06256172
0.91886608 0.49037816 0.06256172
0.91886608 0.06256172 0.06256172
0.91886608 0.06256172 0.06256172
0.91886608 0.06256172 0.06256172
0.91886608 0.06256172 0.06256172
0.91886608 0.06256172 0.06256172
0.91886608 0.06256172 0.06256172
0.91886608 0.06256172 0.06256172
0.91886608 0.06256172 0.06256172
0.91886608 0.06256172 0.06256172
0.91886608 0.06256172 0.06256172
0.06256172 0.73279000 0.06256172
0.06256172 0.73278760 0.06256172
0.06256172 0.73277879 0.06256172
0.06256172 0.73275945 0.06256172
0.06256172 0.73272384 0.06256172
0.06256172 0.73266411 0.06256172
0.06256172 0.73256965 0.06256172
0.06256172 0.73242612 0.06256172
0.06256172 0.73221426 0.06256172
0.06256172 0.73190822 0.06256172
0.06256172 0.73147330 0.06256172
0.06256172 0.73086277 0.06256172
0.06256172 0.73001339 0.06256172
0.42959490 0.72883890 0.06256172
0.60526416 0.72722017 0.06256172
0.67685287 0.72499004 0.06256172
0.72770133 0.72190853 0.06256172
0.76936409 0.71762041 0.06256172
0.80586071 0.71157696 0.06256172
0.83906115 0.70287839 0.06256172
0.86998151 0.68991445 0.06256172
0.89923071 0.66938218 0.06256172
0.91886608 0.63264977 0.06256172
0.91886608 0.53856740 0.06256172
0.91886608 0.06256172 0.06256172
0.91886608 0.06256172 0.06256172
0.91886608 0.06256172 0.06256172
0.91886608 0.06256172 0.06256172
0.91886608 0.06256172 0.06256172
0.91886608 0.06256172 0.06256172
0.91886608 0.06256172 0.06256172
0.91886608 0.06256172 0.06256172
0.91886608 0.06256172 0.06256172
0.06256172 0.76173359 0.06256172
0.06256172 0.76173183 0.06256172
0.06256172 0.76172537 0.06256172
0.06256172 0.76171120 0.06256172
0.06256172 0.76168511 0.06256172
0.06256172 0.76164135 0.06256172
0.06256172 0.76157216 0.06256172
0.06256172 0.76146707 0.06256172
0.06256172 0.76131202 0.06256172
0.06256172 0.76108820 0.06256172
0.06256172 0.76077046 0.06256172
0.06256172 0.76032509 0.06256172
0.06256172 0.75970677 0.06256172
0.06256172 0.75885424 0.06256172
0.48420108 0.75768398 0.06256172
0.63789253 0.75608074 0.06256172
0.70698096 0.75388288 0.06256172
0.75664900 0.75085852 0.06256172
0.79750158 0.74666483 0.06256172
0.83334396 0.74077337 0.06256172
0.86597298 0.73232067 0.06256172
0.89637386 0.71977090 0.06256172
0.91886608 0.70000817 0.06256172
0.91886608 0.66507399 0.06256172
0.91886608 0.57989928 0.06256172
0.91886608 0.06256172 0.06256172
0.91886608 0.06256172 0.06256172
0.91886608 0.06256172 0.06256172
0.91886608 0.06256172 0.06256172
0.91886608 0.06256172 0.06256172
0.91886608 0.06256172 0.06256172
0.91886608 0.06256172 0.06256172
0.91886608 0.06256172 0.06256172
0.06256172 0.79008381 0.06256172
0.06256172 0.79008252 0.06256172
0.06256172 0.79007777 0.06256172
0.06256172 0.79006735 0.06256172
0.06256172 0.79004816 0.06256172
0.06256172 0.79001598 0.06256172
0.06256172 0.78996510 0.06256172
0.06256172 0.78988784 0.06256172
0.06256172 0.78977390 0.06256172
0.06256172 0.78960951 0.06256172
0.06256172 0.78937631 0.06256172
0.06256172 0.78904979 0.06256172
0.06256172 0.78859715 0.06256172
0.06256172 0.78797435 0.06256172
0.06256172 0.78712188 0.06256172
0.52999892 0.78595866 0.06256172
0.66948536 0.78437277 0.06256172
0.73642311 0.78220727 0.06256172
0.78501348 0.77923706 0.06256172
0.82510649 0.77512949 0.06256172
0.86032792 0.76937237 0.06256172
0.89241156 0.76113061 0.06256172
0.91886608 0.74892483 0.06256172
0.91886608 0.72977620 0.06256172
0.91886608 0.69619639 0.06256172
0.91886608 0.61685848 0.06256172
0.91886608 0.06256172 0.06256172
0.91886608 0.06256172 0.06256172
0.91886608 0.06256172 0.06256172
0.91886608 0.06256172 0.06256172
0.91886608 0.06256172 0.06256172
0.91886608 0.06256172 0.06256172
0.91886608 0.06256172 0.06256172
0.06256172 0.81788198 0.06256172
0.06256172 0.81788103 0.06256172
0.06256172 0.81787753 0.06256172
0.06256172 0.81786984 0.06256172
0.06256172 0.81785568 0.06256172
0.06256172 0.81783194 0.06256172
0.06256172 0.81779442 0.06256172
0.06256172 0.81773745 0.06256172
0.06256172 0.81765345 0.06256172
0.06256172 0.81753231 0.06256172
0.06256172 0.81736055 0.06256172
0.06256172 0.81712025 0.06256172
0.06256172 0.81678749 0.06256172
0.06256172 0.81633033 0.06256172
0.06256172 0.81570589 0.06256172
0.06256172 0.81485623 0.06256172
0.57072290 0.81370240 0.06256172
0.70016416 0.81213538 0.06256172
0.76523360 0.81000222 0.06256172
0.81283517 0.80708348 0.06256172
0.85221350 0.80305477 0.06256172
0.88684376 0.79741676 0.06256172
0.91840537 0.78935606 0.06256172
0.91886608 0.77743488 0.06256172
0.91886608 0.75877133 0.06256172
0.91886608 0.72619358 0.06256172
0.91886608 0.65066596 0.06256172
0.91886608 0.06256172 0.06256172
0.91886608 0.06256172 0.06256172
0.91886608 0.06256172 0.06256172
0.91886608 0.06256172 0.06256172
0.91886608 0.06256172 0.06256172
0.91886608 0.06256172 0.06256172
0.06256172 0.84516459 0.06256172
0.06256172 0.84516388 0.06256172
0.06256172 0.84516129 0.06256172
0.06256172 0.84515561 0.06256172
0.06256172 0.84514514 0.06256172
0.06256172 0.84512760 0.06256172
0.06256172 0.84509986 0.06256172
0.06256172 0.84505775 0.06256172
0.06256172 0.84499568 0.06256172
0.06256172 0.84490619 0.06256172
0.06256172 0.84477935 0.06256172
0.06256172 0.84460201 0.06256172
0.06256172 0.84435662 0.06256172
0.06256172 0.84401986 0.06256172
0.06256172 0.84356058 0.06256172
0.06256172 0.84293695 0.06256172
0.06256172 0.84209245 0.06256172
0.60805624 0.84095001 0.06256172
0.73002519 0.83940312 0.06256172
0.79345933 0.83730223 0.06256172
0.84014975 0.83443254 0.06256172
0.87885344 0.83047631 0.06256172
0.91291929 0.82494409 0.06256172
0.91886608 0.81703845 0.06256172
0.91886608 0.80535056 0.06256172
0.91886608 0.78706197 0.06256172
0.91886608 0.75519436 0.06256172
0.91886608 0.68199325 0.06256172
0.91886608 0.06256172 0.06256172
0.91886608 0.06256172 0.06256172
0.91886608 0.06256172 0.06256172
0.91886608 0.06256172 0.06256172
0.91886608 0.06256172 0.06256172
0.06256172 0.87196408 0.06256172
0.06256172 0.87196356 0.06256172
0.06256172 0.87196164 0.06256172
0.06256172 0.87195743 0.06256172
0.06256172 0.87194968 0.06256172
0.06256172 0.87193669 0.06256172
0.06256172 0.87191615 0.06256172
0.06256172 0.87188498 0.06256172
0.06256172 0.87183904 0.06256172
0.06256172 0.87177281 0.06256172
0.06256172 0.87167898 0.06256172
0.06256172 0.87154784 0.06256172
0.06256172 0.87136648 0.06256172
0.06256172 0.87111781 0.06256172
0.06256172 0.87077903 0.06256172
0.06256172 0.87031973 0.06256172
0.06256172 0.86969905 0.06256172
0.06256172 0.86886176 0.06256172
0.64290523 0.86773242 0.06256172
0.75914636 0.86620674 0.06256172
0.82114125 0.86413799 0.06256172
0.86698896 0.86131519 0.06256172
0.90505393 0.85742576 0.06256172
0.91886608 0.85198754 0.06256172
0.91886608 0.84421398 0.06256172
0.91886608 0.83271410 0.06256172
0.91886608 0.81470380 0.06256172
