src/ffmpeg_scripts/luts/rec2020-sRGB_-3p00.cube
TITLE "rec2020-srgb_-3p00"
LUT_3D_SIZE 33
# PQ (EOTF Only)/Rec2020 -> PQ (EOTF Only)/Rec709, CineEI Shift -3.00, Black Level 0.00% IRE, Input 100% -> Output 109% - Created with LUTCalc v4.01 by Ben Turley October 2020
0.06256172 0.06256172 0.06256172
0.07473480 0.06256172 0.06256172
0.08893556 0.06256172 0.06256172
0.10439264 0.06256172 0.06256172
0.12082906 0.06256172 0.06256172
0.13808974 0.06256172 0.06256172
0.15607271 0.06256172 0.06256172
0.17470461 0.06256172 0.06256172
0.19392961 0.06256172 0.06256172
0.21370348 0.06256172 0.06256172
0.23399009 0.06256172 0.06256172
0.25475929 0.06256172 0.06256172
0.27598540 0.06256172 0.06256172
0.29764629 0.06256172 0.06256172
0.31972258 0.06256172 0.06256172
0.34219718 0.06256172 0.06256172
0.36505483 0.06256172 0.06256172
0.38828185 0.06256172 0.06256172
0.41186584 0.06256172 0.06256172
0.43579556 0.06256172 0.06256172
0.46006070 0.06256172 0.06256172
0.48465178 0.06256172 0.06256172
0.50956009 0.06256172 0.06256172
0.53477752 0.06256172 0.06256172
0.56029656 0.06256172 0.06256172
0.58611019 0.06256172 0.06256172
0.61221184 0.06256172 0.06256172
0.63859537 0.06256172 0.06256172
0.66525499 0.06256172 0.06256172
0.69218524 0.06256172 0.06256172
0.71938098 0.06256172 0.06256172
0.74683734 0.06256172 0.06256172
0.77454969 0.06256172 0.06256172
0.06256172 0.07250340 0.06256172
0.07221769 0.07190153 0.06256172
0.08796062 0.06927903 0.06256172
0.10387361 0.06256172 0.06256172
0.12051738 0.06256172 0.06256172
0.13788961 0.06256172 0.06256172
0.15593850 0.06256172 0.06256172
0.17461183 0.06256172 0.06256172
0.19386401 0.06256172 0.06256172
0.21365629 0.06256172 0.06256172
0.23395569 0.06256172 0.06256172
0.25473394 0.06256172 0.06256172
0.27596656 0.06256172 0.06256172
0.29763219 0.06256172 0.06256172
0.31971198 0.06256172 0.06256172
0.34218916 0.06256172 0.06256172
0.36504875 0.06256172 0.06256172
0.38827722 0.06256172 0.06256172
0.41186232 0.06256172 0.06256172
0.43579288 0.06256172 0.06256172
0.46005865 0.06256172 0.06256172
0.48465022 0.06256172 0.06256172
0.50955890 0.06256172 0.06256172
0.53477661 0.06256172 0.06256172
0.56029587 0.06256172 0.06256172
0.58610966 0.06256172 0.06256172
0.61221144 0.06256172 0.06256172
0.63859507 0.06256172 0.06256172
0.66525476 0.06256172 0.06256172
0.69218507 0.06256172 0.06256172
0.71938086 0.06256172 0.06256172
0.74683725 0.06256172 0.06256172
0.77454962 0.06256172 0.06256172
0.06256172 0.08448580 0.06256172
0.06256172 0.08423160 0.06256172
0.08390800 0.08326631 0.06256172
0.10188176 0.08094068 0.06256172
0.11934856 0.07547507 0.06256172
0.13714614 0.06256172 0.06256172
0.15544222 0.06256172 0.06256172
0.17426959 0.06256172 0.06256172
0.19362238 0.06256172 0.06256172
0.21348264 0.06256172 0.06256172
0.23382916 0.06256172 0.06256172
0.25464074 0.06256172 0.06256172
0.27589732 0.06256172 0.06256172
0.29758038 0.06256172 0.06256172
0.31967300 0.06256172 0.06256172
0.34215971 0.06256172 0.06256172
0.36502641 0.06256172 0.06256172
0.38826024 0.06256172 0.06256172
0.41184938 0.06256172 0.06256172
0.43578301 0.06256172 0.06256172
0.46005111 0.06256172 0.06256172
0.48464447 0.06256172 0.06256172
0.50955451 0.06256172 0.06256172
0.53477327 0.06256172 0.06256172
0.56029332 0.06256172 0.06256172
0.58610772 0.06256172 0.06256172
0.61220997 0.06256172 0.06256172
0.63859395 0.06256172 0.06256172
0.66525392 0.06256172 0.06256172
0.69218444 0.06256172 0.06256172
0.71938038 0.06256172 0.06256172
0.74683689 0.06256172 0.06256172
0.77454936 0.06256172 0.06256172
0.06256172 0.09778959 0.06256172
0.06256172 0.09765058 0.06256172
0.06711267 0.09713339 0.06256172
0.09692374 0.09595972 0.06256172
0.11663779 0.09364234 0.06256172
0.13546601 0.08915527 0.06256172
0.15433421 0.07907486 0.06256172
0.17351038 0.06256172 0.06256172
0.19308833 0.06256172 0.06256172
0.21309969 0.06256172 0.06256172
0.23355053 0.06256172 0.06256172
0.25443569 0.06256172 0.06256172
0.27574506 0.06256172 0.06256172
0.29746652 0.06256172 0.06256172
0.31958736 0.06256172 0.06256172
0.34209500 0.06256172 0.06256172
0.36497735 0.06256172 0.06256172
0.38822294 0.06256172 0.06256172
0.41182097 0.06256172 0.06256172
0.43576134 0.06256172 0.06256172
0.46003457 0.06256172 0.06256172
0.48463184 0.06256172 0.06256172
0.50954487 0.06256172 0.06256172
0.53476592 0.06256172 0.06256172
0.56028772 0.06256172 0.06256172
0.58610347 0.06256172 0.06256172
0.61220674 0.06256172 0.06256172
0.63859151 0.06256172 0.06256172
0.66525208 0.06256172 0.06256172
0.69218306 0.06256172 0.06256172
0.71937935 0.06256172 0.06256172
0.74683612 0.06256172 0.06256172
0.77454879 0.06256172 0.06256172
0.06256172 0.11214743 0.06256172
0.06256172 0.11206257 0.06256172
0.06256172 0.11174892 0.06256172
0.08375805 0.11104944 0.06256172
0.11100023 0.10972038 0.06256172
0.13218188 0.10735774 0.06256172
0.15222422 0.10319971 0.06256172
0.17208362 0.09540258 0.06256172
0.19209213 0.07382826 0.06256172
0.21238852 0.06256172 0.06256172
0.23303454 0.06256172 0.06256172
0.25405667 0.06256172 0.06256172
0.27546397 0.06256172 0.06256172
0.29725648 0.06256172 0.06256172
0.31942947 0.06256172 0.06256172
0.34197576 0.06256172 0.06256172
0.36488697 0.06256172 0.06256172
0.38815424 0.06256172 0.06256172
0.41176865 0.06256172 0.06256172
0.43572143 0.06256172 0.06256172
0.46000412 0.06256172 0.06256172
0.48460860 0.06256172 0.06256172
0.50952713 0.06256172 0.06256172
0.53475239 0.06256172 0.06256172
0.56027742 0.06256172 0.06256172
0.58609564 0.06256172 0.06256172
0.61220081 0.06256172 0.06256172
0.63858702 0.06256172 0.06256172
0.66524869 0.06256172 0.06256172
0.69218051 0.06256172 0.06256172
0.71937744 0.06256172 0.06256172
0.74683470 0.06256172 0.06256172
0.77454773 0.06256172 0.06256172
0.06256172 0.12740768 0.06256172
0.06256172 0.12735251 0.06256172
0.06256172 0.12714917 0.06256172
0.06256172 0.12669891 0.06256172
0.09838317 0.12585596 0.06256172
0.12598707 0.12439954 0.06256172
0.14845819 0.12197512 0.06256172
0.16960130 0.11795539 0.06256172
0.19038252 0.11102198 0.06256172
0.21117785 0.09713375 0.06256172
0.23216049 0.06256172 0.06256172
0.25341669 0.06256172 0.06256172
0.27499036 0.06256172 0.06256172
0.29690310 0.06256172 0.06256172
0.31916411 0.06256172 0.06256172
0.34177550 0.06256172 0.06256172
0.36473525 0.06256172 0.06256172
0.38803897 0.06256172 0.06256172
0.41168088 0.06256172 0.06256172
0.43565451 0.06256172 0.06256172
0.45995305 0.06256172 0.06256172
0.48456962 0.06256172 0.06256172
0.50949739 0.06256172 0.06256172
0.53472972 0.06256172 0.06256172
0.56026016 0.06256172 0.06256172
0.58608251 0.06256172 0.06256172
0.61219085 0.06256172 0.06256172
0.63857949 0.06256172 0.06256172
0.66524301 0.06256172 0.06256172
0.69217624 0.06256172 0.06256172
0.71937424 0.06256172 0.06256172
0.74683232 0.06256172 0.06256172
0.77454597 0.06256172 0.06256172
0.06256172 0.14346965 0.06256172
0.06256172 0.14343228 0.06256172
0.06256172 0.14329471 0.06256172
0.06256172 0.14299116 0.06256172
0.06256172 0.14242685 0.06256172
0.11343562 0.14146429 0.06256172
0.14178428 0.13989813 0.06256172
0.16541740 0.13740616 0.06256172
0.18757152 0.13344148 0.06256172
0.20921470 0.12694476 0.06256172
0.23075508 0.11527509 0.06256172
0.25239315 0.08367072 0.06256172
0.27423558 0.06256172 0.06256172
0.29634127 0.06256172 0.06256172
0.31874292 0.06256172 0.06256172
0.34145800 0.06256172 0.06256172
0.36449492 0.06256172 0.06256172
0.38785647 0.06256172 0.06256172
0.41154199 0.06256172 0.06256172
0.43554865 0.06256172 0.06256172
0.45987229 0.06256172 0.06256172
0.48450799 0.06256172 0.06256172
0.50945037 0.06256172 0.06256172
0.53469387 0.06256172 0.06256172
0.56023286 0.06256172 0.06256172
0.58606177 0.06256172 0.06256172
0.61217511 0.06256172 0.06256172
0.63856758 0.06256172 0.06256172
0.66523403 0.06256172 0.06256172
0.69216949 0.06256172 0.06256172
0.71936919 0.06256172 0.06256172
0.74682855 0.06256172 0.06256172
0.77454317 0.06256172 0.06256172
0.06256172 0.16026039 0.06256172
0.06256172 0.16023432 0.06256172
0.06256172 0.16013845 0.06256172
0.06256172 0.15992731 0.06256172
0.06256172 0.15953626 0.06256172
0.06256172 0.15887369 0.06256172
0.12912639 0.15780788 0.06256172
0.15831934 0.15614426 0.06256172
0.18301770 0.15358293 0.06256172
0.20610976 0.14962950 0.06256172
0.22856301 0.14337608 0.06256172
0.25081047 0.13280337 0.06256172
0.27307502 0.11092198 0.06256172
0.29548067 0.06256172 0.06256172
0.31809941 0.06256172 0.06256172
0.34097381 0.06256172 0.06256172
0.36412889 0.06256172 0.06256172
0.38757879 0.06256172 0.06256172
0.41133080 0.06256172 0.06256172
0.43538775 0.06256172 0.06256172
0.45974959 0.06256172 0.06256172
0.48441438 0.06256172 0.06256172
0.50937897 0.06256172 0.06256172
0.53463945 0.06256172 0.06256172
0.56019143 0.06256172 0.06256172
0.58603027 0.06256172 0.06256172
0.61215123 0.06256172 0.06256172
0.63854951 0.06256172 0.06256172
0.66522040 0.06256172 0.06256172
0.69215924 0.06256172 0.06256172
0.71936152 0.06256172 0.06256172
0.74682283 0.06256172 0.06256172
0.77453893 0.06256172 0.06256172
0.06256172 0.17772400 0.06256172
0.06256172 0.17770543 0.06256172
0.06256172 0.17763714 0.06256172
0.06256172 0.17748692 0.06256172
0.06256172 0.17720930 0.06256172
0.06256172 0.17674072 0.06256172
0.09460792 0.17599175 0.06256172
0.14547720 0.17483471 0.06256172
0.17553668 0.17308278 0.06256172
0.20122367 0.17045192 0.06256172
0.22519275 0.16648390 0.06256172
0.24841068 0.16036801 0.06256172
0.27133074 0.15042792 0.06256172
0.29419472 0.13191382 0.06256172
0.31714168 0.06256172 0.06256172
0.34025518 0.06256172 0.06256172
0.36358668 0.06256172 0.06256172
0.38716804 0.06256172 0.06256172
0.41101873 0.06256172 0.06256172
0.43515018 0.06256172 0.06256172
0.45956852 0.06256172 0.06256172
0.48427630 0.06256172 0.06256172
0.50927368 0.06256172 0.06256172
0.53455921 0.06256172 0.06256172
0.56013035 0.06256172 0.06256172
0.58598386 0.06256172 0.06256172
0.61211603 0.06256172 0.06256172
0.63852288 0.06256172 0.06256172
0.66520032 0.06256172 0.06256172
0.69214415 0.06256172 0.06256172
0.71935022 0.06256172 0.06256172
0.74681441 0.06256172 0.06256172
0.77453268 0.06256172 0.06256172
0.06256172 0.19581596 0.06256172
0.06256172 0.19580251 0.06256172
0.06256172 0.19575306 0.06256172
0.06256172 0.19564435 0.06256172
0.06256172 0.19544370 0.06256172
0.06256172 0.19510583 0.06256172
0.06256172 0.19456783 0.06256172
0.11548533 0.19374174 0.06256172
0.16247060 0.19250276 0.06256172
0.19339197 0.19066968 0.06256172
0.22000505 0.18796987 0.06256172
0.24479933 0.18397073 0.06256172
0.26874181 0.17792746 0.06256172
0.29230303 0.16837557 0.06256172
0.31574120 0.15162361 0.06256172
0.33920867 0.10831058 0.06256172
0.36279939 0.06256172 0.06256172
0.38657286 0.06256172 0.06256172
0.41056721 0.06256172 0.06256172
0.43480683 0.06256172 0.06256172
0.45930703 0.06256172 0.06256172
0.48407701 0.06256172 0.06256172
0.50912179 0.06256172 0.06256172
0.53444350 0.06256172 0.06256172
0.56004230 0.06256172 0.06256172
0.58591695 0.06256172 0.06256172
0.61206529 0.06256172 0.06256172
0.63848451 0.06256172 0.06256172
0.66517138 0.06256172 0.06256172
0.69212240 0.06256172 0.06256172
0.71933394 0.06256172 0.06256172
0.74680227 0.06256172 0.06256172
0.77452368 0.06256172 0.06256172
0.06256172 0.21449976 0.06256172
0.06256172 0.21448988 0.06256172
0.06256172 0.21445361 0.06256172
0.06256172 0.21437389 0.06256172
0.06256172 0.21422689 0.06256172
0.06256172 0.21397970 0.06256172
0.06256172 0.21358704 0.06256172
0.06256172 0.21298639 0.06256172
0.13452049 0.21209074 0.06256172
0.18008028 0.21077729 0.06256172
0.21184885 0.20886882 0.06256172
0.23933567 0.20610095 0.06256172
0.26491035 0.20205944 0.06256172
0.28954154 0.19604558 0.06256172
0.31371510 0.18673457 0.06256172
0.33770387 0.17103473 0.06256172
0.36167213 0.13707343 0.06256172
0.38572324 0.06256172 0.06256172
0.40992407 0.06256172 0.06256172
0.43431854 0.06256172 0.06256172
0.45893560 0.06256172 0.06256172
0.48379419 0.06256172 0.06256172
0.50890637 0.06256172 0.06256172
0.53427947 0.06256172 0.06256172
0.55991752 0.06256172 0.06256172
0.58582217 0.06256172 0.06256172
0.61199344 0.06256172 0.06256172
0.63843017 0.06256172 0.06256172
0.66513040 0.06256172 0.06256172
0.69209161 0.06256172 0.06256172
0.71931089 0.06256172 0.06256172
0.74678509 0.06256172 0.06256172
0.77451094 0.06256172 0.06256172
0.06256172 0.23374475 0.06256172
0.06256172 0.23373743 0.06256172
0.06256172 0.23371055 0.06256172
0.06256172 0.23365148 0.06256172
0.06256172 0.23354262 0.06256172
0.06256172 0.23335975 0.06256172
0.06256172 0.23306970 0.06256172
0.06256172 0.23262710 0.06256172
0.06256172 0.23196957 0.06256172
0.15322330 0.23101067 0.06256172
0.19827925 0.22962891 0.06256172
0.23087680 0.22764985 0.06256172
0.25919270 0.22481492 0.06256172
0.28550845 0.22072299 0.06256172
0.31079604 0.21470793 0.06256172
0.33555538 0.20554046 0.06256172
0.36007262 0.19050289 0.06256172
0.38452292 0.16072945 0.06256172
0.40901829 0.06256172 0.06256172
0.43363241 0.06256172 0.06256172
0.45841455 0.06256172 0.06256172
0.48339791 0.06256172 0.06256172
0.50860480 0.06256172 0.06256172
0.53405001 0.06256172 0.06256172
0.55974306 0.06256172 0.06256172
0.58568970 0.06256172 0.06256172
0.61189304 0.06256172 0.06256172
0.63835426 0.06256172 0.06256172
0.66507317 0.06256172 0.06256172
0.69204860 0.06256172 0.06256172
0.71927870 0.06256172 0.06256172
0.74676111 0.06256172 0.06256172
0.77449315 0.06256172 0.06256172
0.06256172 0.25352478 0.06256172
0.06256172 0.25351932 0.06256172
0.06256172 0.25349923 0.06256172
0.06256172 0.25345510 0.06256172
0.06256172 0.25337380 0.06256172
0.06256172 0.25323732 0.06256172
0.06256172 0.25302107 0.06256172
0.06256172 0.25269163 0.06256172
0.06256172 0.25220340 0.06256172
0.06256172 0.25149400 0.06256172
0.17202927 0.25047725 0.06256172
0.21704216 0.24903242 0.06256172
0.25044973 0.24698683 0.06256172
0.27955601 0.24408586 0.06256172
0.30657787 0.23993745 0.06256172
0.33249245 0.23389835 0.06256172
0.35781294 0.22480553 0.06256172
0.38283782 0.21018708 0.06256172
0.40775234 0.18276871 0.06256172
0.43267651 0.06256172 0.06256172
0.45769032 0.06256172 0.06256172
0.48284806 0.06256172 0.06256172
0.50818691 0.06256172 0.06256172
0.53373234 0.06256172 0.06256172
0.55950169 0.06256172 0.06256172
0.58550653 0.06256172 0.06256172
0.61175427 0.06256172 0.06256172
0.63824937 0.06256172 0.06256172
0.66499411 0.06256172 0.06256172
0.69198921 0.06256172 0.06256172
0.71923425 0.06256172 0.06256172
0.74672798 0.06256172 0.06256172
0.77446859 0.06256172 0.06256172
0.06256172 0.27381720 0.06256172
0.06256172 0.27381308 0.06256172
0.06256172 0.27379797 0.06256172
0.06256172 0.27376479 0.06256172
0.06256172 0.27370366 0.06256172
0.06256172 0.27360109 0.06256172
0.06256172 0.27343870 0.06256172
0.06256172 0.27319156 0.06256172
0.06256172 0.27282593 0.06256172
0.06256172 0.27229597 0.06256172
0.06256172 0.27153914 0.06256172
0.19111012 0.27046924 0.06256172
0.23634591 0.26896588 0.06256172
0.27054506 0.26685729 0.06256172
0.30040768 0.26389124 0.06256172
0.32810426 0.25968160 0.06256172
0.35461884 0.25360062 0.06256172
0.38047751 0.24453086 0.06256172
0.40599035 0.23016576 0.06256172
0.43135206 0.20417964 0.06256172
0.45669015 0.11797513 0.06256172
0.48209053 0.06256172 0.06256172
0.50761219 0.06256172 0.06256172
0.53329604 0.06256172 0.06256172
0.55917053 0.06256172 0.06256172
0.58525539 0.06256172 0.06256172
0.61156412 0.06256172 0.06256172
0.63810571 0.06256172 0.06256172
0.66488586 0.06256172 0.06256172
0.69190791 0.06256172 0.06256172
0.71917341 0.06256172 0.06256172
0.74668266 0.06256172 0.06256172
0.77443498 0.06256172 0.06256172
0.06256172 0.29460211 0.06256172
0.06256172 0.29459900 0.06256172
0.06256172 0.29458757 0.06256172
0.06256172 0.29456248 0.06256172
0.06256172 0.29451628 0.06256172
0.06256172 0.29443877 0.06256172
0.06256172 0.29431612 0.06256172
0.06256172 0.29412961 0.06256172
0.06256172 0.29385399 0.06256172
0.06256172 0.29345518 0.06256172
0.06256172 0.29288705 0.06256172
0.06256172 0.29208675 0.06256172
0.21054262 0.29096789 0.06256172
0.25616963 0.28940997 0.06256172
0.29114295 0.28724147 0.06256172
0.32173165 0.28421125 0.06256172
0.35007444 0.27993649 0.06256172
0.37716410 0.27379913 0.06256172
0.40353938 0.26471186 0.06256172
0.42952151 0.25047898 0.06256172
0.45531412 0.22537334 0.06256172
0.48105181 0.15787699 0.06256172
0.50682608 0.06256172 0.06256172
0.53270033 0.06256172 0.06256172
0.55871899 0.06256172 0.06256172
0.58491332 0.06256172 0.06256172
0.61130532 0.06256172 0.06256172
0.63791029 0.06256172 0.06256172
0.66473867 0.06256172 0.06256172
0.69179740 0.06256172 0.06256172
0.71909074 0.06256172 0.06256172
0.74662108 0.06256172 0.06256172
0.77438933 0.06256172 0.06256172
0.06256172 0.31586191 0.06256172
0.06256172 0.31585955 0.06256172
0.06256172 0.31585087 0.06256172
0.06256172 0.31583183 0.06256172
0.06256172 0.31579676 0.06256172
0.06256172 0.31573793 0.06256172
0.06256172 0.31564488 0.06256172
0.06256172 0.31550347 0.06256172
0.06256172 0.31529466 0.06256172
0.06256172 0.31499288 0.06256172
0.06256172 0.31456371 0.06256172
0.06256172 0.31396065 0.06256172
0.12788081 0.31312050 0.06256172
0.23036218 0.31195643 0.06256172
0.27649449 0.31034752 0.06256172
0.31222583 0.30812188 0.06256172
0.34351344 0.30502831 0.06256172
0.37247634 0.30068510 0.06256172
0.40011784 0.29447910 0.06256172
0.42698940 0.28534102 0.06256172
0.45342302 0.27114649 0.06256172
0.47963090 0.24655193 0.06256172
0.50575437 0.18662728 0.06256172
0.53189024 0.06256172 0.06256172
0.55810609 0.06256172 0.06256172
0.58444966 0.06256172 0.06256172
0.61095489 0.06256172 0.06256172
0.63764589 0.06256172 0.06256172
0.66453966 0.06256172 0.06256172
0.69164804 0.06256172 0.06256172
0.71897905 0.06256172 0.06256172
0.74653790 0.06256172 0.06256172
0.77432768 0.06256172 0.06256172
0.06256172 0.33758086 0.06256172
0.06256172 0.33757906 0.06256172
0.06256172 0.33757245 0.06256172
0.06256172 0.33755795 0.06256172
0.06256172 0.33753124 0.06256172
0.06256172 0.33748645 0.06256172
0.06256172 0.33741561 0.06256172
0.06256172 0.33730800 0.06256172
0.06256172 0.33714920 0.06256172
0.06256172 0.33691989 0.06256172
0.06256172 0.33659418 0.06256172
0.06256172 0.33613731 0.06256172
0.06256172 0.33550237 0.06256172
0.15813422 0.33462568 0.06256172
0.25058402 0.33341984 0.06256172
0.29730344 0.33176317 0.06256172
0.33377798 0.32948287 0.06256172
0.36573988 0.32632668 0.06256172
0.39529878 0.32191207 0.06256172
0.42347035 0.31562669 0.06256172
0.45081891 0.30640933 0.06256172
0.47768699 0.29217656 0.06256172
0.50429509 0.26782337 0.06256172
0.53079098 0.21182655 0.06256172
0.55727653 0.06256172 0.06256172
0.58382329 0.06256172 0.06256172
0.61048217 0.06256172 0.06256172
0.63728960 0.06256172 0.06256172
0.66427169 0.06256172 0.06256172
0.69144706 0.06256172 0.06256172
0.71882882 0.06256172 0.06256172
0.74642606 0.06256172 0.06256172
0.77424480 0.06256172 0.06256172
0.06256172 0.35974479 0.06256172
0.06256172 0.35974341 0.06256172
0.06256172 0.35973837 0.06256172
0.06256172 0.35972729 0.06256172
0.06256172 0.35970690 0.06256172
0.06256172 0.35967271 0.06256172
0.06256172 0.35961865 0.06256172
0.06256172 0.35953654 0.06256172
0.06256172 0.35941542 0.06256172
0.06256172 0.35924064 0.06256172
0.06256172 0.35899261 0.06256172
0.06256172 0.35864512 0.06256172
0.06256172 0.35816306 0.06256172
0.06256172 0.35749908 0.06256172
0.18356498 0.35658894 0.06256172
0.27121273 0.35534448 0.06256172
0.31858101 0.35364302 0.06256172
0.35578525 0.35131032 0.06256172
0.38839895 0.34809217 0.06256172
0.41853141 0.34360343 0.06256172
0.44721251 0.33722895 0.06256172
0.47501968 0.32790703 0.06256172
0.50230588 0.31357050 0.06256172
0.52929966 0.28924682 0.06256172
0.55615502 0.23530834 0.06256172
0.58297867 0.06256172 0.06256172
0.60984596 0.06256172 0.06256172
0.63681079 0.06256172 0.06256172
0.66391197 0.06256172 0.06256172
0.69117748 0.06256172 0.06256172
0.71862745 0.06256172 0.06256172
0.74627621 0.06256172 0.06256172
0.77413380 0.06256172 0.06256172
0.06256172 0.38234084 0.06256172
0.06256172 0.38233979 0.06256172
0.06256172 0.38233593 0.06256172
0.06256172 0.38232746 0.06256172
0.06256172 0.38231186 0.06256172
0.06256172 0.38228572 0.06256172
0.06256172 0.38224438 0.06256172
0.06256172 0.38218161 0.06256172
0.06256172 0.38208905 0.06256172
0.06256172 0.38195554 0.06256172
0.06256172 0.38176619 0.06256172
0.06256172 0.38150117 0.06256172
0.06256172 0.38113398 0.06256172
0.06256172 0.38062912 0.06256172
0.06256172 0.37993878 0.06256172
0.20717540 0.37899807 0.06256172
0.29224697 0.37771796 0.06256172
0.34031310 0.37597446 0.06256172
0.37823480 0.37359144 0.06256172
0.41147960 0.37031188 0.06256172
0.44216461 0.36574643 0.06256172
0.47133573 0.35927376 0.06256172
0.49958390 0.34982407 0.06256172
0.52727246 0.33532520 0.06256172
0.55463785 0.31085339 0.06256172
0.58184010 0.25778766 0.06256172
0.60899059 0.06256172 0.06256172
0.63616830 0.06256172 0.06256172
0.66342998 0.06256172 0.06256172
0.69081667 0.06256172 0.06256172
0.71835815 0.06256172 0.06256172
0.74607595 0.06256172 0.06256172
0.77398553 0.06256172 0.06256172
0.06256172 0.40535729 0.06256172
0.06256172 0.40535649 0.06256172
0.06256172 0.40535354 0.06256172
0.06256172 0.40534705 0.06256172
0.06256172 0.40533511 0.06256172
0.06256172 0.40531509 0.06256172
0.06256172 0.40528345 0.06256172
0.06256172 0.40523540 0.06256172
0.06256172 0.40516458 0.06256172
0.06256172 0.40506244 0.06256172
0.06256172 0.40491767 0.06256172
0.06256172 0.40471517 0.06256172
0.06256172 0.40443486 0.06256172
0.06256172 0.40404996 0.06256172
0.06256172 0.40352459 0.06256172
0.06256172 0.40281044 0.06256172
0.22994467 0.40184191 0.06256172
0.31368203 0.40052892 0.06256172
0.36248676 0.39874596 0.06256172
0.40111494 0.39631457 0.06256172
0.43497164 0.39297406 0.06256172
0.46618938 0.38832933 0.06256172
0.49583191 0.38174975 0.06256172
0.52450413 0.37215026 0.06256172
0.55257979 0.35743455 0.06256172
0.58030311 0.33265657 0.06256172
0.60784001 0.27959089 0.06256172
0.63530637 0.06256172 0.06256172
0.66278465 0.06256172 0.06256172
0.69033432 0.06256172 0.06256172
0.71799854 0.06256172 0.06256172
0.74580875 0.06256172 0.06256172
0.77378782 0.06256172 0.06256172
0.06256172 0.42878342 0.06256172
0.06256172 0.42878280 0.06256172
0.06256172 0.42878054 0.06256172
0.06256172 0.42877557 0.06256172
0.06256172 0.42876642 0.06256172
0.06256172 0.42875109 0.06256172
0.06256172 0.42872685 0.06256172
0.06256172 0.42869006 0.06256172
0.06256172 0.42863582 0.06256172
0.06256172 0.42855763 0.06256172
0.06256172 0.42844683 0.06256172
0.06256172 0.42829194 0.06256172
0.06256172 0.42807767 0.06256172
0.06256172 0.42778374 0.06256172
0.06256172 0.42738307 0.06256172
0.06256172 0.42683940 0.06256172
0.06256172 0.42610388 0.06256172
0.25230604 0.42511014 0.06256172
0.33551119 0.42376693 0.06256172
0.38509010 0.42194696 0.06256172
0.42441491 0.41946899 0.06256172
0.45886564 0.41606791 0.06256172
0.49059727 0.41134133 0.06256172
0.52069334 0.40464625 0.06256172
0.54977323 0.39487546 0.06256172
0.57822119 0.37989029 0.06256172
0.60628913 0.35465765 0.06256172
0.63414874 0.30086544 0.06256172
0.66192026 0.06256172 0.06256172
0.68968951 0.06256172 0.06256172
0.71751853 0.06256172 0.06256172
0.74545251 0.06256172 0.06256172
0.77352444 0.06256172 0.06256172
0.06256172 0.45260932 0.06256172
0.06256172 0.45260885 0.06256172
0.06256172 0.45260711 0.06256172
0.06256172 0.45260331 0.06256172
0.06256172 0.45259630 0.06256172
0.06256172 0.45258455 0.06256172
0.06256172 0.45256599 0.06256172
0.06256172 0.45253780 0.06256172
0.06256172 0.45249627 0.06256172
0.06256172 0.45243640 0.06256172
0.06256172 0.45235158 0.06256172
0.06256172 0.45223305 0.06256172
0.06256172 0.45206918 0.06256172
0.06256172 0.45184453 0.06256172
0.06256172 0.45153860 0.06256172
0.06256172 0.45112403 0.06256172
0.06256172 0.45056419 0.06256172
0.06256172 0.44980966 0.06256172
0.27448021 0.44879321 0.06256172
0.35772650 0.44742232 0.06256172
0.40811211 0.44556768 0.06256172
0.44812484 0.44304485 0.06256172
0.48315282 0.43958348 0.06256172
0.51538036 0.43477240 0.06256172
0.54591273 0.42795316 0.06256172
0.57538438 0.41798953 0.06256172
0.60419020 0.40268240 0.06256172
