src/ffmpeg_scripts/luts/rec2020-sRGB_1p67.cube
TITLE "rec2020-srgb_1p67"
LUT_3D_SIZE 33
# PQ (EOTF Only)/Rec2020 -> PQ (EOTF Only)/Rec709, CineEI Shift 1.67, Black Level 0.00% IRE, Input 100% -> Output 109% - Created with LUTCalc v4.01 by Ben Turley October 2020
0.06256172 0.06256172 0.06256172
0.11885894 0.06256172 0.06256172
0.16532723 0.06256172 0.06256172
0.20776047 0.06256172 0.06256172
0.24759898 0.06256172 0.06256172
0.28553387 0.06256172 0.06256172
0.32197225 0.06256172 0.06256172
0.35718223 0.06256172 0.06256172
0.39135347 0.06256172 0.06256172
0.42462699 0.06256172 0.06256172
0.45711162 0.06256172 0.06256172
0.48889380 0.06256172 0.06256172
0.52004377 0.06256172 0.06256172
0.55061967 0.06256172 0.06256172
0.58067040 0.06256172 0.06256172
0.61023762 0.06256172 0.06256172
0.63935721 0.06256172 0.06256172
0.66806042 0.06256172 0.06256172
0.69637464 0.06256172 0.06256172
0.72432412 0.06256172 0.06256172
0.75193043 0.06256172 0.06256172
0.77921289 0.06256172 0.06256172
0.80618890 0.06256172 0.06256172
0.83287420 0.06256172 0.06256172
0.85928310 0.06256172 0.06256172
0.88542866 0.06256172 0.06256172
0.91132283 0.06256172 0.06256172
0.91886608 0.06256172 0.06256172
0.91886608 0.06256172 0.06256172
0.91886608 0.06256172 0.06256172
0.91886608 0.06256172 0.06256172
0.91886608 0.06256172 0.06256172
0.91886608 0.06256172 0.06256172
0.06256172 0.11041677 0.06256172
0.10930213 0.10805888 0.06256172
0.16242400 0.09729310 0.06256172
0.20642655 0.06256172 0.06256172
0.24688141 0.06256172 0.06256172
0.28511228 0.06256172 0.06256172
0.32170998 0.06256172 0.06256172
0.35701237 0.06256172 0.06256172
0.39124011 0.06256172 0.06256172
0.42454958 0.06256172 0.06256172
0.45705780 0.06256172 0.06256172
0.48885583 0.06256172 0.06256172
0.52001667 0.06256172 0.06256172
0.55060014 0.06256172 0.06256172
0.58065621 0.06256172 0.06256172
0.61022724 0.06256172 0.06256172
0.63934959 0.06256172 0.06256172
0.66805479 0.06256172 0.06256172
0.69637047 0.06256172 0.06256172
0.72432103 0.06256172 0.06256172
0.75192813 0.06256172 0.06256172
0.77921118 0.06256172 0.06256172
0.80618762 0.06256172 0.06256172
0.83287325 0.06256172 0.06256172
0.85928239 0.06256172 0.06256172
0.88542813 0.06256172 0.06256172
0.91132244 0.06256172 0.06256172
0.91886608 0.06256172 0.06256172
0.91886608 0.06256172 0.06256172
0.91886608 0.06256172 0.06256172
0.91886608 0.06256172 0.06256172
0.91886608 0.06256172 0.06256172
0.91886608 0.06256172 0.06256172
0.06256172 0.15179204 0.06256172
0.06256172 0.15099547 0.06256172
0.14997746 0.14794536 0.06256172
0.20125676 0.14042154 0.06256172
0.24417882 0.12156684 0.06256172
0.28354275 0.06256172 0.06256172
0.32073900 0.06256172 0.06256172
0.35638537 0.06256172 0.06256172
0.39082242 0.06256172 0.06256172
0.42426466 0.06256172 0.06256172
0.45685982 0.06256172 0.06256172
0.48871623 0.06256172 0.06256172
0.51991704 0.06256172 0.06256172
0.55052835 0.06256172 0.06256172
0.58060407 0.06256172 0.06256172
0.61018912 0.06256172 0.06256172
0.63932157 0.06256172 0.06256172
0.66803411 0.06256172 0.06256172
0.69635516 0.06256172 0.06256172
0.72430965 0.06256172 0.06256172
0.75191967 0.06256172 0.06256172
0.77920487 0.06256172 0.06256172
0.80618292 0.06256172 0.06256172
0.83286975 0.06256172 0.06256172
0.85927978 0.06256172 0.06256172
0.88542619 0.06256172 0.06256172
0.91132100 0.06256172 0.06256172
0.91886608 0.06256172 0.06256172
0.91886608 0.06256172 0.06256172
0.91886608 0.06256172 0.06256172
0.91886608 0.06256172 0.06256172
0.91886608 0.06256172 0.06256172
0.91886608 0.06256172 0.06256172
0.06256172 0.19036547 0.06256172
0.06256172 0.18998869 0.06256172
0.08762175 0.18858275 0.06256172
0.18801094 0.18536746 0.06256172
0.23783818 0.17891353 0.06256172
0.27997580 0.16597702 0.06256172
0.31856449 0.13418716 0.06256172
0.35499194 0.06256172 0.06256172
0.38989820 0.06256172 0.06256172
0.42363589 0.06256172 0.06256172
0.45642364 0.06256172 0.06256172
0.48840898 0.06256172 0.06256172
0.51969794 0.06256172 0.06256172
0.55037054 0.06256172 0.06256172
0.58048948 0.06256172 0.06256172
0.61010537 0.06256172 0.06256172
0.63926002 0.06256172 0.06256172
0.66798868 0.06256172 0.06256172
0.69632152 0.06256172 0.06256172
0.72428468 0.06256172 0.06256172
0.75190109 0.06256172 0.06256172
0.77919104 0.06256172 0.06256172
0.80617261 0.06256172 0.06256172
0.83286206 0.06256172 0.06256172
0.85927405 0.06256172 0.06256172
0.88542192 0.06256172 0.06256172
0.91131783 0.06256172 0.06256172
0.91886608 0.06256172 0.06256172
0.91886608 0.06256172 0.06256172
0.91886608 0.06256172 0.06256172
0.91886608 0.06256172 0.06256172
0.91886608 0.06256172 0.06256172
0.91886608 0.06256172 0.06256172
0.06256172 0.22709724 0.06256172
0.06256172 0.22689125 0.06256172
0.06256172 0.22612884 0.06256172
0.14950421 0.22442278 0.06256172
0.22430245 0.22115877 0.06256172
0.27292056 0.21528119 0.06256172
0.31439769 0.20468657 0.06256172
0.35236399 0.18382887 0.06256172
0.38817049 0.11548248 0.06256172
0.42246665 0.06256172 0.06256172
0.45561519 0.06256172 0.06256172
0.48784070 0.06256172 0.06256172
0.51929327 0.06256172 0.06256172
0.55007936 0.06256172 0.06256172
0.58027820 0.06256172 0.06256172
0.60995101 0.06256172 0.06256172
0.63914663 0.06256172 0.06256172
0.66790502 0.06256172 0.06256172
0.69625957 0.06256172 0.06256172
0.72423869 0.06256172 0.06256172
0.75186688 0.06256172 0.06256172
0.77916556 0.06256172 0.06256172
0.80615362 0.06256172 0.06256172
0.83284791 0.06256172 0.06256172
0.85926351 0.06256172 0.06256172
0.88541408 0.06256172 0.06256172
0.91131200 0.06256172 0.06256172
0.91886608 0.06256172 0.06256172
0.91886608 0.06256172 0.06256172
0.91886608 0.06256172 0.06256172
0.91886608 0.06256172 0.06256172
0.91886608 0.06256172 0.06256172
0.91886608 0.06256172 0.06256172
0.06256172 0.26245715 0.06256172
0.06256172 0.26233473 0.06256172
0.06256172 0.26188321 0.06256172
0.06256172 0.26088171 0.06256172
0.19196914 0.25900033 0.06256172
0.25929350 0.25572956 0.06256172
0.30687346 0.25022659 0.06256172
0.34776212 0.24093304 0.06256172
0.38519410 0.22435563 0.06256172
0.42047137 0.18858371 0.06256172
0.45424364 0.06256172 0.06256172
0.48688022 0.06256172 0.06256172
0.51861099 0.06256172 0.06256172
0.54958926 0.06256172 0.06256172
0.57992298 0.06256172 0.06256172
0.60969171 0.06256172 0.06256172
0.63895626 0.06256172 0.06256172
0.66776461 0.06256172 0.06256172
0.69615564 0.06256172 0.06256172
0.72416155 0.06256172 0.06256172
0.75180951 0.06256172 0.06256172
0.77912284 0.06256172 0.06256172
0.80612179 0.06256172 0.06256172
0.83282418 0.06256172 0.06256172
0.85924584 0.06256172 0.06256172
0.88540092 0.06256172 0.06256172
0.91130222 0.06256172 0.06256172
0.91886608 0.06256172 0.06256172
0.91886608 0.06256172 0.06256172
0.91886608 0.06256172 0.06256172
0.91886608 0.06256172 0.06256172
0.91886608 0.06256172 0.06256172
0.91886608 0.06256172 0.06256172
0.06256172 0.29672575 0.06256172
0.06256172 0.29664891 0.06256172
0.06256172 0.29636596 0.06256172
0.06256172 0.29574105 0.06256172
0.06256172 0.29457712 0.06256172
0.23021031 0.29258516 0.06256172
0.29324828 0.28932587 0.06256172
0.33991783 0.28409229 0.06256172
0.38026823 0.27563979 0.06256172
0.41722302 0.26142885 0.06256172
0.45203263 0.23461092 0.06256172
0.48534149 0.14922816 0.06256172
0.51752243 0.06256172 0.06256172
0.54880945 0.06256172 0.06256172
0.57935887 0.06256172 0.06256172
0.60928047 0.06256172 0.06256172
0.63865462 0.06256172 0.06256172
0.66754229 0.06256172 0.06256172
0.69599116 0.06256172 0.06256172
0.72403951 0.06256172 0.06256172
0.75171878 0.06256172 0.06256172
0.77905528 0.06256172 0.06256172
0.80607146 0.06256172 0.06256172
0.83278667 0.06256172 0.06256172
0.85921789 0.06256172 0.06256172
0.88538013 0.06256172 0.06256172
0.91128676 0.06256172 0.06256172
0.91886608 0.06256172 0.06256172
0.91886608 0.06256172 0.06256172
0.91886608 0.06256172 0.06256172
0.91886608 0.06256172 0.06256172
0.91886608 0.06256172 0.06256172
0.91886608 0.06256172 0.06256172
0.06256172 0.33008981 0.06256172
0.06256172 0.33003967 0.06256172
0.06256172 0.32985521 0.06256172
0.06256172 0.32944875 0.06256172
0.06256172 0.32869512 0.06256172
0.06256172 0.32741575 0.06256172
0.26625331 0.32535115 0.06256172
0.32634293 0.32211203 0.06256172
0.37220135 0.31708478 0.06256172
0.41205214 0.30922587 0.06256172
0.44857009 0.29653334 0.06256172
0.48295594 0.27426433 0.06256172
0.51584573 0.22411103 0.06256172
0.54761352 0.06256172 0.06256172
0.57849630 0.06256172 0.06256172
0.60865295 0.06256172 0.06256172
0.63819502 0.06256172 0.06256172
0.66720390 0.06256172 0.06256172
0.69574100 0.06256172 0.06256172
0.72385401 0.06256172 0.06256172
0.75158091 0.06256172 0.06256172
0.77895267 0.06256172 0.06256172
0.80599502 0.06256172 0.06256172
0.83272972 0.06256172 0.06256172
0.85917548 0.06256172 0.06256172
0.88534856 0.06256172 0.06256172
0.91126331 0.06256172 0.06256172
0.91886608 0.06256172 0.06256172
0.91886608 0.06256172 0.06256172
0.91886608 0.06256172 0.06256172
0.91886608 0.06256172 0.06256172
0.91886608 0.06256172 0.06256172
0.91886608 0.06256172 0.06256172
0.06256172 0.36268263 0.06256172
0.06256172 0.36264895 0.06256172
0.06256172 0.36252513 0.06256172
0.06256172 0.36225265 0.06256172
0.06256172 0.36174874 0.06256172
0.06256172 0.36089720 0.06256172
0.18162022 0.35953348 0.06256172
0.30083514 0.35742032 0.06256172
0.35870331 0.35420565 0.06256172
0.40383005 0.34934334 0.06256172
0.44321269 0.34192811 0.06256172
0.47932412 0.33029678 0.06256172
0.51331896 0.31082300 0.06256172
0.54582332 0.27233971 0.06256172
0.57721095 0.06256172 0.06256172
0.60772080 0.06256172 0.06256172
0.63751381 0.06256172 0.06256172
0.66670315 0.06256172 0.06256172
0.69537124 0.06256172 0.06256172
0.72358005 0.06256172 0.06256172
0.75137743 0.06256172 0.06256172
0.77880129 0.06256172 0.06256172
0.80588229 0.06256172 0.06256172
0.83264575 0.06256172 0.06256172
0.85911295 0.06256172 0.06256172
0.88530204 0.06256172 0.06256172
0.91122874 0.06256172 0.06256172
0.91886608 0.06256172 0.06256172
0.91886608 0.06256172 0.06256172
0.91886608 0.06256172 0.06256172
0.91886608 0.06256172 0.06256172
0.91886608 0.06256172 0.06256172
0.91886608 0.06256172 0.06256172
0.06256172 0.39460408 0.06256172
0.06256172 0.39458096 0.06256172
0.06256172 0.39449596 0.06256172
0.06256172 0.39430905 0.06256172
0.06256172 0.39396394 0.06256172
0.06256172 0.39338236 0.06256172
0.06256172 0.39245518 0.06256172
0.23511062 0.39102878 0.06256172
0.33432411 0.38888325 0.06256172
0.39042384 0.38569505 0.06256172
0.43488388 0.38096873 0.06256172
0.47382485 0.37389870 0.06256172
0.50955359 0.36305138 0.06256172
0.54318277 0.34547563 0.06256172
0.57532799 0.31320529 0.06256172
0.60636163 0.21766345 0.06256172
0.63652381 0.06256172 0.06256172
0.66597710 0.06256172 0.06256172
0.69483602 0.06256172 0.06256172
0.72318398 0.06256172 0.06256172
0.75108353 0.06256172 0.06256172
0.77858278 0.06256172 0.06256172
0.80571966 0.06256172 0.06256172
0.83252466 0.06256172 0.06256172
0.85902279 0.06256172 0.06256172
0.88523497 0.06256172 0.06256172
0.91117891 0.06256172 0.06256172
0.91886608 0.06256172 0.06256172
0.91886608 0.06256172 0.06256172
0.91886608 0.06256172 0.06256172
0.91886608 0.06256172 0.06256172
0.91886608 0.06256172 0.06256172
0.91886608 0.06256172 0.06256172
0.06256172 0.42593178 0.06256172
0.06256172 0.42591562 0.06256172
0.06256172 0.42585623 0.06256172
0.06256172 0.42572570 0.06256172
0.06256172 0.42548494 0.06256172
0.06256172 0.42507989 0.06256172
0.06256172 0.42443598 0.06256172
0.06256172 0.42344976 0.06256172
0.27795598 0.42197644 0.06256172
0.36693876 0.41980988 0.06256172
0.42157797 0.41664902 0.06256172
0.46542542 0.41203741 0.06256172
0.50394746 0.40524397 0.06256172
0.53931288 0.39499861 0.06256172
0.57259659 0.37879378 0.06256172
0.60440368 0.35042414 0.06256172
0.63510450 0.28338897 0.06256172
0.66493974 0.06256172 0.06256172
0.69407317 0.06256172 0.06256172
0.72262046 0.06256172 0.06256172
0.75066590 0.06256172 0.06256172
0.77827260 0.06256172 0.06256172
0.80548896 0.06256172 0.06256172
0.83235296 0.06256172 0.06256172
0.85889503 0.06256172 0.06256172
0.88513995 0.06256172 0.06256172
0.91110834 0.06256172 0.06256172
0.91886608 0.06256172 0.06256172
0.91886608 0.06256172 0.06256172
0.91886608 0.06256172 0.06256172
0.91886608 0.06256172 0.06256172
0.91886608 0.06256172 0.06256172
0.91886608 0.06256172 0.06256172
0.06256172 0.45672771 0.06256172
0.06256172 0.45671625 0.06256172
0.06256172 0.45667417 0.06256172
0.06256172 0.45658171 0.06256172
0.06256172 0.45641126 0.06256172
0.06256172 0.45612483 0.06256172
0.06256172 0.45567032 0.06256172
0.06256172 0.45497617 0.06256172
0.06256172 0.45394368 0.06256172
0.31637495 0.45243525 0.06256172
0.39882346 0.45025591 0.06256172
0.45222440 0.44712260 0.06256172
0.49550501 0.44260949 0.06256172
0.53362793 0.43604260 0.06256172
0.56864614 0.42627247 0.06256172
0.60160084 0.41109956 0.06256172
0.63308693 0.38540413 0.06256172
0.66347232 0.33099127 0.06256172
0.69299783 0.06256172 0.06256172
0.72182811 0.06256172 0.06256172
0.75007977 0.06256172 0.06256172
0.77783784 0.06256172 0.06256172
0.80516593 0.06256172 0.06256172
0.83211274 0.06256172 0.06256172
0.85871636 0.06256172 0.06256172
0.88500714 0.06256172 0.06256172
0.91100972 0.06256172 0.06256172
0.91886608 0.06256172 0.06256172
0.91886608 0.06256172 0.06256172
0.91886608 0.06256172 0.06256172
0.91886608 0.06256172 0.06256172
0.91886608 0.06256172 0.06256172
0.91886608 0.06256172 0.06256172
0.06256172 0.48704253 0.06256172
0.06256172 0.48703432 0.06256172
0.06256172 0.48700415 0.06256172
0.06256172 0.48693789 0.06256172
0.06256172 0.48681580 0.06256172
0.06256172 0.48661078 0.06256172
0.06256172 0.48628584 0.06256172
0.06256172 0.48579053 0.06256172
0.06256172 0.48505589 0.06256172
0.06256172 0.48398715 0.06256172
0.35226363 0.48245271 0.06256172
0.43008078 0.48026677 0.06256172
0.48241114 0.47716083 0.06256172
0.52516404 0.47273350 0.06256172
0.56290525 0.46635533 0.06256172
0.59758993 0.45696808 0.06256172
0.63022926 0.44259449 0.06256172
0.66140853 0.41883398 0.06256172
0.69149298 0.37175710 0.06256172
0.72072324 0.06256172 0.06256172
0.74926457 0.06256172 0.06256172
0.77723432 0.06256172 0.06256172
0.80471814 0.06256172 0.06256172
0.83178009 0.06256172 0.06256172
0.85846915 0.06256172 0.06256172
0.88482348 0.06256172 0.06256172
0.91087340 0.06256172 0.06256172
0.91886608 0.06256172 0.06256172
0.91886608 0.06256172 0.06256172
0.91886608 0.06256172 0.06256172
0.91886608 0.06256172 0.06256172
0.91886608 0.06256172 0.06256172
0.91886608 0.06256172 0.06256172
0.06256172 0.51691838 0.06256172
0.06256172 0.51691244 0.06256172
0.06256172 0.51689062 0.06256172
0.06256172 0.51684269 0.06256172
0.06256172 0.51675439 0.06256172
0.06256172 0.51660620 0.06256172
0.06256172 0.51637152 0.06256172
0.06256172 0.51601426 0.06256172
0.06256172 0.51548539 0.06256172
0.06256172 0.51471820 0.06256172
0.06256172 0.51362128 0.06256172
0.38646261 0.51206800 0.06256172
0.46078747 0.50988020 0.06256172
0.51217818 0.50680125 0.06256172
0.55443719 0.50244946 0.06256172
0.59181209 0.49623054 0.06256172
0.62617499 0.48715639 0.06256172
0.65851045 0.47341437 0.06256172
0.68939476 0.45110344 0.06256172
0.71919046 0.40881683 0.06256172
0.74813777 0.24097920 0.06256172
0.77640232 0.06256172 0.06256172
0.80410203 0.06256172 0.06256172
0.83132306 0.06256172 0.06256172
0.85812986 0.06256172 0.06256172
0.88457162 0.06256172 0.06256172
0.91068659 0.06256172 0.06256172
0.91886608 0.06256172 0.06256172
0.91886608 0.06256172 0.06256172
0.91886608 0.06256172 0.06256172
0.91886608 0.06256172 0.06256172
0.91886608 0.06256172 0.06256172
0.91886608 0.06256172 0.06256172
0.06256172 0.54639087 0.06256172
0.06256172 0.54638654 0.06256172
0.06256172 0.54637063 0.06256172
0.06256172 0.54633568 0.06256172
0.06256172 0.54627133 0.06256172
0.06256172 0.54616336 0.06256172
0.06256172 0.54599248 0.06256172
0.06256172 0.54573257 0.06256172
0.06256172 0.54534833 0.06256172
0.06256172 0.54479203 0.06256172
0.06256172 0.54399888 0.06256172
0.06256172 0.54288034 0.06256172
0.41942203 0.54131400 0.06256172
0.49100322 0.53912803 0.06256172
0.54155928 0.53607561 0.06256172
0.58335392 0.53179096 0.06256172
0.62037621 0.52570772 0.06256172
0.65442751 0.51689228 0.06256172
0.68646886 0.50365593 0.06256172
0.71706829 0.48245532 0.06256172
0.74658560 0.44350081 0.06256172
0.77526048 0.32548527 0.06256172
0.80325877 0.06256172 0.06256172
0.83069878 0.06256172 0.06256172
0.85766711 0.06256172 0.06256172
0.88422849 0.06256172 0.06256172
0.91043229 0.06256172 0.06256172
0.91886608 0.06256172 0.06256172
0.91886608 0.06256172 0.06256172
0.91886608 0.06256172 0.06256172
0.91886608 0.06256172 0.06256172
0.91886608 0.06256172 0.06256172
0.91886608 0.06256172 0.06256172
0.06256172 0.57549044 0.06256172
0.06256172 0.57548726 0.06256172
0.06256172 0.57547559 0.06256172
0.06256172 0.57544996 0.06256172
0.06256172 0.57540275 0.06256172
0.06256172 0.57532358 0.06256172
0.06256172 0.57519833 0.06256172
0.06256172 0.57500794 0.06256172
0.06256172 0.57472673 0.06256172
0.06256172 0.57432017 0.06256172
0.06256172 0.57374165 0.06256172
0.06256172 0.57292808 0.06256172
0.26350555 0.57179337 0.06256172
0.45141328 0.57021871 0.06256172
0.52077582 0.56803754 0.06256172
0.57058338 0.56501111 0.06256172
0.61193955 0.56078657 0.06256172
0.64862148 0.55481976 0.06256172
0.68237007 0.54621954 0.06256172
0.71412569 0.53339106 0.06256172
0.74444880 0.51305159 0.06256172
0.77369662 0.47649881 0.06256172
0.80210815 0.37860450 0.06256172
0.82984930 0.06256172 0.06256172
0.85703871 0.06256172 0.06256172
0.88376324 0.06256172 0.06256172
0.91008787 0.06256172 0.06256172
0.91886608 0.06256172 0.06256172
0.91886608 0.06256172 0.06256172
0.91886608 0.06256172 0.06256172
0.91886608 0.06256172 0.06256172
0.91886608 0.06256172 0.06256172
0.91886608 0.06256172 0.06256172
0.06256172 0.60424344 0.06256172
0.06256172 0.60424110 0.06256172
0.06256172 0.60423249 0.06256172
0.06256172 0.60421359 0.06256172
0.06256172 0.60417879 0.06256172
0.06256172 0.60412044 0.06256172
0.06256172 0.60402814 0.06256172
0.06256172 0.60388790 0.06256172
0.06256172 0.60368091 0.06256172
0.06256172 0.60338193 0.06256172
0.06256172 0.60295711 0.06256172
0.06256172 0.60236086 0.06256172
0.06256172 0.60153158 0.06256172
0.32598418 0.60038529 0.06256172
0.48261400 0.59880623 0.06256172
0.55014448 0.59663228 0.06256172
0.59927551 0.59363131 0.06256172
0.64021614 0.58946090 0.06256172
0.67656863 0.58359450 0.06256172
0.71002233 0.57517384 0.06256172
0.74149944 0.56267505 0.06256172
0.77155360 0.54300595 0.06256172
0.80053957 0.50821343 0.06256172
0.82869563 0.42154122 0.06256172
0.85618765 0.06256172 0.06256172
0.88313444 0.06256172 0.06256172
0.90962310 0.06256172 0.06256172
0.91886608 0.06256172 0.06256172
0.91886608 0.06256172 0.06256172
0.91886608 0.06256172 0.06256172
0.91886608 0.06256172 0.06256172
0.91886608 0.06256172 0.06256172
0.91886608 0.06256172 0.06256172
0.06256172 0.63267288 0.06256172
0.06256172 0.63267115 0.06256172
0.06256172 0.63266478 0.06256172
0.06256172 0.63265078 0.06256172
0.06256172 0.63262502 0.06256172
0.06256172 0.63258183 0.06256172
0.06256172 0.63251352 0.06256172
0.06256172 0.63240977 0.06256172
0.06256172 0.63225672 0.06256172
0.06256172 0.63203579 0.06256172
0.06256172 0.63172219 0.06256172
0.06256172 0.63128268 0.06256172
0.06256172 0.63067260 0.06256172
0.06256172 0.62983166 0.06256172
0.37317665 0.62867770 0.06256172
0.51314772 0.62709758 0.06256172
0.57914193 0.62493285 0.06256172
0.62765754 0.62195681 0.06256172
0.66820301 0.61783538 0.06256172
0.70423586 0.61205580 0.06256172
0.73740153 0.60378486 0.06256172
0.76860636 0.59155153 0.06256172
0.79839793 0.57240133 0.06256172
0.82712868 0.53889878 0.06256172
0.85503613 0.45917086 0.06256172
0.88228605 0.06256172 0.06256172
0.90899734 0.06256172 0.06256172
0.91886608 0.06256172 0.06256172
0.91886608 0.06256172 0.06256172
0.91886608 0.06256172 0.06256172
0.91886608 0.06256172 0.06256172
0.91886608 0.06256172 0.06256172
0.91886608 0.06256172 0.06256172
0.06256172 0.66079903 0.06256172
0.06256172 0.66079774 0.06256172
0.06256172 0.66079300 0.06256172
0.06256172 0.66078261 0.06256172
0.06256172 0.66076348 0.06256172
0.06256172 0.66073140 0.06256172
0.06256172 0.66068069 0.06256172
0.06256172 0.66060367 0.06256172
0.06256172 0.66049009 0.06256172
0.06256172 0.66032623 0.06256172
0.06256172 0.66009381 0.06256172
0.06256172 0.65976839 0.06256172
0.06256172 0.65931735 0.06256172
0.06256172 0.65869685 0.06256172
0.06256172 0.65784776 0.06256172
0.41383147 0.65668954 0.06256172
0.54310439 0.65511120 0.06256172
0.60779595 0.65295737 0.06256172
0.65574876 0.65000576 0.06256172
0.69591726 0.64592884 0.06256172
0.73163925 0.64022434 0.06256172
0.76452291 0.63207765 0.06256172
0.79546088 0.62005568 0.06256172
0.82499535 0.60130004 0.06256172
0.85347662 0.56872394 0.06256172
0.88114149 0.49341602 0.06256172
0.90815553 0.06256172 0.06256172
0.91886608 0.06256172 0.06256172
0.91886608 0.06256172 0.06256172
0.91886608 0.06256172 0.06256172
0.91886608 0.06256172 0.06256172
0.91886608 0.06256172 0.06256172
0.91886608 0.06256172 0.06256172
0.06256172 0.68863985 0.06256172
0.06256172 0.68863889 0.06256172
0.06256172 0.68863536 0.06256172
0.06256172 0.68862763 0.06256172
0.06256172 0.68861338 0.06256172
0.06256172 0.68858950 0.06256172
0.06256172 0.68855175 0.06256172
0.06256172 0.68849443 0.06256172
0.06256172 0.68840992 0.06256172
0.06256172 0.68828805 0.06256172
0.06256172 0.68811526 0.06256172
0.06256172 0.68787354 0.06256172
0.06256172 0.68753884 0.06256172
0.06256172 0.68707907 0.06256172
0.06256172 0.68645118 0.06256172
0.06256172 0.68559703 0.06256172
0.45075453 0.68443748 0.06256172
0.57255194 0.68286341 0.06256172
0.63613040 0.68072196 0.06256172
0.68356625 0.67779430 0.06256172
0.72337411 0.67375792 0.06256172
0.75879310 0.66811824 0.06256172
0.79140004 0.66007362 0.06256172
0.82207584 0.64821632 0.06256172
0.85135794 0.62974989 0.06256172
0.87959475 0.59780529 0.06256172
0.90702233 0.52521390 0.06256172
0.91886608 0.06256172 0.06256172
0.91886608 0.06256172 0.06256172
0.91886608 0.06256172 0.06256172
0.91886608 0.06256172 0.06256172
0.91886608 0.06256172 0.06256172
0.91886608 0.06256172 0.06256172
0.06256172 0.71621139 0.06256172
0.06256172 0.71621068 0.06256172
0.06256172 0.71620805 0.06256172
0.06256172 0.71620228 0.06256172
0.06256172 0.71619166 0.06256172
0.06256172 0.71617385 0.06256172
0.06256172 0.71614569 0.06256172
0.06256172 0.71610295 0.06256172
0.06256172 0.71603995 0.06256172
0.06256172 0.71594912 0.06256172
0.06256172 0.71582040 0.06256172
0.06256172 0.71564042 0.06256172
0.06256172 0.71539140 0.06256172
0.06256172 0.71504969 0.06256172
0.06256172 0.71458372 0.06256172
0.06256172 0.71395111 0.06256172
0.06256172 0.71309466 0.06256172
0.48521039 0.71193640 0.06256172
0.60154309 0.71036878 0.06256172
0.66416598 0.70824097 0.06256172
0.71112532 0.70533682 0.06256172
0.75058722 0.70133746 0.06256172
0.78571023 0.69575348 0.06256172
0.81804506 0.68779125 0.06256172
0.84846271 0.67605741 0.06256172
0.87749655 0.65778809 0.06256172
0.90549327 0.62622435 0.06256172
0.91886608 0.55506836 0.06256172
0.91886608 0.06256172 0.06256172
0.91886608 0.06256172 0.06256172
0.91886608 0.06256172 0.06256172
0.91886608 0.06256172 0.06256172
0.91886608 0.06256172 0.06256172
0.06256172 0.74352809 0.06256172
0.06256172 0.74352755 0.06256172
0.06256172 0.74352559 0.06256172
0.06256172 0.74352128 0.06256172
0.06256172 0.74351335 0.06256172
0.06256172 0.74350005 0.06256172
0.06256172 0.74347903 0.06256172
0.06256172 0.74344713 0.06256172
0.06256172 0.74340010 0.06256172
0.06256172 0.74333232 0.06256172
0.06256172 0.74323629 0.06256172
0.06256172 0.74310207 0.06256172
0.06256172 0.74291647 0.06256172
0.06256172 0.74266199 0.06256172
0.06256172 0.74231535 0.06256172
0.06256172 0.74184543 0.06256172
0.06256172 0.74121051 0.06256172
0.06256172 0.74035421 0.06256172
0.51787541 0.73919958 0.06256172
0.63011977 0.73764036 0.06256172
0.69192087 0.73552732 0.06256172
0.73843968 0.73264629 0.06256172
0.77756887 0.72868078 0.06256172
0.81240214 0.72314426 0.06256172
0.84446888 0.71524666 0.06256172
0.87463185 0.70359902 0.06256172
0.90342096 0.68544382 0.06256172
