src/ffmpeg_scripts/luts/rec2020-sRGB_1p00.cube
TITLE "rec2020-srgb_1p00"
LUT_3D_SIZE 9
# PQ (EOTF Only)/Rec2020 -> PQ (EOTF Only)/Rec709, CineEI Shift 1.00, Black Level 0.00% IRE, Input 100% -> Output 109% - Created with LUTCalc v4.01 by Ben Turley October 2020
0.06256172 0.06256172 0.06256172
0.22301464 0.06256172 0.06256172
0.35686362 0.06256172 0.06256172
0.48026562 0.06256172 0.06256172
0.59697062 0.06256172 0.06256172
0.70876280 0.06256172 0.06256172
0.81668942 0.06256172 0.06256172
0.91886608 0.06256172 0.06256172
0.91886608 0.06256172 0.06256172
0.06256172 0.20437677 0.06256172
0.20184672 0.19900401 0.06256172
0.35384939 0.10591374 0.06256172
0.47953800 0.06256172 0.06256172
0.59676295 0.06256172 0.06256172
0.70869928 0.06256172 0.06256172
0.81666962 0.06256172 0.06256172
0.91886608 0.06256172 0.06256172
0.91886608 0.06256172 0.06256172
0.06256172 0.32978687 0.06256172
0.06256172 0.32890777 0.06256172
0.32604229 0.32181402 0.06256172
0.47374893 0.28126313 0.06256172
0.59515286 0.06256172 0.06256172
0.70821004 0.06256172 0.06256172
0.81651742 0.06256172 0.06256172
0.91886608 0.06256172 0.06256172
0.91886608 0.06256172 0.06256172
0.06256172 0.44835354 0.06256172
0.06256172 0.44813489 0.06256172
0.06256172 0.44643799 0.06256172
0.44388890 0.43883185 0.06256172
0.58797390 0.40565365 0.06256172
0.70609839 0.06256172 0.06256172
0.81586665 0.06256172 0.06256172
0.91886608 0.06256172 0.06256172
0.91886608 0.06256172 0.06256172
0.06256172 0.56242114 0.06256172
0.06256172 0.56235768 0.06256172
0.06256172 0.56186897 0.06256172
0.06256172 0.55975963 0.06256172
0.55754621 0.55201172 0.06256172
0.69834200 0.52173531 0.06256172
0.81356078 0.06256172 0.06256172
0.91886608 0.06256172 0.06256172
0.91886608 0.06256172 0.06256172
0.06256172 0.67312975 0.06256172
0.06256172 0.67311010 0.06256172
0.06256172 0.67295907 0.06256172
0.06256172 0.67231344 0.06256172
0.06256172 0.67002744 0.06256172
0.66806779 0.66231042 0.06256172
0.80575719 0.63324930 0.06256172
0.91822066 0.06256172 0.06256172
0.91886608 0.06256172 0.06256172
0.06256172 0.78115900 0.06256172
0.06256172 0.78115281 0.06256172
0.06256172 0.78110529 0.06256172
0.06256172 0.78090274 0.06256172
0.06256172 0.78019307 0.06256172
0.06256172 0.77788290 0.06256172
0.77608311 0.77030103 0.06256172
0.91074946 0.74146147 0.06256172
0.91886608 0.06256172 0.06256172
0.06256172 0.88696122 0.06256172
0.06256172 0.88695930 0.06256172
0.06256172 0.88694461 0.06256172
0.06256172 0.88688204 0.06256172
0.06256172 0.88666357 0.06256172
0.06256172 0.88596025 0.06256172
0.06256172 0.88373513 0.06256172
0.88201183 0.87636641 0.06256172
0.91886608 0.84690977 0.06256172
0.06256172 0.91886608 0.06256172
0.06256172 0.91886608 0.06256172
0.06256172 0.91886608 0.06256172
0.06256172 0.91886608 0.06256172
0.06256172 0.91886608 0.06256172
0.06256172 0.91886608 0.06256172
0.06256172 0.91886608 0.06256172
0.06256172 0.91886608 0.06256172
0.91886608 0.91886608 0.06256172
0.06256172 0.06256172 0.20378930
0.22074789 0.06256172 0.20302830
0.35649585 0.06256172 0.19683614
0.48017573 0.06256172 0.15828950
0.59694490 0.06256172 0.06256172
0.70875493 0.06256172 0.06256172
0.81668697 0.06256172 0.06256172
0.91886608 0.06256172 0.06256172
0.91886608 0.06256172 0.06256172
0.06256172 0.20403131 0.19944487
0.19862585 0.19862585 0.19862585
0.35346796 0.10267804 0.19192287
0.47944739 0.06256172 0.14747868
0.59673717 0.06256172 0.06256172
0.70869140 0.06256172 0.06256172
0.81666716 0.06256172 0.06256172
0.91886608 0.06256172 0.06256172
0.91886608 0.06256172 0.06256172
0.06256172 0.32972824 0.14480126
0.06256172 0.32884849 0.14240588
0.32550457 0.32174922 0.11702790
0.47365238 0.28115311 0.06256172
0.59512664 0.06256172 0.06256172
0.70820212 0.06256172 0.06256172
0.81651496 0.06256172 0.06256172
0.91886608 0.06256172 0.06256172
0.91886608 0.06256172 0.06256172
0.06256172 0.44833890 0.06256172
0.06256172 0.44812022 0.06256172
0.06256172 0.44642304 0.06256172
0.44375455 0.43881556 0.06256172
0.58794561 0.40562993 0.06256172
0.70609029 0.06256172 0.06256172
0.81586417 0.06256172 0.06256172
0.91886608 0.06256172 0.06256172
0.91886608 0.06256172 0.06256172
0.06256172 0.56241689 0.06256172
0.06256172 0.56235342 0.06256172
0.06256172 0.56186469 0.06256172
0.06256172 0.55975526 0.06256172
0.55750712 0.55200697 0.06256172
0.69833320 0.52172874 0.06256172
0.81355824 0.06256172 0.06256172
0.91886608 0.06256172 0.06256172
0.91886608 0.06256172 0.06256172
0.06256172 0.67312843 0.06256172
0.06256172 0.67310878 0.06256172
0.06256172 0.67295775 0.06256172
0.06256172 0.67231211 0.06256172
0.06256172 0.67002608 0.06256172
0.66805567 0.66230894 0.06256172
0.80575443 0.63324729 0.06256172
0.91821988 0.06256172 0.06256172
0.91886608 0.06256172 0.06256172
0.06256172 0.78115858 0.06256172
0.06256172 0.78115240 0.06256172
0.06256172 0.78110488 0.06256172
0.06256172 0.78090232 0.06256172
0.06256172 0.78019265 0.06256172
0.06256172 0.77788247 0.06256172
0.77607929 0.77030056 0.06256172
0.91074861 0.74146083 0.06256172
0.91886608 0.06256172 0.06256172
0.06256172 0.88696109 0.06256172
0.06256172 0.88695917 0.06256172
0.06256172 0.88694448 0.06256172
0.06256172 0.88688192 0.06256172
0.06256172 0.88666345 0.06256172
0.06256172 0.88596012 0.06256172
0.06256172 0.88373500 0.06256172
0.88201064 0.87636626 0.06256172
0.91886608 0.84690957 0.06256172
0.06256172 0.91886608 0.06256172
0.06256172 0.91886608 0.06256172
0.06256172 0.91886608 0.06256172
0.06256172 0.91886608 0.06256172
0.06256172 0.91886608 0.06256172
0.06256172 0.91886608 0.06256172
0.06256172 0.91886608 0.06256172
0.06256172 0.91886608 0.06256172
0.91886608 0.91886608 0.06256172
0.06256172 0.06256172 0.32891892
0.19989575 0.06256172 0.32879002
0.35361609 0.06256172 0.32779323
0.47948254 0.06256172 0.32340483
0.59674716 0.06256172 0.30585861
0.70869445 0.06256172 0.14728539
0.81666811 0.06256172 0.06256172
0.91886608 0.06256172 0.06256172
0.91886608 0.06256172 0.06256172
0.06256172 0.20131016 0.32820200
0.16482635 0.19563798 0.32807194
0.35047878 0.06256172 0.32706610
0.47874863 0.06256172 0.32263631
0.59653900 0.06256172 0.30489589
0.70863088 0.06256172 0.13294798
0.81664831 0.06256172 0.06256172
0.91886608 0.06256172 0.06256172
0.91886608 0.06256172 0.06256172
0.06256172 0.32927659 0.32247122
0.06256172 0.32839184 0.32233144
0.32124984 0.32124984 0.32124984
0.47290764 0.28030278 0.31647230
0.59492506 0.06256172 0.29707202
0.70814129 0.06256172 0.06256172
0.81649607 0.06256172 0.06256172
0.91886608 0.06256172 0.06256172
0.91886608 0.06256172 0.06256172
0.06256172 0.44822640 0.29190319
0.06256172 0.44800744 0.29169564
0.06256172 0.44630811 0.29008253
0.44271617 0.43869044 0.28279833
0.58772808 0.40544763 0.24954202
0.70602808 0.06256172 0.06256172
0.81584515 0.06256172 0.06256172
0.91886608 0.06256172 0.06256172
0.91886608 0.06256172 0.06256172
0.06256172 0.56238422 0.06256172
0.06256172 0.56232074 0.06256172
0.06256172 0.56183184 0.06256172
0.06256172 0.55972166 0.06256172
0.55720643 0.55197048 0.06256172
0.69826563 0.52167827 0.06256172
0.81353873 0.06256172 0.06256172
0.91886608 0.06256172 0.06256172
0.91886608 0.06256172 0.06256172
0.06256172 0.67311831 0.06256172
0.06256172 0.67309866 0.06256172
0.06256172 0.67294762 0.06256172
0.06256172 0.67230191 0.06256172
0.06256172 0.67001562 0.06256172
0.66796250 0.66229760 0.06256172
0.80573317 0.63323187 0.06256172
0.91821388 0.06256172 0.06256172
0.91886608 0.06256172 0.06256172
0.06256172 0.78115540 0.06256172
0.06256172 0.78114921 0.06256172
0.06256172 0.78110169 0.06256172
0.06256172 0.78089913 0.06256172
0.06256172 0.78018943 0.06256172
0.06256172 0.77787917 0.06256172
0.77604992 0.77029698 0.06256172
0.91074207 0.74145594 0.06256172
0.91886608 0.06256172 0.06256172
0.06256172 0.88696010 0.06256172
0.06256172 0.88695819 0.06256172
0.06256172 0.88694350 0.06256172
0.06256172 0.88688093 0.06256172
0.06256172 0.88666246 0.06256172
0.06256172 0.88595912 0.06256172
0.06256172 0.88373397 0.06256172
0.88200155 0.87636515 0.06256172
0.91886608 0.84690802 0.06256172
0.06256172 0.91886608 0.06256172
0.06256172 0.91886608 0.06256172
0.06256172 0.91886608 0.06256172
0.06256172 0.91886608 0.06256172
0.06256172 0.91886608 0.06256172
0.06256172 0.91886608 0.06256172
0.06256172 0.91886608 0.06256172
0.06256172 0.91886608 0.06256172
0.91886608 0.91886608 0.06256172
0.06256172 0.06256172 0.44731984
0.06256172 0.06256172 0.44728764
0.34008666 0.06256172 0.44704001
0.47647137 0.06256172 0.44597815
0.59590075 0.06256172 0.44217470
0.70843657 0.06256172 0.42877462
0.81658782 0.06256172 0.36552733
0.91886608 0.06256172 0.06256172
0.91886608 0.06256172 0.06256172
0.06256172 0.18806777 0.44714127
0.06256172 0.18082247 0.44710901
0.33637207 0.06256172 0.44686088
0.47571276 0.06256172 0.44579689
0.59569070 0.06256172 0.44198557
0.70837282 0.06256172 0.42855477
0.81656800 0.06256172 0.36506944
0.91886608 0.06256172 0.06256172
0.91886608 0.06256172 0.06256172
0.06256172 0.32732492 0.44575813
0.06256172 0.32641817 0.44572537
0.30000610 0.31908802 0.44547338
0.46966735 0.27656893 0.44439270
0.59406207 0.06256172 0.44051985
0.70788188 0.06256172 0.42684816
0.81641563 0.06256172 0.36146734
0.91886608 0.06256172 0.06256172
0.91886608 0.06256172 0.06256172
0.06256172 0.44774590 0.43961897
0.06256172 0.44752577 0.43958388
0.06256172 0.44581721 0.43931398
0.43815581 0.43815581 0.43815581
0.58679639 0.40466726 0.43399635
0.70576276 0.06256172 0.41919056
0.81576413 0.06256172 0.34409847
0.91886608 0.06256172 0.06256172
0.91886608 0.06256172 0.06256172
0.06256172 0.56224506 0.41413693
0.06256172 0.56218148 0.41409014
0.06256172 0.56169185 0.41373002
0.06256172 0.55957849 0.41218022
0.55591550 0.55181498 0.40655189
0.69797745 0.52146314 0.38559176
0.81345563 0.06256172 0.17683434
0.91886608 0.06256172 0.06256172
0.91886608 0.06256172 0.06256172
0.06256172 0.67307524 0.06256172
0.06256172 0.67305558 0.06256172
0.06256172 0.67290447 0.06256172
0.06256172 0.67225846 0.06256172
0.06256172 0.66997111 0.06256172
0.66756488 0.66224930 0.06256172
0.80564264 0.63316619 0.06256172
0.91818833 0.06256172 0.06256172
0.91886608 0.06256172 0.06256172
0.06256172 0.78114184 0.06256172
0.06256172 0.78113566 0.06256172
0.06256172 0.78108813 0.06256172
0.06256172 0.78088553 0.06256172
0.06256172 0.78017573 0.06256172
0.06256172 0.77786512 0.06256172
0.77592483 0.77028173 0.06256172
0.91071421 0.74143514 0.06256172
0.91886608 0.06256172 0.06256172
0.06256172 0.88695591 0.06256172
0.06256172 0.88695400 0.06256172
0.06256172 0.88693931 0.06256172
0.06256172 0.88687674 0.06256172
0.06256172 0.88665825 0.06256172
0.06256172 0.88595488 0.06256172
0.06256172 0.88372962 0.06256172
0.88196285 0.87636043 0.06256172
0.91886608 0.84690144 0.06256172
0.06256172 0.91886608 0.06256172
0.06256172 0.91886608 0.06256172
0.06256172 0.91886608 0.06256172
0.06256172 0.91886608 0.06256172
0.06256172 0.91886608 0.06256172
0.06256172 0.91886608 0.06256172
0.06256172 0.91886608 0.06256172
0.06256172 0.91886608 0.06256172
0.91886608 0.91886608 0.06256172
0.06256172 0.06256172 0.56129338
0.06256172 0.06256172 0.56128402
0.25667785 0.06256172 0.56121214
0.46512015 0.06256172 0.56090554
0.59288914 0.06256172 0.55982876
0.70753195 0.06256172 0.55629489
0.81630736 0.06256172 0.54436164
0.91886608 0.06256172 0.49223465
0.91886608 0.06256172 0.06256172
0.06256172 0.06256172 0.56124152
0.06256172 0.06256172 0.56123215
0.24484178 0.06256172 0.56116024
0.46426030 0.06256172 0.56085346
0.59267228 0.06256172 0.55977608
0.70746758 0.06256172 0.55624019
0.81628747 0.06256172 0.54429952
0.91886608 0.06256172 0.49212572
0.91886608 0.06256172 0.06256172
0.06256172 0.32012075 0.56084234
0.06256172 0.31912735 0.56083294
0.06256172 0.31104994 0.56076071
0.45737099 0.26181058 0.56045263
0.59099028 0.06256172 0.55937062
0.70697187 0.06256172 0.55581913
0.81613463 0.06256172 0.54382111
0.91886608 0.06256172 0.49128493
0.91886608 0.06256172 0.06256172
0.06256172 0.44605038 0.55912383
0.06256172 0.44582604 0.55911425
0.06256172 0.44408449 0.55904069
0.42013613 0.43626651 0.55872691
0.58347439 0.40189061 0.55762471
0.70483190 0.06256172 0.55400526
0.81548110 0.06256172 0.54175675
0.91886608 0.06256172 0.48761708
0.91886608 0.06256172 0.06256172
0.06256172 0.56175827 0.55287405
0.06256172 0.56169437 0.55286382
0.06256172 0.56120219 0.55278519
0.06256172 0.55907766 0.55244975
0.55127083 0.55127083 0.55127083
0.69696582 0.52070921 0.54739238
0.81316532 0.06256172 0.53418107
0.91886608 0.06256172 0.47354314
0.91886608 0.06256172 0.06256172
0.06256172 0.67292494 0.52948527
0.06256172 0.67290524 0.52947213
0.06256172 0.67275389 0.52937115
0.06256172 0.67210685 0.52894005
0.06256172 0.66981578 0.52742136
0.66616541 0.66208072 0.52238412
0.80532632 0.63293684 0.50469577
0.91809921 0.06256172 0.40337802
0.91886608 0.06256172 0.06256172
0.06256172 0.78109456 0.30898446
0.06256172 0.78108837 0.30881845
0.06256172 0.78104082 0.30753176
0.06256172 0.78083812 0.30180130
0.06256172 0.78012795 0.27756478
0.06256172 0.77781613 0.06256172
0.77548737 0.77022855 0.06256172
0.91061704 0.74136258 0.06256172
0.91886608 0.06256172 0.06256172
0.06256172 0.88694129 0.06256172
0.06256172 0.88693938 0.06256172
0.06256172 0.88692469 0.06256172
0.06256172 0.88686211 0.06256172
0.06256172 0.88664359 0.06256172
0.06256172 0.88594010 0.06256172
0.06256172 0.88371446 0.06256172
0.88182778 0.87634394 0.06256172
0.91886608 0.84687849 0.06256172
0.06256172 0.91886608 0.06256172
0.06256172 0.91886608 0.06256172
0.06256172 0.91886608 0.06256172
0.06256172 0.91886608 0.06256172
0.06256172 0.91886608 0.06256172
0.06256172 0.91886608 0.06256172
0.06256172 0.91886608 0.06256172
0.06256172 0.91886608 0.06256172
0.91886608 0.91886608 0.06256172
0.06256172 0.06256172 0.67195949
0.06256172 0.06256172 0.67195659
0.06256172 0.06256172 0.67193432
0.41447465 0.06256172 0.67183949
0.58254208 0.06256172 0.67150811
0.70457487 0.06256172 0.67043899
0.81540329 0.06256172 0.66703279
0.91886608 0.06256172 0.65547378
0.91886608 0.06256172 0.60328745
0.06256172 0.06256172 0.67194342
0.06256172 0.06256172 0.67194052
0.06256172 0.06256172 0.67191825
0.41295288 0.06256172 0.67182340
0.58230005 0.06256172 0.67149197
0.70450845 0.06256172 0.67042266
0.81538321 0.06256172 0.66701586
0.91886608 0.06256172 0.65545465
0.91886608 0.06256172 0.60325424
0.06256172 0.29121021 0.67181996
0.06256172 0.28976092 0.67181706
0.06256172 0.27758207 0.67179476
0.40029075 0.15510709 0.67169978
0.58042064 0.06256172 0.67136792
0.70399684 0.06256172 0.67029720
0.81522884 0.06256172 0.66688579
0.91886608 0.06256172 0.65530763
0.91886608 0.06256172 0.60299879
0.06256172 0.44039413 0.67129259
0.06256172 0.44015515 0.67128967
0.06256172 0.43829851 0.67126725
0.30184019 0.42993141 0.67117174
0.57197209 0.39234791 0.67083801
0.70178724 0.06256172 0.66976123
0.81456875 0.06256172 0.66633006
0.91886608 0.06256172 0.65467923
0.91886608 0.06256172 0.60190359
0.06256172 0.56018217 0.66943067
0.06256172 0.56011718 0.66942770
0.06256172 0.55961664 0.66940483
0.06256172 0.55745553 0.66930741
0.53462665 0.54950663 0.66896702
0.69365095 0.51825276 0.66786857
0.81222934 0.06256172 0.66436665
0.91886608 0.06256172 0.65245522
0.91886608 0.06256172 0.59798298
0.06256172 0.67244196 0.66320822
0.06256172 0.67242217 0.66320504
0.06256172 0.67227003 0.66318062
0.06256172 0.67161966 0.66307656
0.06256172 0.66931659 0.66271292
0.66153883 0.66153883 0.66153883
0.80430588 0.63219860 0.65778943
0.91781318 0.06256172 0.64495902
0.91886608 0.06256172 0.58420506
0.06256172 0.78094298 0.64072060
0.06256172 0.78093678 0.64071656
0.06256172 0.78088915 0.64068558
0.06256172 0.78068612 0.64055356
0.06256172 0.77997478 0.64009187
0.06256172 0.77765906 0.63859797
0.77407232 0.77005802 0.63379276
0.91030510 0.74112983 0.61690897
0.91886608 0.06256172 0.52071677
0.06256172 0.88689447 0.46490729
0.06256172 0.88689255 0.46488079
0.06256172 0.88687785 0.46467705
0.06256172 0.88681524 0.46380460
0.06256172 0.88659660 0.46069561
0.06256172 0.88589274 0.44995212
0.06256172 0.88366589 0.40466694
0.88139383 0.87629113 0.06256172
0.91886608 0.84680496 0.06256172
0.06256172 0.91886608 0.06256172
0.06256172 0.91886608 0.06256172
0.06256172 0.91886608 0.06256172
0.06256172 0.91886608 0.06256172
0.06256172 0.91886608 0.06256172
0.06256172 0.91886608 0.06256172
0.06256172 0.91886608 0.06256172
0.06256172 0.91886608 0.06256172
0.91886608 0.91886608 0.06256172
0.06256172 0.06256172 0.77998616
0.06256172 0.06256172 0.77998525
0.06256172 0.06256172 0.77997824
0.06256172 0.06256172 0.77994838
0.54030907 0.06256172 0.77984423
0.69472981 0.06256172 0.77950988
0.81253141 0.06256172 0.77846174
0.91886608 0.06256172 0.77509431
0.91886608 0.06256172 0.76316961
0.06256172 0.06256172 0.77998110
0.06256172 0.06256172 0.77998019
0.06256172 0.06256172 0.77997318
0.06256172 0.06256172 0.77994332
0.53992940 0.06256172 0.77983916
0.69465606 0.06256172 0.77950480
0.81251068 0.06256172 0.77845659
0.91886608 0.06256172 0.77508897
0.91886608 0.06256172 0.76316354
0.06256172 0.06256172 0.77994224
0.06256172 0.06256172 0.77994133
0.06256172 0.06256172 0.77993431
0.06256172 0.06256172 0.77990444
0.53696148 0.06256172 0.77980024
0.69408780 0.06256172 0.77946574
0.81235136 0.06256172 0.77841708
0.91886608 0.06256172 0.77504799
0.91886608 0.06256172 0.76311692
0.06256172 0.42007413 0.77977662
0.06256172 0.41977358 0.77977571
0.06256172 0.41743098 0.77976868
0.06256172 0.40669345 0.77973876
0.52315099 0.35316740 0.77963437
0.69162962 0.06256172 0.77929926
0.81166999 0.06256172 0.77824870
0.91886608 0.06256172 0.77487335
0.91886608 0.06256172 0.76291821
0.06256172 0.55510172 0.77919691
0.06256172 0.55503311 0.77919599
0.06256172 0.55450465 0.77918892
0.06256172 0.55222109 0.77915880
0.44684925 0.54379467 0.77905375
0.68252059 0.51016516 0.77871653
0.80925394 0.06256172 0.77765927
0.91886608 0.06256172 0.77426189
0.91886608 0.06256172 0.76222212
0.06256172 0.67092316 0.77731547
0.06256172 0.67090305 0.77731453
0.06256172 0.67074845 0.77730731
0.06256172 0.67008747 0.77727658
0.06256172 0.66774627 0.77716936
0.64549776 0.65983254 0.77682516
0.80105585 0.62986399 0.77574589
0.91691707 0.06256172 0.77227603
0.91886608 0.06256172 0.75995705
0.06256172 0.78046974 0.77120331
0.06256172 0.78046351 0.77120231
0.06256172 0.78041564 0.77119459
0.06256172 0.78021156 0.77116176
0.06256172 0.77949653 0.77104720
0.06256172 0.77716862 0.77067937
0.76952541 0.76952541 0.76952541
0.90932725 0.74040188 0.76580920
0.91886608 0.06256172 0.75253347
0.06256172 0.88674861 0.74890073
0.06256172 0.88674670 0.74889945
0.06256172 0.88673197 0.74888965
0.06256172 0.88666925 0.74884789
0.06256172 0.88645025 0.74870216
0.06256172 0.88574521 0.74823392
0.06256172 0.88351457 0.74676172
0.88002974 0.87612661 0.74198654
0.91886608 0.84657578 0.72445621
0.06256172 0.91886608 0.55327664
0.06256172 0.91886608 0.55326645
0.06256172 0.91886608 0.55318816
0.06256172 0.91886608 0.55285416
0.06256172 0.91886608 0.55168034
0.06256172 0.91886608 0.54781915
0.06256172 0.91886608 0.53467242
0.06256172 0.91886608 0.47448812
0.91886608 0.91886608 0.06256172
0.06256172 0.06256172 0.88581815
0.06256172 0.06256172 0.88581786
0.06256172 0.06256172 0.88581570
0.06256172 0.06256172 0.88580646
0.06256172 0.06256172 0.88577427
0.65479541 0.06256172 0.88567108
0.80288640 0.06256172 0.88534924
0.91741902 0.06256172 0.88433193
0.91886608 0.06256172 0.88092916
0.06256172 0.06256172 0.88581658
0.06256172 0.06256172 0.88581630
0.06256172 0.06256172 0.88581413
0.06256172 0.06256172 0.88580490
0.06256172 0.06256172 0.88577270
0.65468279 0.06256172 0.88566951
0.80286336 0.06256172 0.88534767
0.91741266 0.06256172 0.88433034
0.91886608 0.06256172 0.88092751
0.06256172 0.06256172 0.88580456
0.06256172 0.06256172 0.88580428
0.06256172 0.06256172 0.88580211
0.06256172 0.06256172 0.88579288
0.06256172 0.06256172 0.88576068
0.65381350 0.06256172 0.88565748
0.80268626 0.06256172 0.88533558
0.91736379 0.06256172 0.88431811
0.91886608 0.06256172 0.88091480
0.06256172 0.26031522 0.88575338
0.06256172 0.25808993 0.88575310
0.06256172 0.23810662 0.88575093
0.06256172 0.06256172 0.88574169
0.06256172 0.06256172 0.88570947
0.65002084 0.06256172 0.88560621
0.80192847 0.06256172 0.88528413
0.91715546 0.06256172 0.88426606
0.91886608 0.06256172 0.88086070
0.06256172 0.53710280 0.88557472
0.06256172 0.53701965 0.88557444
0.06256172 0.53637871 0.88557226
0.06256172 0.53359993 0.88556300
0.06256172 0.52320879 0.88553072
0.63546534 0.47891266 0.88542725
0.79923645 0.06256172 0.88510451
0.91642520 0.06256172 0.88408435
0.91886608 0.06256172 0.88067181
0.06256172 0.66599385 0.88500010
0.06256172 0.66597266 0.88499982
0.06256172 0.66580977 0.88499763
0.06256172 0.66511318 0.88498831
0.06256172 0.66264373 0.88495581
0.56347438 0.65427099 0.88485166
0.79004108 0.62214268 0.88452680
0.91404410 0.06256172 0.88349988
0.91886608 0.06256172 0.88006418
0.06256172 0.77896926 0.88318776
0.06256172 0.77896292 0.88318747
0.06256172 0.77891426 0.88318523
0.06256172 0.77870683 0.88317572
0.06256172 0.77797999 0.88314255
0.06256172 0.77561301 0.88303623
0.75361443 0.76783444 0.88270458
0.90618626 0.73808078 0.88165606
0.91886608 0.06256172 0.87814627
0.06256172 0.88628949 0.87724789
0.06256172 0.88628757 0.87724757
0.06256172 0.88627276 0.87724518
0.06256172 0.88620972 0.87723501
0.06256172 0.88598957 0.87719952
0.06256172 0.88528080 0.87708579
0.06256172 0.88303821 0.87673095
0.87560851 0.87560851 0.87560851
0.91886608 0.84585303 0.87184468
0.06256172 0.91886608 0.85452670
0.06256172 0.91886608 0.85452629
0.06256172 0.91886608 0.85452321
0.06256172 0.91886608 0.85451007
0.06256172 0.91886608 0.85446424
0.06256172 0.91886608 0.85431731
0.06256172 0.91886608 0.85385859
0.06256172 0.91886608 0.85240416
0.91886608 0.91886608 0.84748835
0.06256172 0.06256172 0.91886608
0.06256172 0.06256172 0.91886608
0.06256172 0.06256172 0.91886608
0.06256172 0.06256172 0.91886608
0.06256172 0.06256172 0.91886608
0.06256172 0.06256172 0.91886608
0.76171191 0.06256172 0.91886608
0.90773165 0.06256172 0.91886608
0.91886608 0.06256172 0.91886608
0.06256172 0.06256172 0.91886608
0.06256172 0.06256172 0.91886608
0.06256172 0.06256172 0.91886608
0.06256172 0.06256172 0.91886608
0.06256172 0.06256172 0.91886608
0.06256172 0.06256172 0.91886608
0.76167588 0.06256172 0.91886608
0.90772454 0.06256172 0.91886608
0.91886608 0.06256172 0.91886608
0.06256172 0.06256172 0.91886608
0.06256172 0.06256172 0.91886608
0.06256172 0.06256172 0.91886608
0.06256172 0.06256172 0.91886608
0.06256172 0.06256172 0.91886608
0.06256172 0.06256172 0.91886608
0.76139877 0.06256172 0.91886608
0.90766988 0.06256172 0.91886608
0.91886608 0.06256172 0.91886608
0.06256172 0.06256172 0.91886608
0.06256172 0.06256172 0.91886608
0.06256172 0.06256172 0.91886608
0.06256172 0.06256172 0.91886608
0.06256172 0.06256172 0.91886608
0.06256172 0.06256172 0.91886608
0.76020976 0.06256172 0.91886608
0.90743682 0.06256172 0.91886608
0.91886608 0.06256172 0.91886608
0.06256172 0.42553727 0.91886608
0.06256172 0.42525478 0.91886608
0.06256172 0.42305506 0.91886608
0.06256172 0.41302346 0.91886608
0.06256172 0.36465686 0.91886608
0.06256172 0.06256172 0.91886608
0.75594125 0.06256172 0.91886608
0.90661939 0.06256172 0.91886608
0.91886608 0.06256172 0.91886608
0.06256172 0.64785205 0.91886608
0.06256172 0.64782637 0.91886608
0.06256172 0.64762897 0.91886608
0.06256172 0.64678401 0.91886608
0.06256172 0.64377780 0.91886608
0.06256172 0.63345228 0.91886608
0.74078148 0.59140149 0.91886608
0.90394858 0.06256172 0.91886608
0.91886608 0.06256172 0.91886608
0.06256172 0.77389760 0.91886608
0.06256172 0.77389091 0.91886608
0.06256172 0.77383950 0.91886608
0.06256172 0.77362033 0.91886608
0.06256172 0.77285215 0.91886608
0.06256172 0.77034821 0.91886608
0.66666264 0.76209330 0.91886608
0.89507223 0.73008112 0.91886608
0.91886608 0.06256172 0.91886608
0.06256172 0.88477490 0.91886608
0.06256172 0.88477294 0.91886608
0.06256172 0.88475788 0.91886608
0.06256172 0.88469374 0.91886608
0.06256172 0.88446975 0.91886608
0.06256172 0.88374859 0.91886608
0.06256172 0.88146610 0.91886608
0.85942822 0.87389699 0.91886608
0.91886608 0.84345403 0.91886608
0.06256172 0.91886608 0.91886608
0.06256172 0.91886608 0.91886608
0.06256172 0.91886608 0.91886608
0.06256172 0.91886608 0.91886608
0.06256172 0.91886608 0.91886608
0.06256172 0.91886608 0.91886608
0.06256172 0.91886608 0.91886608
0.06256172 0.91886608 0.91886608
0.91886608 0.91886608 0.91886608
