src/ffmpeg_scripts/luts/rec2020-sRGB_-0p67.cube
TITLE "rec2020-srgb_-0p67"
LUT_3D_SIZE 5
# PQ (EOTF Only)/Rec2020 -> PQ (EOTF Only)/Rec709, CineEI Shift -0.67, Black Level 0.00% IRE, Input 100% -> Output 109% - Created with LUTCalc v4.01 by Ben Turley October 2020
0.06256172 0.06256172 0.06256172
0.27938669 0.06256172 0.06256172
0.49456686 0.06256172 0.06256172
0.70899195 0.06256172 0.06256172
0.91886608 0.06256172 0.06256172
0.06256172 0.25670423 0.06256172
0.25359731 0.25009806 0.06256172
0.49285580 0.06256172 0.06256172
0.70881862 0.06256172 0.06256172
0.91886608 0.06256172 0.06256172
0.06256172 0.46223919 0.06256172
0.06256172 0.46172590 0.06256172
0.45771123 0.45258087 0.06256172
0.70584031 0.06256172 0.06256172
0.91886608 0.06256172 0.06256172
0.06256172 0.67335797 0.06256172
0.06256172 0.67330437 0.06256172
0.06256172 0.67239410 0.06256172
0.66829582 0.66253821 0.06256172
0.91886608 0.06256172 0.06256172
0.06256172 0.88844001 0.06256172
0.06256172 0.88843487 0.06256172
0.06256172 0.88834793 0.06256172
0.06256172 0.88745342 0.06256172
0.88349329 0.87785083 0.06256172
0.06256172 0.06256172 0.25598342
0.27664654 0.06256172 0.25504916
0.49435645 0.06256172 0.23698128
0.70897048 0.06256172 0.06256172
0.91886608 0.06256172 0.06256172
0.06256172 0.25628041 0.25064132
0.24963188 0.24963188 0.24963188
0.49264144 0.06256172 0.22981861
0.70879710 0.06256172 0.06256172
0.91886608 0.06256172 0.06256172
0.06256172 0.46220487 0.06256172
0.06256172 0.46169139 0.06256172
0.45739594 0.45254268 0.06256172
0.70581811 0.06256172 0.06256172
0.91886608 0.06256172 0.06256172
0.06256172 0.67335438 0.06256172
0.06256172 0.67330078 0.06256172
0.06256172 0.67239047 0.06256172
0.66826275 0.66253418 0.06256172
0.91886608 0.06256172 0.06256172
0.06256172 0.88843967 0.06256172
0.06256172 0.88843453 0.06256172
0.06256172 0.88834759 0.06256172
0.06256172 0.88745307 0.06256172
0.88349011 0.87785044 0.06256172
0.06256172 0.06256172 0.46119095
0.19747952 0.06256172 0.46111546
0.49072651 0.06256172 0.45983027
0.70860693 0.06256172 0.44550744
0.91886608 0.06256172 0.06256172
0.06256172 0.24869944 0.46077184
0.06256172 0.24123361 0.46069600
0.48894176 0.06256172 0.45940480
0.70843289 0.06256172 0.44500845
0.91886608 0.06256172 0.06256172
0.06256172 0.46162301 0.45337952
0.06256172 0.46110621 0.45329721
0.45189490 0.45189490 0.45189490
0.70544213 0.06256172 0.43612708
0.91886608 0.06256172 0.06256172
0.06256172 0.67329366 0.23953993
0.06256172 0.67324003 0.23835015
0.06256172 0.67232913 0.21407707
0.66770217 0.66246609 0.06256172
0.91886608 0.06256172 0.06256172
0.06256172 0.88843384 0.06256172
0.06256172 0.88842870 0.06256172
0.06256172 0.88834176 0.06256172
0.06256172 0.88744718 0.06256172
0.88343633 0.87784387 0.06256172
0.06256172 0.06256172 0.67218767
0.06256172 0.06256172 0.67217976
0.44176889 0.06256172 0.67204607
0.70480395 0.06256172 0.67066711
0.91886608 0.06256172 0.65544995
0.06256172 0.06256172 0.67214385
0.06256172 0.06256172 0.67213594
0.43868520 0.06256172 0.67200218
0.70462271 0.06256172 0.67062258
0.91886608 0.06256172 0.65539764
0.06256172 0.45544389 0.67140034
0.06256172 0.45489042 0.67139236
0.35727782 0.44498405 0.67125755
0.70150616 0.06256172 0.66986694
0.91886608 0.06256172 0.65450928
0.06256172 0.67267016 0.66343605
0.06256172 0.67261617 0.66342737
0.06256172 0.67169920 0.66328069
0.66176658 0.66176658 0.66176658
0.91886608 0.06256172 0.64490504
0.06256172 0.88837422 0.45375246
0.06256172 0.88836907 0.45367049
0.06256172 0.88828207 0.45227403
0.06256172 0.88738688 0.43657894
0.88288414 0.87777662 0.06256172
0.06256172 0.06256172 0.88729757
0.06256172 0.06256172 0.88729681
0.06256172 0.06256172 0.88728398
0.65400285 0.06256172 0.88715260
0.91886608 0.06256172 0.88581216
0.06256172 0.06256172 0.88729336
0.06256172 0.06256172 0.88729260
0.06256172 0.06256172 0.88727977
0.65369206 0.06256172 0.88714839
0.91886253 0.06256172 0.88580788
0.06256172 0.33850326 0.88722225
0.06256172 0.33632926 0.88722149
0.06256172 0.28598363 0.88720865
0.64828008 0.06256172 0.88707716
0.91857308 0.06256172 0.88573555
0.06256172 0.66611846 0.88649125
0.06256172 0.66606059 0.88649049
0.06256172 0.66507737 0.88647754
0.56098802 0.65438141 0.88634495
0.91555413 0.06256172 0.88499203
0.06256172 0.88776866 0.87873185
0.06256172 0.88776348 0.87873101
0.06256172 0.88767587 0.87871687
0.06256172 0.88677445 0.87857206
0.87709332 0.87709332 0.87709332
