src/ffmpeg_scripts/luts/rec2020-sRGB_-1p33.cube
TITLE "rec2020-srgb_-1p33"
LUT_3D_SIZE 9
# PQ (EOTF Only)/Rec2020 -> PQ (EOTF Only)/Rec709, CineEI Shift -1.33, Black Level 0.00% IRE, Input 100% -> Output 109% - Created with LUTCalc v4.01 by Ben Turley October 2020
0.06256172 0.06256172 0.06256172
0.15444745 0.06256172 0.06256172
0.25216441 0.06256172 0.06256172
0.35283159 0.06256172 0.06256172
0.45561437 0.06256172 0.06256172
0.56007684 0.06256172 0.06256172
0.66594544 0.06256172 0.06256172
0.77303053 0.06256172 0.06256172
0.88119201 0.06256172 0.06256172
0.06256172 0.14201187 0.06256172
0.14034966 0.13848966 0.06256172
0.24982146 0.08291284 0.06256172
0.35221260 0.06256172 0.06256172
0.45542556 0.06256172 0.06256172
0.56001593 0.06256172 0.06256172
0.66592559 0.06256172 0.06256172
0.77302421 0.06256172 0.06256172
0.88119009 0.06256172 0.06256172
0.06256172 0.23133421 0.06256172
0.06256172 0.23066622 0.06256172
0.22849257 0.22529558 0.06256172
0.34729801 0.19528843 0.06256172
0.45396243 0.06256172 0.06256172
0.55954691 0.06256172 0.06256172
0.66577302 0.06256172 0.06256172
0.77297563 0.06256172 0.06256172
0.88117541 0.06256172 0.06256172
0.06256172 0.32595477 0.06256172
0.06256172 0.32577256 0.06256172
0.06256172 0.32435936 0.06256172
0.32223948 0.31804480 0.06256172
0.44745351 0.29088980 0.06256172
0.55752368 0.06256172 0.06256172
0.66512078 0.06256172 0.06256172
0.77276853 0.06256172 0.06256172
0.88111287 0.06256172 0.06256172
0.06256172 0.42448447 0.06256172
0.06256172 0.42442782 0.06256172
0.06256172 0.42399160 0.06256172
0.06256172 0.42211015 0.06256172
0.42013819 0.41521794 0.06256172
0.55010824 0.38857042 0.06256172
0.66281105 0.06256172 0.06256172
0.77204287 0.06256172 0.06256172
0.88089448 0.06256172 0.06256172
0.06256172 0.52618209 0.06256172
0.06256172 0.52616355 0.06256172
0.06256172 0.52602105 0.06256172
0.06256172 0.52541201 0.06256172
0.06256172 0.52325702 0.06256172
0.52141149 0.51599912 0.06256172
0.65500972 0.48890330 0.06256172
0.76967990 0.06256172 0.06256172
0.88019143 0.06256172 0.06256172
0.06256172 0.63057518 0.06256172
0.06256172 0.63056907 0.06256172
0.06256172 0.63052210 0.06256172
0.06256172 0.63032189 0.06256172
0.06256172 0.62962057 0.06256172
0.06256172 0.62733898 0.06256172
0.62556292 0.61986588 0.06256172
0.76191608 0.59165216 0.06256172
0.87796734 0.06256172 0.06256172
0.06256172 0.73733211 0.06256172
0.06256172 0.73733014 0.06256172
0.06256172 0.73731502 0.06256172
0.06256172 0.73725064 0.06256172
0.06256172 0.73702583 0.06256172
0.06256172 0.73630223 0.06256172
0.06256172 0.73401416 0.06256172
0.73224337 0.72645011 0.06256172
0.87060352 0.69641573 0.06256172
0.06256172 0.84620523 0.06256172
0.06256172 0.84620463 0.06256172
0.06256172 0.84620002 0.06256172
0.06256172 0.84618038 0.06256172
0.06256172 0.84611189 0.06256172
0.06256172 0.84589219 0.06256172
0.06256172 0.84520514 0.06256172
0.06256172 0.84301513 0.06256172
0.84119178 0.83547609 0.06256172
0.06256172 0.06256172 0.14162534
0.15291751 0.06256172 0.14112515
0.25187822 0.06256172 0.13707669
0.35275510 0.06256172 0.11279958
0.45559099 0.06256172 0.06256172
0.56006929 0.06256172 0.06256172
0.66594298 0.06256172 0.06256172
0.77302975 0.06256172 0.06256172
0.88119177 0.06256172 0.06256172
0.06256172 0.14178453 0.13877758
0.13824284 0.13824284 0.13824284
0.24952539 0.08121588 0.13389212
0.35213554 0.06256172 0.10630557
0.45540213 0.06256172 0.06256172
0.56000838 0.06256172 0.06256172
0.66592313 0.06256172 0.06256172
0.77302342 0.06256172 0.06256172
0.88118986 0.06256172 0.06256172
0.06256172 0.23128964 0.10472081
0.06256172 0.23062119 0.10331121
0.22808531 0.22524668 0.08889299
0.34721621 0.19520869 0.06256172
0.45393861 0.06256172 0.06256172
0.55953932 0.06256172 0.06256172
0.66577056 0.06256172 0.06256172
0.77297484 0.06256172 0.06256172
0.88117517 0.06256172 0.06256172
0.06256172 0.32594257 0.06256172
0.06256172 0.32576033 0.06256172
0.06256172 0.32434691 0.06256172
0.32212786 0.31803132 0.06256172
0.44742791 0.29087062 0.06256172
0.55751592 0.06256172 0.06256172
0.66511830 0.06256172 0.06256172
0.77276774 0.06256172 0.06256172
0.88111263 0.06256172 0.06256172
0.06256172 0.42448068 0.06256172
0.06256172 0.42442402 0.06256172
0.06256172 0.42398778 0.06256172
0.06256172 0.42210625 0.06256172
0.42010339 0.41521372 0.06256172
0.55009985 0.38856468 0.06256172
0.66280850 0.06256172 0.06256172
0.77204208 0.06256172 0.06256172
0.88089424 0.06256172 0.06256172
0.06256172 0.52618085 0.06256172
0.06256172 0.52616231 0.06256172
0.06256172 0.52601981 0.06256172
0.06256172 0.52541076 0.06256172
0.06256172 0.52325573 0.06256172
0.52140008 0.51599773 0.06256172
0.65500696 0.48890144 0.06256172
0.76967909 0.06256172 0.06256172
0.88019119 0.06256172 0.06256172
0.06256172 0.63057477 0.06256172
0.06256172 0.63056866 0.06256172
0.06256172 0.63052169 0.06256172
0.06256172 0.63032148 0.06256172
0.06256172 0.62962016 0.06256172
0.06256172 0.62733855 0.06256172
0.62555915 0.61986542 0.06256172
0.76191519 0.59165154 0.06256172
0.87796710 0.06256172 0.06256172
0.06256172 0.73733198 0.06256172
0.06256172 0.73733001 0.06256172
0.06256172 0.73731489 0.06256172
0.06256172 0.73725050 0.06256172
0.06256172 0.73702570 0.06256172
0.06256172 0.73630209 0.06256172
0.06256172 0.73401402 0.06256172
0.73224215 0.72644996 0.06256172
0.87060325 0.69641552 0.06256172
0.06256172 0.84620519 0.06256172
0.06256172 0.84620459 0.06256172
0.06256172 0.84619998 0.06256172
0.06256172 0.84618034 0.06256172
0.06256172 0.84611185 0.06256172
0.06256172 0.84589215 0.06256172
0.06256172 0.84520510 0.06256172
0.06256172 0.84301509 0.06256172
0.84119141 0.83547604 0.06256172
0.06256172 0.06256172 0.23067469
0.13907226 0.06256172 0.23057678
0.24964036 0.06256172 0.22982009
0.35216544 0.06256172 0.22649693
0.45541122 0.06256172 0.21334537
0.56001131 0.06256172 0.10619085
0.66592408 0.06256172 0.06256172
0.77302373 0.06256172 0.06256172
0.88118995 0.06256172 0.06256172
0.06256172 0.13999797 0.23013032
0.11679714 0.13629781 0.23003160
0.24720854 0.06256172 0.22926854
0.35154142 0.06256172 0.22591633
0.45522198 0.06256172 0.21263016
0.55995036 0.06256172 0.09782403
0.66590423 0.06256172 0.06256172
0.77301740 0.06256172 0.06256172
0.88118804 0.06256172 0.06256172
0.06256172 0.23094641 0.22579167
0.06256172 0.23027443 0.22568613
0.22486994 0.22486994 0.22486994
0.34658531 0.19459266 0.22127461
0.45375552 0.06256172 0.20684288
0.55948101 0.06256172 0.06256172
0.66575163 0.06256172 0.06256172
0.77296882 0.06256172 0.06256172
0.88117335 0.06256172 0.06256172
0.06256172 0.32584881 0.20304435
0.06256172 0.32566636 0.20289223
0.06256172 0.32425126 0.20171112
0.32126545 0.31792771 0.19640217
0.44723106 0.29072320 0.17269380
0.55745634 0.06256172 0.06256172
0.66509924 0.06256172 0.06256172
0.77276170 0.06256172 0.06256172
0.88111081 0.06256172 0.06256172
0.06256172 0.42445152 0.06256172
0.06256172 0.42439485 0.06256172
0.06256172 0.42395846 0.06256172
0.06256172 0.42207630 0.06256172
0.41983569 0.41518133 0.06256172
0.55003536 0.38852065 0.06256172
0.66278897 0.06256172 0.06256172
0.77203600 0.06256172 0.06256172
0.88089241 0.06256172 0.06256172
0.06256172 0.52617130 0.06256172
0.06256172 0.52615276 0.06256172
0.06256172 0.52601025 0.06256172
0.06256172 0.52540113 0.06256172
0.06256172 0.52324589 0.06256172
0.52131238 0.51598708 0.06256172
0.65498574 0.48888716 0.06256172
0.76967285 0.06256172 0.06256172
0.88018935 0.06256172 0.06256172
0.06256172 0.63057163 0.06256172
0.06256172 0.63056551 0.06256172
0.06256172 0.63051854 0.06256172
0.06256172 0.63031832 0.06256172
0.06256172 0.62961698 0.06256172
0.06256172 0.62733529 0.06256172
0.62553019 0.61986189 0.06256172
0.76190841 0.59164679 0.06256172
0.87796521 0.06256172 0.06256172
0.06256172 0.73733096 0.06256172
0.06256172 0.73732899 0.06256172
0.06256172 0.73731387 0.06256172
0.06256172 0.73724949 0.06256172
0.06256172 0.73702468 0.06256172
0.06256172 0.73630107 0.06256172
0.06256172 0.73401297 0.06256172
0.73223282 0.72644882 0.06256172
0.87060120 0.69641396 0.06256172
0.06256172 0.84620488 0.06256172
0.06256172 0.84620428 0.06256172
0.06256172 0.84619967 0.06256172
0.06256172 0.84618003 0.06256172
0.06256172 0.84611154 0.06256172
0.06256172 0.84589184 0.06256172
0.06256172 0.84520478 0.06256172
0.06256172 0.84301477 0.06256172
0.84118856 0.83547569 0.06256172
0.06256172 0.06256172 0.32509357
0.06256172 0.06256172 0.32506676
0.23919991 0.06256172 0.32486055
0.34960696 0.06256172 0.32397668
0.45464190 0.06256172 0.32081598
0.55976407 0.06256172 0.30974587
0.66584360 0.06256172 0.25893155
0.77299809 0.06256172 0.06256172
0.88118220 0.06256172 0.06256172
0.06256172 0.13141098 0.32494487
0.06256172 0.12679075 0.32491800
0.23635485 0.06256172 0.32471140
0.34896317 0.06256172 0.32382586
0.45445105 0.06256172 0.32065903
0.55970296 0.06256172 0.30956511
0.66582373 0.06256172 0.25857268
0.77299177 0.06256172 0.06256172
0.88118029 0.06256172 0.06256172
0.06256172 0.22946482 0.32379362
0.06256172 0.22877738 0.32376636
0.20900794 0.22324108 0.32355674
0.34384387 0.19189427 0.32265817
0.45297189 0.06256172 0.31944335
0.55923237 0.06256172 0.30816285
0.66567100 0.06256172 0.25575429
0.77294317 0.06256172 0.06256172
0.88116560 0.06256172 0.06256172
0.06256172 0.32544846 0.31869674
0.06256172 0.32526509 0.31866767
0.06256172 0.32384277 0.31844409
0.31748514 0.31748514 0.31748514
0.44638822 0.29009238 0.31404746
0.55720227 0.06256172 0.30189165
0.66501805 0.06256172 0.24228305
0.77273599 0.06256172 0.06256172
0.88110305 0.06256172 0.06256172
0.06256172 0.42432729 0.29777175
0.06256172 0.42427053 0.29773367
0.06256172 0.42383354 0.29744067
0.06256172 0.42194868 0.29618060
0.41868691 0.41504331 0.29161646
0.54976035 0.38833296 0.27478717
0.66270577 0.06256172 0.12427200
0.77201009 0.06256172 0.06256172
0.88088464 0.06256172 0.06256172
0.06256172 0.52613066 0.06256172
0.06256172 0.52611211 0.06256172
0.06256172 0.52596954 0.06256172
0.06256172 0.52536016 0.06256172
0.06256172 0.52320395 0.06256172
0.52093813 0.51594174 0.06256172
0.65489538 0.48882634 0.06256172
0.76964626 0.06256172 0.06256172
0.88018151 0.06256172 0.06256172
0.06256172 0.63055822 0.06256172
0.06256172 0.63055211 0.06256172
0.06256172 0.63050513 0.06256172
0.06256172 0.63030488 0.06256172
0.06256172 0.62960344 0.06256172
0.06256172 0.62732143 0.06256172
0.62540679 0.61984689 0.06256172
0.76187950 0.59162656 0.06256172
0.87795717 0.06256172 0.06256172
0.06256172 0.73732665 0.06256172
0.06256172 0.73732468 0.06256172
0.06256172 0.73730956 0.06256172
0.06256172 0.73724517 0.06256172
0.06256172 0.73702035 0.06256172
0.06256172 0.73629671 0.06256172
0.06256172 0.73400850 0.06256172
0.73219306 0.72644398 0.06256172
0.87059246 0.69640728 0.06256172
0.06256172 0.84620357 0.06256172
0.06256172 0.84620296 0.06256172
0.06256172 0.84619835 0.06256172
0.06256172 0.84617872 0.06256172
0.06256172 0.84611022 0.06256172
0.06256172 0.84589052 0.06256172
0.06256172 0.84520345 0.06256172
0.06256172 0.84301341 0.06256172
0.84117641 0.83547421 0.06256172
0.06256172 0.06256172 0.42347798
0.06256172 0.06256172 0.42346963
0.17770539 0.06256172 0.42340550
0.34000634 0.06256172 0.42313199
0.45190738 0.06256172 0.42217178
0.55889700 0.06256172 0.41902443
0.66556247 0.06256172 0.40844167
0.77290866 0.06256172 0.36305410
0.88115518 0.06256172 0.06256172
0.06256172 0.06256172 0.42343171
0.06256172 0.06256172 0.42342336
0.16941614 0.06256172 0.42335920
0.33928196 0.06256172 0.42308554
0.45171063 0.06256172 0.42212482
0.55883532 0.06256172 0.41897577
0.66554254 0.06256172 0.40838676
0.77290233 0.06256172 0.36296072
0.88115326 0.06256172 0.06256172
0.06256172 0.22401880 0.42307562
0.06256172 0.22327068 0.42306723
0.06256172 0.21721360 0.42300281
0.33349268 0.18133621 0.42272805
0.45018540 0.06256172 0.42176340
0.55836036 0.06256172 0.41860118
0.66538935 0.06256172 0.40796398
0.77285368 0.06256172 0.36224019
0.88113857 0.06256172 0.06256172
0.06256172 0.32403678 0.42154346
0.06256172 0.32385012 0.42153493
0.06256172 0.32240202 0.42146938
0.30266417 0.31592246 0.42118980
0.44338635 0.28785083 0.42020809
0.55631111 0.06256172 0.41698850
0.66473445 0.06256172 0.40614092
0.77264631 0.06256172 0.35910130
0.88107600 0.06256172 0.06256172
0.06256172 0.42389281 0.41598358
0.06256172 0.42383578 0.41597449
0.06256172 0.42339662 0.41590467
0.06256172 0.42150232 0.41560681
0.41456041 0.41456041 0.41456041
0.54879524 0.38767538 0.41112278
0.66241513 0.06256172 0.39946895
0.77191970 0.06256172 0.34712364
0.88085752 0.06256172 0.06256172
0.06256172 0.52598885 0.39534774
0.06256172 0.52597027 0.39533622
0.06256172 0.52582748 0.39524772
0.06256172 0.52521716 0.39486996
0.06256172 0.52305760 0.39353989
0.51962150 0.51578349 0.38913663
0.65457966 0.48861402 0.37377720
0.76955353 0.06256172 0.28905102
0.88015418 0.06256172 0.06256172
0.06256172 0.63051149 0.21567221
0.06256172 0.63050537 0.21554846
0.06256172 0.63045837 0.21458996
0.06256172 0.63025802 0.21033574
0.06256172 0.62955623 0.19261289
0.06256172 0.62727306 0.06256172
0.62497533 0.61979455 0.06256172
0.76177865 0.59155600 0.06256172
0.87792914 0.06256172 0.06256172
0.06256172 0.73731161 0.06256172
0.06256172 0.73730964 0.06256172
0.06256172 0.73729452 0.06256172
0.06256172 0.73723012 0.06256172
0.06256172 0.73700526 0.06256172
0.06256172 0.73628150 0.06256172
0.06256172 0.73399292 0.06256172
0.73205432 0.72642708 0.06256172
0.87056200 0.69638401 0.06256172
0.06256172 0.84619898 0.06256172
0.06256172 0.84619838 0.06256172
0.06256172 0.84619376 0.06256172
0.06256172 0.84617413 0.06256172
0.06256172 0.84610563 0.06256172
0.06256172 0.84588592 0.06256172
0.06256172 0.84519881 0.06256172
0.06256172 0.84300865 0.06256172
0.84113406 0.83546904 0.06256172
0.06256172 0.06256172 0.52507819
0.06256172 0.06256172 0.52507546
0.06256172 0.06256172 0.52505446
0.29804660 0.06256172 0.52496503
0.44254482 0.06256172 0.52465257
0.55606511 0.06256172 0.52364481
0.66465649 0.06256172 0.52043744
0.77262169 0.06256172 0.50959106
0.88106858 0.06256172 0.46136698
0.06256172 0.06256172 0.52506304
0.06256172 0.06256172 0.52506031
0.06256172 0.06256172 0.52503931
0.29680864 0.06256172 0.52494986
0.44232643 0.06256172 0.52463735
0.55600155 0.06256172 0.52362943
0.66463636 0.06256172 0.52042151
0.77261534 0.06256172 0.50957316
0.88106666 0.06256172 0.46133668
0.06256172 0.20253660 0.52494662
0.06256172 0.20147587 0.52494389
0.06256172 0.19262537 0.52492286
0.28656138 0.11087245 0.52483330
0.44063150 0.06256172 0.52452040
0.55551199 0.06256172 0.52351120
0.66448170 0.06256172 0.52029913
0.77256654 0.06256172 0.50943559
0.88105196 0.06256172 0.46110370
0.06256172 0.31933912 0.52444939
0.06256172 0.31914104 0.52444664
0.06256172 0.31760326 0.52442550
0.21036453 0.31069747 0.52433546
0.43303308 0.28018260 0.52402088
0.55339889 0.06256172 0.52300622
0.66382045 0.06256172 0.51977635
0.77235852 0.06256172 0.50884767
0.88098933 0.06256172 0.46010513
0.06256172 0.42248686 0.52269483
0.06256172 0.42242892 0.52269202
0.06256172 0.42198269 0.52267048
0.06256172 0.42005745 0.52257873
0.39986059 0.41299581 0.52225814
0.54563582 0.38553487 0.52122396
0.66147831 0.06256172 0.51793046
0.77162963 0.06256172 0.50676830
0.88077063 0.06256172 0.45653505
0.06256172 0.52553323 0.51684216
0.06256172 0.52551456 0.51683918
0.06256172 0.52537107 0.51681624
0.06256172 0.52475775 0.51671851
0.06256172 0.52258737 0.51637702
0.51527486 0.51527486 0.51527486
0.65356145 0.48793073 0.51175924
0.76925594 0.06256172 0.49977585
0.88006660 0.06256172 0.44404616
0.06256172 0.63036167 0.49583334
0.06256172 0.63035554 0.49582960
0.06256172 0.63030846 0.49580080
0.06256172 0.63010780 0.49567813
0.06256172 0.62940489 0.49524920
0.06256172 0.62711802 0.49386193
0.62358019 0.61962674 0.48940653
0.76145495 0.59132969 0.47383478
0.87783932 0.06256172 0.38768198
0.06256172 0.73726342 0.33982698
0.06256172 0.73726145 0.33980465
0.06256172 0.73724632 0.33963300
0.06256172 0.73718189 0.33889821
0.06256172 0.73695692 0.33628319
0.06256172 0.73623278 0.32728776
0.06256172 0.73394299 0.29009213
0.73160861 0.72637294 0.06256172
0.87046437 0.69630945 0.06256172
0.06256172 0.84618428 0.06256172
0.06256172 0.84618368 0.06256172
0.06256172 0.84617907 0.06256172
0.06256172 0.84615942 0.06256172
0.06256172 0.84609092 0.06256172
0.06256172 0.84587117 0.06256172
0.06256172 0.84518395 0.06256172
0.06256172 0.84299342 0.06256172
0.84099830 0.83545248 0.06256172
0.06256172 0.06256172 0.62941613
0.06256172 0.06256172 0.62941523
0.06256172 0.06256172 0.62940831
0.06256172 0.06256172 0.62937881
0.40486372 0.06256172 0.62927591
0.54666358 0.06256172 0.62894561
0.66178061 0.06256172 0.62791045
0.77172302 0.06256172 0.62458771
0.88079859 0.06256172 0.61285783
0.06256172 0.06256172 0.62941114
0.06256172 0.06256172 0.62941023
0.06256172 0.06256172 0.62940331
0.06256172 0.06256172 0.62937381
0.40452894 0.06256172 0.62927090
0.54659330 0.06256172 0.62894059
0.66175987 0.06256172 0.62790537
0.77171660 0.06256172 0.62458245
0.88079667 0.06256172 0.61285188
0.06256172 0.06256172 0.62937274
0.06256172 0.06256172 0.62937184
0.06256172 0.06256172 0.62936491
0.06256172 0.06256172 0.62933540
0.40191436 0.06256172 0.62923245
0.54605192 0.06256172 0.62890200
0.66160042 0.06256172 0.62786636
0.77166733 0.06256172 0.62454205
0.88078192 0.06256172 0.61280614
0.06256172 0.30261350 0.62920912
0.06256172 0.30236791 0.62920821
0.06256172 0.30045547 0.62920127
0.06256172 0.29173102 0.62917171
0.38980616 0.24929217 0.62906858
0.54371160 0.06256172 0.62873756
0.66091863 0.06256172 0.62770011
0.77145727 0.06256172 0.62436984
0.88071909 0.06256172 0.61261116
0.06256172 0.41796315 0.62863647
0.06256172 0.41790215 0.62863556
0.06256172 0.41743234 0.62862857
0.06256172 0.41540380 0.62859883
0.32470171 0.40794062 0.62849508
0.53506190 0.37850928 0.62816204
0.65850252 0.06256172 0.62711823
0.77072121 0.06256172 0.62376704
0.88049973 0.06256172 0.61192828
0.06256172 0.52410114 0.62677889
0.06256172 0.52408218 0.62677796
0.06256172 0.52393646 0.62677084
0.06256172 0.52331358 0.62674051
0.06256172 0.52110885 0.62663469
0.50027756 0.51367420 0.62629503
0.65032123 0.48577151 0.62523029
0.76832379 0.06256172 0.62181033
0.87979352 0.06256172 0.60970756
0.06256172 0.62989397 0.62075401
0.06256172 0.62988781 0.62075302
0.06256172 0.62984050 0.62074543
0.06256172 0.62963884 0.62071310
0.06256172 0.62893242 0.62060032
0.06256172 0.62663396 0.62023824
0.61910268 0.61910268 0.61910268
0.76044047 0.59062202 0.61544937
0.87755924 0.06256172 0.60244390
0.06256172 0.73711333 0.59889759
0.06256172 0.73711136 0.59889635
0.06256172 0.73709621 0.59888678
0.06256172 0.73703167 0.59884605
0.06256172 0.73680634 0.59870390
0.06256172 0.73608102 0.59824723
0.06256172 0.73378746 0.59681200
0.73020803 0.72620429 0.59216280
0.87015991 0.69607706 0.57517556
0.06256172 0.84613854 0.41634115
0.06256172 0.84613793 0.41633210
0.06256172 0.84613332 0.41626256
0.06256172 0.84611367 0.41596591
0.06256172 0.84604512 0.41492381
0.06256172 0.84582526 0.41150068
0.06256172 0.84513769 0.39990082
0.06256172 0.84294603 0.34792454
0.84057457 0.83540094 0.06256172
0.06256172 0.06256172 0.73615605
0.06256172 0.06256172 0.73615576
0.06256172 0.06256172 0.73615353
0.06256172 0.06256172 0.73614403
0.06256172 0.06256172 0.73611091
0.50895635 0.06256172 0.73600478
0.65214574 0.06256172 0.73567375
0.76884589 0.06256172 0.73462766
0.87994624 0.06256172 0.73113143
0.06256172 0.06256172 0.73615444
0.06256172 0.06256172 0.73615415
0.06256172 0.06256172 0.73615192
0.06256172 0.06256172 0.73614242
0.06256172 0.06256172 0.73610930
0.50885100 0.06256172 0.73600316
0.65212277 0.06256172 0.73567213
0.76883927 0.06256172 0.73462603
0.87994430 0.06256172 0.73112973
0.06256172 0.06256172 0.73614208
0.06256172 0.06256172 0.73614179
0.06256172 0.06256172 0.73613956
0.06256172 0.06256172 0.73613006
0.06256172 0.06256172 0.73609693
0.50803798 0.06256172 0.73599078
0.65194620 0.06256172 0.73565970
0.76878844 0.06256172 0.73461346
0.87992940 0.06256172 0.73111669
0.06256172 0.18027619 0.73608943
0.06256172 0.17870212 0.73608914
0.06256172 0.16475245 0.73608691
0.06256172 0.06256172 0.73607740
0.06256172 0.06256172 0.73604426
0.50449478 0.06256172 0.73593805
0.65119081 0.06256172 0.73560679
0.76857174 0.06256172 0.73455995
0.87986597 0.06256172 0.73106113
0.06256172 0.40203875 0.73590566
0.06256172 0.40196556 0.73590537
0.06256172 0.40140148 0.73590313
0.06256172 0.39895833 0.73589361
0.06256172 0.38985663 0.73586040
0.49095618 0.35168086 0.73575398
0.64850913 0.06256172 0.73542206
0.76781226 0.06256172 0.73437314
0.87964447 0.06256172 0.73086719
0.06256172 0.51946015 0.73531469
0.06256172 0.51944022 0.73531440
0.06256172 0.51928704 0.73531215
0.06256172 0.51863211 0.73530256
0.06256172 0.51631206 0.73526915
0.42542502 0.50846581 0.73516205
0.63937059 0.47864790 0.73482802
0.76533726 0.06256172 0.73377236
0.87893135 0.06256172 0.73024338
0.06256172 0.62841163 0.73345159
0.06256172 0.62840537 0.73345129
0.06256172 0.62835732 0.73344899
0.06256172 0.62815247 0.73343922
0.06256172 0.62743482 0.73340513
0.06256172 0.62509924 0.73329587
0.60350018 0.61743965 0.73295508
0.75718415 0.58836706 0.73187794
0.87667487 0.06256172 0.72827531
0.06256172 0.73664094 0.72735389
0.06256172 0.73663896 0.72735357
0.06256172 0.73662373 0.72735112
0.06256172 0.73655887 0.72734069
0.06256172 0.73633238 0.72730430
0.06256172 0.73560337 0.72718767
0.06256172 0.73329791 0.72682384
0.72567327 0.72567327 0.72567327
0.86919800 0.69534434 0.72181854
0.06256172 0.84599489 0.70415070
0.06256172 0.84599428 0.70415029
0.06256172 0.84598966 0.70414715
0.06256172 0.84596998 0.70413379
0.06256172 0.84590133 0.70408718
0.06256172 0.84568111 0.70393777
0.06256172 0.84499243 0.70347136
0.06256172 0.84279717 0.70199306
0.83923226 0.83523907 0.69700250
0.06256172 0.06256172 0.84504716
0.06256172 0.06256172 0.84504708
0.06256172 0.06256172 0.84504639
0.06256172 0.06256172 0.84504350
0.06256172 0.06256172 0.84503339
0.06256172 0.06256172 0.84500102
0.61142788 0.06256172 0.84490023
0.75878583 0.06256172 0.84458331
0.87710709 0.06256172 0.84354163
0.06256172 0.06256172 0.84504667
0.06256172 0.06256172 0.84504658
0.06256172 0.06256172 0.84504590
0.06256172 0.06256172 0.84504301
0.06256172 0.06256172 0.84503290
0.06256172 0.06256172 0.84500053
0.61139255 0.06256172 0.84489974
0.75877846 0.06256172 0.84458281
0.87710509 0.06256172 0.84354113
0.06256172 0.06256172 0.84504290
0.06256172 0.06256172 0.84504281
0.06256172 0.06256172 0.84504213
0.06256172 0.06256172 0.84503923
0.06256172 0.06256172 0.84502913
0.06256172 0.06256172 0.84499675
0.61112081 0.06256172 0.84489596
0.75872179 0.06256172 0.84457902
0.87708971 0.06256172 0.84353729
0.06256172 0.06256172 0.84502684
0.06256172 0.06256172 0.84502675
0.06256172 0.06256172 0.84502607
0.06256172 0.06256172 0.84502317
0.06256172 0.06256172 0.84501306
0.06256172 0.06256172 0.84498068
0.60995522 0.06256172 0.84487987
0.75848020 0.06256172 0.84456287
0.87702420 0.06256172 0.84352096
0.06256172 0.30708687 0.84497082
0.06256172 0.30685514 0.84497073
0.06256172 0.30505222 0.84497005
0.06256172 0.29686603 0.84496715
0.06256172 0.25824944 0.84495703
0.06256172 0.06256172 0.84492463
0.60577549 0.06256172 0.84482375
0.75763297 0.06256172 0.84450656
0.87679545 0.06256172 0.84346399
0.06256172 0.50247151 0.84479117
0.06256172 0.50244757 0.84479108
0.06256172 0.50226352 0.84479040
0.06256172 0.50147590 0.84478750
0.06256172 0.49867629 0.84477736
0.06256172 0.48909123 0.84474490
0.59099102 0.45055816 0.84464382
0.75486652 0.06256172 0.84432599
0.87605884 0.06256172 0.84328130
0.06256172 0.62340798 0.84422990
0.06256172 0.62340139 0.84422981
0.06256172 0.62335072 0.84422912
0.06256172 0.62313472 0.84422620
0.06256172 0.62237783 0.84421600
0.06256172 0.61991231 0.84418333
0.52008920 0.61180193 0.84408162
0.74569107 0.58061235 0.84376179
0.87372681 0.06256172 0.84271049
0.06256172 0.73508312 0.84244611
0.06256172 0.73508110 0.84244602
0.06256172 0.73506562 0.84244532
0.06256172 0.73499966 0.84244234
0.06256172 0.73476936 0.84243194
0.06256172 0.73402799 0.84239862
0.06256172 0.73168284 0.84229486
0.70913979 0.72391976 0.84196860
0.86598562 0.69291370 0.84089599
0.06256172 0.84552468 0.83636834
0.06256172 0.84552408 0.83636824
0.06256172 0.84551943 0.83636749
0.06256172 0.84549964 0.83636430
0.06256172 0.84543063 0.83635317
0.06256172 0.84520926 0.83631752
0.06256172 0.84451693 0.83620651
0.06256172 0.84230988 0.83585738
0.83470898 0.83470898 0.83470898
