src/ffmpeg_scripts/luts/rec2020-sRGB_-1p33.cube
TITLE "rec2020-srgb_-1p33"
LUT_3D_SIZE 33
# PQ (EOTF Only)/Rec2020 -> PQ (EOTF Only)/Rec709, CineEI Shift -1.33, Black Level 0.00% IRE, Input 100% -> Output 109% - Created with LUTCalc v4.01 by Ben Turley October 2020
0.06256172 0.06256172 0.06256172
0.08443934 0.06256172 0.06256172
0.10729599 0.06256172 0.06256172
0.13068004 0.06256172 0.06256172
0.15444745 0.06256172 0.06256172
0.17852151 0.06256172 0.06256172
0.20285356 0.06256172 0.06256172
0.22740961 0.06256172 0.06256172
0.25216441 0.06256172 0.06256172
0.27709837 0.06256172 0.06256172
0.30219579 0.06256172 0.06256172
0.32744380 0.06256172 0.06256172
0.35283159 0.06256172 0.06256172
0.37834998 0.06256172 0.06256172
0.40399105 0.06256172 0.06256172
0.42974787 0.06256172 0.06256172
0.45561437 0.06256172 0.06256172
0.48158513 0.06256172 0.06256172
0.50765530 0.06256172 0.06256172
0.53382052 0.06256172 0.06256172
0.56007684 0.06256172 0.06256172
0.58642066 0.06256172 0.06256172
0.61284867 0.06256172 0.06256172
0.63935787 0.06256172 0.06256172
0.66594544 0.06256172 0.06256172
0.69260881 0.06256172 0.06256172
0.71934559 0.06256172 0.06256172
0.74615352 0.06256172 0.06256172
0.77303053 0.06256172 0.06256172
0.79997467 0.06256172 0.06256172
0.82698409 0.06256172 0.06256172
0.85405708 0.06256172 0.06256172
0.88119201 0.06256172 0.06256172
0.06256172 0.08066208 0.06256172
0.08017340 0.07963119 0.06256172
0.10577716 0.07506934 0.06256172
0.12991316 0.06256172 0.06256172
0.15400515 0.06256172 0.06256172
0.17824672 0.06256172 0.06256172
0.20267441 0.06256172 0.06256172
0.22728878 0.06256172 0.06256172
0.25208084 0.06256172 0.06256172
0.27703945 0.06256172 0.06256172
0.30215361 0.06256172 0.06256172
0.32741324 0.06256172 0.06256172
0.35280923 0.06256172 0.06256172
0.37833349 0.06256172 0.06256172
0.40397881 0.06256172 0.06256172
0.42973875 0.06256172 0.06256172
0.45560753 0.06256172 0.06256172
0.48157999 0.06256172 0.06256172
0.50765143 0.06256172 0.06256172
0.53381760 0.06256172 0.06256172
0.56007463 0.06256172 0.06256172
0.58641899 0.06256172 0.06256172
0.61284741 0.06256172 0.06256172
0.63935691 0.06256172 0.06256172
0.66594472 0.06256172 0.06256172
0.69260827 0.06256172 0.06256172
0.71934518 0.06256172 0.06256172
0.74615321 0.06256172 0.06256172
0.77303030 0.06256172 0.06256172
0.79997450 0.06256172 0.06256172
0.82698396 0.06256172 0.06256172
0.85405698 0.06256172 0.06256172
0.88119194 0.06256172 0.06256172
0.06256172 0.10031163 0.06256172
0.06256172 0.09990841 0.06256172
0.09939439 0.09837275 0.06256172
0.12695963 0.09464231 0.06256172
0.15234384 0.08567825 0.06256172
0.17722512 0.06256172 0.06256172
0.20201167 0.06256172 0.06256172
0.22684298 0.06256172 0.06256172
0.25177299 0.06256172 0.06256172
0.27682259 0.06256172 0.06256172
0.30199847 0.06256172 0.06256172
0.32730087 0.06256172 0.06256172
0.35272704 0.06256172 0.06256172
0.37827290 0.06256172 0.06256172
0.40393384 0.06256172 0.06256172
0.42970520 0.06256172 0.06256172
0.45558241 0.06256172 0.06256172
0.48156111 0.06256172 0.06256172
0.50763721 0.06256172 0.06256172
0.53380687 0.06256172 0.06256172
0.56006652 0.06256172 0.06256172
0.58641286 0.06256172 0.06256172
0.61284278 0.06256172 0.06256172
0.63935341 0.06256172 0.06256172
0.66594208 0.06256172 0.06256172
0.69260628 0.06256172 0.06256172
0.71934368 0.06256172 0.06256172
0.74615209 0.06256172 0.06256172
0.77302946 0.06256172 0.06256172
0.79997387 0.06256172 0.06256172
0.82698350 0.06256172 0.06256172
0.85405664 0.06256172 0.06256172
0.88119168 0.06256172 0.06256172
0.06256172 0.12083627 0.06256172
0.06256172 0.12062688 0.06256172
0.07119659 0.11984703 0.06256172
0.11953053 0.11807235 0.06256172
0.14847445 0.11454750 0.06256172
0.17491160 0.10763744 0.06256172
0.20053028 0.09161552 0.06256172
0.22585335 0.06256172 0.06256172
0.25109227 0.06256172 0.06256172
0.27634421 0.06256172 0.06256172
0.30165675 0.06256172 0.06256172
0.32705362 0.06256172 0.06256172
0.35254632 0.06256172 0.06256172
0.37813971 0.06256172 0.06256172
0.40383504 0.06256172 0.06256172
0.42963152 0.06256172 0.06256172
0.45552723 0.06256172 0.06256172
0.48151965 0.06256172 0.06256172
0.50760597 0.06256172 0.06256172
0.53378330 0.06256172 0.06256172
0.56004872 0.06256172 0.06256172
0.58639940 0.06256172 0.06256172
0.61283260 0.06256172 0.06256172
0.63934572 0.06256172 0.06256172
0.66593627 0.06256172 0.06256172
0.69260190 0.06256172 0.06256172
0.71934039 0.06256172 0.06256172
0.74614962 0.06256172 0.06256172
0.77302761 0.06256172 0.06256172
0.79997249 0.06256172 0.06256172
0.82698247 0.06256172 0.06256172
0.85405588 0.06256172 0.06256172
0.88119112 0.06256172 0.06256172
0.06256172 0.14201187 0.06256172
0.06256172 0.14188908 0.06256172
0.06256172 0.14143499 0.06256172
0.09915594 0.14042106 0.06256172
0.14034966 0.13848966 0.06256172
0.17036938 0.13504003 0.06256172
0.19770266 0.12891579 0.06256172
0.22399106 0.11722748 0.06256172
0.24982146 0.08291284 0.06256172
0.27545539 0.06256172 0.06256172
0.30102372 0.06256172 0.06256172
0.32659649 0.06256172 0.06256172
0.35221260 0.06256172 0.06256172
0.37789400 0.06256172 0.06256172
0.40365288 0.06256172 0.06256172
0.42949573 0.06256172 0.06256172
0.45542556 0.06256172 0.06256172
0.48144327 0.06256172 0.06256172
0.50754845 0.06256172 0.06256172
0.53373990 0.06256172 0.06256172
0.56001593 0.06256172 0.06256172
0.58637461 0.06256172 0.06256172
0.61281387 0.06256172 0.06256172
0.63933157 0.06256172 0.06256172
0.66592559 0.06256172 0.06256172
0.69259385 0.06256172 0.06256172
0.71933433 0.06256172 0.06256172
0.74614507 0.06256172 0.06256172
0.77302421 0.06256172 0.06256172
0.79996995 0.06256172 0.06256172
0.82698058 0.06256172 0.06256172
0.85405448 0.06256172 0.06256172
0.88119009 0.06256172 0.06256172
0.06256172 0.16371696 0.06256172
0.06256172 0.16363974 0.06256172
0.06256172 0.16335501 0.06256172
0.06256172 0.16272416 0.06256172
0.12172932 0.16154161 0.06256172
0.16172567 0.15949375 0.06256172
0.19263359 0.15607132 0.06256172
0.22074302 0.15035812 0.06256172
0.24763737 0.14038122 0.06256172
0.27394088 0.11984756 0.06256172
0.29995079 0.06256172 0.06256172
0.32582432 0.06256172 0.06256172
0.35165020 0.06256172 0.06256172
0.37748054 0.06256172 0.06256172
0.40334668 0.06256172 0.06256172
0.42926765 0.06256172 0.06256172
0.45525489 0.06256172 0.06256172
0.48131511 0.06256172 0.06256172
0.50745196 0.06256172 0.06256172
0.53366710 0.06256172 0.06256172
0.55996095 0.06256172 0.06256172
0.58633306 0.06256172 0.06256172
0.61278246 0.06256172 0.06256172
0.63930784 0.06256172 0.06256172
0.66590768 0.06256172 0.06256172
0.69258035 0.06256172 0.06256172
0.71932417 0.06256172 0.06256172
0.74613745 0.06256172 0.06256172
0.77301850 0.06256172 0.06256172
0.79996569 0.06256172 0.06256172
0.82697742 0.06256172 0.06256172
0.85405214 0.06256172 0.06256172
0.88118837 0.06256172 0.06256172
0.06256172 0.18587348 0.06256172
0.06256172 0.18582263 0.06256172
0.06256172 0.18563543 0.06256172
0.06256172 0.18522223 0.06256172
0.06256172 0.18445353 0.06256172
0.14387286 0.18314071 0.06256172
0.18357736 0.18100014 0.06256172
0.21524506 0.17758257 0.06256172
0.24403726 0.17211469 0.06256172
0.27148127 0.16306869 0.06256172
0.29822387 0.14652040 0.06256172
0.32458857 0.09901700 0.06256172
0.35075351 0.06256172 0.06256172
0.37682299 0.06256172 0.06256172
0.40286057 0.06256172 0.06256172
0.42890600 0.06256172 0.06256172
0.45498452 0.06256172 0.06256172
0.48111221 0.06256172 0.06256172
0.50729926 0.06256172 0.06256172
0.53355195 0.06256172 0.06256172
0.55987400 0.06256172 0.06256172
0.58626735 0.06256172 0.06256172
0.61273280 0.06256172 0.06256172
0.63927033 0.06256172 0.06256172
0.66587937 0.06256172 0.06256172
0.69255901 0.06256172 0.06256172
0.71930812 0.06256172 0.06256172
0.74612540 0.06256172 0.06256172
0.77300948 0.06256172 0.06256172
0.79995896 0.06256172 0.06256172
0.82697242 0.06256172 0.06256172
0.85404844 0.06256172 0.06256172
0.88118564 0.06256172 0.06256172
0.06256172 0.20842632 0.06256172
0.06256172 0.20839173 0.06256172
0.06256172 0.20826451 0.06256172
0.06256172 0.20798427 0.06256172
0.06256172 0.20746501 0.06256172
0.06256172 0.20658459 0.06256172
0.16611876 0.20516663 0.06256172
0.20584734 0.20294906 0.06256172
0.23818092 0.19952449 0.06256172
0.26758149 0.19421327 0.06256172
0.29552615 0.18574616 0.06256172
0.32267579 0.17123102 0.06256172
0.34937381 0.14023611 0.06256172
0.37581529 0.06256172 0.06256172
0.40211764 0.06256172 0.06256172
0.42835435 0.06256172 0.06256172
0.45457266 0.06256172 0.06256172
0.48080343 0.06256172 0.06256172
0.50706704 0.06256172 0.06256172
0.53337693 0.06256172 0.06256172
0.55974188 0.06256172 0.06256172
0.58616755 0.06256172 0.06256172
0.61265740 0.06256172 0.06256172
0.63921337 0.06256172 0.06256172
0.66583638 0.06256172 0.06256172
0.69252662 0.06256172 0.06256172
0.71928375 0.06256172 0.06256172
0.74610711 0.06256172 0.06256172
0.77299580 0.06256172 0.06256172
0.79994875 0.06256172 0.06256172
0.82696483 0.06256172 0.06256172
0.85404282 0.06256172 0.06256172
0.88118150 0.06256172 0.06256172
0.06256172 0.23133421 0.06256172
0.06256172 0.23131011 0.06256172
0.06256172 0.23122151 0.06256172
0.06256172 0.23102657 0.06256172
0.06256172 0.23066622 0.06256172
0.06256172 0.23005772 0.06256172
0.11601963 0.22908439 0.06256172
0.18860037 0.22757901 0.06256172
0.22849257 0.22529558 0.06256172
0.26142009 0.22185718 0.06256172
0.29136830 0.21664937 0.06256172
0.31977093 0.20856911 0.06256172
0.34729801 0.19528843 0.06256172
0.37430850 0.16999744 0.06256172
0.40101140 0.06256172 0.06256172
0.42753533 0.06256172 0.06256172
0.45396243 0.06256172 0.06256172
0.48034662 0.06256172 0.06256172
0.50672386 0.06256172 0.06256172
0.53311847 0.06256172 0.06256172
0.55954691 0.06256172 0.06256172
0.58602033 0.06256172 0.06256172
0.61254619 0.06256172 0.06256172
0.63912940 0.06256172 0.06256172
0.66577302 0.06256172 0.06256172
0.69247887 0.06256172 0.06256172
0.71924784 0.06256172 0.06256172
0.74608016 0.06256172 0.06256172
0.77297563 0.06256172 0.06256172
0.79993371 0.06256172 0.06256172
0.82695365 0.06256172 0.06256172
0.85403455 0.06256172 0.06256172
0.88117541 0.06256172 0.06256172
0.06256172 0.25456487 0.06256172
0.06256172 0.25454776 0.06256172
0.06256172 0.25448490 0.06256172
0.06256172 0.25434668 0.06256172
0.06256172 0.25409153 0.06256172
0.06256172 0.25366176 0.06256172
0.06256172 0.25297711 0.06256172
0.14682228 0.25192507 0.06256172
0.21135454 0.25034546 0.06256172
0.25147935 0.24800451 0.06256172
0.28494373 0.24454812 0.06256172
0.31538904 0.23940907 0.06256172
0.34421224 0.23159815 0.06256172
0.37208960 0.21913540 0.06256172
0.39939262 0.19689616 0.06256172
0.42634202 0.13643379 0.06256172
0.45307606 0.06256172 0.06256172
0.47968452 0.06256172 0.06256172
0.50622726 0.06256172 0.06256172
0.53274490 0.06256172 0.06256172
0.55926533 0.06256172 0.06256172
0.58580784 0.06256172 0.06256172
0.61238577 0.06256172 0.06256172
0.63900830 0.06256172 0.06256172
0.66568168 0.06256172 0.06256172
0.69241006 0.06256172 0.06256172
0.71919608 0.06256172 0.06256172
0.74604132 0.06256172 0.06256172
0.77294656 0.06256172 0.06256172
0.79991203 0.06256172 0.06256172
0.82693753 0.06256172 0.06256172
0.85402262 0.06256172 0.06256172
0.88116663 0.06256172 0.06256172
0.06256172 0.27809228 0.06256172
0.06256172 0.27807996 0.06256172
0.06256172 0.27803470 0.06256172
0.06256172 0.27793523 0.06256172
0.06256172 0.27775177 0.06256172
0.06256172 0.27744323 0.06256172
0.06256172 0.27695297 0.06256172
0.06256172 0.27620266 0.06256172
0.17360661 0.27508304 0.06256172
0.23438703 0.27343940 0.06256172
0.27478049 0.27104743 0.06256172
0.30873516 0.26757040 0.06256172
0.33963476 0.26247617 0.06256172
0.36884547 0.25485674 0.06256172
0.39704822 0.24296319 0.06256172
0.42462491 0.22261986 0.06256172
0.45180629 0.17712514 0.06256172
0.47873904 0.06256172 0.06256172
0.50551971 0.06256172 0.06256172
0.53221352 0.06256172 0.06256172
0.55886530 0.06256172 0.06256172
0.58550624 0.06256172 0.06256172
0.61215822 0.06256172 0.06256172
0.63883662 0.06256172 0.06256172
0.66555222 0.06256172 0.06256172
0.69231256 0.06256172 0.06256172
0.71912277 0.06256172 0.06256172
0.74598632 0.06256172 0.06256172
0.77290541 0.06256172 0.06256172
0.79988133 0.06256172 0.06256172
0.82691472 0.06256172 0.06256172
0.85400574 0.06256172 0.06256172
0.88115419 0.06256172 0.06256172
0.06256172 0.30189495 0.06256172
0.06256172 0.30188598 0.06256172
0.06256172 0.30185301 0.06256172
0.06256172 0.30178057 0.06256172
0.06256172 0.30164705 0.06256172
0.06256172 0.30142273 0.06256172
0.06256172 0.30106687 0.06256172
0.06256172 0.30052367 0.06256172
0.06256172 0.29971631 0.06256172
0.19904264 0.29853809 0.06256172
0.25769231 0.29683857 0.06256172
0.29837352 0.29440081 0.06256172
0.33277964 0.29090140 0.06256172
0.36409669 0.28583464 0.06256172
0.39366548 0.27835200 0.06256172
0.42217074 0.26686516 0.06256172
0.45000328 0.24779128 0.06256172
0.47740262 0.20904851 0.06256172
0.50452288 0.06256172 0.06256172
0.53146666 0.06256172 0.06256172
0.55830402 0.06256172 0.06256172
0.58508361 0.06256172 0.06256172
0.61183966 0.06256172 0.06256172
0.63859644 0.06256172 0.06256172
0.66537122 0.06256172 0.06256172
0.69217628 0.06256172 0.06256172
0.71902034 0.06256172 0.06256172
0.74590949 0.06256172 0.06256172
0.77284793 0.06256172 0.06256172
0.79983846 0.06256172 0.06256172
0.82688287 0.06256172 0.06256172
0.85398217 0.06256172 0.06256172
0.88113683 0.06256172 0.06256172
0.06256172 0.32595477 0.06256172
0.06256172 0.32594817 0.06256172
0.06256172 0.32592393 0.06256172
0.06256172 0.32587068 0.06256172
0.06256172 0.32577256 0.06256172
0.06256172 0.32560783 0.06256172
0.06256172 0.32534680 0.06256172
0.06256172 0.32494903 0.06256172
0.06256172 0.32435936 0.06256172
0.06256172 0.32350217 0.06256172
0.22392005 0.32227276 0.06256172
0.28126072 0.32052406 0.06256172
0.32223948 0.31804480 0.06256172
0.35706409 0.31452183 0.06256172
0.38876644 0.30946949 0.06256172
0.41866684 0.30208330 0.06256172
0.44745351 0.29088980 0.06256172
0.47552512 0.27270013 0.06256172
0.50312895 0.23785984 0.06256172
0.53042578 0.06256172 0.06256172
0.55752368 0.06256172 0.06256172
0.58449708 0.06256172 0.06256172
0.61139815 0.06256172 0.06256172
0.63826389 0.06256172 0.06256172
0.66512078 0.06256172 0.06256172
0.69198785 0.06256172 0.06256172
0.71887876 0.06256172 0.06256172
0.74580333 0.06256172 0.06256172
0.77276853 0.06256172 0.06256172
0.79977926 0.06256172 0.06256172
0.82683888 0.06256172 0.06256172
0.85394963 0.06256172 0.06256172
0.88111287 0.06256172 0.06256172
0.06256172 0.35025626 0.06256172
0.06256172 0.35025137 0.06256172
0.06256172 0.35023341 0.06256172
0.06256172 0.35019396 0.06256172
0.06256172 0.35012130 0.06256172
0.06256172 0.34999936 0.06256172
0.06256172 0.34980628 0.06256172
0.06256172 0.34951241 0.06256172
0.06256172 0.34907754 0.06256172
0.06256172 0.34844702 0.06256172
0.06256172 0.34754616 0.06256172
0.24856740 0.34627183 0.06256172
0.30508135 0.34447953 0.06256172
0.34636216 0.34196239 0.06256172
0.38157680 0.33841505 0.06256172
0.41363608 0.33336695 0.06256172
0.44384413 0.32604628 0.06256172
0.47289267 0.31506277 0.06256172
0.50118748 0.29749912 0.06256172
0.52898287 0.26515122 0.06256172
0.55644563 0.15038629 0.06256172
0.58368881 0.06256172 0.06256172
0.61079085 0.06256172 0.06256172
0.63780710 0.06256172 0.06256172
0.66477714 0.06256172 0.06256172
0.69172947 0.06256172 0.06256172
0.71868474 0.06256172 0.06256172
0.74565791 0.06256172 0.06256172
0.77265980 0.06256172 0.06256172
0.79969821 0.06256172 0.06256172
0.82677868 0.06256172 0.06256172
0.85390509 0.06256172 0.06256172
0.88108007 0.06256172 0.06256172
0.06256172 0.37478598 0.06256172
0.06256172 0.37478234 0.06256172
0.06256172 0.37476895 0.06256172
0.06256172 0.37473955 0.06256172
0.06256172 0.37468540 0.06256172
0.06256172 0.37459456 0.06256172
0.06256172 0.37445080 0.06256172
0.06256172 0.37423217 0.06256172
0.06256172 0.37390904 0.06256172
0.06256172 0.37344137 0.06256172
0.06256172 0.37277493 0.06256172
0.06256172 0.37183573 0.06256172
0.27314551 0.37052185 0.06256172
0.32914319 0.36869075 0.06256172
0.37072750 0.36613883 0.06256172
0.40630731 0.36256654 0.06256172
0.43869818 0.35751447 0.06256172
0.46919200 0.35023478 0.06256172
0.49848420 0.33939727 0.06256172
0.52698721 0.32227486 0.06256172
0.55496174 0.29159141 0.06256172
0.58258013 0.20525863 0.06256172
0.60995995 0.06256172 0.06256172
0.63718331 0.06256172 0.06256172
0.66430853 0.06256172 0.06256172
0.69137751 0.06256172 0.06256172
0.71842066 0.06256172 0.06256172
0.74546009 0.06256172 0.06256172
0.77251197 0.06256172 0.06256172
0.79958804 0.06256172 0.06256172
0.82669687 0.06256172 0.06256172
0.85384458 0.06256172 0.06256172
0.88103552 0.06256172 0.06256172
0.06256172 0.39953219 0.06256172
0.06256172 0.39952946 0.06256172
0.06256172 0.39951943 0.06256172
0.06256172 0.39949741 0.06256172
0.06256172 0.39945685 0.06256172
0.06256172 0.39938883 0.06256172
0.06256172 0.39928123 0.06256172
0.06256172 0.39911768 0.06256172
0.06256172 0.39887617 0.06256172
0.06256172 0.39852707 0.06256172
0.06256172 0.39803050 0.06256172
0.06256172 0.39733251 0.06256172
0.16437893 0.39635967 0.06256172
0.29774072 0.39501093 0.06256172
0.35343570 0.39314517 0.06256172
0.39532314 0.39056117 0.06256172
0.43124615 0.38696351 0.06256172
0.46394577 0.38190067 0.06256172
0.49470522 0.37464182 0.06256172
0.52422407 0.36389927 0.06256172
0.55292102 0.34707860 0.06256172
0.58106279 0.31751718 0.06256172
0.60882680 0.24282542 0.06256172
0.63633482 0.06256172 0.06256172
0.66367234 0.06256172 0.06256172
0.69090038 0.06256172 0.06256172
0.71806305 0.06256172 0.06256172
0.74519244 0.06256172 0.06256172
0.77231206 0.06256172 0.06256172
0.79943915 0.06256172 0.06256172
0.82658633 0.06256172 0.06256172
0.85376284 0.06256172 0.06256172
0.88097535 0.06256172 0.06256172
0.06256172 0.42448447 0.06256172
0.06256172 0.42448242 0.06256172
0.06256172 0.42447488 0.06256172
0.06256172 0.42445832 0.06256172
0.06256172 0.42442782 0.06256172
0.06256172 0.42437668 0.06256172
0.06256172 0.42429581 0.06256172
0.06256172 0.42417294 0.06256172
0.06256172 0.42399160 0.06256172
0.06256172 0.42372973 0.06256172
0.06256172 0.42335771 0.06256172
0.06256172 0.42283576 0.06256172
0.06256172 0.42211015 0.06256172
0.20560102 0.42110784 0.06256172
0.32240192 0.41972839 0.06256172
0.37794894 0.41783165 0.06256172
0.42013819 0.41521794 0.06256172
0.45638475 0.41159456 0.06256172
0.48937233 0.40651518 0.06256172
0.52037877 0.39926019 0.06256172
0.55010824 0.38857042 0.06256172
0.57898558 0.37194116 0.06256172
0.60728312 0.34311614 0.06256172
0.63518306 0.27475260 0.06256172
0.66281105 0.06256172 0.06256172
0.69025570 0.06256172 0.06256172
0.71758057 0.06256172 0.06256172
0.74483173 0.06256172 0.06256172
0.77204287 0.06256172 0.06256172
0.79923877 0.06256172 0.06256172
0.82643766 0.06256172 0.06256172
0.85365295 0.06256172 0.06256172
0.88089448 0.06256172 0.06256172
0.06256172 0.44963355 0.06256172
0.06256172 0.44963200 0.06256172
0.06256172 0.44962631 0.06256172
0.06256172 0.44961382 0.06256172
0.06256172 0.44959082 0.06256172
0.06256172 0.44955226 0.06256172
0.06256172 0.44949128 0.06256172
0.06256172 0.44939866 0.06256172
0.06256172 0.44926203 0.06256172
0.06256172 0.44906485 0.06256172
0.06256172 0.44878500 0.06256172
0.06256172 0.44839288 0.06256172
0.06256172 0.44784878 0.06256172
0.06256172 0.44709912 0.06256172
0.23888635 0.44607110 0.06256172
0.34715748 0.44466465 0.06256172
0.40267368 0.44274020 0.06256172
0.44516290 0.44009891 0.06256172
0.48171530 0.43644953 0.06256172
0.51497176 0.43134855 0.06256172
0.54620780 0.42408267 0.06256172
0.57613276 0.41340968 0.06256172
0.60517752 0.39688080 0.06256172
0.63361980 0.36849889 0.06256172
0.66164626 0.30381118 0.06256172
0.68938619 0.06256172 0.06256172
0.71693113 0.06256172 0.06256172
0.74434692 0.06256172 0.06256172
0.77168149 0.06256172 0.06256172
0.79896999 0.06256172 0.06256172
0.82623835 0.06256172 0.06256172
0.85350569 0.06256172 0.06256172
0.88078615 0.06256172 0.06256172
0.06256172 0.47497109 0.06256172
0.06256172 0.47496992 0.06256172
0.06256172 0.47496562 0.06256172
0.06256172 0.47495617 0.06256172
0.06256172 0.47493878 0.06256172
0.06256172 0.47490963 0.06256172
0.06256172 0.47486354 0.06256172
0.06256172 0.47479356 0.06256172
0.06256172 0.47469035 0.06256172
0.06256172 0.47454147 0.06256172
0.06256172 0.47433032 0.06256172
0.06256172 0.47403473 0.06256172
0.06256172 0.47362514 0.06256172
0.06256172 0.47306185 0.06256172
0.06256172 0.47229139 0.06256172
0.26892127 0.47124108 0.06256172
0.37202380 0.46981102 0.06256172
0.42760134 0.46786180 0.06256172
0.47038851 0.46519485 0.06256172
0.50723065 0.46151923 0.06256172
0.54073833 0.45639211 0.06256172
0.57218763 0.44910221 0.06256172
0.60229371 0.43841429 0.06256172
0.63149347 0.42190763 0.06256172
0.66006983 0.39373200 0.06256172
0.68821369 0.33109056 0.06256172
0.71605775 0.06256172 0.06256172
0.74369626 0.06256172 0.06256172
0.77119721 0.06256172 0.06256172
0.79861023 0.06256172 0.06256172
0.82597180 0.06256172 0.06256172
0.85330889 0.06256172 0.06256172
0.88064145 0.06256172 0.06256172
0.06256172 0.50048955 0.06256172
0.06256172 0.50048866 0.06256172
0.06256172 0.50048541 0.06256172
0.06256172 0.50047826 0.06256172
0.06256172 0.50046509 0.06256172
0.06256172 0.50044302 0.06256172
0.06256172 0.50040812 0.06256172
0.06256172 0.50035515 0.06256172
0.06256172 0.50027704 0.06256172
0.06256172 0.50016441 0.06256172
0.06256172 0.50000475 0.06256172
0.06256172 0.49978141 0.06256172
0.06256172 0.49947222 0.06256172
0.06256172 0.49904759 0.06256172
0.06256172 0.49846787 0.06256172
0.06256172 0.49767962 0.06256172
0.29722712 0.49661016 0.06256172
0.39700994 0.49515957 0.06256172
0.45272398 0.49318831 0.06256172
0.49580711 0.49049745 0.06256172
0.53292422 0.48679535 0.06256172
0.56666666 0.48163792 0.06256172
0.59831380 0.47431198 0.06256172
0.62858728 0.46358039 0.06256172
0.65793009 0.44702625 0.06256172
0.68663021 0.41885474 0.06256172
0.71488260 0.35710538 0.06256172
0.74282318 0.06256172 0.06256172
0.77054872 0.06256172 0.06256172
0.79812921 0.06256172 0.06256172
0.82561583 0.06256172 0.06256172
0.85304629 0.06256172 0.06256172
0.88044849 0.06256172 0.06256172
0.06256172 0.52618209 0.06256172
0.06256172 0.52618142 0.06256172
0.06256172 0.52617895 0.06256172
0.06256172 0.52617353 0.06256172
0.06256172 0.52616355 0.06256172
0.06256172 0.52614682 0.06256172
0.06256172 0.52612037 0.06256172
0.06256172 0.52608023 0.06256172
0.06256172 0.52602105 0.06256172
0.06256172 0.52593574 0.06256172
0.06256172 0.52581485 0.06256172
0.06256172 0.52564583 0.06256172
0.06256172 0.52541201 0.06256172
0.06256172 0.52509121 0.06256172
0.06256172 0.52465385 0.06256172
0.06256172 0.52406028 0.06256172
0.06256172 0.52325702 0.06256172
0.32448335 0.52217133 0.06256172
0.42212023 0.52070308 0.06256172
0.47803421 0.51871228 0.06256172
0.52141149 0.51599912 0.06256172
0.55878994 0.51227028 0.06256172
0.59275168 0.50707863 0.06256172
0.62458199 0.49970539 0.06256172
0.65500972 0.48890330 0.06256172
0.68448405 0.47223726 0.06256172
0.71329793 0.44388802 0.06256172
0.74165023 0.38211117 0.06256172
0.76967990 0.06256172 0.06256172
0.79748609 0.06256172 0.06256172
0.82514064 0.06256172 0.06256172
0.85269615 0.06256172 0.06256172
0.88019143 0.06256172 0.06256172
0.06256172 0.55204244 0.06256172
0.06256172 0.55204194 0.06256172
0.06256172 0.55204006 0.06256172
0.06256172 0.55203595 0.06256172
0.06256172 0.55202838 0.06256172
0.06256172 0.55201570 0.06256172
0.06256172 0.55199565 0.06256172
0.06256172 0.55196521 0.06256172
0.06256172 0.55192035 0.06256172
0.06256172 0.55185570 0.06256172
0.06256172 0.55176410 0.06256172
0.06256172 0.55163608 0.06256172
0.06256172 0.55145907 0.06256172
0.06256172 0.55121641 0.06256172
0.06256172 0.55088590 0.06256172
0.06256172 0.55043797 0.06256172
0.06256172 0.54983295 0.06256172
0.06256172 0.54901730 0.06256172
0.35104419 0.54791810 0.06256172
0.44735591 0.54643487 0.06256172
0.50352517 0.54442689 0.06256172
0.54719508 0.54169292 0.06256172
0.58482219 0.53793709 0.06256172
0.61898861 0.53270744 0.06256172
0.65098806 0.52527612 0.06256172
0.68155737 0.51437779 0.06256172
0.71115205 0.49753826 0.06256172
