src/ffmpeg_scripts/luts/rec2020-sRGB_0p67.cube
TITLE "rec2020-srgb_0p67"
LUT_3D_SIZE 5
# PQ (EOTF Only)/Rec2020 -> PQ (EOTF Only)/Rec709, CineEI Shift 0.67, Black Level 0.00% IRE, Input 100% -> Output 109% - Created with LUTCalc v4.01 by Ben Turley October 2020
0.06256172 0.06256172 0.06256172
0.34033709 0.06256172 0.06256172
0.57602625 0.06256172 0.06256172
0.79524176 0.06256172 0.06256172
0.91886608 0.06256172 0.06256172
0.06256172 0.31409870 0.06256172
0.31047676 0.30638902 0.06256172
0.57422498 0.06256172 0.06256172
0.79506911 0.06256172 0.06256172
0.91886608 0.06256172 0.06256172
0.06256172 0.54182918 0.06256172
0.06256172 0.54128333 0.06256172
0.53701073 0.53154245 0.06256172
0.79210141 0.06256172 0.06256172
0.91886608 0.06256172 0.06256172
0.06256172 0.75960802 0.06256172
0.06256172 0.75955421 0.06256172
0.06256172 0.75864021 0.06256172
0.75452277 0.74873171 0.06256172
0.91886608 0.06256172 0.06256172
0.06256172 0.91886608 0.06256172
0.06256172 0.91886608 0.06256172
0.06256172 0.91886608 0.06256172
0.06256172 0.91886608 0.06256172
0.91886608 0.91886608 0.06256172
0.06256172 0.06256172 0.31325903
0.33718573 0.06256172 0.31217015
0.57580481 0.06256172 0.29098373
0.79522038 0.06256172 0.06256172
0.91886608 0.06256172 0.06256172
0.06256172 0.31360503 0.30702423
0.30584375 0.30584375 0.30584375
0.57399926 0.06256172 0.28251394
0.79504768 0.06256172 0.06256172
0.91886608 0.06256172 0.06256172
0.06256172 0.54179269 0.06256172
0.06256172 0.54124662 0.06256172
0.53667495 0.53150170 0.06256172
0.79207928 0.06256172 0.06256172
0.91886608 0.06256172 0.06256172
0.06256172 0.75960442 0.06256172
0.06256172 0.75955060 0.06256172
0.06256172 0.75863656 0.06256172
0.75448953 0.74872765 0.06256172
0.91886608 0.06256172 0.06256172
0.06256172 0.91886608 0.06256172
0.06256172 0.91886608 0.06256172
0.06256172 0.91886608 0.06256172
0.06256172 0.91886608 0.06256172
0.91886608 0.91886608 0.06256172
0.06256172 0.06256172 0.54071433
0.24371262 0.06256172 0.54063403
0.57198211 0.06256172 0.53926662
0.79485824 0.06256172 0.52398753
0.91886608 0.06256172 0.06256172
0.06256172 0.30475263 0.54026849
0.06256172 0.29599257 0.54018780
0.57010101 0.06256172 0.53881381
0.79468486 0.06256172 0.52345389
0.91886608 0.06256172 0.06256172
0.06256172 0.54117390 0.53239432
0.06256172 0.54062419 0.53230653
0.53081058 0.53081058 0.53081058
0.79170450 0.06256172 0.51394031
0.91886608 0.06256172 0.06256172
0.06256172 0.75954346 0.29399928
0.06256172 0.75948961 0.29259769
0.06256172 0.75857497 0.26374697
0.75392603 0.74865912 0.06256172
0.91886608 0.06256172 0.06256172
0.06256172 0.91886608 0.06256172
0.06256172 0.91886608 0.06256172
0.06256172 0.91886608 0.06256172
0.06256172 0.91886608 0.06256172
0.91886608 0.91886608 0.06256172
0.06256172 0.06256172 0.75843290
0.06256172 0.06256172 0.75842496
0.51998712 0.06256172 0.75829070
0.79106829 0.06256172 0.75690562
0.91886608 0.06256172 0.74159167
0.06256172 0.06256172 0.75838890
0.06256172 0.06256172 0.75838095
0.51668353 0.06256172 0.75824662
0.79088759 0.06256172 0.75686088
0.91886608 0.06256172 0.74153893
0.06256172 0.53459521 0.75764215
0.06256172 0.53400528 0.75763414
0.42808690 0.52342779 0.75749873
0.78777926 0.06256172 0.75610170
0.91886608 0.06256172 0.74064324
0.06256172 0.75891742 0.74963527
0.06256172 0.75886320 0.74962654
0.06256172 0.75794233 0.74947894
0.74795501 0.74795501 0.74795501
0.91886608 0.06256172 0.73094781
0.06256172 0.91886608 0.53279204
0.06256172 0.91886608 0.53270463
0.06256172 0.91886608 0.53121510
0.06256172 0.91886608 0.51442505
0.91886608 0.91886608 0.06256172
0.06256172 0.06256172 0.91886608
0.06256172 0.06256172 0.91886608
0.06256172 0.06256172 0.91886608
0.74013255 0.06256172 0.91886608
0.91886608 0.06256172 0.91886608
0.06256172 0.06256172 0.91886608
0.06256172 0.06256172 0.91886608
0.06256172 0.06256172 0.91886608
0.73981912 0.06256172 0.91886608
0.91886608 0.06256172 0.91886608
0.06256172 0.40723390 0.91886608
0.06256172 0.40480785 0.91886608
0.06256172 0.34790426 0.91886608
0.73435739 0.06256172 0.91886608
0.91886608 0.06256172 0.91886608
0.06256172 0.75233366 0.91886608
0.06256172 0.75227546 0.91886608
0.06256172 0.75128657 0.91886608
0.64524897 0.74051430 0.91886608
0.91886608 0.06256172 0.91886608
0.06256172 0.91886608 0.91886608
0.06256172 0.91886608 0.91886608
0.06256172 0.91886608 0.91886608
0.06256172 0.91886608 0.91886608
0.91886608 0.91886608 0.91886608
