src/ffmpeg_scripts/luts/rec2020-sRGB_-1p67.cube
TITLE "rec2020-srgb_-1p67"
LUT_3D_SIZE 33
# PQ (EOTF Only)/Rec2020 -> PQ (EOTF Only)/Rec709, CineEI Shift -1.67, Black Level 0.00% IRE, Input 100% -> Output 109% - Created with LUTCalc v4.01 by Ben Turley October 2020
0.06256172 0.06256172 0.06256172
0.08208245 0.06256172 0.06256172
0.10295918 0.06256172 0.06256172
0.12458776 0.06256172 0.06256172
0.14677051 0.06256172 0.06256172
0.16940106 0.06256172 0.06256172
0.19241136 0.06256172 0.06256172
0.21575359 0.06256172 0.06256172
0.23939205 0.06256172 0.06256172
0.26329890 0.06256172 0.06256172
0.28745176 0.06256172 0.06256172
0.31183217 0.06256172 0.06256172
0.33642464 0.06256172 0.06256172
0.36121592 0.06256172 0.06256172
0.38619456 0.06256172 0.06256172
0.41135055 0.06256172 0.06256172
0.43667503 0.06256172 0.06256172
0.46216014 0.06256172 0.06256172
0.48779880 0.06256172 0.06256172
0.51358462 0.06256172 0.06256172
0.53951183 0.06256172 0.06256172
0.56557513 0.06256172 0.06256172
0.59176969 0.06256172 0.06256172
0.61809103 0.06256172 0.06256172
0.64453504 0.06256172 0.06256172
0.67109790 0.06256172 0.06256172
0.69777606 0.06256172 0.06256172
0.72456620 0.06256172 0.06256172
0.75146523 0.06256172 0.06256172
0.77847024 0.06256172 0.06256172
0.80557850 0.06256172 0.06256172
0.83278744 0.06256172 0.06256172
0.86009464 0.06256172 0.06256172
0.06256172 0.07866779 0.06256172
0.07822697 0.07773814 0.06256172
0.10156262 0.07363757 0.06256172
0.12387507 0.06256172 0.06256172
0.14635616 0.06256172 0.06256172
0.16914195 0.06256172 0.06256172
0.19224149 0.06256172 0.06256172
0.21563847 0.06256172 0.06256172
0.23931209 0.06256172 0.06256172
0.26324230 0.06256172 0.06256172
0.28741110 0.06256172 0.06256172
0.31180261 0.06256172 0.06256172
0.33640295 0.06256172 0.06256172
0.36119987 0.06256172 0.06256172
0.38618262 0.06256172 0.06256172
0.41134162 0.06256172 0.06256172
0.43666833 0.06256172 0.06256172
0.46215509 0.06256172 0.06256172
0.48779498 0.06256172 0.06256172
0.51358174 0.06256172 0.06256172
0.53950965 0.06256172 0.06256172
0.56557348 0.06256172 0.06256172
0.59176843 0.06256172 0.06256172
0.61809008 0.06256172 0.06256172
0.64453432 0.06256172 0.06256172
0.67109736 0.06256172 0.06256172
0.69777565 0.06256172 0.06256172
0.72456589 0.06256172 0.06256172
0.75146500 0.06256172 0.06256172
0.77847007 0.06256172 0.06256172
0.80557837 0.06256172 0.06256172
0.83278735 0.06256172 0.06256172
0.86009457 0.06256172 0.06256172
0.06256172 0.09654685 0.06256172
0.06256172 0.09617744 0.06256172
0.09570666 0.09477140 0.06256172
0.12113220 0.09136155 0.06256172
0.14480029 0.08320507 0.06256172
0.16817876 0.06256172 0.06256172
0.19161313 0.06256172 0.06256172
0.21521373 0.06256172 0.06256172
0.23901751 0.06256172 0.06256172
0.26303398 0.06256172 0.06256172
0.28726153 0.06256172 0.06256172
0.31169394 0.06256172 0.06256172
0.33632321 0.06256172 0.06256172
0.36114092 0.06256172 0.06256172
0.38613876 0.06256172 0.06256172
0.41130882 0.06256172 0.06256172
0.43664370 0.06256172 0.06256172
0.46213654 0.06256172 0.06256172
0.48778098 0.06256172 0.06256172
0.51357115 0.06256172 0.06256172
0.53950163 0.06256172 0.06256172
0.56556741 0.06256172 0.06256172
0.59176384 0.06256172 0.06256172
0.61808660 0.06256172 0.06256172
0.64453169 0.06256172 0.06256172
0.67109537 0.06256172 0.06256172
0.69777415 0.06256172 0.06256172
0.72456477 0.06256172 0.06256172
0.75146416 0.06256172 0.06256172
0.77846944 0.06256172 0.06256172
0.80557790 0.06256172 0.06256172
0.83278700 0.06256172 0.06256172
0.86009431 0.06256172 0.06256172
0.06256172 0.11545595 0.06256172
0.06256172 0.11526211 0.06256172
0.07017642 0.11454032 0.06256172
0.11424744 0.11289866 0.06256172
0.14117953 0.10964189 0.06256172
0.16599844 0.10327330 0.06256172
0.19020891 0.08860124 0.06256172
0.21427098 0.06256172 0.06256172
0.23836620 0.06256172 0.06256172
0.26257447 0.06256172 0.06256172
0.28693212 0.06256172 0.06256172
0.31145481 0.06256172 0.06256172
0.33614789 0.06256172 0.06256172
0.36101135 0.06256172 0.06256172
0.38604239 0.06256172 0.06256172
0.41123677 0.06256172 0.06256172
0.43658962 0.06256172 0.06256172
0.46209581 0.06256172 0.06256172
0.48775023 0.06256172 0.06256172
0.51354790 0.06256172 0.06256172
0.53948403 0.06256172 0.06256172
0.56555408 0.06256172 0.06256172
0.59175374 0.06256172 0.06256172
0.61807896 0.06256172 0.06256172
0.64452591 0.06256172 0.06256172
0.67109101 0.06256172 0.06256172
0.69777087 0.06256172 0.06256172
0.72456230 0.06256172 0.06256172
0.75146230 0.06256172 0.06256172
0.77846805 0.06256172 0.06256172
0.80557687 0.06256172 0.06256172
0.83278624 0.06256172 0.06256172
0.86009375 0.06256172 0.06256172
0.06256172 0.13514209 0.06256172
0.06256172 0.13502749 0.06256172
0.06256172 0.13460378 0.06256172
0.09548832 0.13365789 0.06256172
0.13359130 0.13185703 0.06256172
0.16172146 0.12864355 0.06256172
0.18752981 0.12294848 0.06256172
0.21249738 0.11211756 0.06256172
0.23715047 0.08070098 0.06256172
0.26172079 0.06256172 0.06256172
0.28632192 0.06256172 0.06256172
0.31101271 0.06256172 0.06256172
0.33582417 0.06256172 0.06256172
0.36077232 0.06256172 0.06256172
0.38586470 0.06256172 0.06256172
0.41110398 0.06256172 0.06256172
0.43648996 0.06256172 0.06256172
0.46202078 0.06256172 0.06256172
0.48769361 0.06256172 0.06256172
0.51350509 0.06256172 0.06256172
0.53945163 0.06256172 0.06256172
0.56552954 0.06256172 0.06256172
0.59173516 0.06256172 0.06256172
0.61806489 0.06256172 0.06256172
0.64451528 0.06256172 0.06256172
0.67108298 0.06256172 0.06256172
0.69776482 0.06256172 0.06256172
0.72455775 0.06256172 0.06256172
0.75145889 0.06256172 0.06256172
0.77846551 0.06256172 0.06256172
0.80557498 0.06256172 0.06256172
0.83278483 0.06256172 0.06256172
0.86009271 0.06256172 0.06256172
0.06256172 0.15546671 0.06256172
0.06256172 0.15539417 0.06256172
0.06256172 0.15512672 0.06256172
0.06256172 0.15453422 0.06256172
0.11628289 0.15342385 0.06256172
0.15359665 0.15150185 0.06256172
0.18273114 0.14829227 0.06256172
0.20940551 0.14294162 0.06256172
0.23506167 0.13362073 0.06256172
0.26026642 0.11454081 0.06256172
0.28528781 0.06256172 0.06256172
0.31026599 0.06256172 0.06256172
0.33527863 0.06256172 0.06256172
0.36037011 0.06256172 0.06256172
0.38556604 0.06256172 0.06256172
0.41088095 0.06256172 0.06256172
0.43632268 0.06256172 0.06256172
0.46189488 0.06256172 0.06256172
0.48759861 0.06256172 0.06256172
0.51343328 0.06256172 0.06256172
0.53939728 0.06256172 0.06256172
0.56548839 0.06256172 0.06256172
0.59170400 0.06256172 0.06256172
0.61804131 0.06256172 0.06256172
0.64449745 0.06256172 0.06256172
0.67106952 0.06256172 0.06256172
0.69775467 0.06256172 0.06256172
0.72455012 0.06256172 0.06256172
0.75145318 0.06256172 0.06256172
0.77846124 0.06256172 0.06256172
0.80557180 0.06256172 0.06256172
0.83278248 0.06256172 0.06256172
0.86009098 0.06256172 0.06256172
0.06256172 0.17634013 0.06256172
0.06256172 0.17629209 0.06256172
0.06256172 0.17611526 0.06256172
0.06256172 0.17572497 0.06256172
0.06256172 0.17499898 0.06256172
0.13687934 0.17375941 0.06256172
0.17417166 0.17173912 0.06256172
0.20417627 0.16851574 0.06256172
0.23162029 0.16336427 0.06256172
0.25790518 0.15485779 0.06256172
0.28362369 0.13935270 0.06256172
0.30907111 0.09536111 0.06256172
0.33440889 0.06256172 0.06256172
0.35973049 0.06256172 0.06256172
0.38509191 0.06256172 0.06256172
0.41052733 0.06256172 0.06256172
0.43605767 0.06256172 0.06256172
0.46169556 0.06256172 0.06256172
0.48744828 0.06256172 0.06256172
0.51331968 0.06256172 0.06256172
0.53931134 0.06256172 0.06256172
0.56542332 0.06256172 0.06256172
0.59165474 0.06256172 0.06256172
0.61800403 0.06256172 0.06256172
0.64446926 0.06256172 0.06256172
0.67104824 0.06256172 0.06256172
0.69773864 0.06256172 0.06256172
0.72453807 0.06256172 0.06256172
0.75144415 0.06256172 0.06256172
0.77845449 0.06256172 0.06256172
0.80556678 0.06256172 0.06256172
0.83277875 0.06256172 0.06256172
0.86008823 0.06256172 0.06256172
0.06256172 0.19769866 0.06256172
0.06256172 0.19766583 0.06256172
0.06256172 0.19754506 0.06256172
0.06256172 0.19727903 0.06256172
0.06256172 0.19678616 0.06256172
0.06256172 0.19595060 0.06256172
0.15772364 0.19460520 0.06256172
0.19525103 0.19250191 0.06256172
0.22602666 0.18925576 0.06256172
0.25416316 0.18422598 0.06256172
0.28102485 0.17621986 0.06256172
0.30722197 0.16253241 0.06256172
0.33307085 0.13348539 0.06256172
0.35875035 0.06256172 0.06256172
0.38436733 0.06256172 0.06256172
0.40998794 0.06256172 0.06256172
0.43565400 0.06256172 0.06256172
0.46139223 0.06256172 0.06256172
0.48721968 0.06256172 0.06256172
0.51314703 0.06256172 0.06256172
0.53918076 0.06256172 0.06256172
0.56532450 0.06256172 0.06256172
0.59157993 0.06256172 0.06256172
0.61794743 0.06256172 0.06256172
0.64442648 0.06256172 0.06256172
0.67101595 0.06256172 0.06256172
0.69771431 0.06256172 0.06256172
0.72451978 0.06256172 0.06256172
0.75143044 0.06256172 0.06256172
0.77844425 0.06256172 0.06256172
0.80555915 0.06256172 0.06256172
0.83277310 0.06256172 0.06256172
0.86008406 0.06256172 0.06256172
0.06256172 0.21949435 0.06256172
0.06256172 0.21947137 0.06256172
0.06256172 0.21938689 0.06256172
0.06256172 0.21920103 0.06256172
0.06256172 0.21885746 0.06256172
0.06256172 0.21827736 0.06256172
0.11100142 0.21734959 0.06256172
0.17891695 0.21591500 0.06256172
0.21678555 0.21373970 0.06256172
0.24825560 0.21046588 0.06256172
0.27702131 0.20551142 0.06256172
0.30441461 0.19783422 0.06256172
0.33105812 0.18524370 0.06256172
0.35728496 0.16137146 0.06256172
0.38328852 0.06256172 0.06256172
0.40918717 0.06256172 0.06256172
0.43505593 0.06256172 0.06256172
0.46094350 0.06256172 0.06256172
0.48688184 0.06256172 0.06256172
0.51289207 0.06256172 0.06256172
0.53898805 0.06256172 0.06256172
0.56517871 0.06256172 0.06256172
0.59146961 0.06256172 0.06256172
0.61786398 0.06256172 0.06256172
0.64436341 0.06256172 0.06256172
0.67096835 0.06256172 0.06256172
0.69767845 0.06256172 0.06256172
0.72449283 0.06256172 0.06256172
0.75141024 0.06256172 0.06256172
0.77842916 0.06256172 0.06256172
0.80554792 0.06256172 0.06256172
0.83276478 0.06256172 0.06256172
0.86007793 0.06256172 0.06256172
0.06256172 0.24168954 0.06256172
0.06256172 0.24167317 0.06256172
0.06256172 0.24161299 0.06256172
0.06256172 0.24148067 0.06256172
0.06256172 0.24123644 0.06256172
0.06256172 0.24082507 0.06256172
0.06256172 0.24016979 0.06256172
0.13963484 0.23916303 0.06256172
0.20047931 0.23765173 0.06256172
0.23873654 0.23541274 0.06256172
0.27083976 0.23210850 0.06256172
0.30018174 0.22719924 0.06256172
0.32806700 0.21974602 0.06256172
0.35512748 0.20787589 0.06256172
0.38171009 0.18676598 0.06256172
0.40802057 0.12994143 0.06256172
0.43418728 0.06256172 0.06256172
0.46029315 0.06256172 0.06256172
0.48639298 0.06256172 0.06256172
0.51252357 0.06256172 0.06256172
0.53870974 0.06256172 0.06256172
0.56496830 0.06256172 0.06256172
0.59131047 0.06256172 0.06256172
0.61774364 0.06256172 0.06256172
0.64427248 0.06256172 0.06256172
0.67089973 0.06256172 0.06256172
0.69762677 0.06256172 0.06256172
0.72445399 0.06256172 0.06256172
0.75138113 0.06256172 0.06256172
0.77840741 0.06256172 0.06256172
0.80553174 0.06256172 0.06256172
0.83275279 0.06256172 0.06256172
0.86006908 0.06256172 0.06256172
0.06256172 0.26425376 0.06256172
0.06256172 0.26424193 0.06256172
0.06256172 0.26419844 0.06256172
0.06256172 0.26410287 0.06256172
0.06256172 0.26392661 0.06256172
0.06256172 0.26363020 0.06256172
0.06256172 0.26315923 0.06256172
0.06256172 0.26243851 0.06256172
0.16476915 0.26136319 0.06256172
0.22240600 0.25978492 0.06256172
0.26107265 0.25748878 0.06256172
0.29375874 0.25415252 0.06256172
0.32363195 0.24926776 0.06256172
0.35197408 0.24196896 0.06256172
0.37942460 0.23059397 0.06256172
0.40634211 0.21119188 0.06256172
0.43294302 0.16808452 0.06256172
0.45936450 0.06256172 0.06256172
0.48569651 0.06256172 0.06256172
0.51199942 0.06256172 0.06256172
0.53831437 0.06256172 0.06256172
0.56466965 0.06256172 0.06256172
0.59108474 0.06256172 0.06256172
0.61757304 0.06256172 0.06256172
0.64414362 0.06256172 0.06256172
0.67080252 0.06256172 0.06256172
0.69755356 0.06256172 0.06256172
0.72439899 0.06256172 0.06256172
0.75133991 0.06256172 0.06256172
0.77837663 0.06256172 0.06256172
0.80550883 0.06256172 0.06256172
0.83273581 0.06256172 0.06256172
0.86005656 0.06256172 0.06256172
0.06256172 0.28716174 0.06256172
0.06256172 0.28715309 0.06256172
0.06256172 0.28712131 0.06256172
0.06256172 0.28705148 0.06256172
0.06256172 0.28692277 0.06256172
0.06256172 0.28670653 0.06256172
0.06256172 0.28636351 0.06256172
0.06256172 0.28583995 0.06256172
0.06256172 0.28506183 0.06256172
0.18879920 0.28392645 0.06256172
0.24468417 0.28228905 0.06256172
0.28376788 0.27994105 0.06256172
0.31699465 0.27657188 0.06256172
0.34736012 0.27169664 0.06256172
0.37612781 0.26450330 0.06256172
0.40394367 0.25347605 0.06256172
0.43117646 0.23520883 0.06256172
0.45805201 0.19828935 0.06256172
0.48471535 0.06256172 0.06256172
0.51126276 0.06256172 0.06256172
0.53775965 0.06256172 0.06256172
0.56425116 0.06256172 0.06256172
0.59076873 0.06256172 0.06256172
0.61733436 0.06256172 0.06256172
0.64396345 0.06256172 0.06256172
0.67066666 0.06256172 0.06256172
0.69745128 0.06256172 0.06256172
0.72432215 0.06256172 0.06256172
0.75128234 0.06256172 0.06256172
0.77833363 0.06256172 0.06256172
0.80547684 0.06256172 0.06256172
0.83271211 0.06256172 0.06256172
0.86003908 0.06256172 0.06256172
0.06256172 0.31039213 0.06256172
0.06256172 0.31038575 0.06256172
0.06256172 0.31036231 0.06256172
0.06256172 0.31031081 0.06256172
0.06256172 0.31021594 0.06256172
0.06256172 0.31005664 0.06256172
0.06256172 0.30980424 0.06256172
0.06256172 0.30941963 0.06256172
0.06256172 0.30884951 0.06256172
0.06256172 0.30802080 0.06256172
0.21242976 0.30683241 0.06256172
0.26729863 0.30514236 0.06256172
0.30680024 0.30274690 0.06256172
0.34053166 0.29934431 0.06256172
0.37135528 0.29446732 0.06256172
0.40052032 0.28734331 0.06256172
0.42867874 0.27656071 0.06256172
0.45620837 0.25907518 0.06256172
0.48334346 0.22572015 0.06256172
0.51023615 0.06256172 0.06256172
0.53698847 0.06256172 0.06256172
0.56367040 0.06256172 0.06256172
0.59033076 0.06256172 0.06256172
0.61700391 0.06256172 0.06256172
0.64371418 0.06256172 0.06256172
0.67047879 0.06256172 0.06256172
0.69730990 0.06256172 0.06256172
0.72421598 0.06256172 0.06256172
0.75120282 0.06256172 0.06256172
0.77827425 0.06256172 0.06256172
0.80543266 0.06256172 0.06256172
0.83267938 0.06256172 0.06256172
0.86001495 0.06256172 0.06256172
0.06256172 0.33392663 0.06256172
0.06256172 0.33392188 0.06256172
0.06256172 0.33390446 0.06256172
0.06256172 0.33386621 0.06256172
0.06256172 0.33379574 0.06256172
0.06256172 0.33367748 0.06256172
0.06256172 0.33349024 0.06256172
0.06256172 0.33320525 0.06256172
0.06256172 0.33278355 0.06256172
0.06256172 0.33217216 0.06256172
0.06256172 0.33129870 0.06256172
0.23595104 0.33006329 0.06256172
0.29023409 0.32832605 0.06256172
0.33015086 0.32588685 0.06256172
0.36435571 0.32245059 0.06256172
0.39560723 0.31756307 0.06256172
0.42514402 0.31048063 0.06256172
0.45362389 0.29986667 0.06256172
0.48143295 0.28292541 0.06256172
0.50881318 0.25183234 0.06256172
0.53592315 0.14296798 0.06256172
0.56287013 0.06256172 0.06256172
0.58972836 0.06256172 0.06256172
0.61655001 0.06256172 0.06256172
0.64337213 0.06256172 0.06256172
0.67022120 0.06256172 0.06256172
0.69711616 0.06256172 0.06256172
0.72407055 0.06256172 0.06256172
0.75109393 0.06256172 0.06256172
0.77819296 0.06256172 0.06256172
0.80537220 0.06256172 0.06256172
0.83263459 0.06256172 0.06256172
0.85998192 0.06256172 0.06256172
0.06256172 0.35774930 0.06256172
0.06256172 0.35774576 0.06256172
0.06256172 0.35773274 0.06256172
0.06256172 0.35770414 0.06256172
0.06256172 0.35765148 0.06256172
0.06256172 0.35756314 0.06256172
0.06256172 0.35742334 0.06256172
0.06256172 0.35721074 0.06256172
0.06256172 0.35689652 0.06256172
0.06256172 0.35644178 0.06256172
0.06256172 0.35579379 0.06256172
0.06256172 0.35488067 0.06256172
0.25950277 0.35360343 0.06256172
0.31347598 0.35182371 0.06256172
0.35380333 0.34934398 0.06256172
0.38845420 0.34587393 0.06256172
0.42010652 0.34096881 0.06256172
0.44999163 0.33390579 0.06256172
0.47877327 0.32340191 0.06256172
0.50684534 0.30683443 0.06256172
0.53445690 0.27723608 0.06256172
0.56177249 0.19469249 0.06256172
0.58890420 0.06256172 0.06256172
0.61593018 0.06256172 0.06256172
0.64290569 0.06256172 0.06256172
0.66987030 0.06256172 0.06256172
0.69685247 0.06256172 0.06256172
0.72387273 0.06256172 0.06256172
0.75094587 0.06256172 0.06256172
0.77808247 0.06256172 0.06256172
0.80529003 0.06256172 0.06256172
0.83257373 0.06256172 0.06256172
0.85993706 0.06256172 0.06256172
0.06256172 0.38184618 0.06256172
0.06256172 0.38184351 0.06256172
0.06256172 0.38183374 0.06256172
0.06256172 0.38181226 0.06256172
0.06256172 0.38177272 0.06256172
0.06256172 0.38170640 0.06256172
0.06256172 0.38160149 0.06256172
0.06256172 0.38144204 0.06256172
0.06256172 0.38120657 0.06256172
0.06256172 0.38086623 0.06256172
0.06256172 0.38038213 0.06256172
0.06256172 0.37970172 0.06256172
0.15608861 0.37875345 0.06256172
0.28315818 0.37743893 0.06256172
0.33701071 0.37562083 0.06256172
0.37774321 0.37310338 0.06256172
0.41281578 0.36959951 0.06256172
0.44484439 0.36467090 0.06256172
0.47505623 0.35760910 0.06256172
0.50412123 0.34716836 0.06256172
0.53244071 0.33084540 0.06256172
0.56027039 0.30223721 0.06256172
0.58778032 0.23046235 0.06256172
0.61508711 0.06256172 0.06256172
0.64227249 0.06256172 0.06256172
0.66939463 0.06256172 0.06256172
0.69649539 0.06256172 0.06256172
0.72360506 0.06256172 0.06256172
0.75074566 0.06256172 0.06256172
0.77793314 0.06256172 0.06256172
0.80517902 0.06256172 0.06256172
0.83249154 0.06256172 0.06256172
0.85987647 0.06256172 0.06256172
0.06256172 0.40620485 0.06256172
0.06256172 0.40620285 0.06256172
0.06256172 0.40619547 0.06256172
0.06256172 0.40617929 0.06256172
0.06256172 0.40614948 0.06256172
0.06256172 0.40609950 0.06256172
0.06256172 0.40602046 0.06256172
0.06256172 0.40590037 0.06256172
0.06256172 0.40572314 0.06256172
0.06256172 0.40546720 0.06256172
0.06256172 0.40510362 0.06256172
0.06256172 0.40459354 0.06256172
0.06256172 0.40388447 0.06256172
0.19501732 0.40290509 0.06256172
0.30695725 0.40155735 0.06256172
0.36082577 0.39970450 0.06256172
0.40195771 0.39715183 0.06256172
0.43743018 0.39361415 0.06256172
0.46981270 0.38865702 0.06256172
0.50033122 0.38158098 0.06256172
0.52966225 0.37116437 0.06256172
0.55821431 0.35498317 0.06256172
0.58624941 0.32700479 0.06256172
0.61394280 0.26104586 0.06256172
0.64141529 0.06256172 0.06256172
0.66875195 0.06256172 0.06256172
0.69601364 0.06256172 0.06256172
0.72324434 0.06256172 0.06256172
0.75047607 0.06256172 0.06256172
0.77773218 0.06256172 0.06256172
0.80502970 0.06256172 0.06256172
0.83238101 0.06256172 0.06256172
0.85979503 0.06256172 0.06256172
0.06256172 0.43081425 0.06256172
0.06256172 0.43081273 0.06256172
0.06256172 0.43080716 0.06256172
0.06256172 0.43079492 0.06256172
0.06256172 0.43077239 0.06256172
0.06256172 0.43073461 0.06256172
0.06256172 0.43067487 0.06256172
0.06256172 0.43058413 0.06256172
0.06256172 0.43045029 0.06256172
0.06256172 0.43025713 0.06256172
0.06256172 0.42998298 0.06256172
0.06256172 0.42959887 0.06256172
0.06256172 0.42906590 0.06256172
0.06256172 0.42833163 0.06256172
0.22670014 0.42732478 0.06256172
0.33092187 0.42594747 0.06256172
0.38490963 0.42406315 0.06256172
0.42643538 0.42147749 0.06256172
0.46228802 0.41790601 0.06256172
0.49500386 0.41291593 0.06256172
0.52581033 0.40581214 0.06256172
0.55539100 0.39538618 0.06256172
0.58416146 0.37926141 0.06256172
0.61238977 0.35163725 0.06256172
0.64025610 0.28900922 0.06256172
0.66788516 0.06256172 0.06256172
0.69536519 0.06256172 0.06256172
0.72275953 0.06256172 0.06256172
0.75011415 0.06256172 0.06256172
0.77746261 0.06256172 0.06256172
0.80482953 0.06256172 0.06256172
0.83223293 0.06256172 0.06256172
0.85968595 0.06256172 0.06256172
0.06256172 0.45566438 0.06256172
0.06256172 0.45566323 0.06256172
0.06256172 0.45565901 0.06256172
0.06256172 0.45564974 0.06256172
0.06256172 0.45563267 0.06256172
0.06256172 0.45560404 0.06256172
0.06256172 0.45555879 0.06256172
0.06256172 0.45549008 0.06256172
0.06256172 0.45538875 0.06256172
0.06256172 0.45524258 0.06256172
0.06256172 0.45503526 0.06256172
0.06256172 0.45474507 0.06256172
0.06256172 0.45434295 0.06256172
0.06256172 0.45378997 0.06256172
0.06256172 0.45303365 0.06256172
0.25544849 0.45200269 0.06256172
0.35506351 0.45059913 0.06256172
0.40925171 0.44868632 0.06256172
0.45116590 0.44606969 0.06256172
0.48738074 0.44246443 0.06256172
0.52041080 0.43743739 0.06256172
0.55148761 0.43029372 0.06256172
0.58130233 0.41982869 0.06256172
0.61027762 0.40368658 0.06256172
0.63868737 0.37619263 0.06256172
0.66671641 0.31536008 0.06256172
0.69449320 0.06256172 0.06256172
0.72210890 0.06256172 0.06256172
0.74962916 0.06256172 0.06256172
0.77710180 0.06256172 0.06256172
0.80456184 0.06256172 0.06256172
0.83203501 0.06256172 0.06256172
0.85954024 0.06256172 0.06256172
0.06256172 0.48074622 0.06256172
0.06256172 0.48074535 0.06256172
0.06256172 0.48074215 0.06256172
0.06256172 0.48073511 0.06256172
0.06256172 0.48072216 0.06256172
0.06256172 0.48070044 0.06256172
0.06256172 0.48066611 0.06256172
0.06256172 0.48061398 0.06256172
0.06256172 0.48053713 0.06256172
0.06256172 0.48042632 0.06256172
0.06256172 0.48026923 0.06256172
0.06256172 0.48004949 0.06256172
0.06256172 0.47974529 0.06256172
0.06256172 0.47932753 0.06256172
0.06256172 0.47875721 0.06256172
0.06256172 0.47798178 0.06256172
0.28266336 0.47692981 0.06256172
0.37938728 0.47550307 0.06256172
0.43384226 0.47356451 0.06256172
0.47613994 0.47091877 0.06256172
0.51270046 0.46727972 0.06256172
0.54602690 0.46221200 0.06256172
0.57735739 0.45501726 0.06256172
0.60739128 0.44448599 0.06256172
0.63655834 0.42826026 0.06256172
0.66513812 0.40070387 0.06256172
0.69331998 0.34057174 0.06256172
0.72123588 0.06256172 0.06256172
0.74897974 0.06256172 0.06256172
0.77661940 0.06256172 0.06256172
0.80420434 0.06256172 0.06256172
0.83177093 0.06256172 0.06256172
0.85934594 0.06256172 0.06256172
0.06256172 0.50605154 0.06256172
0.06256172 0.50605088 0.06256172
0.06256172 0.50604844 0.06256172
0.06256172 0.50604310 0.06256172
0.06256172 0.50603326 0.06256172
0.06256172 0.50601676 0.06256172
0.06256172 0.50599069 0.06256172
0.06256172 0.50595111 0.06256172
0.06256172 0.50589277 0.06256172
0.06256172 0.50580866 0.06256172
0.06256172 0.50568948 0.06256172
0.06256172 0.50552284 0.06256172
0.06256172 0.50529232 0.06256172
0.06256172 0.50497607 0.06256172
0.06256172 0.50454491 0.06256172
0.06256172 0.50395977 0.06256172
0.06256172 0.50316798 0.06256172
0.30896938 0.50209786 0.06256172
0.40389432 0.50065082 0.06256172
0.45867227 0.49868904 0.06256172
0.50134898 0.49601591 0.06256172
0.53823989 0.49234303 0.06256172
0.57184593 0.48723108 0.06256172
0.60341424 0.47997470 0.06256172
0.63365303 0.46935163 0.06256172
0.66299924 0.45298051 0.06256172
0.69173804 0.42518700 0.06256172
0.72006309 0.36487577 0.06256172
0.74810972 0.06256172 0.06256172
0.77597444 0.06256172 0.06256172
0.80372712 0.06256172 0.06256172
0.83141881 0.06256172 0.06256172
0.85908709 0.06256172 0.06256172
0.06256172 0.53157279 0.06256172
0.06256172 0.53157229 0.06256172
0.06256172 0.53157044 0.06256172
0.06256172 0.53156638 0.06256172
0.06256172 0.53155890 0.06256172
0.06256172 0.53154637 0.06256172
0.06256172 0.53152657 0.06256172
0.06256172 0.53149650 0.06256172
0.06256172 0.53145219 0.06256172
0.06256172 0.53138832 0.06256172
0.06256172 0.53129783 0.06256172
0.06256172 0.53117137 0.06256172
0.06256172 0.53099653 0.06256172
0.06256172 0.53075682 0.06256172
0.06256172 0.53043036 0.06256172
0.06256172 0.52998792 0.06256172
0.06256172 0.52939034 0.06256172
0.06256172 0.52858476 0.06256172
0.33469082 0.52749922 0.06256172
0.42858315 0.52603455 0.06256172
0.48373340 0.52405195 0.06256172
0.52678522 0.52135303 0.06256172
0.56399231 0.51764623 0.06256172
0.59786205 0.51248662 0.06256172
0.62965300 0.50515835 0.06256172
0.66008293 0.49441878 0.06256172
0.68959608 0.47784273 0.06256172
