src/ffmpeg_scripts/luts/rec2020-sRGB_1p33.cube
TITLE "rec2020-srgb_1p33"
LUT_3D_SIZE 9
# PQ (EOTF Only)/Rec2020 -> PQ (EOTF Only)/Rec709, CineEI Shift 1.33, Black Level 0.00% IRE, Input 100% -> Output 109% - Created with LUTCalc v4.01 by Ben Turley October 2020
0.06256172 0.06256172 0.06256172
0.23502496 0.06256172 0.06256172
0.37387520 0.06256172 0.06256172
0.50000108 0.06256172 0.06256172
0.61809038 0.06256172 0.06256172
0.73034452 0.06256172 0.06256172
0.83804387 0.06256172 0.06256172
0.91886608 0.06256172 0.06256172
0.91886608 0.06256172 0.06256172
0.06256172 0.21545597 0.06256172
0.21279390 0.20980117 0.06256172
0.37077488 0.11050525 0.06256172
0.49926152 0.06256172 0.06256172
0.61788111 0.06256172 0.06256172
0.73028094 0.06256172 0.06256172
0.83802417 0.06256172 0.06256172
0.91886608 0.06256172 0.06256172
0.91886608 0.06256172 0.06256172
0.06256172 0.34598667 0.06256172
0.06256172 0.34507972 0.06256172
0.34212281 0.33775774 0.06256172
0.49337586 0.29577353 0.06256172
0.61625858 0.06256172 0.06256172
0.72979131 0.06256172 0.06256172
0.83787271 0.06256172 0.06256172
0.91886608 0.06256172 0.06256172
0.91886608 0.06256172 0.06256172
0.06256172 0.46752266 0.06256172
0.06256172 0.46729982 0.06256172
0.06256172 0.46557027 0.06256172
0.46297164 0.45781456 0.06256172
0.60902199 0.42392050 0.06256172
0.72767778 0.06256172 0.06256172
0.83722509 0.06256172 0.06256172
0.91886608 0.06256172 0.06256172
0.91886608 0.06256172 0.06256172
0.06256172 0.58323532 0.06256172
0.06256172 0.58317122 0.06256172
0.06256172 0.58267759 0.06256172
0.06256172 0.58054681 0.06256172
0.57831055 0.57271741 0.06256172
0.71991232 0.54208020 0.06256172
0.83493025 0.06256172 0.06256172
0.91886608 0.06256172 0.06256172
0.91886608 0.06256172 0.06256172
0.06256172 0.69464660 0.06256172
0.06256172 0.69462689 0.06256172
0.06256172 0.69447543 0.06256172
0.06256172 0.69382793 0.06256172
0.06256172 0.69153513 0.06256172
0.68956940 0.68379282 0.06256172
0.82716201 0.65460385 0.06256172
0.91886608 0.06256172 0.06256172
0.91886608 0.06256172 0.06256172
0.06256172 0.80265529 0.06256172
0.06256172 0.80264912 0.06256172
0.06256172 0.80260175 0.06256172
0.06256172 0.80239982 0.06256172
0.06256172 0.80169233 0.06256172
0.06256172 0.79938906 0.06256172
0.79759445 0.79182789 0.06256172
0.91886608 0.76303953 0.06256172
0.91886608 0.06256172 0.06256172
0.06256172 0.90785515 0.06256172
0.06256172 0.90785326 0.06256172
0.06256172 0.90783869 0.06256172
0.06256172 0.90777663 0.06256172
0.06256172 0.90755995 0.06256172
0.06256172 0.90686236 0.06256172
0.06256172 0.90465524 0.06256172
0.90294572 0.89734452 0.06256172
0.91886608 0.86809472 0.06256172
0.06256172 0.91886608 0.06256172
0.06256172 0.91886608 0.06256172
0.06256172 0.91886608 0.06256172
0.06256172 0.91886608 0.06256172
0.06256172 0.91886608 0.06256172
0.06256172 0.91886608 0.06256172
0.06256172 0.91886608 0.06256172
0.06256172 0.91886608 0.06256172
0.91886608 0.91886608 0.06256172
0.06256172 0.06256172 0.21483796
0.23264873 0.06256172 0.21403730
0.37349698 0.06256172 0.20751767
0.49990972 0.06256172 0.16672068
0.61806446 0.06256172 0.06256172
0.73033664 0.06256172 0.06256172
0.83804143 0.06256172 0.06256172
0.91886608 0.06256172 0.06256172
0.91886608 0.06256172 0.06256172
0.06256172 0.21509257 0.21026540
0.20940291 0.20940291 0.20940291
0.37038248 0.10699033 0.20233837
0.49916942 0.06256172 0.15520323
0.61785513 0.06256172 0.06256172
0.73027306 0.06256172 0.06256172
0.83802172 0.06256172 0.06256172
0.91886608 0.06256172 0.06256172
0.91886608 0.06256172 0.06256172
0.06256172 0.34592618 0.15234488
0.06256172 0.34501856 0.14978554
0.34156783 0.33769082 0.12253359
0.49327768 0.29565931 0.06256172
0.61623215 0.06256172 0.06256172
0.72978338 0.06256172 0.06256172
0.83787026 0.06256172 0.06256172
0.91886608 0.06256172 0.06256172
0.91886608 0.06256172 0.06256172
0.06256172 0.46750774 0.06256172
0.06256172 0.46728486 0.06256172
0.06256172 0.46555503 0.06256172
0.46283466 0.45779795 0.06256172
0.60899346 0.42389624 0.06256172
0.72766967 0.06256172 0.06256172
0.83722263 0.06256172 0.06256172
0.91886608 0.06256172 0.06256172
0.91886608 0.06256172 0.06256172
0.06256172 0.58323102 0.06256172
0.06256172 0.58316692 0.06256172
0.06256172 0.58267327 0.06256172
0.06256172 0.58054239 0.06256172
0.57827105 0.57271261 0.06256172
0.71990351 0.54207355 0.06256172
0.83492772 0.06256172 0.06256172
0.91886608 0.06256172 0.06256172
0.91886608 0.06256172 0.06256172
0.06256172 0.69464528 0.06256172
0.06256172 0.69462557 0.06256172
0.06256172 0.69447411 0.06256172
0.06256172 0.69382660 0.06256172
0.06256172 0.69153376 0.06256172
0.68955724 0.68379134 0.06256172
0.82715925 0.65460183 0.06256172
0.91886608 0.06256172 0.06256172
0.91886608 0.06256172 0.06256172
0.06256172 0.80265488 0.06256172
0.06256172 0.80264871 0.06256172
0.06256172 0.80260134 0.06256172
0.06256172 0.80239941 0.06256172
0.06256172 0.80169191 0.06256172
0.06256172 0.79938863 0.06256172
0.79759064 0.79182743 0.06256172
0.91886608 0.76303890 0.06256172
0.91886608 0.06256172 0.06256172
0.06256172 0.90785503 0.06256172
0.06256172 0.90785313 0.06256172
0.06256172 0.90783856 0.06256172
0.06256172 0.90777650 0.06256172
0.06256172 0.90755982 0.06256172
0.06256172 0.90686223 0.06256172
0.06256172 0.90465511 0.06256172
0.90294455 0.89734438 0.06256172
0.91886608 0.86809452 0.06256172
0.06256172 0.91886608 0.06256172
0.06256172 0.91886608 0.06256172
0.06256172 0.91886608 0.06256172
0.06256172 0.91886608 0.06256172
0.06256172 0.91886608 0.06256172
0.06256172 0.91886608 0.06256172
0.06256172 0.91886608 0.06256172
0.06256172 0.91886608 0.06256172
0.91886608 0.91886608 0.06256172
0.06256172 0.06256172 0.34509123
0.21074016 0.06256172 0.34495824
0.37053487 0.06256172 0.34392975
0.49920515 0.06256172 0.33940029
0.61786521 0.06256172 0.32126521
0.73027611 0.06256172 0.15499696
0.83802267 0.06256172 0.06256172
0.91886608 0.06256172 0.06256172
0.91886608 0.06256172 0.06256172
0.06256172 0.21222916 0.34435153
0.17366735 0.20625515 0.34421733
0.36730675 0.06256172 0.34317941
0.49845915 0.06256172 0.33860681
0.61765544 0.06256172 0.32026900
0.73021249 0.06256172 0.13965984
0.83800296 0.06256172 0.06256172
0.91886608 0.06256172 0.06256172
0.91886608 0.06256172 0.06256172
0.06256172 0.34546024 0.33843635
0.06256172 0.34454741 0.33829203
0.33717514 0.33717514 0.33717514
0.49252030 0.29477642 0.33223992
0.61602900 0.06256172 0.31216826
0.72972250 0.06256172 0.06256172
0.83785147 0.06256172 0.06256172
0.91886608 0.06256172 0.06256172
0.91886608 0.06256172 0.06256172
0.06256172 0.46739308 0.30681183
0.06256172 0.46716993 0.30659666
0.06256172 0.46543788 0.30492419
0.46177592 0.45767032 0.29736722
0.60877412 0.42370970 0.26276229
0.72760740 0.06256172 0.06256172
0.83720370 0.06256172 0.06256172
0.91886608 0.06256172 0.06256172
0.91886608 0.06256172 0.06256172
0.06256172 0.58319803 0.06256172
0.06256172 0.58313391 0.06256172
0.06256172 0.58264008 0.06256172
0.06256172 0.58050845 0.06256172
0.57796723 0.57267572 0.06256172
0.71983585 0.54202242 0.06256172
0.83490830 0.06256172 0.06256172
0.91886608 0.06256172 0.06256172
0.91886608 0.06256172 0.06256172
0.06256172 0.69463513 0.06256172
0.06256172 0.69461542 0.06256172
0.06256172 0.69446395 0.06256172
0.06256172 0.69381637 0.06256172
0.06256172 0.69152328 0.06256172
0.68946378 0.68377996 0.06256172
0.82713809 0.65458633 0.06256172
0.91886608 0.06256172 0.06256172
0.91886608 0.06256172 0.06256172
0.06256172 0.80265170 0.06256172
0.06256172 0.80264554 0.06256172
0.06256172 0.80259816 0.06256172
0.06256172 0.80239622 0.06256172
0.06256172 0.80168870 0.06256172
0.06256172 0.79938534 0.06256172
0.79756136 0.79182385 0.06256172
0.91886608 0.76303402 0.06256172
0.91886608 0.06256172 0.06256172
0.06256172 0.90785405 0.06256172
0.06256172 0.90785215 0.06256172
0.06256172 0.90783758 0.06256172
0.06256172 0.90777553 0.06256172
0.06256172 0.90755884 0.06256172
0.06256172 0.90686124 0.06256172
0.06256172 0.90465409 0.06256172
0.90293553 0.89734328 0.06256172
0.91886608 0.86809299 0.06256172
0.06256172 0.91886608 0.06256172
0.06256172 0.91886608 0.06256172
0.06256172 0.91886608 0.06256172
0.06256172 0.91886608 0.06256172
0.06256172 0.91886608 0.06256172
0.06256172 0.91886608 0.06256172
0.06256172 0.91886608 0.06256172
0.06256172 0.91886608 0.06256172
0.91886608 0.91886608 0.06256172
0.06256172 0.06256172 0.46646912
0.06256172 0.06256172 0.46643630
0.35660559 0.06256172 0.46618390
0.49614407 0.06256172 0.46510153
0.61701226 0.06256172 0.46122380
0.73001802 0.06256172 0.44755140
0.83794277 0.06256172 0.38278062
0.91886608 0.06256172 0.06256172
0.91886608 0.06256172 0.06256172
0.06256172 0.19827058 0.46628711
0.06256172 0.19061578 0.46625423
0.35277740 0.06256172 0.46600132
0.49537278 0.06256172 0.46491676
0.61680059 0.06256172 0.46103094
0.72995422 0.06256172 0.44732694
0.83792304 0.06256172 0.38231016
0.91886608 0.06256172 0.06256172
0.91886608 0.06256172 0.06256172
0.06256172 0.34344649 0.46487725
0.06256172 0.34251075 0.46484386
0.31520716 0.33494233 0.46458698
0.48922447 0.29089834 0.46348528
0.61515926 0.06256172 0.45953622
0.72946287 0.06256172 0.44558441
0.83777141 0.06256172 0.37860841
0.91886608 0.06256172 0.06256172
0.91886608 0.06256172 0.06256172
0.06256172 0.46690337 0.45861741
0.06256172 0.46667901 0.45858162
0.06256172 0.46493748 0.45830633
0.45712497 0.45712497 0.45712497
0.60783468 0.42291119 0.45288122
0.72734183 0.06256172 0.43776224
0.83712307 0.06256172 0.36073822
0.91886608 0.06256172 0.06256172
0.91886608 0.06256172 0.06256172
0.06256172 0.58305747 0.43259691
0.06256172 0.58299325 0.43254907
0.06256172 0.58249868 0.43218089
0.06256172 0.58036381 0.43059628
0.57666279 0.57251854 0.42483953
0.71954726 0.54180447 0.40337305
0.83482559 0.06256172 0.18639661
0.91886608 0.06256172 0.06256172
0.91886608 0.06256172 0.06256172
0.06256172 0.69459194 0.06256172
0.06256172 0.69457222 0.06256172
0.06256172 0.69442067 0.06256172
0.06256172 0.69377280 0.06256172
0.06256172 0.69147863 0.06256172
0.68906488 0.68373149 0.06256172
0.82704795 0.65452030 0.06256172
0.91886608 0.06256172 0.06256172
0.91886608 0.06256172 0.06256172
0.06256172 0.80263819 0.06256172
0.06256172 0.80263202 0.06256172
0.06256172 0.80258464 0.06256172
0.06256172 0.80238267 0.06256172
0.06256172 0.80167504 0.06256172
0.06256172 0.79937133 0.06256172
0.79743661 0.79180864 0.06256172
0.91886608 0.76301323 0.06256172
0.91886608 0.06256172 0.06256172
0.06256172 0.90784989 0.06256172
0.06256172 0.90784799 0.06256172
0.06256172 0.90783342 0.06256172
0.06256172 0.90777136 0.06256172
0.06256172 0.90755467 0.06256172
0.06256172 0.90685703 0.06256172
0.06256172 0.90464978 0.06256172
0.90289713 0.89733858 0.06256172
0.91886608 0.86808645 0.06256172
0.06256172 0.91886608 0.06256172
0.06256172 0.91886608 0.06256172
0.06256172 0.91886608 0.06256172
0.06256172 0.91886608 0.06256172
0.06256172 0.91886608 0.06256172
0.06256172 0.91886608 0.06256172
0.06256172 0.91886608 0.06256172
0.06256172 0.91886608 0.06256172
0.91886608 0.91886608 0.06256172
0.06256172 0.06256172 0.58209618
0.06256172 0.06256172 0.58208672
0.27020245 0.06256172 0.58201412
0.48459782 0.06256172 0.58170441
0.61397706 0.06256172 0.58061665
0.72911264 0.06256172 0.57704616
0.83766367 0.06256172 0.56498259
0.91886608 0.06256172 0.51216024
0.91886608 0.06256172 0.06256172
0.06256172 0.06256172 0.58204379
0.06256172 0.06256172 0.58203433
0.25785686 0.06256172 0.58196169
0.48372275 0.06256172 0.58165180
0.61375848 0.06256172 0.58056343
0.72904822 0.06256172 0.57699089
0.83764388 0.06256172 0.56491976
0.91886608 0.06256172 0.51204963
0.91886608 0.06256172 0.06256172
0.06256172 0.33600905 0.58164056
0.06256172 0.33498295 0.58163107
0.06256172 0.32663499 0.58155811
0.47670913 0.27554888 0.58124689
0.61206300 0.06256172 0.58015381
0.72855207 0.06256172 0.57656541
0.83749178 0.06256172 0.56443592
0.91886608 0.06256172 0.51119586
0.91886608 0.06256172 0.06256172
0.06256172 0.46517516 0.57990448
0.06256172 0.46494648 0.57989481
0.06256172 0.46317106 0.57982049
0.43872843 0.45519758 0.57950348
0.60448456 0.42006951 0.57838987
0.72641004 0.06256172 0.57473233
0.83684141 0.06256172 0.56234787
0.91886608 0.06256172 0.50747072
0.91886608 0.06256172 0.06256172
0.06256172 0.58256578 0.57358903
0.06256172 0.58250122 0.57357868
0.06256172 0.58200406 0.57349921
0.06256172 0.57985784 0.57316016
0.57196849 0.57196849 0.57196849
0.71853418 0.54104066 0.56804741
0.83453665 0.06256172 0.55468257
0.91886608 0.06256172 0.49316658
0.91886608 0.06256172 0.06256172
0.06256172 0.69444120 0.54992906
0.06256172 0.69442145 0.54991575
0.06256172 0.69426966 0.54981351
0.06256172 0.69362074 0.54937703
0.06256172 0.69132282 0.54783926
0.68766089 0.68356232 0.54273746
0.82673300 0.65428973 0.52480689
0.91886608 0.06256172 0.42159185
0.91886608 0.06256172 0.06256172
0.06256172 0.80259105 0.32449894
0.06256172 0.80258488 0.32432723
0.06256172 0.80253748 0.32299627
0.06256172 0.80233540 0.31706591
0.06256172 0.80162741 0.29193285
0.06256172 0.79932248 0.06256172
0.79700039 0.79175559 0.06256172
0.91886608 0.76294075 0.06256172
0.91886608 0.06256172 0.06256172
0.06256172 0.90783539 0.06256172
0.06256172 0.90783350 0.06256172
0.06256172 0.90781892 0.06256172
0.06256172 0.90775685 0.06256172
0.06256172 0.90754012 0.06256172
0.06256172 0.90684237 0.06256172
0.06256172 0.90463474 0.06256172
0.90276314 0.89732223 0.06256172
0.91886608 0.86806364 0.06256172
0.06256172 0.91886608 0.06256172
0.06256172 0.91886608 0.06256172
0.06256172 0.91886608 0.06256172
0.06256172 0.91886608 0.06256172
0.06256172 0.91886608 0.06256172
0.06256172 0.91886608 0.06256172
0.06256172 0.91886608 0.06256172
0.06256172 0.91886608 0.06256172
0.91886608 0.91886608 0.06256172
0.06256172 0.06256172 0.69347295
0.06256172 0.06256172 0.69347004
0.06256172 0.06256172 0.69344771
0.43294217 0.06256172 0.69335260
0.60354422 0.06256172 0.69302024
0.72615275 0.06256172 0.69194793
0.83676397 0.06256172 0.68853109
0.91886608 0.06256172 0.67693077
0.91886608 0.06256172 0.62445429
0.06256172 0.06256172 0.69345684
0.06256172 0.06256172 0.69345393
0.06256172 0.06256172 0.69343160
0.43138633 0.06256172 0.69333646
0.60330011 0.06256172 0.69300405
0.72608626 0.06256172 0.69193155
0.83674399 0.06256172 0.68851411
0.91886608 0.06256172 0.67691157
0.91886608 0.06256172 0.62442083
0.06256172 0.30609341 0.69333302
0.06256172 0.30459070 0.69333010
0.06256172 0.29195082 0.69330774
0.41843182 0.16333412 0.69321248
0.60140429 0.06256172 0.69287964
0.72557411 0.06256172 0.69180571
0.83659036 0.06256172 0.68838362
0.91886608 0.06256172 0.67676398
0.91886608 0.06256172 0.62416353
0.06256172 0.45940799 0.69280409
0.06256172 0.45916426 0.69280116
0.06256172 0.45727054 0.69277867
0.31710617 0.44873235 0.69268288
0.59287903 0.41029734 0.69234815
0.72336201 0.06256172 0.69126811
0.83593343 0.06256172 0.68782608
0.91886608 0.06256172 0.67613309
0.91886608 0.06256172 0.62306033
0.06256172 0.58097367 0.69093654
0.06256172 0.58090801 0.69093355
0.06256172 0.58040236 0.69091061
0.06256172 0.57821892 0.69081290
0.55513354 0.57018504 0.69047144
0.71521412 0.53855171 0.68936955
0.83360505 0.06256172 0.68585614
0.91886608 0.06256172 0.67390009
0.91886608 0.06256172 0.61911045
0.06256172 0.69395683 0.68469375
0.06256172 0.69393698 0.68469056
0.06256172 0.69378440 0.68466605
0.06256172 0.69313212 0.68456164
0.06256172 0.69082210 0.68419673
0.68301851 0.68301851 0.68301851
0.82571694 0.65354754 0.67925535
0.91886608 0.06256172 0.66637136
0.91886608 0.06256172 0.60522149
0.06256172 0.80243994 0.66211302
0.06256172 0.80243376 0.66210896
0.06256172 0.80238628 0.66207783
0.06256172 0.80218387 0.66194517
0.06256172 0.80147470 0.66148124
0.06256172 0.79916587 0.65997998
0.79558925 0.79158550 0.65515018
0.91886608 0.76270823 0.63816835
0.91886608 0.06256172 0.54104833
0.06256172 0.90778895 0.48438120
0.06256172 0.90778705 0.48435423
0.06256172 0.90777247 0.48414689
0.06256172 0.90771037 0.48325895
0.06256172 0.90749352 0.48009426
0.06256172 0.90679540 0.46915173
0.06256172 0.90458655 0.42291087
0.90233264 0.89726982 0.06256172
0.91886608 0.86799058 0.06256172
0.06256172 0.91886608 0.06256172
0.06256172 0.91886608 0.06256172
0.06256172 0.91886608 0.06256172
0.06256172 0.91886608 0.06256172
0.06256172 0.91886608 0.06256172
0.06256172 0.91886608 0.06256172
0.06256172 0.91886608 0.06256172
0.06256172 0.91886608 0.06256172
0.91886608 0.91886608 0.06256172
0.06256172 0.06256172 0.80148605
0.06256172 0.06256172 0.80148514
0.06256172 0.06256172 0.80147815
0.06256172 0.06256172 0.80144838
0.56088339 0.06256172 0.80134455
0.71629474 0.06256172 0.80101121
0.83390571 0.06256172 0.79996619
0.91886608 0.06256172 0.79660842
0.91886608 0.06256172 0.78471322
0.06256172 0.06256172 0.80148100
0.06256172 0.06256172 0.80148009
0.06256172 0.06256172 0.80147310
0.06256172 0.06256172 0.80144334
0.56049929 0.06256172 0.80133949
0.71622087 0.06256172 0.80100614
0.83388508 0.06256172 0.79996106
0.91886608 0.06256172 0.79660310
0.91886608 0.06256172 0.78470716
0.06256172 0.06256172 0.80144226
0.06256172 0.06256172 0.80144135
0.06256172 0.06256172 0.80143436
0.06256172 0.06256172 0.80140458
0.55749637 0.06256172 0.80130069
0.71565169 0.06256172 0.80096719
0.83372650 0.06256172 0.79992167
0.91886608 0.06256172 0.79656224
0.91886608 0.06256172 0.78466064
0.06256172 0.43866508 0.80127715
0.06256172 0.43835799 0.80127623
0.06256172 0.43596404 0.80126923
0.06256172 0.42498436 0.80123940
0.54351429 0.37007327 0.80113532
0.71318932 0.06256172 0.80080122
0.83304830 0.06256172 0.79975378
0.91886608 0.06256172 0.79638808
0.91886608 0.06256172 0.78446236
0.06256172 0.57584042 0.80069917
0.06256172 0.57577110 0.80069826
0.06256172 0.57523703 0.80069121
0.06256172 0.57292904 0.80066118
0.46598946 0.56440918 0.80055645
0.70406170 0.53035379 0.80022022
0.83064329 0.06256172 0.79916608
0.91886608 0.06256172 0.79577831
0.91886608 0.06256172 0.78376775
0.06256172 0.69243356 0.79882328
0.06256172 0.69241338 0.79882234
0.06256172 0.69225832 0.79881514
0.06256172 0.69159534 0.79878450
0.06256172 0.68924685 0.79867759
0.66691256 0.68130606 0.79833439
0.82248050 0.65120022 0.79725818
0.91886608 0.06256172 0.79379779
0.91886608 0.06256172 0.78150734
0.06256172 0.80196816 0.79272786
0.06256172 0.80196194 0.79272686
0.06256172 0.80191422 0.79271917
0.06256172 0.80171076 0.79268642
0.06256172 0.80099789 0.79257216
0.06256172 0.79867686 0.79220527
0.79105422 0.79105422 0.79105422
0.91886608 0.76198098 0.78734692
0.91886608 0.06256172 0.77409709
0.06256172 0.90764429 0.77046982
0.06256172 0.90764239 0.77046854
0.06256172 0.90762778 0.77045875
0.06256172 0.90756558 0.77041705
0.06256172 0.90734836 0.77027152
0.06256172 0.90664907 0.76980393
0.06256172 0.90443645 0.76833370
0.90097933 0.89710657 0.76356407
0.91886608 0.86776284 0.74604354
0.06256172 0.91886608 0.57399593
0.06256172 0.91886608 0.57398563
0.06256172 0.91886608 0.57390650
0.06256172 0.91886608 0.57356891
0.06256172 0.91886608 0.57238244
0.06256172 0.91886608 0.56847893
0.06256172 0.91886608 0.55517986
0.06256172 0.91886608 0.49412754
0.91886608 0.91886608 0.06256172
0.06256172 0.06256172 0.90672141
0.06256172 0.06256172 0.90672113
0.06256172 0.06256172 0.90671898
0.06256172 0.06256172 0.90670982
0.06256172 0.06256172 0.90667789
0.67624974 0.06256172 0.90657554
0.82430346 0.06256172 0.90625631
0.91886608 0.06256172 0.90524723
0.91886608 0.06256172 0.90187165
0.06256172 0.06256172 0.90671986
0.06256172 0.06256172 0.90671958
0.06256172 0.06256172 0.90671743
0.06256172 0.06256172 0.90670827
0.06256172 0.06256172 0.90667634
0.67613667 0.06256172 0.90657399
0.82428052 0.06256172 0.90625475
0.91886608 0.06256172 0.90524565
0.91886608 0.06256172 0.90187001
0.06256172 0.06256172 0.90670794
0.06256172 0.06256172 0.90670766
0.06256172 0.06256172 0.90670551
0.06256172 0.06256172 0.90669635
0.06256172 0.06256172 0.90666441
0.67526390 0.06256172 0.90656205
0.82410416 0.06256172 0.90624277
0.91886608 0.06256172 0.90523353
0.91886608 0.06256172 0.90185740
0.06256172 0.27399171 0.90665717
0.06256172 0.27167375 0.90665689
0.06256172 0.25082096 0.90665474
0.06256172 0.06256172 0.90664558
0.06256172 0.06256172 0.90661362
0.67145553 0.06256172 0.90651120
0.82334953 0.06256172 0.90619173
0.91886608 0.06256172 0.90518190
0.91886608 0.06256172 0.90180373
0.06256172 0.55763937 0.90647996
0.06256172 0.55755523 0.90647968
0.06256172 0.55690665 0.90647753
0.06256172 0.55409438 0.90646834
0.06256172 0.54357283 0.90643632
0.65683149 0.49862588 0.90633369
0.82066848 0.06256172 0.90601357
0.91886608 0.06256172 0.90500165
0.91886608 0.06256172 0.90161634
0.06256172 0.68748877 0.90591000
0.06256172 0.68746751 0.90590972
0.06256172 0.68730408 0.90590755
0.06256172 0.68660518 0.90589831
0.06256172 0.68412730 0.90586607
0.58429911 0.67572322 0.90576276
0.81150786 0.64343440 0.90544053
0.91886608 0.06256172 0.90442188
0.91886608 0.06256172 0.90101349
0.06256172 0.80047220 0.90411226
0.06256172 0.80046589 0.90411197
0.06256172 0.80041737 0.90410976
0.06256172 0.80021056 0.90410032
0.06256172 0.79948586 0.90406741
0.06256172 0.79712568 0.90396194
0.77517629 0.78936740 0.90363295
0.91886608 0.75966194 0.90259279
0.91886608 0.06256172 0.89911060
0.06256172 0.90718892 0.89821919
0.06256172 0.90718701 0.89821888
0.06256172 0.90717233 0.89821651
0.06256172 0.90710979 0.89820641
0.06256172 0.90689144 0.89817120
0.06256172 0.90618843 0.89805835
0.06256172 0.90396391 0.89770625
0.89659245 0.89659245 0.89659245
0.91886608 0.86704464 0.89285716
0.06256172 0.91886608 0.87566204
0.06256172 0.91886608 0.87566165
0.06256172 0.91886608 0.87565858
0.06256172 0.91886608 0.87564553
0.06256172 0.91886608 0.87560000
0.06256172 0.91886608 0.87545406
0.06256172 0.91886608 0.87499840
0.06256172 0.91886608 0.87355361
0.91886608 0.91886608 0.86866963
0.06256172 0.06256172 0.91886608
0.06256172 0.06256172 0.91886608
0.06256172 0.06256172 0.91886608
0.06256172 0.06256172 0.91886608
0.06256172 0.06256172 0.91886608
0.06256172 0.06256172 0.91886608
0.78325861 0.06256172 0.91886608
0.91886608 0.06256172 0.91886608
0.91886608 0.06256172 0.91886608
0.06256172 0.06256172 0.91886608
0.06256172 0.06256172 0.91886608
0.06256172 0.06256172 0.91886608
0.06256172 0.06256172 0.91886608
0.06256172 0.06256172 0.91886608
0.06256172 0.06256172 0.91886608
0.78322266 0.06256172 0.91886608
0.91886608 0.06256172 0.91886608
0.91886608 0.06256172 0.91886608
0.06256172 0.06256172 0.91886608
0.06256172 0.06256172 0.91886608
0.06256172 0.06256172 0.91886608
0.06256172 0.06256172 0.91886608
0.06256172 0.06256172 0.91886608
0.06256172 0.06256172 0.91886608
0.78294612 0.06256172 0.91886608
0.91886608 0.06256172 0.91886608
0.91886608 0.06256172 0.91886608
0.06256172 0.06256172 0.91886608
0.06256172 0.06256172 0.91886608
0.06256172 0.06256172 0.91886608
0.06256172 0.06256172 0.91886608
0.06256172 0.06256172 0.91886608
0.06256172 0.06256172 0.91886608
0.78175954 0.06256172 0.91886608
0.91886608 0.06256172 0.91886608
0.91886608 0.06256172 0.91886608
0.06256172 0.44424574 0.91886608
0.06256172 0.44395725 0.91886608
0.06256172 0.44171050 0.91886608
0.06256172 0.43145849 0.91886608
0.06256172 0.38188625 0.91886608
0.06256172 0.06256172 0.91886608
0.77749911 0.06256172 0.91886608
0.91886608 0.06256172 0.91886608
0.91886608 0.06256172 0.91886608
0.06256172 0.66927736 0.91886608
0.06256172 0.66925157 0.91886608
0.06256172 0.66905330 0.91886608
0.06256172 0.66820460 0.91886608
0.06256172 0.66518470 0.91886608
0.06256172 0.65480790 0.91886608
0.76236022 0.61247752 0.91886608
0.91886608 0.06256172 0.91886608
0.91886608 0.06256172 0.91886608
0.06256172 0.79541501 0.91886608
0.06256172 0.79540834 0.91886608
0.06256172 0.79535707 0.91886608
0.06256172 0.79513849 0.91886608
0.06256172 0.79437238 0.91886608
0.06256172 0.79187495 0.91886608
0.68815974 0.78363920 0.91886608
0.91589829 0.75166714 0.91886608
0.91886608 0.06256172 0.91886608
0.06256172 0.90568663 0.91886608
0.06256172 0.90568468 0.91886608
0.06256172 0.90566974 0.91886608
0.06256172 0.90560612 0.91886608
0.06256172 0.90538394 0.91886608
0.06256172 0.90466859 0.91886608
0.06256172 0.90240434 0.91886608
0.88053021 0.89489399 0.91886608
0.91886608 0.86466058 0.91886608
0.06256172 0.91886608 0.91886608
0.06256172 0.91886608 0.91886608
0.06256172 0.91886608 0.91886608
0.06256172 0.91886608 0.91886608
0.06256172 0.91886608 0.91886608
0.06256172 0.91886608 0.91886608
0.06256172 0.91886608 0.91886608
0.06256172 0.91886608 0.91886608
0.91886608 0.91886608 0.91886608
