src/ffmpeg_scripts/luts/rec2020-sRGB_3p33.cube
TITLE "rec2020-srgb_3p33"
LUT_3D_SIZE 9
# PQ (EOTF Only)/Rec2020 -> PQ (EOTF Only)/Rec709, CineEI Shift 3.33, Black Level 0.00% IRE, Input 100% -> Output 109% - Created with LUTCalc v4.01 by Ben Turley October 2020
0.06256172 0.06256172 0.06256172
0.31878715 0.06256172 0.06256172
0.48499719 0.06256172 0.06256172
0.62389871 0.06256172 0.06256172
0.74692448 0.06256172 0.06256172
0.85905816 0.06256172 0.06256172
0.91886608 0.06256172 0.06256172
0.91886608 0.06256172 0.06256172
0.91886608 0.06256172 0.06256172
0.06256172 0.29371937 0.06256172
0.29026787 0.28637514 0.06256172
0.48146134 0.14681819 0.06256172
0.62310907 0.06256172 0.06256172
0.74671139 0.06256172 0.06256172
0.85899579 0.06256172 0.06256172
0.91886608 0.06256172 0.06256172
0.91886608 0.06256172 0.06256172
0.91886608 0.06256172 0.06256172
0.06256172 0.45294457 0.06256172
0.06256172 0.45189261 0.06256172
0.44845854 0.44337676 0.06256172
0.61681549 0.39369675 0.06256172
0.74505873 0.06256172 0.06256172
0.85851546 0.06256172 0.06256172
0.91886608 0.06256172 0.06256172
0.91886608 0.06256172 0.06256172
0.91886608 0.06256172 0.06256172
0.06256172 0.58896818 0.06256172
0.06256172 0.58872668 0.06256172
0.06256172 0.58685142 0.06256172
0.58403093 0.57842306 0.06256172
0.73767586 0.54120457 0.06256172
0.85644126 0.06256172 0.06256172
0.91886608 0.06256172 0.06256172
0.91886608 0.06256172 0.06256172
0.91886608 0.06256172 0.06256172
0.06256172 0.71120650 0.06256172
0.06256172 0.71114039 0.06256172
0.06256172 0.71063116 0.06256172
0.06256172 0.70843195 0.06256172
0.70612192 0.70033555 0.06256172
0.84880867 0.66841176 0.06256172
0.91886608 0.06256172 0.06256172
0.91886608 0.06256172 0.06256172
0.91886608 0.06256172 0.06256172
0.06256172 0.82384629 0.06256172
0.06256172 0.82382674 0.06256172
0.06256172 0.82367649 0.06256172
0.06256172 0.82303409 0.06256172
0.06256172 0.82075825 0.06256172
0.81880573 0.81306072 0.06256172
0.91886608 0.78386282 0.06256172
0.91886608 0.06256172 0.06256172
0.91886608 0.06256172 0.06256172
0.06256172 0.91886608 0.06256172
0.06256172 0.91886608 0.06256172
0.06256172 0.91886608 0.06256172
0.06256172 0.91886608 0.06256172
0.06256172 0.91886608 0.06256172
0.06256172 0.91886608 0.06256172
0.91886608 0.91881754 0.06256172
0.91886608 0.89097103 0.06256172
0.91886608 0.06256172 0.06256172
0.06256172 0.91886608 0.06256172
0.06256172 0.91886608 0.06256172
0.06256172 0.91886608 0.06256172
0.06256172 0.91886608 0.06256172
0.06256172 0.91886608 0.06256172
0.06256172 0.91886608 0.06256172
0.06256172 0.91886608 0.06256172
0.91886608 0.91886608 0.06256172
0.91886608 0.91886608 0.06256172
0.06256172 0.91886608 0.06256172
0.06256172 0.91886608 0.06256172
0.06256172 0.91886608 0.06256172
0.06256172 0.91886608 0.06256172
0.06256172 0.91886608 0.06256172
0.06256172 0.91886608 0.06256172
0.06256172 0.91886608 0.06256172
0.06256172 0.91886608 0.06256172
0.91886608 0.91886608 0.06256172
0.06256172 0.06256172 0.29291902
0.31577060 0.06256172 0.29188130
0.48456619 0.06256172 0.28339587
0.62380118 0.06256172 0.22867654
0.74689809 0.06256172 0.06256172
0.85905043 0.06256172 0.06256172
0.91886608 0.06256172 0.06256172
0.91886608 0.06256172 0.06256172
0.91886608 0.06256172 0.06256172
0.06256172 0.29324881 0.28697987
0.28585611 0.28585611 0.28585611
0.48101333 0.14132555 0.27660858
0.62301072 0.06256172 0.21263142
0.74668494 0.06256172 0.06256172
0.85898806 0.06256172 0.06256172
0.91886608 0.06256172 0.06256172
0.91886608 0.06256172 0.06256172
0.91886608 0.06256172 0.06256172
0.06256172 0.45287443 0.20860111
0.06256172 0.45182164 0.20497509
0.44781325 0.44329874 0.16520114
0.61671037 0.39355947 0.06256172
0.74503180 0.06256172 0.06256172
0.85850769 0.06256172 0.06256172
0.91886608 0.06256172 0.06256172
0.91886608 0.06256172 0.06256172
0.91886608 0.06256172 0.06256172
0.06256172 0.58895201 0.06256172
0.06256172 0.58871047 0.06256172
0.06256172 0.58683489 0.06256172
0.58388216 0.57840498 0.06256172
0.73764672 0.54117769 0.06256172
0.85643330 0.06256172 0.06256172
0.91886608 0.06256172 0.06256172
0.91886608 0.06256172 0.06256172
0.91886608 0.06256172 0.06256172
0.06256172 0.71120207 0.06256172
0.06256172 0.71113595 0.06256172
0.06256172 0.71062670 0.06256172
0.06256172 0.70842738 0.06256172
0.70608111 0.70033057 0.06256172
0.84880000 0.66840478 0.06256172
0.91886608 0.06256172 0.06256172
0.91886608 0.06256172 0.06256172
0.91886608 0.06256172 0.06256172
0.06256172 0.82384498 0.06256172
0.06256172 0.82382543 0.06256172
0.06256172 0.82367518 0.06256172
0.06256172 0.82303277 0.06256172
0.06256172 0.82075689 0.06256172
0.81879364 0.81305925 0.06256172
0.91886608 0.78386079 0.06256172
0.91886608 0.06256172 0.06256172
0.91886608 0.06256172 0.06256172
0.06256172 0.91886608 0.06256172
0.06256172 0.91886608 0.06256172
0.06256172 0.91886608 0.06256172
0.06256172 0.91886608 0.06256172
0.06256172 0.91886608 0.06256172
0.06256172 0.91886608 0.06256172
0.91886608 0.91881709 0.06256172
0.91886608 0.89097041 0.06256172
0.91886608 0.06256172 0.06256172
0.06256172 0.91886608 0.06256172
0.06256172 0.91886608 0.06256172
0.06256172 0.91886608 0.06256172
0.06256172 0.91886608 0.06256172
0.06256172 0.91886608 0.06256172
0.06256172 0.91886608 0.06256172
0.06256172 0.91886608 0.06256172
0.91886608 0.91886608 0.06256172
0.91886608 0.91886608 0.06256172
0.06256172 0.91886608 0.06256172
0.06256172 0.91886608 0.06256172
0.06256172 0.91886608 0.06256172
0.06256172 0.91886608 0.06256172
0.06256172 0.91886608 0.06256172
0.06256172 0.91886608 0.06256172
0.06256172 0.91886608 0.06256172
0.06256172 0.91886608 0.06256172
0.91886608 0.91886608 0.06256172
0.06256172 0.06256172 0.45190596
0.28759796 0.06256172 0.45175165
0.48118733 0.06256172 0.45055785
0.62304887 0.06256172 0.44529074
0.74669520 0.06256172 0.42403935
0.85899106 0.06256172 0.21234125
0.91886608 0.06256172 0.06256172
0.91886608 0.06256172 0.06256172
0.91886608 0.06256172 0.06256172
0.06256172 0.28953432 0.45104753
0.23821379 0.28174522 0.45089174
0.47749809 0.06256172 0.44968641
0.62225207 0.06256172 0.44436640
0.74648159 0.06256172 0.42286416
0.85892865 0.06256172 0.19045876
0.91886608 0.06256172 0.06256172
0.91886608 0.06256172 0.06256172
0.91886608 0.06256172 0.06256172
0.06256172 0.45233404 0.44416777
0.06256172 0.45127489 0.44399957
0.44269737 0.44269737 0.44269737
0.61589924 0.39249799 0.43693155
0.74482481 0.06256172 0.41327678
0.85844795 0.06256172 0.06256172
0.91886608 0.06256172 0.06256172
0.91886608 0.06256172 0.06256172
0.91886608 0.06256172 0.06256172
0.06256172 0.58882775 0.40690617
0.06256172 0.58858590 0.40664973
0.06256172 0.58670781 0.40465507
0.58273194 0.57826601 0.39561079
0.73742265 0.54097106 0.35348938
0.85637217 0.06256172 0.06256172
0.91886608 0.06256172 0.06256172
0.91886608 0.06256172 0.06256172
0.91886608 0.06256172 0.06256172
0.06256172 0.71116804 0.06256172
0.06256172 0.71110190 0.06256172
0.06256172 0.71059246 0.06256172
0.06256172 0.70839233 0.06256172
0.70576710 0.70029237 0.06256172
0.84873342 0.66835118 0.06256172
0.91886608 0.06256172 0.06256172
0.91886608 0.06256172 0.06256172
0.91886608 0.06256172 0.06256172
0.06256172 0.82383492 0.06256172
0.06256172 0.82381537 0.06256172
0.06256172 0.82366510 0.06256172
0.06256172 0.82302262 0.06256172
0.06256172 0.82074648 0.06256172
0.81870078 0.81304792 0.06256172
0.91886608 0.78384520 0.06256172
0.91886608 0.06256172 0.06256172
0.91886608 0.06256172 0.06256172
0.06256172 0.91886608 0.06256172
0.06256172 0.91886608 0.06256172
0.06256172 0.91886608 0.06256172
0.06256172 0.91886608 0.06256172
0.06256172 0.91886608 0.06256172
0.06256172 0.91886608 0.06256172
0.91886608 0.91881365 0.06256172
0.91886608 0.89096567 0.06256172
0.91886608 0.06256172 0.06256172
0.06256172 0.91886608 0.06256172
0.06256172 0.91886608 0.06256172
0.06256172 0.91886608 0.06256172
0.06256172 0.91886608 0.06256172
0.06256172 0.91886608 0.06256172
0.06256172 0.91886608 0.06256172
0.06256172 0.91886608 0.06256172
0.91886608 0.91886608 0.06256172
0.91886608 0.91886608 0.06256172
0.06256172 0.91886608 0.06256172
0.06256172 0.91886608 0.06256172
0.06256172 0.91886608 0.06256172
0.06256172 0.91886608 0.06256172
0.06256172 0.91886608 0.06256172
0.06256172 0.91886608 0.06256172
0.06256172 0.91886608 0.06256172
0.06256172 0.91886608 0.06256172
0.91886608 0.91886608 0.06256172
0.06256172 0.06256172 0.58782619
0.06256172 0.06256172 0.58779061
0.46521546 0.06256172 0.58751693
0.61977764 0.06256172 0.58634293
0.74582653 0.06256172 0.58213188
0.85873788 0.06256172 0.56722047
0.91886608 0.06256172 0.49511716
0.91886608 0.06256172 0.06256172
0.91886608 0.06256172 0.06256172
0.06256172 0.27124803 0.58762885
0.06256172 0.26108618 0.58759319
0.46080138 0.06256172 0.58731894
0.61895268 0.06256172 0.58614245
0.74561092 0.06256172 0.58192224
0.85867529 0.06256172 0.56697483
0.91886608 0.06256172 0.49458387
0.91886608 0.06256172 0.06256172
0.91886608 0.06256172 0.06256172
0.06256172 0.44999666 0.58609959
0.06256172 0.44890946 0.58606335
0.41687996 0.44009117 0.58578460
0.61236630 0.38782677 0.58458871
0.74393844 0.06256172 0.58029677
0.85819322 0.06256172 0.56506691
0.91886608 0.06256172 0.49038261
0.91886608 0.06256172 0.06256172
0.91886608 0.06256172 0.06256172
0.06256172 0.58829697 0.57929701
0.06256172 0.58805374 0.57925806
0.06256172 0.58616493 0.57895842
0.57767212 0.57767212 0.57767212
0.73646270 0.54008627 0.57304524
0.85611144 0.06256172 0.55648159
0.91886608 0.06256172 0.46996857
0.91886608 0.06256172 0.06256172
0.91886608 0.06256172 0.06256172
0.06256172 0.71102305 0.55079349
0.06256172 0.71095680 0.55074074
0.06256172 0.71044657 0.55033471
0.06256172 0.70824299 0.54858631
0.70441853 0.70012957 0.54222232
0.84844941 0.66812266 0.51831809
0.91886608 0.06256172 0.25544191
0.91886608 0.06256172 0.06256172
0.91886608 0.06256172 0.06256172
0.06256172 0.82379207 0.06256172
0.06256172 0.82377251 0.06256172
0.06256172 0.82362217 0.06256172
0.06256172 0.82297938 0.06256172
0.06256172 0.82070215 0.06256172
0.81830440 0.81299967 0.06256172
0.91886608 0.78377883 0.06256172
0.91886608 0.06256172 0.06256172
0.91886608 0.06256172 0.06256172
0.06256172 0.91886608 0.06256172
0.06256172 0.91886608 0.06256172
0.06256172 0.91886608 0.06256172
0.06256172 0.91886608 0.06256172
0.06256172 0.91886608 0.06256172
0.06256172 0.91886608 0.06256172
0.91886608 0.91879900 0.06256172
0.91886608 0.89094549 0.06256172
0.91886608 0.06256172 0.06256172
0.06256172 0.91886608 0.06256172
0.06256172 0.91886608 0.06256172
0.06256172 0.91886608 0.06256172
0.06256172 0.91886608 0.06256172
0.06256172 0.91886608 0.06256172
0.06256172 0.91886608 0.06256172
0.06256172 0.91886608 0.06256172
0.91886608 0.91886608 0.06256172
0.91886608 0.91886608 0.06256172
0.06256172 0.91886608 0.06256172
0.06256172 0.91886608 0.06256172
0.06256172 0.91886608 0.06256172
0.06256172 0.91886608 0.06256172
0.06256172 0.91886608 0.06256172
0.06256172 0.91886608 0.06256172
0.06256172 0.91886608 0.06256172
0.06256172 0.91886608 0.06256172
0.91886608 0.91886608 0.06256172
0.06256172 0.06256172 0.71003125
0.06256172 0.06256172 0.71002149
0.36264889 0.06256172 0.70994657
0.60739780 0.06256172 0.70962694
0.74273319 0.06256172 0.70850405
0.85784957 0.06256172 0.70481494
0.91886608 0.06256172 0.69231267
0.91886608 0.06256172 0.63684422
0.91886608 0.06256172 0.06256172
0.06256172 0.06256172 0.70997719
0.06256172 0.06256172 0.70996743
0.34741733 0.06256172 0.70989246
0.60645688 0.06256172 0.70957265
0.74251029 0.06256172 0.70844910
0.85778635 0.06256172 0.70475780
0.91886608 0.06256172 0.69224740
0.91886608 0.06256172 0.63672677
0.91886608 0.06256172 0.06256172
0.06256172 0.44133677 0.70956105
0.06256172 0.44013862 0.70955125
0.06256172 0.43035964 0.70947594
0.59890170 0.36919464 0.70915471
0.74078072 0.06256172 0.70802612
0.85729945 0.06256172 0.70431783
0.91886608 0.06256172 0.69174471
0.91886608 0.06256172 0.63582000
0.91886608 0.06256172 0.06256172
0.06256172 0.58642281 0.70776863
0.06256172 0.58617470 0.70775864
0.06256172 0.58424750 0.70768189
0.55754389 0.57557192 0.70735445
0.73303674 0.53693450 0.70620389
0.85519646 0.06256172 0.70242153
0.91886608 0.06256172 0.68957424
0.91886608 0.06256172 0.63185964
0.91886608 0.06256172 0.06256172
0.06256172 0.71051580 0.70123810
0.06256172 0.71044919 0.70122739
0.06256172 0.70993619 0.70114512
0.06256172 0.70772046 0.70079405
0.69955980 0.69955980 0.69955980
0.84745219 0.66732161 0.69549454
0.91886608 0.06256172 0.68159087
0.91886608 0.06256172 0.61659140
0.91886608 0.06256172 0.06256172
0.06256172 0.82364253 0.67662775
0.06256172 0.82362294 0.67661384
0.06256172 0.82347236 0.67650699
0.06256172 0.82282850 0.67605076
0.06256172 0.82054743 0.67444277
0.81690884 0.81283125 0.66910078
0.91886608 0.78354704 0.65023617
0.91886608 0.06256172 0.53862355
0.91886608 0.06256172 0.06256172
0.06256172 0.91886608 0.42784834
0.06256172 0.91886608 0.42764631
0.06256172 0.91886608 0.42607943
0.06256172 0.91886608 0.41907993
0.06256172 0.91886608 0.38907426
0.06256172 0.91886608 0.06256172
0.91886608 0.91874790 0.06256172
0.91886608 0.89087508 0.06256172
0.91886608 0.06256172 0.06256172
0.06256172 0.91886608 0.06256172
0.06256172 0.91886608 0.06256172
0.06256172 0.91886608 0.06256172
0.06256172 0.91886608 0.06256172
0.06256172 0.91886608 0.06256172
0.06256172 0.91886608 0.06256172
0.06256172 0.91886608 0.06256172
0.91886608 0.91886608 0.06256172
0.91886608 0.91886608 0.06256172
0.06256172 0.91886608 0.06256172
0.06256172 0.91886608 0.06256172
0.06256172 0.91886608 0.06256172
0.06256172 0.91886608 0.06256172
0.06256172 0.91886608 0.06256172
0.06256172 0.91886608 0.06256172
0.06256172 0.91886608 0.06256172
0.06256172 0.91886608 0.06256172
0.91886608 0.91886608 0.06256172
0.06256172 0.06256172 0.82268184
0.06256172 0.06256172 0.82267896
0.06256172 0.06256172 0.82265680
0.55117416 0.06256172 0.82256241
0.73207435 0.06256172 0.82223257
0.85494377 0.06256172 0.82116812
0.91886608 0.06256172 0.81777389
0.91886608 0.06256172 0.80622205
0.91886608 0.06256172 0.75339677
0.06256172 0.06256172 0.82266585
0.06256172 0.06256172 0.82266297
0.06256172 0.06256172 0.82264081
0.54945820 0.06256172 0.82254640
0.73182446 0.06256172 0.82221650
0.85487846 0.06256172 0.82115186
0.91886608 0.06256172 0.81775701
0.91886608 0.06256172 0.80620289
0.91886608 0.06256172 0.75336278
0.06256172 0.40604979 0.82254298
0.06256172 0.40425703 0.82254009
0.06256172 0.38909591 0.82251790
0.53511594 0.22398981 0.82242336
0.72988300 0.06256172 0.82209301
0.85437540 0.06256172 0.82102692
0.91886608 0.06256172 0.81762730
0.91886608 0.06256172 0.80605563
0.91886608 0.06256172 0.75310139
0.06256172 0.58015728 0.82201803
0.06256172 0.57989210 0.82201512
0.06256172 0.57783066 0.82199280
0.41912755 0.56851243 0.82189772
0.72113551 0.52605921 0.82156545
0.85220160 0.06256172 0.82049310
0.91886608 0.06256172 0.81707307
0.91886608 0.06256172 0.80542609
0.91886608 0.06256172 0.75198034
0.06256172 0.70887265 0.82016381
0.06256172 0.70880487 0.82016085
0.06256172 0.70828279 0.82013806
0.06256172 0.70602723 0.82004101
0.68206123 0.69771155 0.81970187
0.84418191 0.66470960 0.81860714
0.91886608 0.06256172 0.81511400
0.91886608 0.06256172 0.80319677
0.91886608 0.06256172 0.74796293
0.06256172 0.82316198 0.81395744
0.06256172 0.82314229 0.81395426
0.06256172 0.82299090 0.81392987
0.06256172 0.82234360 0.81382596
0.06256172 0.82005016 0.81346277
0.81228981 0.81228981 0.81228981
0.91886608 0.78280080 0.80854044
0.91886608 0.06256172 0.79566824
0.91886608 0.06256172 0.73379071
0.06256172 0.91886608 0.79140160
0.06256172 0.91886608 0.79139753
0.06256172 0.91886608 0.79136631
0.06256172 0.91886608 0.79123330
0.06256172 0.91886608 0.79076807
0.06256172 0.91886608 0.78926211
0.91886608 0.91858404 0.78441195
0.91886608 0.89064921 0.76729461
0.91886608 0.06256172 0.66732966
0.06256172 0.91886608 0.60716491
0.06256172 0.91886608 0.60713591
0.06256172 0.91886608 0.60691298
0.06256172 0.91886608 0.60595803
0.06256172 0.91886608 0.60255129
0.06256172 0.91886608 0.59073289
0.06256172 0.91886608 0.54008591
0.91886608 0.91886608 0.06256172
0.91886608 0.91886608 0.06256172
0.06256172 0.91886608 0.06256172
0.06256172 0.91886608 0.06256172
0.06256172 0.91886608 0.06256172
0.06256172 0.91886608 0.06256172
0.06256172 0.91886608 0.06256172
0.06256172 0.91886608 0.06256172
0.06256172 0.91886608 0.06256172
0.06256172 0.91886608 0.06256172
0.91886608 0.91886608 0.06256172
0.06256172 0.06256172 0.91886608
0.06256172 0.06256172 0.91886608
0.06256172 0.06256172 0.91886608
0.06256172 0.06256172 0.91886608
0.68805088 0.06256172 0.91886608
0.84524670 0.06256172 0.91886608
0.91886608 0.06256172 0.91886608
0.91886608 0.06256172 0.91886608
0.91886608 0.06256172 0.91195707
0.06256172 0.06256172 0.91886608
0.06256172 0.06256172 0.91886608
0.06256172 0.06256172 0.91886608
0.06256172 0.06256172 0.91886608
0.68765118 0.06256172 0.91886608
0.84517392 0.06256172 0.91886608
0.91886608 0.06256172 0.91886608
0.91886608 0.06256172 0.91886608
0.91886608 0.06256172 0.91195122
0.06256172 0.06256172 0.91886608
0.06256172 0.06256172 0.91886608
0.06256172 0.06256172 0.91886608
0.06256172 0.06256172 0.91886608
0.68452426 0.06256172 0.91886608
0.84461312 0.06256172 0.91886608
0.91886608 0.06256172 0.91886608
0.91886608 0.06256172 0.91886608
0.91886608 0.06256172 0.91190632
0.06256172 0.55747425 0.91886608
0.06256172 0.55713666 0.91886608
0.06256172 0.55450312 0.91886608
0.06256172 0.54238266 0.91886608
0.66991490 0.48066023 0.91886608
0.84218581 0.06256172 0.91886608
0.91886608 0.06256172 0.91886608
0.91886608 0.06256172 0.91886608
0.91886608 0.06256172 0.91171492
0.06256172 0.70356801 0.91886608
0.06256172 0.70349629 0.91886608
0.06256172 0.70294377 0.91886608
0.06256172 0.70055472 0.91886608
0.58730607 0.69171692 0.91886608
0.83317172 0.65608717 0.91886608
0.91886608 0.06256172 0.91886608
0.91886608 0.06256172 0.91886608
0.91886608 0.06256172 0.91104434
0.06256172 0.82165023 0.91886608
0.06256172 0.82163021 0.91886608
0.06256172 0.82147627 0.91886608
0.06256172 0.82081804 0.91886608
0.06256172 0.81848523 0.91886608
0.79621006 0.81058422 0.91886608
0.91886608 0.78043941 0.91886608
0.91886608 0.06256172 0.91886608
0.91886608 0.06256172 0.90886118
0.06256172 0.91886608 0.91886608
0.06256172 0.91886608 0.91886608
0.06256172 0.91886608 0.91886608
0.06256172 0.91886608 0.91886608
0.06256172 0.91886608 0.91886608
0.06256172 0.91886608 0.91886608
0.91807218 0.91807218 0.91807218
0.91886608 0.88994267 0.91449829
0.91886608 0.06256172 0.90169423
0.06256172 0.91886608 0.89818045
0.06256172 0.91886608 0.89817921
0.06256172 0.91886608 0.89816972
0.06256172 0.91886608 0.89812930
0.06256172 0.91886608 0.89798825
0.06256172 0.91886608 0.89753499
0.06256172 0.91886608 0.89610943
0.91886608 0.91886608 0.89148049
0.91886608 0.91886608 0.87442071
0.06256172 0.91886608 0.70165935
0.06256172 0.91886608 0.70164868
0.06256172 0.91886608 0.70156677
0.06256172 0.91886608 0.70121728
0.06256172 0.91886608 0.69998861
0.06256172 0.91886608 0.69594223
0.06256172 0.91886608 0.68210954
0.06256172 0.91886608 0.61762020
0.91886608 0.91886608 0.06256172
0.06256172 0.06256172 0.91886608
0.06256172 0.06256172 0.91886608
0.06256172 0.06256172 0.91886608
0.06256172 0.06256172 0.91886608
0.06256172 0.06256172 0.91886608
0.80554249 0.06256172 0.91886608
0.91886608 0.06256172 0.91886608
0.91886608 0.06256172 0.91886608
0.91886608 0.06256172 0.91886608
0.06256172 0.06256172 0.91886608
0.06256172 0.06256172 0.91886608
0.06256172 0.06256172 0.91886608
0.06256172 0.06256172 0.91886608
0.06256172 0.06256172 0.91886608
0.80542965 0.06256172 0.91886608
0.91886608 0.06256172 0.91886608
0.91886608 0.06256172 0.91886608
0.91886608 0.06256172 0.91886608
0.06256172 0.06256172 0.91886608
0.06256172 0.06256172 0.91886608
0.06256172 0.06256172 0.91886608
0.06256172 0.06256172 0.91886608
0.06256172 0.06256172 0.91886608
0.80455852 0.06256172 0.91886608
0.91886608 0.06256172 0.91886608
0.91886608 0.06256172 0.91886608
0.91886608 0.06256172 0.91886608
0.06256172 0.36729122 0.91886608
0.06256172 0.36445321 0.91886608
0.06256172 0.33866067 0.91886608
0.06256172 0.06256172 0.91886608
0.06256172 0.06256172 0.91886608
0.80075434 0.06256172 0.91886608
0.91886608 0.06256172 0.91886608
0.91886608 0.06256172 0.91886608
0.91886608 0.06256172 0.91886608
0.06256172 0.68467326 0.91886608
0.06256172 0.68458559 0.91886608
0.06256172 0.68390975 0.91886608
0.06256172 0.68097726 0.91886608
0.06256172 0.66997625 0.91886608
0.78610125 0.62243018 0.91886608
0.91886608 0.06256172 0.91886608
0.91886608 0.06256172 0.91886608
0.91886608 0.06256172 0.91886608
0.06256172 0.81673771 0.91886608
0.06256172 0.81671657 0.91886608
0.06256172 0.81655407 0.91886608
0.06256172 0.81585906 0.91886608
0.06256172 0.81339367 0.91886608
0.71230355 0.80501702 0.91886608
0.91886608 0.77261345 0.91886608
0.91886608 0.06256172 0.91886608
0.91886608 0.06256172 0.91886608
0.06256172 0.91886608 0.91886608
0.06256172 0.91886608 0.91886608
0.06256172 0.91886608 0.91886608
0.06256172 0.91886608 0.91886608
0.06256172 0.91886608 0.91886608
0.06256172 0.91886608 0.91886608
0.90273895 0.91644653 0.91886608
0.91886608 0.88768864 0.91886608
0.91886608 0.06256172 0.91886608
0.06256172 0.91886608 0.91886608
0.06256172 0.91886608 0.91886608
0.06256172 0.91886608 0.91886608
0.06256172 0.91886608 0.91886608
0.06256172 0.91886608 0.91886608
0.06256172 0.91886608 0.91886608
0.06256172 0.91886608 0.91886608
0.91886608 0.91886608 0.91886608
0.91886608 0.91886608 0.91886608
0.06256172 0.91886608 0.91886608
0.06256172 0.91886608 0.91886608
0.06256172 0.91886608 0.91886608
0.06256172 0.91886608 0.91886608
0.06256172 0.91886608 0.91886608
0.06256172 0.91886608 0.91886608
0.06256172 0.91886608 0.91886608
0.06256172 0.91886608 0.91886608
0.91886608 0.91886608 0.91886608
0.06256172 0.06256172 0.91886608
0.06256172 0.06256172 0.91886608
0.06256172 0.06256172 0.91886608
0.06256172 0.06256172 0.91886608
0.06256172 0.06256172 0.91886608
0.06256172 0.06256172 0.91886608
0.91055272 0.06256172 0.91886608
0.91886608 0.06256172 0.91886608
0.91886608 0.06256172 0.91886608
0.06256172 0.06256172 0.91886608
0.06256172 0.06256172 0.91886608
0.06256172 0.06256172 0.91886608
0.06256172 0.06256172 0.91886608
0.06256172 0.06256172 0.91886608
0.06256172 0.06256172 0.91886608
0.91051800 0.06256172 0.91886608
0.91886608 0.06256172 0.91886608
0.91886608 0.06256172 0.91886608
0.06256172 0.06256172 0.91886608
0.06256172 0.06256172 0.91886608
0.06256172 0.06256172 0.91886608
0.06256172 0.06256172 0.91886608
0.06256172 0.06256172 0.91886608
0.06256172 0.06256172 0.91886608
0.91025095 0.06256172 0.91886608
0.91886608 0.06256172 0.91886608
0.91886608 0.06256172 0.91886608
0.06256172 0.06256172 0.91886608
0.06256172 0.06256172 0.91886608
0.06256172 0.06256172 0.91886608
0.06256172 0.06256172 0.91886608
0.06256172 0.06256172 0.91886608
0.06256172 0.06256172 0.91886608
0.90910483 0.06256172 0.91886608
0.91886608 0.06256172 0.91886608
0.91886608 0.06256172 0.91886608
0.06256172 0.56360004 0.91886608
0.06256172 0.56328379 0.91886608
0.06256172 0.56081930 0.91886608
0.06256172 0.54953782 0.91886608
0.06256172 0.49410322 0.91886608
0.06256172 0.06256172 0.91886608
0.90498645 0.06256172 0.91886608
0.91886608 0.06256172 0.91886608
0.91886608 0.06256172 0.91886608
0.06256172 0.79857640 0.91886608
0.06256172 0.79855061 0.91886608
0.06256172 0.79835228 0.91886608
0.06256172 0.79750317 0.91886608
0.06256172 0.79447988 0.91886608
0.06256172 0.78406793 0.91886608
0.89031113 0.74120367 0.91886608
0.91886608 0.06256172 0.91886608
0.91886608 0.06256172 0.91886608
0.06256172 0.91886608 0.91886608
0.06256172 0.91886608 0.91886608
0.06256172 0.91886608 0.91886608
0.06256172 0.91886608 0.91886608
0.06256172 0.91886608 0.91886608
0.06256172 0.91886287 0.91886608
0.81740477 0.91092022 0.91886608
0.91886608 0.87990611 0.91886608
0.91886608 0.06256172 0.91886608
0.06256172 0.91886608 0.91886608
0.06256172 0.91886608 0.91886608
0.06256172 0.91886608 0.91886608
0.06256172 0.91886608 0.91886608
0.06256172 0.91886608 0.91886608
0.06256172 0.91886608 0.91886608
0.06256172 0.91886608 0.91886608
0.91886608 0.91886608 0.91886608
0.91886608 0.91886608 0.91886608
0.06256172 0.91886608 0.91886608
0.06256172 0.91886608 0.91886608
0.06256172 0.91886608 0.91886608
0.06256172 0.91886608 0.91886608
0.06256172 0.91886608 0.91886608
0.06256172 0.91886608 0.91886608
0.06256172 0.91886608 0.91886608
0.06256172 0.91886608 0.91886608
0.91886608 0.91886608 0.91886608
