src/ffmpeg_scripts/luts/rec2020-sRGB_2p33.cube
TITLE "rec2020-srgb_2p33"
LUT_3D_SIZE 9
# PQ (EOTF Only)/Rec2020 -> PQ (EOTF Only)/Rec709, CineEI Shift 2.33, Black Level 0.00% IRE, Input 100% -> Output 109% - Created with LUTCalc v4.01 by Ben Turley October 2020
0.06256172 0.06256172 0.06256172
0.27442876 0.06256172 0.06256172
0.42762869 0.06256172 0.06256172
0.56094146 0.06256172 0.06256172
0.68221981 0.06256172 0.06256172
0.79501351 0.06256172 0.06256172
0.90133287 0.06256172 0.06256172
0.91886608 0.06256172 0.06256172
0.91886608 0.06256172 0.06256172
0.06256172 0.25207056 0.06256172
0.24901022 0.24556408 0.06256172
0.42429178 0.12667164 0.06256172
0.56017215 0.06256172 0.06256172
0.68200742 0.06256172 0.06256172
0.79495023 0.06256172 0.06256172
0.90131357 0.06256172 0.06256172
0.91886608 0.06256172 0.06256172
0.91886608 0.06256172 0.06256172
0.06256172 0.39749230 0.06256172
0.06256172 0.39650761 0.06256172
0.39329511 0.38854680 0.06256172
0.55404507 0.34249233 0.06256172
0.68036045 0.06256172 0.06256172
0.79446286 0.06256172 0.06256172
0.90116523 0.06256172 0.06256172
0.91886608 0.06256172 0.06256172
0.91886608 0.06256172 0.06256172
0.06256172 0.52702955 0.06256172
0.06256172 0.52679596 0.06256172
0.06256172 0.52498247 0.06256172
0.52225625 0.51684072 0.06256172
0.67300871 0.48106772 0.06256172
0.79235865 0.06256172 0.06256172
0.90053089 0.06256172 0.06256172
0.91886608 0.06256172 0.06256172
0.91886608 0.06256172 0.06256172
0.06256172 0.64672823 0.06256172
0.06256172 0.64666274 0.06256172
0.06256172 0.64615835 0.06256172
0.06256172 0.64398057 0.06256172
0.64169398 0.63597046 0.06256172
0.78462127 0.60450211 0.06256172
0.89828263 0.06256172 0.06256172
0.91886608 0.06256172 0.06256172
0.91886608 0.06256172 0.06256172
0.06256172 0.75937888 0.06256172
0.06256172 0.75935915 0.06256172
0.06256172 0.75920751 0.06256172
0.06256172 0.75855920 0.06256172
0.06256172 0.75626295 0.06256172
0.75429357 0.74850244 0.06256172
0.89066668 0.71915164 0.06256172
0.91886608 0.06256172 0.06256172
0.91886608 0.06256172 0.06256172
0.06256172 0.86658495 0.06256172
0.06256172 0.86657888 0.06256172
0.06256172 0.86653225 0.06256172
0.06256172 0.86633346 0.06256172
0.06256172 0.86563694 0.06256172
0.06256172 0.86336890 0.06256172
0.86160120 0.85591797 0.06256172
0.91886608 0.82747228 0.06256172
0.91886608 0.06256172 0.06256172
0.06256172 0.91886608 0.06256172
0.06256172 0.91886608 0.06256172
0.06256172 0.91886608 0.06256172
0.06256172 0.91886608 0.06256172
0.06256172 0.91886608 0.06256172
0.06256172 0.91886608 0.06256172
0.06256172 0.91886608 0.06256172
0.91886608 0.91886608 0.06256172
0.91886608 0.91886608 0.06256172
0.06256172 0.91886608 0.06256172
0.06256172 0.91886608 0.06256172
0.06256172 0.91886608 0.06256172
0.06256172 0.91886608 0.06256172
0.06256172 0.91886608 0.06256172
0.06256172 0.91886608 0.06256172
0.06256172 0.91886608 0.06256172
0.06256172 0.91886608 0.06256172
0.91886608 0.91886608 0.06256172
0.06256172 0.06256172 0.25136051
0.27172636 0.06256172 0.25044023
0.42722178 0.06256172 0.24293054
0.56084643 0.06256172 0.19521336
0.68219351 0.06256172 0.06256172
0.79500567 0.06256172 0.06256172
0.90133048 0.06256172 0.06256172
0.91886608 0.06256172 0.06256172
0.91886608 0.06256172 0.06256172
0.06256172 0.25165306 0.24609905
0.24510503 0.24510503 0.24510503
0.42386920 0.12223023 0.23694381
0.56007634 0.06256172 0.18147942
0.68198106 0.06256172 0.06256172
0.79494238 0.06256172 0.06256172
0.90131118 0.06256172 0.06256172
0.91886608 0.06256172 0.06256172
0.91886608 0.06256172 0.06256172
0.06256172 0.39742664 0.17805007
0.06256172 0.39644120 0.17497200
0.39269180 0.38847395 0.14170167
0.55394280 0.34236602 0.06256172
0.68033363 0.06256172 0.06256172
0.79445497 0.06256172 0.06256172
0.90116283 0.06256172 0.06256172
0.91886608 0.06256172 0.06256172
0.91886608 0.06256172 0.06256172
0.06256172 0.52701391 0.06256172
0.06256172 0.52678028 0.06256172
0.06256172 0.52496648 0.06256172
0.52211250 0.51682327 0.06256172
0.67297971 0.48104200 0.06256172
0.79235058 0.06256172 0.06256172
0.90052847 0.06256172 0.06256172
0.91886608 0.06256172 0.06256172
0.91886608 0.06256172 0.06256172
0.06256172 0.64672384 0.06256172
0.06256172 0.64665835 0.06256172
0.06256172 0.64615394 0.06256172
0.06256172 0.64397605 0.06256172
0.64165359 0.63596554 0.06256172
0.78461249 0.60449525 0.06256172
0.89828015 0.06256172 0.06256172
0.91886608 0.06256172 0.06256172
0.91886608 0.06256172 0.06256172
0.06256172 0.75937756 0.06256172
0.06256172 0.75935783 0.06256172
0.06256172 0.75920619 0.06256172
0.06256172 0.75855787 0.06256172
0.06256172 0.75626159 0.06256172
0.75428138 0.74850095 0.06256172
0.89066398 0.71914960 0.06256172
0.91886608 0.06256172 0.06256172
0.91886608 0.06256172 0.06256172
0.06256172 0.86658454 0.06256172
0.06256172 0.86657847 0.06256172
0.06256172 0.86653184 0.06256172
0.06256172 0.86633305 0.06256172
0.06256172 0.86563653 0.06256172
0.06256172 0.86336847 0.06256172
0.86159745 0.85591752 0.06256172
0.91886608 0.82747165 0.06256172
0.91886608 0.06256172 0.06256172
0.06256172 0.91886608 0.06256172
0.06256172 0.91886608 0.06256172
0.06256172 0.91886608 0.06256172
0.06256172 0.91886608 0.06256172
0.06256172 0.91886608 0.06256172
0.06256172 0.91886608 0.06256172
0.06256172 0.91886608 0.06256172
0.91886608 0.91886608 0.06256172
0.91886608 0.91886608 0.06256172
0.06256172 0.91886608 0.06256172
0.06256172 0.91886608 0.06256172
0.06256172 0.91886608 0.06256172
0.06256172 0.91886608 0.06256172
0.06256172 0.91886608 0.06256172
0.06256172 0.91886608 0.06256172
0.06256172 0.91886608 0.06256172
0.06256172 0.91886608 0.06256172
0.91886608 0.91886608 0.06256172
0.06256172 0.06256172 0.39652011
0.24664599 0.06256172 0.39637569
0.42403332 0.06256172 0.39525862
0.56011351 0.06256172 0.39033440
0.68199128 0.06256172 0.37054047
0.79494543 0.06256172 0.18123224
0.90131211 0.06256172 0.06256172
0.91886608 0.06256172 0.06256172
0.91886608 0.06256172 0.06256172
0.06256172 0.24836038 0.39571678
0.20343570 0.24147293 0.39557101
0.42055514 0.06256172 0.39444341
0.55933737 0.06256172 0.38947097
0.68177838 0.06256172 0.36944940
0.79488210 0.06256172 0.16272099
0.90129280 0.06256172 0.06256172
0.91886608 0.06256172 0.06256172
0.91886608 0.06256172 0.06256172
0.06256172 0.39692079 0.38928546
0.06256172 0.39592952 0.38912838
0.38791250 0.38791250 0.38791250
0.55315372 0.34138957 0.38253422
0.68012738 0.06256172 0.36056238
0.79439436 0.06256172 0.06256172
0.90114442 0.06256172 0.06256172
0.91886608 0.06256172 0.06256172
0.91886608 0.06256172 0.06256172
0.06256172 0.52689372 0.35467119
0.06256172 0.52665978 0.35443428
0.06256172 0.52484362 0.35259222
0.52100123 0.51668915 0.34425395
0.67275672 0.48084422 0.30573863
0.79228856 0.06256172 0.06256172
0.90050993 0.06256172 0.06256172
0.91886608 0.06256172 0.06256172
0.91886608 0.06256172 0.06256172
0.06256172 0.64669013 0.06256172
0.06256172 0.64662462 0.06256172
0.06256172 0.64612003 0.06256172
0.06256172 0.64394135 0.06256172
0.64134284 0.63592778 0.06256172
0.78454503 0.60444257 0.06256172
0.89826112 0.06256172 0.06256172
0.91886608 0.06256172 0.06256172
0.91886608 0.06256172 0.06256172
0.06256172 0.75936741 0.06256172
0.06256172 0.75934767 0.06256172
0.06256172 0.75919602 0.06256172
0.06256172 0.75854762 0.06256172
0.06256172 0.75625108 0.06256172
0.75418773 0.74848954 0.06256172
0.89064322 0.71913397 0.06256172
0.91886608 0.06256172 0.06256172
0.91886608 0.06256172 0.06256172
0.06256172 0.86658142 0.06256172
0.06256172 0.86657535 0.06256172
0.06256172 0.86652871 0.06256172
0.06256172 0.86632992 0.06256172
0.06256172 0.86563337 0.06256172
0.06256172 0.86336523 0.06256172
0.86156860 0.85591399 0.06256172
0.91886608 0.82746682 0.06256172
0.91886608 0.06256172 0.06256172
0.06256172 0.91886608 0.06256172
0.06256172 0.91886608 0.06256172
0.06256172 0.91886608 0.06256172
0.06256172 0.91886608 0.06256172
0.06256172 0.91886608 0.06256172
0.06256172 0.91886608 0.06256172
0.06256172 0.91886608 0.06256172
0.91886608 0.91886608 0.06256172
0.91886608 0.91886608 0.06256172
0.06256172 0.91886608 0.06256172
0.06256172 0.91886608 0.06256172
0.06256172 0.91886608 0.06256172
0.06256172 0.91886608 0.06256172
0.06256172 0.91886608 0.06256172
0.06256172 0.91886608 0.06256172
0.06256172 0.91886608 0.06256172
0.06256172 0.91886608 0.06256172
0.91886608 0.91886608 0.06256172
0.06256172 0.06256172 0.52592504
0.06256172 0.06256172 0.52589063
0.40899934 0.06256172 0.52562597
0.55692788 0.06256172 0.52449085
0.68112556 0.06256172 0.52042160
0.79468853 0.06256172 0.50604207
0.90123385 0.06256172 0.43719590
0.91886608 0.06256172 0.06256172
0.91886608 0.06256172 0.06256172
0.06256172 0.23222845 0.52573420
0.06256172 0.22332176 0.52569971
0.40485565 0.06256172 0.52543451
0.55612485 0.06256172 0.52429704
0.68091069 0.06256172 0.52021912
0.79462502 0.06256172 0.50580558
0.90121453 0.06256172 0.43669114
0.91886608 0.06256172 0.06256172
0.91886608 0.06256172 0.06256172
0.06256172 0.39473361 0.52425560
0.06256172 0.39371676 0.52422057
0.36389939 0.38548040 0.52395111
0.54971832 0.33709640 0.52279525
0.67924429 0.06256172 0.51864944
0.79413591 0.06256172 0.50396920
0.90106601 0.06256172 0.43271691
0.91886608 0.06256172 0.06256172
0.91886608 0.06256172 0.06256172
0.06256172 0.52638033 0.51768426
0.06256172 0.52614510 0.51764666
0.06256172 0.52431877 0.51735744
0.51611604 0.51611604 0.51611604
0.67180155 0.47999750 0.51165352
0.79202411 0.06256172 0.49571540
0.90043095 0.06256172 0.41346675
0.91886608 0.06256172 0.06256172
0.91886608 0.06256172 0.06256172
0.06256172 0.64654651 0.49025569
0.06256172 0.64648090 0.49020509
0.06256172 0.64597553 0.48981564
0.06256172 0.64379349 0.48813901
0.64000847 0.63576683 0.48204196
0.78425730 0.60421798 0.45922076
0.89818008 0.06256172 0.21839329
0.91886608 0.06256172 0.06256172
0.91886608 0.06256172 0.06256172
0.06256172 0.75932416 0.06256172
0.06256172 0.75930442 0.06256172
0.06256172 0.75915269 0.06256172
0.06256172 0.75850400 0.06256172
0.06256172 0.75620636 0.06256172
0.75378801 0.74844092 0.06256172
0.89055480 0.71906740 0.06256172
0.91886608 0.06256172 0.06256172
0.91886608 0.06256172 0.06256172
0.06256172 0.86656811 0.06256172
0.06256172 0.86656204 0.06256172
0.06256172 0.86651540 0.06256172
0.06256172 0.86631657 0.06256172
0.06256172 0.86561992 0.06256172
0.06256172 0.86335144 0.06256172
0.86144571 0.85589900 0.06256172
0.91886608 0.82744624 0.06256172
0.91886608 0.06256172 0.06256172
0.06256172 0.91886608 0.06256172
0.06256172 0.91886608 0.06256172
0.06256172 0.91886608 0.06256172
0.06256172 0.91886608 0.06256172
0.06256172 0.91886608 0.06256172
0.06256172 0.91886608 0.06256172
0.06256172 0.91886608 0.06256172
0.91886608 0.91886608 0.06256172
0.91886608 0.91886608 0.06256172
0.06256172 0.91886608 0.06256172
0.06256172 0.91886608 0.06256172
0.06256172 0.91886608 0.06256172
0.06256172 0.91886608 0.06256172
0.06256172 0.91886608 0.06256172
0.06256172 0.91886608 0.06256172
0.06256172 0.91886608 0.06256172
0.06256172 0.91886608 0.06256172
0.91886608 0.91886608 0.06256172
0.06256172 0.06256172 0.64556420
0.06256172 0.06256172 0.64555454
0.31406797 0.06256172 0.64548034
0.54489121 0.06256172 0.64516381
0.67804372 0.06256172 0.64405196
0.79378726 0.06256172 0.64040068
0.90096048 0.06256172 0.62804464
0.91886608 0.06256172 0.57357086
0.91886608 0.06256172 0.06256172
0.06256172 0.06256172 0.64551067
0.06256172 0.06256172 0.64550100
0.30023155 0.06256172 0.64542676
0.54397762 0.06256172 0.64511005
0.67782171 0.06256172 0.64399756
0.79372312 0.06256172 0.64034414
0.90094109 0.06256172 0.62798021
0.91886608 0.06256172 0.57345613
0.91886608 0.06256172 0.06256172
0.06256172 0.38664256 0.64509857
0.06256172 0.38552466 0.64508886
0.06256172 0.37641475 0.64501429
0.53664838 0.32003644 0.64469620
0.67609934 0.06256172 0.64357880
0.79322917 0.06256172 0.63990885
0.90079211 0.06256172 0.62748399
0.91886608 0.06256172 0.57257046
0.91886608 0.06256172 0.06256172
0.06256172 0.52456808 0.64332389
0.06256172 0.52432822 0.64331400
0.06256172 0.52246552 0.64323802
0.49673583 0.51408989 0.64291388
0.66839391 0.47698271 0.64177510
0.79109615 0.06256172 0.63803309
0.90015504 0.06256172 0.62534199
0.91886608 0.06256172 0.56870413
0.91886608 0.06256172 0.06256172
0.06256172 0.64604409 0.63686282
0.06256172 0.64597813 0.63685223
0.06256172 0.64547007 0.63677088
0.06256172 0.64327620 0.63642377
0.63520360 0.63520360 0.63520360
0.78324710 0.60343081 0.63118664
0.89789695 0.06256172 0.61747068
0.91886608 0.06256172 0.55382706
0.91886608 0.06256172 0.06256172
0.06256172 0.75917324 0.61258310
0.06256172 0.75915347 0.61256941
0.06256172 0.75900149 0.61246423
0.06256172 0.75835174 0.61201518
0.06256172 0.75605028 0.61043280
0.75238088 0.74827124 0.60517933
0.89024584 0.71883496 0.58666982
0.91886608 0.06256172 0.47859808
0.91886608 0.06256172 0.06256172
0.06256172 0.86652171 0.37407938
0.06256172 0.86651564 0.37389158
0.06256172 0.86646897 0.37243541
0.06256172 0.86627004 0.36593860
0.06256172 0.86557302 0.33824230
0.06256172 0.86330333 0.06256172
0.86101595 0.85584669 0.06256172
0.91886608 0.82737446 0.06256172
0.91886608 0.06256172 0.06256172
0.06256172 0.91886608 0.06256172
0.06256172 0.91886608 0.06256172
0.06256172 0.91886608 0.06256172
0.06256172 0.91886608 0.06256172
0.06256172 0.91886608 0.06256172
0.06256172 0.91886608 0.06256172
0.06256172 0.91886608 0.06256172
0.91886608 0.91886608 0.06256172
0.91886608 0.91886608 0.06256172
0.06256172 0.91886608 0.06256172
0.06256172 0.91886608 0.06256172
0.06256172 0.91886608 0.06256172
0.06256172 0.91886608 0.06256172
0.06256172 0.91886608 0.06256172
0.06256172 0.91886608 0.06256172
0.06256172 0.91886608 0.06256172
0.06256172 0.91886608 0.06256172
0.91886608 0.91886608 0.06256172
0.06256172 0.06256172 0.75820375
0.06256172 0.06256172 0.75820083
0.06256172 0.06256172 0.75817847
0.49062086 0.06256172 0.75808323
0.66743704 0.06256172 0.75775040
0.79083990 0.06256172 0.75667644
0.90007919 0.06256172 0.75325306
0.91886608 0.06256172 0.74161569
0.91886608 0.06256172 0.68867448
0.06256172 0.06256172 0.75818761
0.06256172 0.06256172 0.75818470
0.06256172 0.06256172 0.75816233
0.48897502 0.06256172 0.75806707
0.66718860 0.06256172 0.75773419
0.79077367 0.06256172 0.75666004
0.90005961 0.06256172 0.75323604
0.91886608 0.06256172 0.74159641
0.91886608 0.06256172 0.68864057
0.06256172 0.35388013 0.75806362
0.06256172 0.35222476 0.75806070
0.06256172 0.33826219 0.75803831
0.47524419 0.19118860 0.75794292
0.66525883 0.06256172 0.75760959
0.79026354 0.06256172 0.75653399
0.89990911 0.06256172 0.75310526
0.91886608 0.06256172 0.74144820
0.91886608 0.06256172 0.68837975
0.06256172 0.51851476 0.75753393
0.06256172 0.51825875 0.75753100
0.06256172 0.51626902 0.75750848
0.36598276 0.50728610 0.75741254
0.65657209 0.46659709 0.75707730
0.78805969 0.06256172 0.75599548
0.89926554 0.06256172 0.75254645
0.91886608 0.06256172 0.74081461
0.91886608 0.06256172 0.68726130
0.06256172 0.64441691 0.75566332
0.06256172 0.64434980 0.75566033
0.06256172 0.64383289 0.75563734
0.06256172 0.64160027 0.75553945
0.61793412 0.63337694 0.75519737
0.77993534 0.60086485 0.75409330
0.89698400 0.06256172 0.75057161
0.91886608 0.06256172 0.73857152
0.91886608 0.06256172 0.68325495
0.06256172 0.75868827 0.74940601
0.06256172 0.75866839 0.74940281
0.06256172 0.75851562 0.74937823
0.06256172 0.75786244 0.74927352
0.06256172 0.75554868 0.74890755
0.74772574 0.74772574 0.74772574
0.88924902 0.71808666 0.74394955
0.91886608 0.06256172 0.73100235
0.91886608 0.06256172 0.66914367
0.06256172 0.86637296 0.72671673
0.06256172 0.86636687 0.72671265
0.06256172 0.86632013 0.72668130
0.06256172 0.86612087 0.72654774
0.06256172 0.86542267 0.72608063
0.06256172 0.86314909 0.72456883
0.85962553 0.85567898 0.71970237
0.91886608 0.82714420 0.70255829
0.91886608 0.06256172 0.60343871
0.06256172 0.91886608 0.54466507
0.06256172 0.91886608 0.54463691
0.06256172 0.91886608 0.54442045
0.06256172 0.91886608 0.54349333
0.06256172 0.91886608 0.54018739
0.06256172 0.91886608 0.52873688
0.06256172 0.91886608 0.47999715
0.91886608 0.91886608 0.06256172
0.91886608 0.91886608 0.06256172
0.06256172 0.91886608 0.06256172
0.06256172 0.91886608 0.06256172
0.06256172 0.91886608 0.06256172
0.06256172 0.91886608 0.06256172
0.06256172 0.91886608 0.06256172
0.06256172 0.91886608 0.06256172
0.06256172 0.91886608 0.06256172
0.06256172 0.91886608 0.06256172
0.91886608 0.91886608 0.06256172
0.06256172 0.06256172 0.86543385
0.06256172 0.06256172 0.86543295
0.06256172 0.06256172 0.86542607
0.06256172 0.06256172 0.86539676
0.62383912 0.06256172 0.86529453
0.78101346 0.06256172 0.86496632
0.89727865 0.06256172 0.86393727
0.91886608 0.06256172 0.86062977
0.91886608 0.06256172 0.84889942
0.06256172 0.06256172 0.86542888
0.06256172 0.06256172 0.86542798
0.06256172 0.06256172 0.86542110
0.06256172 0.06256172 0.86539179
0.62344487 0.06256172 0.86528955
0.78093977 0.06256172 0.86496133
0.89725844 0.06256172 0.86393222
0.91886608 0.06256172 0.86062453
0.91886608 0.06256172 0.84889344
0.06256172 0.06256172 0.86539073
0.06256172 0.06256172 0.86538984
0.06256172 0.06256172 0.86538295
0.06256172 0.06256172 0.86535363
0.62036156 0.06256172 0.86525135
0.78037192 0.06256172 0.86492298
0.89710303 0.06256172 0.86389343
0.91886608 0.06256172 0.86058426
0.91886608 0.06256172 0.84884753
0.06256172 0.49666893 0.86522816
0.06256172 0.49634462 0.86522727
0.06256172 0.49381557 0.86522037
0.06256172 0.48219547 0.86519100
0.60597962 0.42353617 0.86508852
0.77791472 0.06256172 0.86475955
0.89643834 0.06256172 0.86372810
0.91886608 0.06256172 0.86041266
0.91886608 0.06256172 0.84865182
0.06256172 0.63916707 0.86465907
0.06256172 0.63909613 0.86465817
0.06256172 0.63854962 0.86465122
0.06256172 0.63618714 0.86462166
0.52542208 0.62745656 0.86451853
0.76879760 0.59240353 0.86418744
0.89408075 0.06256172 0.86314929
0.91886608 0.06256172 0.85981183
0.91886608 0.06256172 0.84796617
0.06256172 0.75716284 0.86281165
0.06256172 0.75714263 0.86281073
0.06256172 0.75698733 0.86280364
0.06256172 0.75632327 0.86277346
0.06256172 0.75397036 0.86266816
0.73154679 0.74600767 0.86233010
0.88607291 0.71571934 0.86126993
0.91886608 0.06256172 0.85785995
0.91886608 0.06256172 0.84573442
0.06256172 0.86590850 0.85680526
0.06256172 0.86590238 0.85680427
0.06256172 0.86585539 0.85679669
0.06256172 0.86565508 0.85676440
0.06256172 0.86495321 0.85665176
0.06256172 0.86266743 0.85629005
0.85515511 0.85515511 0.85515511
0.91886608 0.82642396 0.85149840
0.91886608 0.06256172 0.83841283
0.06256172 0.91886608 0.83482597
0.06256172 0.91886608 0.83482471
0.06256172 0.91886608 0.83481502
0.06256172 0.91886608 0.83477377
0.06256172 0.91886608 0.83462982
0.06256172 0.91886608 0.83416728
0.06256172 0.91886608 0.83271272
0.91886608 0.91886608 0.82799168
0.91886608 0.91886608 0.81061983
0.06256172 0.91886608 0.63727935
0.06256172 0.91886608 0.63726881
0.06256172 0.91886608 0.63718781
0.06256172 0.91886608 0.63684223
0.06256172 0.91886608 0.63562748
0.06256172 0.91886608 0.63162886
0.06256172 0.91886608 0.61798172
0.06256172 0.91886608 0.55482806
0.91886608 0.91886608 0.06256172
0.06256172 0.06256172 0.91886608
0.06256172 0.06256172 0.91886608
0.06256172 0.06256172 0.91886608
0.06256172 0.06256172 0.91886608
0.06256172 0.06256172 0.91886608
0.74093176 0.06256172 0.91886608
0.88786206 0.06256172 0.91886608
0.91886608 0.06256172 0.91886608
0.91886608 0.06256172 0.91886608
0.06256172 0.06256172 0.91886608
0.06256172 0.06256172 0.91886608
0.06256172 0.06256172 0.91886608
0.06256172 0.06256172 0.91886608
0.06256172 0.06256172 0.91886608
0.74081820 0.06256172 0.91886608
0.88783955 0.06256172 0.91886608
0.91886608 0.06256172 0.91886608
0.91886608 0.06256172 0.91886608
0.06256172 0.06256172 0.91886608
0.06256172 0.06256172 0.91886608
0.06256172 0.06256172 0.91886608
0.06256172 0.06256172 0.91886608
0.06256172 0.06256172 0.91886608
0.73994159 0.06256172 0.91886608
0.88766648 0.06256172 0.91886608
0.91886608 0.06256172 0.91886608
0.91886608 0.06256172 0.91886608
0.06256172 0.31829953 0.91886608
0.06256172 0.31571184 0.91886608
0.06256172 0.29231066 0.91886608
0.06256172 0.06256172 0.91886608
0.06256172 0.06256172 0.91886608
0.73611491 0.06256172 0.91886608
0.88692587 0.06256172 0.91886608
0.91886608 0.06256172 0.91886608
0.91886608 0.06256172 0.91886608
0.06256172 0.62050843 0.91886608
0.06256172 0.62042202 0.91886608
0.06256172 0.61975583 0.91886608
0.06256172 0.61686617 0.91886608
0.06256172 0.60603992 0.91886608
0.72139692 0.55951085 0.91886608
0.88429402 0.06256172 0.91886608
0.91886608 0.06256172 0.91886608
0.91886608 0.06256172 0.91886608
0.06256172 0.75220835 0.91886608
0.06256172 0.75218704 0.91886608
0.06256172 0.75202322 0.91886608
0.06256172 0.75132259 0.91886608
0.06256172 0.74883792 0.91886608
0.64781502 0.74040296 0.91886608
0.87529382 0.70788027 0.91886608
0.91886608 0.06256172 0.91886608
0.91886608 0.06256172 0.91886608
0.06256172 0.86443557 0.91886608
0.06256172 0.86442935 0.91886608
0.06256172 0.86438158 0.91886608
0.06256172 0.86417792 0.91886608
0.06256172 0.86346424 0.91886608
0.06256172 0.86113939 0.91886608
0.83947962 0.85349156 0.91886608
0.91886608 0.82412674 0.91886608
0.91886608 0.06256172 0.91886608
0.06256172 0.91886608 0.91886608
0.06256172 0.91886608 0.91886608
0.06256172 0.91886608 0.91886608
0.06256172 0.91886608 0.91886608
0.06256172 0.91886608 0.91886608
0.06256172 0.91886608 0.91886608
0.06256172 0.91886608 0.91886608
0.91886608 0.91886608 0.91886608
0.91886608 0.91886608 0.91886608
0.06256172 0.91886608 0.91886608
0.06256172 0.91886608 0.91886608
0.06256172 0.91886608 0.91886608
0.06256172 0.91886608 0.91886608
0.06256172 0.91886608 0.91886608
0.06256172 0.91886608 0.91886608
0.06256172 0.91886608 0.91886608
0.06256172 0.91886608 0.91886608
0.91886608 0.91886608 0.91886608
0.06256172 0.06256172 0.91886608
0.06256172 0.06256172 0.91886608
0.06256172 0.06256172 0.91886608
0.06256172 0.06256172 0.91886608
0.06256172 0.06256172 0.91886608
0.06256172 0.06256172 0.91886608
0.84746355 0.06256172 0.91886608
0.91886608 0.06256172 0.91886608
0.91886608 0.06256172 0.91886608
0.06256172 0.06256172 0.91886608
0.06256172 0.06256172 0.91886608
0.06256172 0.06256172 0.91886608
0.06256172 0.06256172 0.91886608
0.06256172 0.06256172 0.91886608
0.06256172 0.06256172 0.91886608
0.84742806 0.06256172 0.91886608
0.91886608 0.06256172 0.91886608
0.91886608 0.06256172 0.91886608
0.06256172 0.06256172 0.91886608
0.06256172 0.06256172 0.91886608
0.06256172 0.06256172 0.91886608
0.06256172 0.06256172 0.91886608
0.06256172 0.06256172 0.91886608
0.06256172 0.06256172 0.91886608
0.84715505 0.06256172 0.91886608
0.91886608 0.06256172 0.91886608
0.91886608 0.06256172 0.91886608
0.06256172 0.06256172 0.91886608
0.06256172 0.06256172 0.91886608
0.06256172 0.06256172 0.91886608
0.06256172 0.06256172 0.91886608
0.06256172 0.06256172 0.91886608
0.06256172 0.06256172 0.91886608
0.84598346 0.06256172 0.91886608
0.91886608 0.06256172 0.91886608
0.91886608 0.06256172 0.91886608
0.06256172 0.50255786 0.91886608
0.06256172 0.50225364 0.91886608
0.06256172 0.49988364 0.91886608
0.06256172 0.48905138 0.91886608
0.06256172 0.43623625 0.91886608
0.06256172 0.06256172 0.91886608
0.84177516 0.06256172 0.91886608
0.91886608 0.06256172 0.91886608
0.91886608 0.06256172 0.91886608
0.06256172 0.73392513 0.91886608
0.06256172 0.73389920 0.91886608
0.06256172 0.73369983 0.91886608
0.06256172 0.73284635 0.91886608
0.06256172 0.72980841 0.91886608
0.06256172 0.71935734 0.91886608
0.82679956 0.67652049 0.91886608
0.91886608 0.06256172 0.91886608
0.91886608 0.06256172 0.91886608
0.06256172 0.85945383 0.91886608
0.06256172 0.85944725 0.91886608
0.06256172 0.85939673 0.91886608
0.06256172 0.85918133 0.91886608
0.06256172 0.85842629 0.91886608
0.06256172 0.85596438 0.91886608
0.75288088 0.84783927 0.91886608
0.91886608 0.81620085 0.91886608
0.91886608 0.06256172 0.91886608
0.06256172 0.91886608 0.91886608
0.06256172 0.91886608 0.91886608
0.06256172 0.91886608 0.91886608
0.06256172 0.91886608 0.91886608
0.06256172 0.91886608 0.91886608
0.06256172 0.91886608 0.91886608
0.06256172 0.91886608 0.91886608
0.91886608 0.91886608 0.91886608
0.91886608 0.91886608 0.91886608
0.06256172 0.91886608 0.91886608
0.06256172 0.91886608 0.91886608
0.06256172 0.91886608 0.91886608
0.06256172 0.91886608 0.91886608
0.06256172 0.91886608 0.91886608
0.06256172 0.91886608 0.91886608
0.06256172 0.91886608 0.91886608
0.06256172 0.91886608 0.91886608
0.91886608 0.91886608 0.91886608
