src/ffmpeg_scripts/luts/rec2020-sRGB_-2p67.cube
TITLE "rec2020-srgb_-2p67"
LUT_3D_SIZE 5
# PQ (EOTF Only)/Rec2020 -> PQ (EOTF Only)/Rec709, CineEI Shift -2.67, Black Level 0.00% IRE, Input 100% -> Output 109% - Created with LUTCalc v4.01 by Ben Turley October 2020
0.06256172 0.06256172 0.06256172
0.20445444 0.06256172 0.06256172
0.38229515 0.06256172 0.06256172
0.58108923 0.06256172 0.06256172
0.79606532 0.06256172 0.06256172
0.06256172 0.18733816 0.06256172
0.18502288 0.18242392 0.06256172
0.38078656 0.06256172 0.06256172
0.58092132 0.06256172 0.06256172
0.79604836 0.06256172 0.06256172
0.06256172 0.35402334 0.06256172
0.06256172 0.35357844 0.06256172
0.35010298 0.34567305 0.06256172
0.57803806 0.06256172 0.06256172
0.79576126 0.06256172 0.06256172
0.06256172 0.54680238 0.06256172
0.06256172 0.54675116 0.06256172
0.06256172 0.54588145 0.06256172
0.54196962 0.53648458 0.06256172
0.79277086 0.06256172 0.06256172
0.06256172 0.76043481 0.06256172
0.06256172 0.76042952 0.06256172
0.06256172 0.76034009 0.06256172
0.06256172 0.75942002 0.06256172
0.75534981 0.74955897 0.06256172
0.06256172 0.06256172 0.18680037
0.20236725 0.06256172 0.18610390
0.38210958 0.06256172 0.17276553
0.58106843 0.06256172 0.06256172
0.79606322 0.06256172 0.06256172
0.06256172 0.18702191 0.18282680
0.18207838 0.18207838 0.18207838
0.38059767 0.06256172 0.16754866
0.58090049 0.06256172 0.06256172
0.79604625 0.06256172 0.06256172
0.06256172 0.35399359 0.06256172
0.06256172 0.35354852 0.06256172
0.34983037 0.34564012 0.06256172
0.57801658 0.06256172 0.06256172
0.79575915 0.06256172 0.06256172
0.06256172 0.54679894 0.06256172
0.06256172 0.54674772 0.06256172
0.06256172 0.54587798 0.06256172
0.54193808 0.53648075 0.06256172
0.79276868 0.06256172 0.06256172
0.06256172 0.76043445 0.06256172
0.06256172 0.76042916 0.06256172
0.06256172 0.76033973 0.06256172
0.06256172 0.75941967 0.06256172
0.75534654 0.74955857 0.06256172
0.06256172 0.06256172 0.35311488
0.14453266 0.06256172 0.35304948
0.37891112 0.06256172 0.35193645
0.58071629 0.06256172 0.33958637
0.79602768 0.06256172 0.06256172
0.06256172 0.18138773 0.35275181
0.06256172 0.17588201 0.35268612
0.37734075 0.06256172 0.35156814
0.58054772 0.06256172 0.33915792
0.79601071 0.06256172 0.06256172
0.06256172 0.35348927 0.34636182
0.06256172 0.35304147 0.34629082
0.34508170 0.34508170 0.34508170
0.57765283 0.06256172 0.33155265
0.79572350 0.06256172 0.06256172
0.06256172 0.54674092 0.17463902
0.06256172 0.54668967 0.17376720
0.06256172 0.54581938 0.15623196
0.54140350 0.53641596 0.06256172
0.79273185 0.06256172 0.06256172
0.06256172 0.76042846 0.06256172
0.06256172 0.76042317 0.06256172
0.06256172 0.76033373 0.06256172
0.06256172 0.75941361 0.06256172
0.75529130 0.74955183 0.06256172
0.06256172 0.06256172 0.54568425
0.06256172 0.06256172 0.54567670
0.33637930 0.06256172 0.54554900
0.57703552 0.06256172 0.54423226
0.79566327 0.06256172 0.52974906
0.06256172 0.06256172 0.54564240
0.06256172 0.06256172 0.54563484
0.33373919 0.06256172 0.54550709
0.57686024 0.06256172 0.54418975
0.79564624 0.06256172 0.52969942
0.06256172 0.34814362 0.54493232
0.06256172 0.34766570 0.54492470
0.26583373 0.33913697 0.54479597
0.57384795 0.06256172 0.54346852
0.79535788 0.06256172 0.52885663
0.06256172 0.54614517 0.53733910
0.06256172 0.54609359 0.53733084
0.06256172 0.54521772 0.53719122
0.53575043 0.53575043 0.53575043
0.79235408 0.06256172 0.51976421
0.06256172 0.76036713 0.34668356
0.06256172 0.76036183 0.34661284
0.06256172 0.76027234 0.34540851
0.06256172 0.75935160 0.33193864
0.75472416 0.74948288 0.06256172
0.06256172 0.06256172 0.75925975
0.06256172 0.06256172 0.75925897
0.06256172 0.06256172 0.75924578
0.52837631 0.06256172 0.75911068
0.79189235 0.06256172 0.75773254
0.06256172 0.06256172 0.75925542
0.06256172 0.06256172 0.75925464
0.06256172 0.06256172 0.75924145
0.52808159 0.06256172 0.75910634
0.79187460 0.06256172 0.75772814
0.06256172 0.25069490 0.75918229
0.06256172 0.24895540 0.75918151
0.06256172 0.20950074 0.75916831
0.52295537 0.06256172 0.75903309
0.79157412 0.06256172 0.75765380
0.06256172 0.53989387 0.75843066
0.06256172 0.53983873 0.75842987
0.06256172 0.53890201 0.75841656
0.44186423 0.52873534 0.75828025
0.78844176 0.06256172 0.75688964
0.06256172 0.75974424 0.75046250
0.06256172 0.75973891 0.75046164
0.06256172 0.75964881 0.75044714
0.06256172 0.75872183 0.75029861
0.74878230 0.74878230 0.74878230
