src/ffmpeg_scripts/luts/rec2020-sRGB_-3p00.cube
TITLE "rec2020-srgb_-3p00"
LUT_3D_SIZE 9
# PQ (EOTF Only)/Rec2020 -> PQ (EOTF Only)/Rec709, CineEI Shift -3.00, Black Level 0.00% IRE, Input 100% -> Output 109% - Created with LUTCalc v4.01 by Ben Turley October 2020
0.06256172 0.06256172 0.06256172
0.12082906 0.06256172 0.06256172
0.19392961 0.06256172 0.06256172
0.27598540 0.06256172 0.06256172
0.36505483 0.06256172 0.06256172
0.46006070 0.06256172 0.06256172
0.56029656 0.06256172 0.06256172
0.66525499 0.06256172 0.06256172
0.77454969 0.06256172 0.06256172
0.06256172 0.11214743 0.06256172
0.11100023 0.10972038 0.06256172
0.19209213 0.07382826 0.06256172
0.27546397 0.06256172 0.06256172
0.36488697 0.06256172 0.06256172
0.46000412 0.06256172 0.06256172
0.56027742 0.06256172 0.06256172
0.66524869 0.06256172 0.06256172
0.77454773 0.06256172 0.06256172
0.06256172 0.17772400 0.06256172
0.06256172 0.17720930 0.06256172
0.17553668 0.17308278 0.06256172
0.27133074 0.15042792 0.06256172
0.36358668 0.06256172 0.06256172
0.45956852 0.06256172 0.06256172
0.56013035 0.06256172 0.06256172
0.66520032 0.06256172 0.06256172
0.77453268 0.06256172 0.06256172
0.06256172 0.25352478 0.06256172
0.06256172 0.25337380 0.06256172
0.06256172 0.25220340 0.06256172
0.25044973 0.24698683 0.06256172
0.35781294 0.22480553 0.06256172
0.45769032 0.06256172 0.06256172
0.55950169 0.06256172 0.06256172
0.66499411 0.06256172 0.06256172
0.77446859 0.06256172 0.06256172
0.06256172 0.33758086 0.06256172
0.06256172 0.33753124 0.06256172
0.06256172 0.33714920 0.06256172
0.06256172 0.33550237 0.06256172
0.33377798 0.32948287 0.06256172
0.45081891 0.30640933 0.06256172
0.55727653 0.06256172 0.06256172
0.66427169 0.06256172 0.06256172
0.77424480 0.06256172 0.06256172
0.06256172 0.42878342 0.06256172
0.06256172 0.42876642 0.06256172
0.06256172 0.42863582 0.06256172
0.06256172 0.42807767 0.06256172
0.06256172 0.42610388 0.06256172
0.42441491 0.41946899 0.06256172
0.54977323 0.39487546 0.06256172
0.66192026 0.06256172 0.06256172
0.77352444 0.06256172 0.06256172
0.06256172 0.52639744 0.06256172
0.06256172 0.52639161 0.06256172
0.06256172 0.52634686 0.06256172
0.06256172 0.52615613 0.06256172
0.06256172 0.52548809 0.06256172
0.06256172 0.52331588 0.06256172
0.52162615 0.51621298 0.06256172
0.65420550 0.48956372 0.06256172
0.77124642 0.06256172 0.06256172
0.06256172 0.62989047 0.06256172
0.06256172 0.62988853 0.06256172
0.06256172 0.62987363 0.06256172
0.06256172 0.62981018 0.06256172
0.06256172 0.62958864 0.06256172
0.06256172 0.62887566 0.06256172
0.06256172 0.62662219 0.06256172
0.62487923 0.61918340 0.06256172
0.76371314 0.58981354 0.06256172
0.06256172 0.73885430 0.06256172
0.06256172 0.73885369 0.06256172
0.06256172 0.73884900 0.06256172
0.06256172 0.73882906 0.06256172
0.06256172 0.73875950 0.06256172
0.06256172 0.73853637 0.06256172
0.06256172 0.73783866 0.06256172
0.06256172 0.73561555 0.06256172
0.73376560 0.72797225 0.06256172
0.06256172 0.06256172 0.11188037
0.11975184 0.06256172 0.11153504
0.19370497 0.06256172 0.10875090
0.27592096 0.06256172 0.09250017
0.36503404 0.06256172 0.06256172
0.46005368 0.06256172 0.06256172
0.56029419 0.06256172 0.06256172
0.66525421 0.06256172 0.06256172
0.77454945 0.06256172 0.06256172
0.06256172 0.11199034 0.10991823
0.10955086 0.10955086 0.10955086
0.19186019 0.07282803 0.10657477
0.27539907 0.06256172 0.08829937
0.36486614 0.06256172 0.06256172
0.45999711 0.06256172 0.06256172
0.56027505 0.06256172 0.06256172
0.66524791 0.06256172 0.06256172
0.77454749 0.06256172 0.06256172
0.06256172 0.17768965 0.08728490
0.06256172 0.17717462 0.08638623
0.17522367 0.17304531 0.07741385
0.27126204 0.15036866 0.06256172
0.36356552 0.06256172 0.06256172
0.45956147 0.06256172 0.06256172
0.56012798 0.06256172 0.06256172
0.66519953 0.06256172 0.06256172
0.77453244 0.06256172 0.06256172
0.06256172 0.25351467 0.06256172
0.06256172 0.25336367 0.06256172
0.06256172 0.25219309 0.06256172
0.25035746 0.24697572 0.06256172
0.35779026 0.22479001 0.06256172
0.45768312 0.06256172 0.06256172
0.55949930 0.06256172 0.06256172
0.66499333 0.06256172 0.06256172
0.77446835 0.06256172 0.06256172
0.06256172 0.33757753 0.06256172
0.06256172 0.33752791 0.06256172
0.06256172 0.33714585 0.06256172
0.06256172 0.33549896 0.06256172
0.33374756 0.32947919 0.06256172
0.45081114 0.30640440 0.06256172
0.55727408 0.06256172 0.06256172
0.66427090 0.06256172 0.06256172
0.77424456 0.06256172 0.06256172
0.06256172 0.42878228 0.06256172
0.06256172 0.42876528 0.06256172
0.06256172 0.42863468 0.06256172
0.06256172 0.42807652 0.06256172
0.06256172 0.42610271 0.06256172
0.42440447 0.41946772 0.06256172
0.54977058 0.39487379 0.06256172
0.66191946 0.06256172 0.06256172
0.77352420 0.06256172 0.06256172
0.06256172 0.52639705 0.06256172
0.06256172 0.52639122 0.06256172
0.06256172 0.52634647 0.06256172
0.06256172 0.52615573 0.06256172
0.06256172 0.52548770 0.06256172
0.06256172 0.52331548 0.06256172
0.52162257 0.51621254 0.06256172
0.65420462 0.48956314 0.06256172
0.77124617 0.06256172 0.06256172
0.06256172 0.62989034 0.06256172
0.06256172 0.62988840 0.06256172
0.06256172 0.62987350 0.06256172
0.06256172 0.62981005 0.06256172
0.06256172 0.62958851 0.06256172
0.06256172 0.62887553 0.06256172
0.06256172 0.62662206 0.06256172
0.62487803 0.61918326 0.06256172
0.76371287 0.58981334 0.06256172
0.06256172 0.73885426 0.06256172
0.06256172 0.73885365 0.06256172
0.06256172 0.73884896 0.06256172
0.06256172 0.73882902 0.06256172
0.06256172 0.73875945 0.06256172
0.06256172 0.73853633 0.06256172
0.06256172 0.73783862 0.06256172
0.06256172 0.73561551 0.06256172
0.73376522 0.72797221 0.06256172
0.06256172 0.06256172 0.17721583
0.11012082 0.06256172 0.17714042
0.19195025 0.06256172 0.17655781
0.27542424 0.06256172 0.17400403
0.36487422 0.06256172 0.16397707
0.45999983 0.06256172 0.08822578
0.56027597 0.06256172 0.06256172
0.66524821 0.06256172 0.06256172
0.77454759 0.06256172 0.06256172
0.06256172 0.11075792 0.17679662
0.09511920 0.10821751 0.17672061
0.19004723 0.06256172 0.17613340
0.27489877 0.06256172 0.17355867
0.36470599 0.06256172 0.16343551
0.45994321 0.06256172 0.08292249
0.56025683 0.06256172 0.06256172
0.66524191 0.06256172 0.06256172
0.77454563 0.06256172 0.06256172
0.06256172 0.17742515 0.17346308
0.06256172 0.17690757 0.17338216
0.17275665 0.17275665 0.17275665
0.27073236 0.14991112 0.17000703
0.36340287 0.06256172 0.15906800
0.45950731 0.06256172 0.06256172
0.56010973 0.06256172 0.06256172
0.66519354 0.06256172 0.06256172
0.77453058 0.06256172 0.06256172
0.06256172 0.25343698 0.15621567
0.06256172 0.25328581 0.15610169
0.06256172 0.25211391 0.15521728
0.24964478 0.24689031 0.15125599
0.35761593 0.22467075 0.13386007
0.45762783 0.06256172 0.06256172
0.55948093 0.06256172 0.06256172
0.66498732 0.06256172 0.06256172
0.77446648 0.06256172 0.06256172
0.06256172 0.33755199 0.06256172
0.06256172 0.33750236 0.06256172
0.06256172 0.33712018 0.06256172
0.06256172 0.33547276 0.06256172
0.33351360 0.32945095 0.06256172
0.45075147 0.30636654 0.06256172
0.55725527 0.06256172 0.06256172
0.66426484 0.06256172 0.06256172
0.77424269 0.06256172 0.06256172
0.06256172 0.42877353 0.06256172
0.06256172 0.42875653 0.06256172
0.06256172 0.42862591 0.06256172
0.06256172 0.42806771 0.06256172
0.06256172 0.42609369 0.06256172
0.42432424 0.41945800 0.06256172
0.54975020 0.39486090 0.06256172
0.66191324 0.06256172 0.06256172
0.77352231 0.06256172 0.06256172
0.06256172 0.52639405 0.06256172
0.06256172 0.52638822 0.06256172
0.06256172 0.52634347 0.06256172
0.06256172 0.52615273 0.06256172
0.06256172 0.52548467 0.06256172
0.06256172 0.52331238 0.06256172
0.52159502 0.51620919 0.06256172
0.65419788 0.48955868 0.06256172
0.77124424 0.06256172 0.06256172
0.06256172 0.62988934 0.06256172
0.06256172 0.62988740 0.06256172
0.06256172 0.62987250 0.06256172
0.06256172 0.62980905 0.06256172
0.06256172 0.62958751 0.06256172
0.06256172 0.62887452 0.06256172
0.06256172 0.62662103 0.06256172
0.62486884 0.61918214 0.06256172
0.76371077 0.58981181 0.06256172
0.06256172 0.73885394 0.06256172
0.06256172 0.73885333 0.06256172
0.06256172 0.73884865 0.06256172
0.06256172 0.73882871 0.06256172
0.06256172 0.73875914 0.06256172
0.06256172 0.73853601 0.06256172
0.06256172 0.73783830 0.06256172
0.06256172 0.73561518 0.06256172
0.73376233 0.72797185 0.06256172
0.06256172 0.06256172 0.25281134
0.06256172 0.06256172 0.25278913
0.18380835 0.06256172 0.25261835
0.27327107 0.06256172 0.25188664
0.36419042 0.06256172 0.24927350
0.45977019 0.06256172 0.24016402
0.56019838 0.06256172 0.19925708
0.66522269 0.06256172 0.06256172
0.77453964 0.06256172 0.06256172
0.06256172 0.10488806 0.25268818
0.06256172 0.10176821 0.25266593
0.18160261 0.06256172 0.25249485
0.27272979 0.06256172 0.25176183
0.36402082 0.06256172 0.24914388
0.45971343 0.06256172 0.24001582
0.56017923 0.06256172 0.19897381
0.66521639 0.06256172 0.06256172
0.77453768 0.06256172 0.06256172
0.06256172 0.17628441 0.25173515
0.06256172 0.17575564 0.25171260
0.16069886 0.17150975 0.25153915
0.26843308 0.14791072 0.25079590
0.36270689 0.06256172 0.24814034
0.45927642 0.06256172 0.23886688
0.56003200 0.06256172 0.19675204
0.66516799 0.06256172 0.06256172
0.77452263 0.06256172 0.06256172
0.06256172 0.25310529 0.24752442
0.06256172 0.25295339 0.24750044
0.06256172 0.25177583 0.24731606
0.24652553 0.24652553 0.24652553
0.35686965 0.22416054 0.24369577
0.45739208 0.06256172 0.23374206
0.55940268 0.06256172 0.18620500
0.66496172 0.06256172 0.06256172
0.77445853 0.06256172 0.06256172
0.06256172 0.33744318 0.23038740
0.06256172 0.33739348 0.23035645
0.06256172 0.33701078 0.23011824
0.06256172 0.33536111 0.22909441
0.33250998 0.32933062 0.22539362
0.45049702 0.30620517 0.21185419
0.55717514 0.06256172 0.10007932
0.66423905 0.06256172 0.06256172
0.77423472 0.06256172 0.06256172
0.06256172 0.42873628 0.06256172
0.06256172 0.42871928 0.06256172
0.06256172 0.42858860 0.06256172
0.06256172 0.42803016 0.06256172
0.06256172 0.42605530 0.06256172
0.42398191 0.41941662 0.06256172
0.54966340 0.39480602 0.06256172
0.66188680 0.06256172 0.06256172
0.77351428 0.06256172 0.06256172
0.06256172 0.52638128 0.06256172
0.06256172 0.52637546 0.06256172
0.06256172 0.52633070 0.06256172
0.06256172 0.52613993 0.06256172
0.06256172 0.52547178 0.06256172
0.06256172 0.52329918 0.06256172
0.52147766 0.51619495 0.06256172
0.65416919 0.48953967 0.06256172
0.77123601 0.06256172 0.06256172
0.06256172 0.62988509 0.06256172
0.06256172 0.62988315 0.06256172
0.06256172 0.62986825 0.06256172
0.06256172 0.62980480 0.06256172
0.06256172 0.62958325 0.06256172
0.06256172 0.62887022 0.06256172
0.06256172 0.62661662 0.06256172
0.62482972 0.61917738 0.06256172
0.76370184 0.58980532 0.06256172
0.06256172 0.73885261 0.06256172
0.06256172 0.73885200 0.06256172
0.06256172 0.73884731 0.06256172
0.06256172 0.73882737 0.06256172
0.06256172 0.73875780 0.06256172
0.06256172 0.73853467 0.06256172
0.06256172 0.73783695 0.06256172
0.06256172 0.73561380 0.06256172
0.73375001 0.72797035 0.06256172
0.06256172 0.06256172 0.33669947
0.06256172 0.06256172 0.33669216
0.13749553 0.06256172 0.33663602
0.26522097 0.06256172 0.33639659
0.36176185 0.06256172 0.33555629
0.45896504 0.06256172 0.33280480
0.55992740 0.06256172 0.32358507
0.66513364 0.06256172 0.28462446
0.77451195 0.06256172 0.06256172
0.06256172 0.06256172 0.33665897
0.06256172 0.06256172 0.33665165
0.13149514 0.06256172 0.33659548
0.26461549 0.06256172 0.33635593
0.36158723 0.06256172 0.33551520
0.45890777 0.06256172 0.33276229
0.55990818 0.06256172 0.32353737
0.66512734 0.06256172 0.28454531
0.77450999 0.06256172 0.06256172
0.06256172 0.17210485 0.33634725
0.06256172 0.17153240 0.33633991
0.06256172 0.16691283 0.33628352
0.25978629 0.14014374 0.33604304
0.36023413 0.06256172 0.33519903
0.45846684 0.06256172 0.33243511
0.55976054 0.06256172 0.32317008
0.66507890 0.06256172 0.28393473
0.77449493 0.06256172 0.06256172
0.06256172 0.25193639 0.33500665
0.06256172 0.25178191 0.33499919
0.06256172 0.25058410 0.33494186
0.23437217 0.24523839 0.33469735
0.35421412 0.22234945 0.33383907
0.45656537 0.06256172 0.33102724
0.55912939 0.06256172 0.32158725
0.66487243 0.06256172 0.28127781
0.77443082 0.06256172 0.06256172
0.06256172 0.33706269 0.33015053
0.06256172 0.33701275 0.33014260
0.06256172 0.33662825 0.33008170
0.06256172 0.33497067 0.32982194
0.32890969 0.32890969 0.32890969
0.44960428 0.30563996 0.32591616
0.55689528 0.06256172 0.31580722
0.66414907 0.06256172 0.27118431
0.77420693 0.06256172 0.06256172
0.06256172 0.42860630 0.31224705
0.06256172 0.42858927 0.31223711
0.06256172 0.42845841 0.31216074
0.06256172 0.42789914 0.31183481
0.06256172 0.42592132 0.31068777
0.42277797 0.41927217 0.30689623
0.54936017 0.39461443 0.29374156
0.66179456 0.06256172 0.22331879
0.77348628 0.06256172 0.06256172
0.06256172 0.52633676 0.16574164
0.06256172 0.52633093 0.16564769
0.06256172 0.52628615 0.16492040
0.06256172 0.52609529 0.16170086
0.06256172 0.52542681 0.14844285
0.06256172 0.52325316 0.06256172
0.52106735 0.51614527 0.06256172
0.65406909 0.48947336 0.06256172
0.77120730 0.06256172 0.06256172
0.06256172 0.62987027 0.06256172
0.06256172 0.62986833 0.06256172
0.06256172 0.62985342 0.06256172
0.06256172 0.62978996 0.06256172
0.06256172 0.62956838 0.06256172
0.06256172 0.62885524 0.06256172
0.06256172 0.62660128 0.06256172
0.62469320 0.61916078 0.06256172
0.76367071 0.58978267 0.06256172
0.06256172 0.73884795 0.06256172
0.06256172 0.73884734 0.06256172
0.06256172 0.73884265 0.06256172
0.06256172 0.73882271 0.06256172
0.06256172 0.73875314 0.06256172
0.06256172 0.73852999 0.06256172
0.06256172 0.73783224 0.06256172
0.06256172 0.73560897 0.06256172
0.73370705 0.72796512 0.06256172
0.06256172 0.06256172 0.42777181
0.06256172 0.06256172 0.42776931
0.06256172 0.06256172 0.42775007
0.23061090 0.06256172 0.42766814
0.35347037 0.06256172 0.42738190
0.45633721 0.06256172 0.42645895
0.55905426 0.06256172 0.42352400
0.66484792 0.06256172 0.41362743
0.77442321 0.06256172 0.37017615
0.06256172 0.06256172 0.42775793
0.06256172 0.06256172 0.42775543
0.06256172 0.06256172 0.42773619
0.22960459 0.06256172 0.42765424
0.35327740 0.06256172 0.42736796
0.45627826 0.06256172 0.42644486
0.55903487 0.06256172 0.42350943
0.66484159 0.06256172 0.41361113
0.77442125 0.06256172 0.37014914
0.06256172 0.15583527 0.42765127
0.06256172 0.15504126 0.42764876
0.06256172 0.14845210 0.42762950
0.22130897 0.09124643 0.42754746
0.35178045 0.06256172 0.42726082
0.45582428 0.06256172 0.42633660
0.55888584 0.06256172 0.42339753
0.66479301 0.06256172 0.41348589
0.77440618 0.06256172 0.36994146
0.06256172 0.24805434 0.42719578
0.06256172 0.24789091 0.42719326
0.06256172 0.24662288 0.42717390
0.16172260 0.24094443 0.42709143
0.34508454 0.21617638 0.42680332
0.45386572 0.06256172 0.42587428
0.55824877 0.06256172 0.42291954
0.66458591 0.06256172 0.41295075
0.77434200 0.06256172 0.36905161
0.06256172 0.33583198 0.42558925
0.06256172 0.33578128 0.42558668
0.06256172 0.33539086 0.42556697
0.06256172 0.33370741 0.42548299
0.31614594 0.32754657 0.42518958
0.44668412 0.30380152 0.42424336
0.55599335 0.06256172 0.42123263
0.66386035 0.06256172 0.41105914
0.77411790 0.06256172 0.36587356
0.06256172 0.42818876 0.42023866
0.06256172 0.42817165 0.42023593
0.06256172 0.42804016 0.42021498
0.06256172 0.42747824 0.42012575
0.06256172 0.42549090 0.41981397
0.41880799 0.41880799 0.41880799
0.54838241 0.39399798 0.41560220
0.66149854 0.06256172 0.40471013
0.77339655 0.06256172 0.35479749
0.06256172 0.52619402 0.40113868
0.06256172 0.52618818 0.40113529
0.06256172 0.52614334 0.40110923
0.06256172 0.52595218 0.40099820
0.06256172 0.52528268 0.40061002
0.06256172 0.52310561 0.39935507
0.51974101 0.51598598 0.39532965
0.65374782 0.48926069 0.38132191
0.77111533 0.06256172 0.30564563
0.06256172 0.62982278 0.26507102
0.06256172 0.62982084 0.26505236
0.06256172 0.62980593 0.26490888
0.06256172 0.62974243 0.26429485
0.06256172 0.62952074 0.26211185
0.06256172 0.62880724 0.25462987
0.06256172 0.62655212 0.22416033
0.62425466 0.61910760 0.06256172
0.76357093 0.58971009 0.06256172
0.06256172 0.73883302 0.06256172
0.06256172 0.73883241 0.06256172
0.06256172 0.73882772 0.06256172
0.06256172 0.73880778 0.06256172
0.06256172 0.73873819 0.06256172
0.06256172 0.73851502 0.06256172
0.06256172 0.73781715 0.06256172
0.06256172 0.73559352 0.06256172
0.73356935 0.72794835 0.06256172
0.06256172 0.06256172 0.52529339
0.06256172 0.06256172 0.52529253
0.06256172 0.06256172 0.52528593
0.06256172 0.06256172 0.52525784
0.32047924 0.06256172 0.52515985
0.44763365 0.06256172 0.52484532
0.55628436 0.06256172 0.52385980
0.66395330 0.06256172 0.52069878
0.77414654 0.06256172 0.50956876
0.06256172 0.06256172 0.52528863
0.06256172 0.06256172 0.52528777
0.06256172 0.06256172 0.52528117
0.06256172 0.06256172 0.52525308
0.32018892 0.06256172 0.52515508
0.44756871 0.06256172 0.52484053
0.55626439 0.06256172 0.52385497
0.66394692 0.06256172 0.52069378
0.77414457 0.06256172 0.50956313
0.06256172 0.06256172 0.52525206
0.06256172 0.06256172 0.52525120
0.06256172 0.06256172 0.52524460
0.06256172 0.06256172 0.52521650
0.31792337 0.06256172 0.52511846
0.44706850 0.06256172 0.52480379
0.55611089 0.06256172 0.52381783
0.66389787 0.06256172 0.52065536
0.77412946 0.06256172 0.50951981
0.06256172 0.23433083 0.52509624
0.06256172 0.23413048 0.52509538
0.06256172 0.23257154 0.52508877
0.06256172 0.22548636 0.52506062
0.30747216 0.19167753 0.52496241
0.44490737 0.06256172 0.52464722
0.55545465 0.06256172 0.52365959
0.66368880 0.06256172 0.52049164
0.77406509 0.06256172 0.50933520
0.06256172 0.33187797 0.52455096
0.06256172 0.33182472 0.52455010
0.06256172 0.33141460 0.52454345
0.06256172 0.32964492 0.52451513
0.25248683 0.32314979 0.52441635
0.43693718 0.29778250 0.52409930
0.55313023 0.06256172 0.52310581
0.66295629 0.06256172 0.51991861
0.77384031 0.06256172 0.50868869
0.06256172 0.42687682 0.52278291
0.06256172 0.42685946 0.52278202
0.06256172 0.42672601 0.52277525
0.06256172 0.42615567 0.52274639
0.06256172 0.42413806 0.52264571
0.40516504 0.41734781 0.52232256
0.54527311 0.39205117 0.52130981
0.66057149 0.06256172 0.51805934
0.77311678 0.06256172 0.50658734
0.06256172 0.52574849 0.51705615
0.06256172 0.52574263 0.51705521
0.06256172 0.52569756 0.51704800
0.06256172 0.52550549 0.51701731
0.06256172 0.52483275 0.51691023
0.06256172 0.52264502 0.51656646
0.51548861 0.51548861 0.51548861
0.65274114 0.48859578 0.51202387
0.77082857 0.06256172 0.49972560
0.06256172 0.62967487 0.49638194
0.06256172 0.62967293 0.49638076
0.06256172 0.62965799 0.49637175
0.06256172 0.62959440 0.49633337
0.06256172 0.62937236 0.49619943
0.06256172 0.62865774 0.49576920
0.06256172 0.62639901 0.49441750
0.62287700 0.61894194 0.49004368
0.76325978 0.58948391 0.47412535
0.06256172 0.73878656 0.33046243
0.06256172 0.73878595 0.33045453
0.06256172 0.73878126 0.33039387
0.06256172 0.73876130 0.33013512
0.06256172 0.73869169 0.32922644
0.06256172 0.73846840 0.32624498
0.06256172 0.73777018 0.31618074
0.06256172 0.73554542 0.27185697
0.73313959 0.72789614 0.06256172
0.06256172 0.06256172 0.62873165
0.06256172 0.06256172 0.62873137
0.06256172 0.06256172 0.62872917
0.06256172 0.06256172 0.62871981
0.06256172 0.06256172 0.62868718
0.41304967 0.06256172 0.62858262
0.54702349 0.06256172 0.62825654
0.66109071 0.06256172 0.62722627
0.77327324 0.06256172 0.62378523
0.06256172 0.06256172 0.62873007
0.06256172 0.06256172 0.62872978
0.06256172 0.06256172 0.62872758
0.06256172 0.06256172 0.62871822
0.06256172 0.06256172 0.62868560
0.41295378 0.06256172 0.62858104
0.54700145 0.06256172 0.62825494
0.66108412 0.06256172 0.62722466
0.77327125 0.06256172 0.62378356
0.06256172 0.06256172 0.62871789
0.06256172 0.06256172 0.62871760
0.06256172 0.06256172 0.62871540
0.06256172 0.06256172 0.62870604
0.06256172 0.06256172 0.62867341
0.41221398 0.06256172 0.62856884
0.54683200 0.06256172 0.62824270
0.66103357 0.06256172 0.62721229
0.77325599 0.06256172 0.62377072
0.06256172 0.13936937 0.62866602
0.06256172 0.13822133 0.62866573
0.06256172 0.12814797 0.62866354
0.06256172 0.06256172 0.62865417
0.06256172 0.06256172 0.62862152
0.40899277 0.06256172 0.62851689
0.54610722 0.06256172 0.62819058
0.66081806 0.06256172 0.62715959
0.77319101 0.06256172 0.62371607
0.06256172 0.31803109 0.62848498
0.06256172 0.31796771 0.62848470
0.06256172 0.31747933 0.62848249
0.06256172 0.31536569 0.62847311
0.06256172 0.30751558 0.62844040
0.39672886 0.27501617 0.62833557
0.54353567 0.06256172 0.62800863
0.66006287 0.06256172 0.62697564
0.77296410 0.06256172 0.62352530
0.06256172 0.42263048 0.62790287
0.06256172 0.42261226 0.62790259
0.06256172 0.42247225 0.62790037
0.06256172 0.42187370 0.62789093
0.06256172 0.41975466 0.62785802
0.33840490 0.41260326 0.62775253
0.53478968 0.38564136 0.62742357
0.65760295 0.06256172 0.62638414
0.77223365 0.06256172 0.62291176
0.06256172 0.52433690 0.62606836
0.06256172 0.52433094 0.62606807
0.06256172 0.52428519 0.62606581
0.06256172 0.52409018 0.62605618
0.06256172 0.52340710 0.62602263
0.06256172 0.52118518 0.62591508
0.50072233 0.51391087 0.62557965
0.64951186 0.48647820 0.62451965
0.76992319 0.06256172 0.62097684
0.06256172 0.62920939 0.62007134
0.06256172 0.62920743 0.62007102
0.06256172 0.62919243 0.62006861
0.06256172 0.62912852 0.62005836
0.06256172 0.62890538 0.62002261
0.06256172 0.62818721 0.61990801
0.06256172 0.62591708 0.61955055
0.61842037 0.61842037 0.61842037
0.76227688 0.58877086 0.61463682
0.06256172 0.73864066 0.59735159
0.06256172 0.73864005 0.59735119
0.06256172 0.73863536 0.59734813
0.06256172 0.73861537 0.59733509
0.06256172 0.73854564 0.59728962
0.06256172 0.73832200 0.59714384
0.06256172 0.73762269 0.59668883
0.06256172 0.73539436 0.59524707
0.73177847 0.72773220 0.59038474
0.06256172 0.06256172 0.73767826
0.06256172 0.06256172 0.73767817
0.06256172 0.06256172 0.73767748
0.06256172 0.06256172 0.73767453
0.06256172 0.06256172 0.73766427
0.06256172 0.06256172 0.73763141
0.50821504 0.06256172 0.73752907
0.65109987 0.06256172 0.73720730
0.77036566 0.06256172 0.73614989
0.06256172 0.06256172 0.73767776
0.06256172 0.06256172 0.73767767
0.06256172 0.06256172 0.73767698
0.06256172 0.06256172 0.73767404
0.06256172 0.06256172 0.73766378
0.06256172 0.06256172 0.73763091
0.50818160 0.06256172 0.73752857
0.65109256 0.06256172 0.73720680
0.77036361 0.06256172 0.73614938
0.06256172 0.06256172 0.73767393
0.06256172 0.06256172 0.73767384
0.06256172 0.06256172 0.73767315
0.06256172 0.06256172 0.73767020
0.06256172 0.06256172 0.73765994
0.06256172 0.06256172 0.73762708
0.50792443 0.06256172 0.73752473
0.65103636 0.06256172 0.73720295
0.77034786 0.06256172 0.73614549
0.06256172 0.06256172 0.73765762
0.06256172 0.06256172 0.73765753
0.06256172 0.06256172 0.73765684
0.06256172 0.06256172 0.73765389
0.06256172 0.06256172 0.73764363
0.06256172 0.06256172 0.73761076
0.50682161 0.06256172 0.73750839
0.65079679 0.06256172 0.73718656
0.77028080 0.06256172 0.73612891
0.06256172 0.23798602 0.73760074
0.06256172 0.23779640 0.73760065
0.06256172 0.23632211 0.73759996
0.06256172 0.22965122 0.73759701
0.06256172 0.19871874 0.73758674
0.06256172 0.06256172 0.73755385
0.50287065 0.06256172 0.73745142
0.64995677 0.06256172 0.73712939
0.77004662 0.06256172 0.73607109
0.06256172 0.40715551 0.73741834
0.06256172 0.40713378 0.73741825
0.06256172 0.40696673 0.73741756
0.06256172 0.40625202 0.73741461
0.06256172 0.40371345 0.73740432
0.06256172 0.39504507 0.73737136
0.48894246 0.36056473 0.73726873
0.64721532 0.06256172 0.73694607
0.76929266 0.06256172 0.73588568
0.06256172 0.51957734 0.73684852
0.06256172 0.51957107 0.73684843
0.06256172 0.51952291 0.73684773
0.06256172 0.51931764 0.73684477
0.06256172 0.51859845 0.73683441
0.06256172 0.51625705 0.73680125
0.42320557 0.50856909 0.73669800
0.63813847 0.47920924 0.73637335
0.76690660 0.06256172 0.73530640
0.06256172 0.62767480 0.73503813
0.06256172 0.62767281 0.73503804
0.06256172 0.62765756 0.73503733
0.06256172 0.62759261 0.73503430
0.06256172 0.62736581 0.73502375
0.06256172 0.62663581 0.73498994
0.06256172 0.62432769 0.73488466
0.60222321 0.61669870 0.73455364
0.75899614 0.58640661 0.73346557
0.06256172 0.73816314 0.72887606
0.06256172 0.73816253 0.72887596
0.06256172 0.73815781 0.72887520
0.06256172 0.73813772 0.72887196
0.06256172 0.73806764 0.72886069
0.06256172 0.73784285 0.72882458
0.06256172 0.73713992 0.72871211
0.06256172 0.73489990 0.72835845
0.72719539 0.72719539 0.72719539
