src/ffmpeg_scripts/luts/rec2020-sRGB_4p00.cube
TITLE "rec2020-srgb_4p00"
LUT_3D_SIZE 33
# PQ (EOTF Only)/Rec2020 -> PQ (EOTF Only)/Rec709, CineEI Shift 4.00, Black Level 0.00% IRE, Input 100% -> Output 109% - Created with LUTCalc v4.01 by Ben Turley October 2020
0.06256172 0.06256172 0.06256172
0.16816549 0.06256172 0.06256172
0.23893978 0.06256172 0.06256172
0.29831659 0.06256172 0.06256172
0.35098306 0.06256172 0.06256172
0.39901451 0.06256172 0.06256172
0.44356724 0.06256172 0.06256172
0.48537048 0.06256172 0.06256172
0.52492198 0.06256172 0.06256172
0.56258077 0.06256172 0.06256172
0.59861669 0.06256172 0.06256172
0.63323905 0.06256172 0.06256172
0.66661435 0.06256172 0.06256172
0.69887780 0.06256172 0.06256172
0.73014111 0.06256172 0.06256172
0.76049789 0.06256172 0.06256172
0.79002759 0.06256172 0.06256172
0.81879837 0.06256172 0.06256172
0.84686926 0.06256172 0.06256172
0.87429177 0.06256172 0.06256172
0.90111124 0.06256172 0.06256172
0.91886608 0.06256172 0.06256172
0.91886608 0.06256172 0.06256172
0.91886608 0.06256172 0.06256172
0.91886608 0.06256172 0.06256172
0.91886608 0.06256172 0.06256172
0.91886608 0.06256172 0.06256172
0.91886608 0.06256172 0.06256172
0.91886608 0.06256172 0.06256172
0.91886608 0.06256172 0.06256172
0.91886608 0.06256172 0.06256172
0.91886608 0.06256172 0.06256172
0.91886608 0.06256172 0.06256172
0.06256172 0.15435151 0.06256172
0.15249819 0.15042230 0.06256172
0.23472240 0.13202085 0.06256172
0.29650682 0.06256172 0.06256172
0.35005611 0.06256172 0.06256172
0.39849051 0.06256172 0.06256172
0.44325149 0.06256172 0.06256172
0.48517148 0.06256172 0.06256172
0.52479230 0.06256172 0.06256172
0.56249407 0.06256172 0.06256172
0.59855755 0.06256172 0.06256172
0.63319804 0.06256172 0.06256172
0.66658554 0.06256172 0.06256172
0.69885734 0.06256172 0.06256172
0.73012644 0.06256172 0.06256172
0.76048730 0.06256172 0.06256172
0.79001990 0.06256172 0.06256172
0.81879276 0.06256172 0.06256172
0.84686514 0.06256172 0.06256172
0.87428875 0.06256172 0.06256172
0.90110902 0.06256172 0.06256172
0.91886608 0.06256172 0.06256172
0.91886608 0.06256172 0.06256172
0.91886608 0.06256172 0.06256172
0.91886608 0.06256172 0.06256172
0.91886608 0.06256172 0.06256172
0.91886608 0.06256172 0.06256172
0.91886608 0.06256172 0.06256172
0.91886608 0.06256172 0.06256172
0.91886608 0.06256172 0.06256172
0.91886608 0.06256172 0.06256172
0.91886608 0.06256172 0.06256172
0.91886608 0.06256172 0.06256172
0.06256172 0.21907588 0.06256172
0.06256172 0.21789014 0.06256172
0.21637189 0.21333151 0.06256172
0.28946128 0.20195634 0.06256172
0.34655833 0.17251931 0.06256172
0.39653791 0.06256172 0.06256172
0.44208194 0.06256172 0.06256172
0.48443669 0.06256172 0.06256172
0.52431436 0.06256172 0.06256172
0.56217490 0.06256172 0.06256172
0.59833996 0.06256172 0.06256172
0.63304725 0.06256172 0.06256172
0.66647962 0.06256172 0.06256172
0.69878213 0.06256172 0.06256172
0.73007256 0.06256172 0.06256172
0.76044841 0.06256172 0.06256172
0.78999166 0.06256172 0.06256172
0.81877215 0.06256172 0.06256172
0.84685004 0.06256172 0.06256172
0.87427764 0.06256172 0.06256172
0.90110084 0.06256172 0.06256172
0.91886608 0.06256172 0.06256172
0.91886608 0.06256172 0.06256172
0.91886608 0.06256172 0.06256172
0.91886608 0.06256172 0.06256172
0.91886608 0.06256172 0.06256172
0.91886608 0.06256172 0.06256172
0.91886608 0.06256172 0.06256172
0.91886608 0.06256172 0.06256172
0.91886608 0.06256172 0.06256172
0.91886608 0.06256172 0.06256172
0.91886608 0.06256172 0.06256172
0.91886608 0.06256172 0.06256172
0.06256172 0.27444678 0.06256172
0.06256172 0.27392302 0.06256172
0.11469964 0.27196594 0.06256172
0.27116877 0.26747428 0.06256172
0.33831027 0.25838914 0.06256172
0.39208959 0.23988060 0.06256172
0.43945932 0.19237968 0.06256172
0.48280253 0.06256172 0.06256172
0.52325639 0.06256172 0.06256172
0.56147036 0.06256172 0.06256172
0.59786051 0.06256172 0.06256172
0.63271534 0.06256172 0.06256172
0.66624668 0.06256172 0.06256172
0.69861681 0.06256172 0.06256172
0.72995415 0.06256172 0.06256172
0.76036296 0.06256172 0.06256172
0.78992961 0.06256172 0.06256172
0.81872687 0.06256172 0.06256172
0.84681687 0.06256172 0.06256172
0.87425326 0.06256172 0.06256172
0.90108287 0.06256172 0.06256172
0.91886608 0.06256172 0.06256172
0.91886608 0.06256172 0.06256172
0.91886608 0.06256172 0.06256172
0.91886608 0.06256172 0.06256172
0.91886608 0.06256172 0.06256172
0.91886608 0.06256172 0.06256172
0.91886608 0.06256172 0.06256172
0.91886608 0.06256172 0.06256172
0.91886608 0.06256172 0.06256172
0.91886608 0.06256172 0.06256172
0.91886608 0.06256172 0.06256172
0.91886608 0.06256172 0.06256172
0.06256172 0.32419889 0.06256172
0.06256172 0.32392647 0.06256172
0.06256172 0.32291766 0.06256172
0.21566500 0.32065680 0.06256172
0.32049716 0.31631802 0.06256172
0.38324615 0.30845982 0.06256172
0.43442066 0.29414117 0.06256172
0.47971599 0.26531692 0.06256172
0.52127690 0.16268594 0.06256172
0.56015949 0.06256172 0.06256172
0.59697153 0.06256172 0.06256172
0.63210132 0.06256172 0.06256172
0.66581639 0.06256172 0.06256172
0.69831173 0.06256172 0.06256172
0.72973580 0.06256172 0.06256172
0.76020546 0.06256172 0.06256172
0.78981530 0.06256172 0.06256172
0.81864347 0.06256172 0.06256172
0.84675577 0.06256172 0.06256172
0.87420836 0.06256172 0.06256172
0.90104980 0.06256172 0.06256172
0.91886608 0.06256172 0.06256172
0.91886608 0.06256172 0.06256172
0.91886608 0.06256172 0.06256172
0.91886608 0.06256172 0.06256172
0.91886608 0.06256172 0.06256172
0.91886608 0.06256172 0.06256172
0.91886608 0.06256172 0.06256172
0.91886608 0.06256172 0.06256172
0.91886608 0.06256172 0.06256172
0.91886608 0.06256172 0.06256172
0.91886608 0.06256172 0.06256172
0.91886608 0.06256172 0.06256172
0.06256172 0.37001673 0.06256172
0.06256172 0.36986112 0.06256172
0.06256172 0.36928701 0.06256172
0.06256172 0.36801264 0.06256172
0.27667273 0.36561507 0.06256172
0.36598900 0.36143569 0.06256172
0.42527711 0.35437115 0.06256172
0.47429653 0.34234355 0.06256172
0.51786137 0.32056772 0.06256172
0.55792037 0.27196728 0.06256172
0.59546241 0.06256172 0.06256172
0.63106309 0.06256172 0.06256172
0.66509071 0.06256172 0.06256172
0.69779814 0.06256172 0.06256172
0.72936865 0.06256172 0.06256172
0.75994087 0.06256172 0.06256172
0.78962337 0.06256172 0.06256172
0.81850351 0.06256172 0.06256172
0.84665328 0.06256172 0.06256172
0.87413306 0.06256172 0.06256172
0.90099433 0.06256172 0.06256172
0.91886608 0.06256172 0.06256172
0.91886608 0.06256172 0.06256172
0.91886608 0.06256172 0.06256172
0.91886608 0.06256172 0.06256172
0.91886608 0.06256172 0.06256172
0.91886608 0.06256172 0.06256172
0.91886608 0.06256172 0.06256172
0.91886608 0.06256172 0.06256172
0.91886608 0.06256172 0.06256172
0.91886608 0.06256172 0.06256172
0.91886608 0.06256172 0.06256172
0.91886608 0.06256172 0.06256172
0.06256172 0.41285092 0.06256172
0.06256172 0.41275641 0.06256172
0.06256172 0.41240831 0.06256172
0.06256172 0.41163919 0.06256172
0.06256172 0.41020551 0.06256172
0.32830737 0.40774840 0.06256172
0.40856686 0.40371841 0.06256172
0.46501511 0.39722190 0.06256172
0.51219363 0.38666175 0.06256172
0.55426915 0.36870902 0.06256172
0.59302719 0.33408909 0.06256172
0.62939872 0.21525233 0.06256172
0.66393240 0.06256172 0.06256172
0.69698072 0.06256172 0.06256172
0.72878547 0.06256172 0.06256172
0.75952118 0.06256172 0.06256172
0.78931923 0.06256172 0.06256172
0.81828188 0.06256172 0.06256172
0.84649105 0.06256172 0.06256172
0.87401391 0.06256172 0.06256172
0.90090660 0.06256172 0.06256172
0.91886608 0.06256172 0.06256172
0.91886608 0.06256172 0.06256172
0.91886608 0.06256172 0.06256172
0.91886608 0.06256172 0.06256172
0.91886608 0.06256172 0.06256172
0.91886608 0.06256172 0.06256172
0.91886608 0.06256172 0.06256172
0.91886608 0.06256172 0.06256172
0.91886608 0.06256172 0.06256172
0.91886608 0.06256172 0.06256172
0.91886608 0.06256172 0.06256172
0.91886608 0.06256172 0.06256172
0.06256172 0.45330690 0.06256172
0.06256172 0.45324694 0.06256172
0.06256172 0.45302632 0.06256172
0.06256172 0.45254005 0.06256172
0.06256172 0.45163803 0.06256172
0.06256172 0.45010552 0.06256172
0.37483252 0.44762908 0.06256172
0.44881921 0.44373549 0.06256172
0.50287040 0.43767201 0.06256172
0.54844174 0.42814209 0.06256172
0.58920733 0.41261424 0.06256172
0.62681569 0.38493518 0.06256172
0.66214703 0.32024315 0.06256172
0.69572654 0.06256172 0.06256172
0.72789347 0.06256172 0.06256172
0.75888064 0.06256172 0.06256172
0.78885575 0.06256172 0.06256172
0.81794450 0.06256172 0.06256172
0.84624431 0.06256172 0.06256172
0.87383280 0.06256172 0.06256172
0.90077329 0.06256172 0.06256172
0.91886608 0.06256172 0.06256172
0.91886608 0.06256172 0.06256172
0.91886608 0.06256172 0.06256172
0.91886608 0.06256172 0.06256172
0.91886608 0.06256172 0.06256172
0.91886608 0.06256172 0.06256172
0.91886608 0.06256172 0.06256172
0.91886608 0.06256172 0.06256172
0.91886608 0.06256172 0.06256172
0.91886608 0.06256172 0.06256172
0.91886608 0.06256172 0.06256172
0.91886608 0.06256172 0.06256172
0.06256172 0.49180126 0.06256172
0.06256172 0.49176197 0.06256172
0.06256172 0.49161748 0.06256172
0.06256172 0.49129947 0.06256172
0.06256172 0.49071121 0.06256172
0.06256172 0.48971664 0.06256172
0.26221080 0.48812258 0.06256172
0.41789636 0.48564938 0.06256172
0.48715141 0.48187965 0.06256172
0.53913654 0.47616078 0.06256172
0.58328203 0.46739898 0.06256172
0.62287690 0.45355441 0.06256172
0.65945368 0.43008393 0.06256172
0.69384780 0.38251536 0.06256172
0.72656362 0.06256172 0.06256172
0.75792881 0.06256172 0.06256172
0.78816863 0.06256172 0.06256172
0.81744517 0.06256172 0.06256172
0.84587956 0.06256172 0.06256172
0.87356529 0.06256172 0.06256172
0.90057653 0.06256172 0.06256172
0.91886608 0.06256172 0.06256172
0.91886608 0.06256172 0.06256172
0.91886608 0.06256172 0.06256172
0.91886608 0.06256172 0.06256172
0.91886608 0.06256172 0.06256172
0.91886608 0.06256172 0.06256172
0.91886608 0.06256172 0.06256172
0.91886608 0.06256172 0.06256172
0.91886608 0.06256172 0.06256172
0.91886608 0.06256172 0.06256172
0.91886608 0.06256172 0.06256172
0.91886608 0.06256172 0.06256172
0.06256172 0.52863658 0.06256172
0.06256172 0.52861018 0.06256172
0.06256172 0.52851315 0.06256172
0.06256172 0.52829977 0.06256172
0.06256172 0.52790570 0.06256172
0.06256172 0.52724141 0.06256172
0.06256172 0.52618184 0.06256172
0.33474372 0.52455051 0.06256172
0.45836232 0.52209380 0.06256172
0.52385819 0.51843671 0.06256172
0.57403347 0.51300079 0.06256172
0.61689816 0.50483643 0.06256172
0.65543374 0.49223147 0.06256172
0.69107378 0.47159685 0.06256172
0.72461410 0.43297552 0.06256172
0.75654030 0.31165197 0.06256172
0.78716971 0.06256172 0.06256172
0.81672100 0.06256172 0.06256172
0.84535150 0.06256172 0.06256172
0.87317852 0.06256172 0.06256172
0.90029229 0.06256172 0.06256172
0.91886608 0.06256172 0.06256172
0.91886608 0.06256172 0.06256172
0.91886608 0.06256172 0.06256172
0.91886608 0.06256172 0.06256172
0.91886608 0.06256172 0.06256172
0.91886608 0.06256172 0.06256172
0.91886608 0.06256172 0.06256172
0.91886608 0.06256172 0.06256172
0.91886608 0.06256172 0.06256172
0.91886608 0.06256172 0.06256172
0.91886608 0.06256172 0.06256172
0.91886608 0.06256172 0.06256172
0.06256172 0.56404161 0.06256172
0.06256172 0.56402353 0.06256172
0.06256172 0.56395706 0.06256172
0.06256172 0.56381097 0.06256172
0.06256172 0.56354146 0.06256172
0.06256172 0.56308798 0.06256172
0.06256172 0.56236682 0.06256172
0.06256172 0.56126174 0.06256172
0.38956398 0.55960963 0.06256172
0.49675988 0.55717743 0.06256172
0.55916255 0.55362320 0.06256172
0.60773174 0.54842511 0.06256172
0.64943438 0.54074019 0.06256172
0.68700200 0.52908688 0.06256172
0.72178323 0.51049342 0.06256172
0.75453865 0.47743376 0.06256172
0.78573690 0.39634644 0.06256172
0.81568598 0.06256172 0.06256172
0.84459867 0.06256172 0.06256172
0.87262813 0.06256172 0.06256172
0.89988837 0.06256172 0.06256172
0.91886608 0.06256172 0.06256172
0.91886608 0.06256172 0.06256172
0.91886608 0.06256172 0.06256172
0.91886608 0.06256172 0.06256172
0.91886608 0.06256172 0.06256172
0.91886608 0.06256172 0.06256172
0.91886608 0.06256172 0.06256172
0.91886608 0.06256172 0.06256172
0.91886608 0.06256172 0.06256172
0.91886608 0.06256172 0.06256172
0.91886608 0.06256172 0.06256172
0.91886608 0.06256172 0.06256172
0.06256172 0.59819475 0.06256172
0.06256172 0.59818216 0.06256172
0.06256172 0.59813590 0.06256172
0.06256172 0.59803427 0.06256172
0.06256172 0.59784689 0.06256172
0.06256172 0.59753198 0.06256172
0.06256172 0.59703216 0.06256172
0.06256172 0.59626856 0.06256172
0.06256172 0.59513222 0.06256172
0.43681382 0.59347087 0.06256172
0.53344642 0.59106807 0.06256172
0.59323853 0.58760821 0.06256172
0.64036723 0.58261373 0.06256172
0.68100682 0.57532287 0.06256172
0.71768278 0.56442286 0.06256172
0.75167035 0.54736616 0.06256172
0.78369873 0.51810261 0.06256172
0.81422116 0.45438460 0.06256172
0.84353711 0.06256172 0.06256172
0.87185404 0.06256172 0.06256172
0.89932136 0.06256172 0.06256172
0.91886608 0.06256172 0.06256172
0.91886608 0.06256172 0.06256172
0.91886608 0.06256172 0.06256172
0.91886608 0.06256172 0.06256172
0.91886608 0.06256172 0.06256172
0.91886608 0.06256172 0.06256172
0.91886608 0.06256172 0.06256172
0.91886608 0.06256172 0.06256172
0.91886608 0.06256172 0.06256172
0.91886608 0.06256172 0.06256172
0.91886608 0.06256172 0.06256172
0.91886608 0.06256172 0.06256172
0.06256172 0.63123858 0.06256172
0.06256172 0.63122970 0.06256172
0.06256172 0.63119709 0.06256172
0.06256172 0.63112545 0.06256172
0.06256172 0.63099344 0.06256172
0.06256172 0.63077175 0.06256172
0.06256172 0.63042034 0.06256172
0.06256172 0.62988456 0.06256172
0.06256172 0.62908965 0.06256172
0.06256172 0.62793267 0.06256172
0.47959800 0.62627038 0.06256172
0.56867919 0.62389997 0.06256172
0.62622533 0.62052712 0.06256172
0.67205052 0.61570953 0.06256172
0.71171081 0.60874865 0.06256172
0.74755980 0.59845895 0.06256172
0.78080902 0.58259712 0.06256172
0.81215961 0.55608082 0.06256172
0.84205081 0.50235544 0.06256172
0.87077427 0.06256172 0.06256172
0.89853257 0.06256172 0.06256172
0.91886608 0.06256172 0.06256172
0.91886608 0.06256172 0.06256172
0.91886608 0.06256172 0.06256172
0.91886608 0.06256172 0.06256172
0.91886608 0.06256172 0.06256172
0.91886608 0.06256172 0.06256172
0.91886608 0.06256172 0.06256172
0.91886608 0.06256172 0.06256172
0.91886608 0.06256172 0.06256172
0.91886608 0.06256172 0.06256172
0.91886608 0.06256172 0.06256172
0.91886608 0.06256172 0.06256172
0.06256172 0.66328937 0.06256172
0.06256172 0.66328305 0.06256172
0.06256172 0.66325981 0.06256172
0.06256172 0.66320878 0.06256172
0.06256172 0.66311477 0.06256172
0.06256172 0.66295697 0.06256172
0.06256172 0.66270706 0.06256172
0.06256172 0.66232655 0.06256172
0.06256172 0.66176314 0.06256172
0.06256172 0.66094559 0.06256172
0.06256172 0.65977610 0.06256172
0.51931787 0.65811899 0.06256172
0.60265203 0.65578272 0.06256172
0.65823657 0.65249047 0.06256172
0.70287323 0.64782841 0.06256172
0.74162594 0.64114800 0.06256172
0.77670350 0.63136167 0.06256172
0.80926187 0.61645118 0.06256172
0.83997709 0.59200286 0.06256172
0.86927562 0.54478603 0.06256172
0.89744191 0.34240361 0.06256172
0.91886608 0.06256172 0.06256172
0.91886608 0.06256172 0.06256172
0.91886608 0.06256172 0.06256172
0.91886608 0.06256172 0.06256172
0.91886608 0.06256172 0.06256172
0.91886608 0.06256172 0.06256172
0.91886608 0.06256172 0.06256172
0.91886608 0.06256172 0.06256172
0.91886608 0.06256172 0.06256172
0.91886608 0.06256172 0.06256172
0.91886608 0.06256172 0.06256172
0.91886608 0.06256172 0.06256172
0.06256172 0.69444359 0.06256172
0.06256172 0.69443905 0.06256172
0.06256172 0.69442234 0.06256172
0.06256172 0.69438567 0.06256172
0.06256172 0.69431812 0.06256172
0.06256172 0.69420479 0.06256172
0.06256172 0.69402540 0.06256172
0.06256172 0.69375253 0.06256172
0.06256172 0.69334906 0.06256172
0.06256172 0.69276479 0.06256172
0.06256172 0.69193152 0.06256172
0.06256172 0.69075584 0.06256172
0.55674169 0.68910846 0.06256172
0.63551609 0.68680733 0.06256172
0.68936651 0.68359008 0.06256172
0.73291240 0.67906610 0.06256172
0.77081954 0.67262693 0.06256172
0.80517386 0.66326159 0.06256172
0.83708261 0.64912193 0.06256172
0.86719933 0.62627321 0.06256172
0.89593884 0.58360116 0.06256172
0.91886608 0.44779008 0.06256172
0.91886608 0.06256172 0.06256172
0.91886608 0.06256172 0.06256172
0.91886608 0.06256172 0.06256172
0.91886608 0.06256172 0.06256172
0.91886608 0.06256172 0.06256172
0.91886608 0.06256172 0.06256172
0.91886608 0.06256172 0.06256172
0.91886608 0.06256172 0.06256172
0.91886608 0.06256172 0.06256172
0.91886608 0.06256172 0.06256172
0.91886608 0.06256172 0.06256172
0.06256172 0.72478236 0.06256172
0.06256172 0.72477907 0.06256172
0.06256172 0.72476698 0.06256172
0.06256172 0.72474043 0.06256172
0.06256172 0.72469154 0.06256172
0.06256172 0.72460954 0.06256172
0.06256172 0.72447980 0.06256172
0.06256172 0.72428258 0.06256172
0.06256172 0.72399125 0.06256172
0.06256172 0.72356998 0.06256172
0.06256172 0.72297042 0.06256172
0.06256172 0.72212699 0.06256172
0.37134859 0.72095011 0.06256172
0.59234448 0.71931593 0.06256172
0.66739240 0.71705042 0.06256172
0.71969449 0.71390325 0.06256172
0.76223361 0.70950290 0.06256172
0.79934929 0.70327324 0.06256172
0.83302251 0.69426375 0.06256172
0.86431774 0.68075667 0.06256172
0.89386830 0.65916848 0.06256172
0.91886608 0.61980747 0.06256172
0.91886608 0.51027503 0.06256172
0.91886608 0.06256172 0.06256172
0.91886608 0.06256172 0.06256172
0.91886608 0.06256172 0.06256172
0.91886608 0.06256172 0.06256172
0.91886608 0.06256172 0.06256172
0.91886608 0.06256172 0.06256172
0.91886608 0.06256172 0.06256172
0.91886608 0.06256172 0.06256172
0.91886608 0.06256172 0.06256172
0.91886608 0.06256172 0.06256172
0.06256172 0.75437476 0.06256172
0.06256172 0.75437236 0.06256172
0.06256172 0.75436356 0.06256172
0.06256172 0.75434423 0.06256172
0.06256172 0.75430864 0.06256172
0.06256172 0.75424895 0.06256172
0.06256172 0.75415453 0.06256172
0.06256172 0.75401108 0.06256172
0.06256172 0.75379933 0.06256172
0.06256172 0.75349344 0.06256172
0.06256172 0.75305872 0.06256172
0.06256172 0.75244846 0.06256172
0.06256172 0.75159944 0.06256172
0.44838882 0.75042535 0.06256172
0.62644518 0.74880707 0.06256172
0.69837997 0.74657732 0.06256172
0.74928812 0.74349588 0.06256172
0.79089330 0.73920699 0.06256172
0.82726508 0.73316070 0.06256172
0.86029434 0.72445443 0.06256172
0.89100788 0.71147102 0.06256172
0.91886608 0.69088790 0.06256172
0.91886608 0.65400112 0.06256172
0.91886608 0.55912131 0.06256172
0.91886608 0.06256172 0.06256172
0.91886608 0.06256172 0.06256172
0.91886608 0.06256172 0.06256172
0.91886608 0.06256172 0.06256172
0.91886608 0.06256172 0.06256172
0.91886608 0.06256172 0.06256172
0.91886608 0.06256172 0.06256172
0.91886608 0.06256172 0.06256172
0.91886608 0.06256172 0.06256172
0.06256172 0.78328025 0.06256172
0.06256172 0.78327849 0.06256172
0.06256172 0.78327205 0.06256172
0.06256172 0.78325791 0.06256172
0.06256172 0.78323187 0.06256172
0.06256172 0.78318821 0.06256172
0.06256172 0.78311916 0.06256172
0.06256172 0.78301428 0.06256172
0.06256172 0.78285955 0.06256172
0.06256172 0.78263620 0.06256172
0.06256172 0.78231911 0.06256172
0.06256172 0.78187464 0.06256172
0.06256172 0.78125755 0.06256172
0.06256172 0.78040669 0.06256172
0.50400037 0.77923866 0.06256172
0.65927103 0.77763836 0.06256172
0.72856117 0.77544430 0.06256172
0.77820559 0.77242475 0.06256172
0.81894050 0.76823693 0.06256172
0.85461044 0.76235212 0.06256172
0.88702867 0.75390568 0.06256172
0.91718875 0.74135799 0.06256172
0.91886608 0.72158073 0.06256172
0.91886608 0.68656586 0.06256172
0.91886608 0.60087835 0.06256172
0.91886608 0.06256172 0.06256172
0.91886608 0.06256172 0.06256172
0.91886608 0.06256172 0.06256172
0.91886608 0.06256172 0.06256172
0.91886608 0.06256172 0.06256172
0.91886608 0.06256172 0.06256172
0.91886608 0.06256172 0.06256172
0.91886608 0.06256172 0.06256172
0.06256172 0.81155045 0.06256172
0.06256172 0.81154916 0.06256172
0.06256172 0.81154443 0.06256172
0.06256172 0.81153404 0.06256172
0.06256172 0.81151492 0.06256172
0.06256172 0.81148286 0.06256172
0.06256172 0.81143216 0.06256172
0.06256172 0.81135517 0.06256172
0.06256172 0.81124163 0.06256172
0.06256172 0.81107783 0.06256172
0.06256172 0.81084545 0.06256172
0.06256172 0.81052007 0.06256172
0.06256172 0.81006901 0.06256172
0.06256172 0.80944836 0.06256172
0.06256172 0.80859881 0.06256172
0.55044911 0.80743951 0.06256172
0.69099139 0.80585885 0.06256172
0.75800557 0.80370029 0.06256172
0.80649747 0.80073921 0.06256172
0.84641816 0.79664351 0.06256172
0.88142366 0.79090156 0.06256172
0.91326022 0.78267852 0.06256172
0.91886608 0.77049388 0.06256172
0.91886608 0.75136233 0.06256172
0.91886608 0.71776360 0.06256172
0.91886608 0.63811754 0.06256172
0.91886608 0.06256172 0.06256172
0.91886608 0.06256172 0.06256172
0.91886608 0.06256172 0.06256172
0.91886608 0.06256172 0.06256172
0.91886608 0.06256172 0.06256172
0.91886608 0.06256172 0.06256172
0.91886608 0.06256172 0.06256172
0.06256172 0.83923058 0.06256172
0.06256172 0.83922963 0.06256172
0.06256172 0.83922615 0.06256172
0.06256172 0.83921850 0.06256172
0.06256172 0.83920441 0.06256172
0.06256172 0.83918079 0.06256172
0.06256172 0.83914345 0.06256172
0.06256172 0.83908676 0.06256172
0.06256172 0.83900318 0.06256172
0.06256172 0.83888263 0.06256172
0.06256172 0.83871172 0.06256172
0.06256172 0.83847260 0.06256172
0.06256172 0.83814146 0.06256172
0.06256172 0.83768653 0.06256172
0.06256172 0.83706511 0.06256172
0.06256172 0.83621954 0.06256172
0.59161807 0.83507119 0.06256172
0.72173693 0.83351153 0.06256172
0.78677263 0.83138818 0.06256172
0.83420805 0.82848250 0.06256172
0.87336420 0.82447113 0.06256172
0.90773866 0.81885601 0.06256172
0.91886608 0.81082527 0.06256172
0.91886608 0.79894234 0.06256172
0.91886608 0.78032394 0.06256172
0.91886608 0.74778069 0.06256172
0.91886608 0.67210338 0.06256172
0.91886608 0.06256172 0.06256172
0.91886608 0.06256172 0.06256172
0.91886608 0.06256172 0.06256172
0.91886608 0.06256172 0.06256172
0.91886608 0.06256172 0.06256172
0.91886608 0.06256172 0.06256172
0.06256172 0.86636052 0.06256172
0.06256172 0.86635982 0.06256172
0.06256172 0.86635725 0.06256172
0.06256172 0.86635160 0.06256172
0.06256172 0.86634120 0.06256172
0.06256172 0.86632376 0.06256172
0.06256172 0.86629619 0.06256172
0.06256172 0.86625435 0.06256172
0.06256172 0.86619266 0.06256172
0.06256172 0.86610373 0.06256172
0.06256172 0.86597769 0.06256172
0.06256172 0.86580145 0.06256172
0.06256172 0.86555758 0.06256172
0.06256172 0.86522292 0.06256172
0.06256172 0.86476648 0.06256172
0.06256172 0.86414668 0.06256172
0.06256172 0.86330736 0.06256172
0.62925685 0.86217186 0.06256172
0.75161123 0.86063427 0.06256172
0.81491369 0.85854583 0.06256172
0.86137642 0.85569281 0.06256172
0.89981226 0.85175890 0.06256172
0.91886608 0.84625662 0.06256172
0.91886608 0.83839119 0.06256172
0.91886608 0.82675713 0.06256172
0.91886608 0.80853910 0.06256172
0.91886608 0.77675353 0.06256172
0.91886608 0.70353313 0.06256172
0.91886608 0.06256172 0.06256172
0.91886608 0.06256172 0.06256172
0.91886608 0.06256172 0.06256172
0.91886608 0.06256172 0.06256172
0.91886608 0.06256172 0.06256172
0.06256172 0.89297566 0.06256172
0.06256172 0.89297514 0.06256172
0.06256172 0.89297324 0.06256172
0.06256172 0.89296906 0.06256172
0.06256172 0.89296137 0.06256172
0.06256172 0.89294848 0.06256172
0.06256172 0.89292810 0.06256172
0.06256172 0.89289716 0.06256172
0.06256172 0.89285156 0.06256172
0.06256172 0.89278583 0.06256172
0.06256172 0.89269270 0.06256172
0.06256172 0.89256254 0.06256172
0.06256172 0.89238254 0.06256172
0.06256172 0.89213572 0.06256172
0.06256172 0.89179947 0.06256172
0.06256172 0.89134359 0.06256172
0.06256172 0.89072751 0.06256172
0.06256172 0.88989639 0.06256172
0.66430806 0.88877534 0.06256172
0.78069824 0.88726074 0.06256172
0.84247351 0.88520686 0.06256172
0.88803729 0.88240404 0.06256172
0.91886608 0.87854152 0.06256172
0.91886608 0.87313973 0.06256172
0.91886608 0.86541583 0.06256172
0.91886608 0.85398415 0.06256172
0.91886608 0.83606783 0.06256172
