src/ffmpeg_scripts/luts/rec2020-sRGB_-3p67.cube
TITLE "rec2020-srgb_-3p67"
LUT_3D_SIZE 5
# PQ (EOTF Only)/Rec2020 -> PQ (EOTF Only)/Rec709, CineEI Shift -3.67, Black Level 0.00% IRE, Input 100% -> Output 109% - Created with LUTCalc v4.01 by Ben Turley October 2020
0.06256172 0.06256172 0.06256172
0.17453060 0.06256172 0.06256172
0.33202074 0.06256172 0.06256172
0.51941463 0.06256172 0.06256172
0.73140134 0.06256172 0.06256172
0.06256172 0.16010294 0.06256172
0.15816420 0.15599173 0.06256172
0.33063807 0.06256172 0.06256172
0.51925249 0.06256172 0.06256172
0.73138430 0.06256172 0.06256172
0.06256172 0.30622346 0.06256172
0.06256172 0.30581948 0.06256172
0.30266586 0.29865176 0.06256172
0.51646917 0.06256172 0.06256172
0.73109582 0.06256172 0.06256172
0.06256172 0.48642901 0.06256172
0.06256172 0.48637993 0.06256172
0.06256172 0.48554652 0.06256172
0.48180004 0.47655253 0.06256172
0.72809176 0.06256172 0.06256172
0.06256172 0.69570138 0.06256172
0.06256172 0.69569610 0.06256172
0.06256172 0.69560675 0.06256172
0.06256172 0.69468769 0.06256172
0.69062360 0.68484627 0.06256172
0.06256172 0.06256172 0.15965233
0.17276257 0.06256172 0.15906902
0.33185061 0.06256172 0.14795460
0.51939454 0.06256172 0.06256172
0.73139923 0.06256172 0.06256172
0.06256172 0.15983793 0.15632823
0.15570320 0.15570320 0.15570320
0.33046499 0.06256172 0.14363815
0.51923237 0.06256172 0.06256172
0.73138219 0.06256172 0.06256172
0.06256172 0.30619645 0.06256172
0.06256172 0.30579232 0.06256172
0.30241866 0.29862195 0.06256172
0.51644843 0.06256172 0.06256172
0.73109370 0.06256172 0.06256172
0.06256172 0.48642572 0.06256172
0.06256172 0.48637664 0.06256172
0.06256172 0.48554320 0.06256172
0.48176985 0.47654886 0.06256172
0.72808958 0.06256172 0.06256172
0.06256172 0.69570103 0.06256172
0.06256172 0.69569574 0.06256172
0.06256172 0.69560640 0.06256172
0.06256172 0.69468733 0.06256172
0.69062034 0.68484587 0.06256172
0.06256172 0.06256172 0.30539863
0.12482061 0.06256172 0.30533926
0.32892011 0.06256172 0.30432906
0.51905451 0.06256172 0.29314683
0.73136352 0.06256172 0.06256172
0.06256172 0.15512671 0.30506906
0.06256172 0.15054157 0.30500943
0.32748240 0.06256172 0.30399487
0.51889174 0.06256172 0.29275978
0.73134647 0.06256172 0.06256172
0.06256172 0.30573852 0.29927546
0.06256172 0.30533199 0.29921116
0.29811641 0.29811641 0.29811641
0.51609742 0.06256172 0.28589963
0.73105787 0.06256172 0.06256172
0.06256172 0.48637012 0.14950904
0.06256172 0.48632100 0.14878541
0.06256172 0.48548706 0.13433786
0.48125813 0.47648692 0.06256172
0.72805258 0.06256172 0.06256172
0.06256172 0.69569504 0.06256172
0.06256172 0.69568975 0.06256172
0.06256172 0.69560041 0.06256172
0.06256172 0.69468128 0.06256172
0.69056520 0.68483916 0.06256172
0.06256172 0.06256172 0.48535758
0.06256172 0.06256172 0.48535035
0.29025116 0.06256172 0.48522800
0.51550179 0.06256172 0.48396663
0.73099736 0.06256172 0.47011783
0.06256172 0.06256172 0.48531748
0.06256172 0.06256172 0.48531024
0.28786998 0.06256172 0.48518784
0.51533267 0.06256172 0.48392592
0.73098024 0.06256172 0.47007044
0.06256172 0.30088964 0.48463720
0.06256172 0.30045659 0.48462991
0.22747761 0.29274086 0.48450659
0.51242739 0.06256172 0.48323519
0.73069051 0.06256172 0.46926602
0.06256172 0.48579922 0.47736960
0.06256172 0.48574980 0.47736171
0.06256172 0.48491062 0.47722819
0.47585068 0.47585068 0.47585068
0.72767320 0.06256172 0.46059770
0.06256172 0.69563377 0.29956686
0.06256172 0.69562848 0.29950281
0.06256172 0.69553907 0.29841225
0.06256172 0.69461934 0.28624734
0.68999914 0.68477040 0.06256172
0.06256172 0.06256172 0.69452760
0.06256172 0.06256172 0.69452682
0.06256172 0.06256172 0.69451365
0.46880763 0.06256172 0.69437871
0.72720952 0.06256172 0.69300241
0.06256172 0.06256172 0.69452328
0.06256172 0.06256172 0.69452250
0.06256172 0.06256172 0.69450933
0.46852640 0.06256172 0.69437438
0.72719169 0.06256172 0.69299802
0.06256172 0.21425883 0.69445024
0.06256172 0.21274626 0.69444946
0.06256172 0.17881482 0.69443627
0.46363788 0.06256172 0.69430122
0.72688997 0.06256172 0.69292378
0.06256172 0.47981340 0.69369956
0.06256172 0.47976064 0.69369877
0.06256172 0.47886445 0.69368548
0.38713482 0.46915026 0.69354935
0.72374546 0.06256172 0.69216078
0.06256172 0.69501154 0.68574732
0.06256172 0.69500621 0.68574647
0.06256172 0.69491621 0.68573200
0.06256172 0.69399035 0.68558387
0.68407185 0.68407185 0.68407185
