src/ffmpeg_scripts/luts/rec2020-sRGB_4p00.cube
TITLE "rec2020-srgb_4p00"
LUT_3D_SIZE 9
# PQ (EOTF Only)/Rec2020 -> PQ (EOTF Only)/Rec709, CineEI Shift 4.00, Black Level 0.00% IRE, Input 100% -> Output 109% - Created with LUTCalc v4.01 by Ben Turley October 2020
0.06256172 0.06256172 0.06256172
0.35098306 0.06256172 0.06256172
0.52492198 0.06256172 0.06256172
0.66661435 0.06256172 0.06256172
0.79002759 0.06256172 0.06256172
0.90111124 0.06256172 0.06256172
0.91886608 0.06256172 0.06256172
0.91886608 0.06256172 0.06256172
0.91886608 0.06256172 0.06256172
0.06256172 0.32419889 0.06256172
0.32049716 0.31631802 0.06256172
0.52127690 0.16268594 0.06256172
0.66581639 0.06256172 0.06256172
0.78981530 0.06256172 0.06256172
0.90104980 0.06256172 0.06256172
0.91886608 0.06256172 0.06256172
0.91886608 0.06256172 0.06256172
0.91886608 0.06256172 0.06256172
0.06256172 0.49180126 0.06256172
0.06256172 0.49071121 0.06256172
0.48715141 0.48187965 0.06256172
0.65945368 0.43008393 0.06256172
0.78816863 0.06256172 0.06256172
0.90057653 0.06256172 0.06256172
0.91886608 0.06256172 0.06256172
0.91886608 0.06256172 0.06256172
0.91886608 0.06256172 0.06256172
0.06256172 0.63123858 0.06256172
0.06256172 0.63099344 0.06256172
0.06256172 0.62908965 0.06256172
0.62622533 0.62052712 0.06256172
0.78080902 0.58259712 0.06256172
0.89853257 0.06256172 0.06256172
0.91886608 0.06256172 0.06256172
0.91886608 0.06256172 0.06256172
0.91886608 0.06256172 0.06256172
0.06256172 0.75437476 0.06256172
0.06256172 0.75430864 0.06256172
0.06256172 0.75379933 0.06256172
0.06256172 0.75159944 0.06256172
0.74928812 0.74349588 0.06256172
0.89100788 0.71147102 0.06256172
0.91886608 0.06256172 0.06256172
0.91886608 0.06256172 0.06256172
0.91886608 0.06256172 0.06256172
0.06256172 0.86636052 0.06256172
0.06256172 0.86634120 0.06256172
0.06256172 0.86619266 0.06256172
0.06256172 0.86555758 0.06256172
0.06256172 0.86330736 0.06256172
0.86137642 0.85569281 0.06256172
0.91886608 0.82675713 0.06256172
0.91886608 0.06256172 0.06256172
0.91886608 0.06256172 0.06256172
0.06256172 0.91886608 0.06256172
0.06256172 0.91886608 0.06256172
0.06256172 0.91886608 0.06256172
0.06256172 0.91886608 0.06256172
0.06256172 0.91886608 0.06256172
0.06256172 0.91886608 0.06256172
0.91886608 0.91886608 0.06256172
0.91886608 0.91886608 0.06256172
0.91886608 0.06256172 0.06256172
0.06256172 0.91886608 0.06256172
0.06256172 0.91886608 0.06256172
0.06256172 0.91886608 0.06256172
0.06256172 0.91886608 0.06256172
0.06256172 0.91886608 0.06256172
0.06256172 0.91886608 0.06256172
0.06256172 0.91886608 0.06256172
0.91886608 0.91886608 0.06256172
0.91886608 0.91886608 0.06256172
0.06256172 0.91886608 0.06256172
0.06256172 0.91886608 0.06256172
0.06256172 0.91886608 0.06256172
0.06256172 0.91886608 0.06256172
0.06256172 0.91886608 0.06256172
0.06256172 0.91886608 0.06256172
0.06256172 0.91886608 0.06256172
0.06256172 0.91886608 0.06256172
0.91886608 0.91886608 0.06256172
0.06256172 0.06256172 0.32334082
0.34776905 0.06256172 0.32222799
0.52447777 0.06256172 0.31311649
0.66651579 0.06256172 0.25379855
0.79000130 0.06256172 0.06256172
0.90110363 0.06256172 0.06256172
0.91886608 0.06256172 0.06256172
0.91886608 0.06256172 0.06256172
0.91886608 0.06256172 0.06256172
0.06256172 0.32369442 0.31696754
0.31576046 0.31576046 0.31576046
0.52081490 0.15643224 0.30581277
0.66571699 0.06256172 0.23619575
0.78978895 0.06256172 0.06256172
0.90104218 0.06256172 0.06256172
0.91886608 0.06256172 0.06256172
0.91886608 0.06256172 0.06256172
0.91886608 0.06256172 0.06256172
0.06256172 0.49172859 0.23175718
0.06256172 0.49063767 0.22775774
0.48648226 0.48179867 0.18346466
0.65934736 0.42994013 0.06256172
0.78814180 0.06256172 0.06256172
0.90056886 0.06256172 0.06256172
0.91886608 0.06256172 0.06256172
0.91886608 0.06256172 0.06256172
0.91886608 0.06256172 0.06256172
0.06256172 0.63122216 0.06256172
0.06256172 0.63097698 0.06256172
0.06256172 0.62907286 0.06256172
0.62607423 0.62050873 0.06256172
0.78077996 0.58256966 0.06256172
0.89852473 0.06256172 0.06256172
0.91886608 0.06256172 0.06256172
0.91886608 0.06256172 0.06256172
0.91886608 0.06256172 0.06256172
0.06256172 0.75437033 0.06256172
0.06256172 0.75430420 0.06256172
0.06256172 0.75379487 0.06256172
0.06256172 0.75159487 0.06256172
0.74924727 0.74349090 0.06256172
0.89099933 0.71146401 0.06256172
0.91886608 0.06256172 0.06256172
0.91886608 0.06256172 0.06256172
0.91886608 0.06256172 0.06256172
0.06256172 0.86635922 0.06256172
0.06256172 0.86633990 0.06256172
0.06256172 0.86619137 0.06256172
0.06256172 0.86555628 0.06256172
0.06256172 0.86330602 0.06256172
0.86136447 0.85569135 0.06256172
0.91886608 0.82675512 0.06256172
0.91886608 0.06256172 0.06256172
0.91886608 0.06256172 0.06256172
0.06256172 0.91886608 0.06256172
0.06256172 0.91886608 0.06256172
0.06256172 0.91886608 0.06256172
0.06256172 0.91886608 0.06256172
0.06256172 0.91886608 0.06256172
0.06256172 0.91886608 0.06256172
0.91886608 0.91886608 0.06256172
0.91886608 0.91886608 0.06256172
0.91886608 0.06256172 0.06256172
0.06256172 0.91886608 0.06256172
0.06256172 0.91886608 0.06256172
0.06256172 0.91886608 0.06256172
0.06256172 0.91886608 0.06256172
0.06256172 0.91886608 0.06256172
0.06256172 0.91886608 0.06256172
0.06256172 0.91886608 0.06256172
0.91886608 0.91886608 0.06256172
0.91886608 0.91886608 0.06256172
0.06256172 0.91886608 0.06256172
0.06256172 0.91886608 0.06256172
0.06256172 0.91886608 0.06256172
0.06256172 0.91886608 0.06256172
0.06256172 0.91886608 0.06256172
0.06256172 0.91886608 0.06256172
0.06256172 0.91886608 0.06256172
0.06256172 0.91886608 0.06256172
0.91886608 0.91886608 0.06256172
0.06256172 0.06256172 0.49072504
0.31763130 0.06256172 0.49056513
0.52099433 0.06256172 0.48932784
0.66575555 0.06256172 0.48386574
0.78979917 0.06256172 0.46177563
0.90104513 0.06256172 0.23587642
0.91886608 0.06256172 0.06256172
0.91886608 0.06256172 0.06256172
0.91886608 0.06256172 0.06256172
0.06256172 0.31970999 0.48983539
0.26421324 0.31134155 0.48967391
0.51718873 0.06256172 0.48842448
0.66495027 0.06256172 0.48290666
0.78958635 0.06256172 0.46055157
0.90098364 0.06256172 0.21168572
0.91886608 0.06256172 0.06256172
0.91886608 0.06256172 0.06256172
0.91886608 0.06256172 0.06256172
0.06256172 0.49116865 0.48270054
0.06256172 0.49007103 0.48252599
0.48117450 0.48117450 0.48117450
0.65852695 0.42882804 0.47518669
0.78793553 0.06256172 0.45055551
0.90051001 0.06256172 0.06256172
0.91886608 0.06256172 0.06256172
0.91886608 0.06256172 0.06256172
0.91886608 0.06256172 0.06256172
0.06256172 0.63109604 0.44390333
0.06256172 0.63085053 0.44363539
0.06256172 0.62894383 0.44155080
0.62490580 0.62036747 0.43208858
0.78055650 0.58235851 0.38779018
0.89846448 0.06256172 0.06256172
0.91886608 0.06256172 0.06256172
0.91886608 0.06256172 0.06256172
0.91886608 0.06256172 0.06256172
0.06256172 0.75433630 0.06256172
0.06256172 0.75427014 0.06256172
0.06256172 0.75376062 0.06256172
0.06256172 0.75155981 0.06256172
0.74893305 0.74345265 0.06256172
0.89093366 0.71141014 0.06256172
0.91886608 0.06256172 0.06256172
0.91886608 0.06256172 0.06256172
0.91886608 0.06256172 0.06256172
0.06256172 0.86634928 0.06256172
0.06256172 0.86632995 0.06256172
0.06256172 0.86618140 0.06256172
0.06256172 0.86554624 0.06256172
0.06256172 0.86329573 0.06256172
0.86127262 0.85568013 0.06256172
0.91886608 0.82673965 0.06256172
0.91886608 0.06256172 0.06256172
0.91886608 0.06256172 0.06256172
0.06256172 0.91886608 0.06256172
0.06256172 0.91886608 0.06256172
0.06256172 0.91886608 0.06256172
0.06256172 0.91886608 0.06256172
0.06256172 0.91886608 0.06256172
0.06256172 0.91886608 0.06256172
0.91886608 0.91886608 0.06256172
0.91886608 0.91886608 0.06256172
0.91886608 0.06256172 0.06256172
0.06256172 0.91886608 0.06256172
0.06256172 0.91886608 0.06256172
0.06256172 0.91886608 0.06256172
0.06256172 0.91886608 0.06256172
0.06256172 0.91886608 0.06256172
0.06256172 0.91886608 0.06256172
0.06256172 0.91886608 0.06256172
0.91886608 0.91886608 0.06256172
0.91886608 0.91886608 0.06256172
0.06256172 0.91886608 0.06256172
0.06256172 0.91886608 0.06256172
0.06256172 0.91886608 0.06256172
0.06256172 0.91886608 0.06256172
0.06256172 0.91886608 0.06256172
0.06256172 0.91886608 0.06256172
0.06256172 0.91886608 0.06256172
0.06256172 0.91886608 0.06256172
0.91886608 0.91886608 0.06256172
0.06256172 0.06256172 0.63007930
0.06256172 0.06256172 0.63004318
0.50450202 0.06256172 0.62976533
0.66244899 0.06256172 0.62857333
0.78893369 0.06256172 0.62429617
0.90079568 0.06256172 0.60913104
0.91886608 0.06256172 0.53534315
0.91886608 0.06256172 0.06256172
0.91886608 0.06256172 0.06256172
0.06256172 0.30003424 0.62987895
0.06256172 0.28905470 0.62984275
0.49993636 0.06256172 0.62956432
0.66161491 0.06256172 0.62836976
0.78871885 0.06256172 0.62408318
0.90073401 0.06256172 0.60888096
0.91886608 0.06256172 0.53479441
0.91886608 0.06256172 0.06256172
0.91886608 0.06256172 0.06256172
0.06256172 0.48874610 0.62832623
0.06256172 0.48761896 0.62828943
0.45431439 0.47846872 0.62800638
0.65495255 0.42393131 0.62679186
0.78705224 0.06256172 0.62243150
0.90025901 0.06256172 0.60693827
0.91886608 0.06256172 0.53046978
0.91886608 0.06256172 0.06256172
0.91886608 0.06256172 0.06256172
0.06256172 0.63055723 0.62141543
0.06256172 0.63031032 0.62137584
0.06256172 0.62839259 0.62107129
0.61976376 0.61976376 0.61976376
0.77959912 0.58145435 0.61505859
0.89820752 0.06256172 0.59819013
0.91886608 0.06256172 0.50941456
0.91886608 0.06256172 0.06256172
0.91886608 0.06256172 0.06256172
0.06256172 0.75419128 0.59238834
0.06256172 0.75412503 0.59233451
0.06256172 0.75361471 0.59192019
0.06256172 0.75141039 0.59013578
0.74758339 0.74328963 0.58363698
0.89065356 0.71118046 0.55917242
0.91886608 0.06256172 0.28294149
0.91886608 0.06256172 0.06256172
0.91886608 0.06256172 0.06256172
0.06256172 0.86630692 0.06256172
0.06256172 0.86628758 0.06256172
0.06256172 0.86613896 0.06256172
0.06256172 0.86550350 0.06256172
0.06256172 0.86325189 0.06256172
0.86088058 0.85563238 0.06256172
0.91886608 0.82667377 0.06256172
0.91886608 0.06256172 0.06256172
0.91886608 0.06256172 0.06256172
0.06256172 0.91886608 0.06256172
0.06256172 0.91886608 0.06256172
0.06256172 0.91886608 0.06256172
0.06256172 0.91886608 0.06256172
0.06256172 0.91886608 0.06256172
0.06256172 0.91886608 0.06256172
0.91886608 0.91886608 0.06256172
0.91886608 0.91886608 0.06256172
0.91886608 0.06256172 0.06256172
0.06256172 0.91886608 0.06256172
0.06256172 0.91886608 0.06256172
0.06256172 0.91886608 0.06256172
0.06256172 0.91886608 0.06256172
0.06256172 0.91886608 0.06256172
0.06256172 0.91886608 0.06256172
0.06256172 0.91886608 0.06256172
0.91886608 0.91886608 0.06256172
0.91886608 0.91886608 0.06256172
0.06256172 0.91886608 0.06256172
0.06256172 0.91886608 0.06256172
0.06256172 0.91886608 0.06256172
0.06256172 0.91886608 0.06256172
0.06256172 0.91886608 0.06256172
0.06256172 0.91886608 0.06256172
0.06256172 0.91886608 0.06256172
0.06256172 0.91886608 0.06256172
0.91886608 0.91886608 0.06256172
0.06256172 0.06256172 0.75319929
0.06256172 0.06256172 0.75318953
0.39745673 0.06256172 0.75311458
0.64992301 0.06256172 0.75279487
0.78585105 0.06256172 0.75167157
0.89992039 0.06256172 0.74798014
0.91886608 0.06256172 0.73545862
0.91886608 0.06256172 0.67968496
0.91886608 0.06256172 0.06256172
0.06256172 0.06256172 0.75314521
0.06256172 0.06256172 0.75313545
0.38137117 0.06256172 0.75306046
0.64897017 0.06256172 0.75274056
0.78562888 0.06256172 0.75161660
0.89985809 0.06256172 0.74792295
0.91886608 0.06256172 0.73539321
0.91886608 0.06256172 0.67956647
0.91886608 0.06256172 0.06256172
0.06256172 0.47976207 0.75272896
0.06256172 0.47851800 0.75271915
0.06256172 0.46835421 0.75264382
0.64131505 0.40435308 0.75232248
0.78390480 0.06256172 0.75119343
0.89937829 0.06256172 0.74748260
0.91886608 0.06256172 0.73488937
0.91886608 0.06256172 0.67865161
0.91886608 0.06256172 0.06256172
0.06256172 0.62865444 0.75093581
0.06256172 0.62840251 0.75092582
0.06256172 0.62644531 0.75084902
0.59927314 0.61762839 0.75052141
0.77618154 0.57823261 0.74937015
0.89730573 0.06256172 0.74558441
0.91886608 0.06256172 0.73271361
0.91886608 0.06256172 0.67465470
0.91886608 0.06256172 0.06256172
0.06256172 0.75368394 0.74439960
0.06256172 0.75361733 0.74438888
0.06256172 0.75310421 0.74430650
0.06256172 0.75088761 0.74395499
0.74271906 0.74271906 0.74271906
0.88967001 0.71037533 0.73864707
0.91886608 0.06256172 0.72470613
0.91886608 0.06256172 0.65922703
0.91886608 0.06256172 0.06256172
0.06256172 0.86615909 0.71972430
0.06256172 0.86613973 0.71971034
0.06256172 0.86599086 0.71960305
0.06256172 0.86535433 0.71914496
0.06256172 0.86309889 0.71753018
0.85950016 0.85546572 0.71216348
0.91886608 0.82644373 0.69318439
0.91886608 0.06256172 0.57995934
0.91886608 0.06256172 0.06256172
0.06256172 0.91886608 0.46574119
0.06256172 0.91886608 0.46553093
0.06256172 0.91886608 0.46389992
0.06256172 0.91886608 0.45660818
0.06256172 0.91886608 0.42523947
0.06256172 0.91886608 0.06256172
0.91886608 0.91886608 0.06256172
0.91886608 0.91886608 0.06256172
0.91886608 0.06256172 0.06256172
0.06256172 0.91886608 0.06256172
0.06256172 0.91886608 0.06256172
0.06256172 0.91886608 0.06256172
0.06256172 0.91886608 0.06256172
0.06256172 0.91886608 0.06256172
0.06256172 0.91886608 0.06256172
0.06256172 0.91886608 0.06256172
0.91886608 0.91886608 0.06256172
0.91886608 0.91886608 0.06256172
0.06256172 0.91886608 0.06256172
0.06256172 0.91886608 0.06256172
0.06256172 0.91886608 0.06256172
0.06256172 0.91886608 0.06256172
0.06256172 0.91886608 0.06256172
0.06256172 0.91886608 0.06256172
0.06256172 0.91886608 0.06256172
0.06256172 0.91886608 0.06256172
0.91886608 0.91886608 0.06256172
0.06256172 0.06256172 0.86520933
0.06256172 0.06256172 0.86520648
0.06256172 0.06256172 0.86518457
0.59277677 0.06256172 0.86509125
0.77522128 0.06256172 0.86476514
0.89705667 0.06256172 0.86371265
0.91886608 0.06256172 0.86035585
0.91886608 0.06256172 0.84892305
0.91886608 0.06256172 0.79647348
0.06256172 0.06256172 0.86519353
0.06256172 0.06256172 0.86519067
0.06256172 0.06256172 0.86516876
0.59102568 0.06256172 0.86507542
0.77497192 0.06256172 0.86474925
0.89699230 0.06256172 0.86369658
0.91886608 0.06256172 0.86033915
0.91886608 0.06256172 0.84890408
0.91886608 0.06256172 0.79643965
0.06256172 0.44300849 0.86507204
0.06256172 0.44113472 0.86506919
0.06256172 0.42526217 0.86504724
0.57637300 0.24866768 0.86495378
0.77303439 0.06256172 0.86462716
0.89649644 0.06256172 0.86357303
0.91886608 0.06256172 0.86021085
0.91886608 0.06256172 0.84875825
0.91886608 0.06256172 0.79617940
0.06256172 0.62228973 0.86455302
0.06256172 0.62202024 0.86455015
0.06256172 0.61992492 0.86452808
0.45665781 0.61044620 0.86443407
0.76429955 0.56710446 0.86410553
0.89435351 0.06256172 0.86304516
0.91886608 0.06256172 0.85966261
0.91886608 0.06256172 0.84813481
0.91886608 0.06256172 0.79506321
0.06256172 0.75204032 0.86271953
0.06256172 0.75197252 0.86271660
0.06256172 0.75145021 0.86269407
0.06256172 0.74919336 0.86259810
0.72517812 0.74086798 0.86226270
0.88644390 0.70774944 0.86118002
0.91886608 0.06256172 0.85772451
0.91886608 0.06256172 0.84592680
0.91886608 0.06256172 0.79106210
0.06256172 0.86568402 0.85658015
0.06256172 0.86566455 0.85657701
0.06256172 0.86551488 0.85655287
0.06256172 0.86487492 0.85645005
0.06256172 0.86260714 0.85609066
0.85492989 0.85492989 0.85492989
0.91886608 0.82570306 0.85121858
0.91886608 0.06256172 0.83846664
0.91886608 0.06256172 0.77693377
0.06256172 0.91886608 0.83423626
0.06256172 0.91886608 0.83423223
0.06256172 0.91886608 0.83420127
0.06256172 0.91886608 0.83406936
0.06256172 0.91886608 0.83360796
0.06256172 0.91886608 0.83211427
0.91886608 0.91886608 0.82730211
0.91886608 0.91886608 0.81029991
0.91886608 0.06256172 0.71038341
0.06256172 0.91886608 0.64968718
0.06256172 0.91886608 0.64965782
0.06256172 0.91886608 0.64943207
0.06256172 0.91886608 0.64846495
0.06256172 0.91886608 0.64501386
0.06256172 0.91886608 0.63302965
0.06256172 0.91886608 0.58145398
0.91886608 0.91886608 0.06256172
0.91886608 0.91886608 0.06256172
0.06256172 0.91886608 0.06256172
0.06256172 0.91886608 0.06256172
0.06256172 0.91886608 0.06256172
0.06256172 0.91886608 0.06256172
0.06256172 0.91886608 0.06256172
0.06256172 0.91886608 0.06256172
0.06256172 0.91886608 0.06256172
0.06256172 0.91886608 0.06256172
0.91886608 0.91886608 0.06256172
0.06256172 0.06256172 0.91886608
0.06256172 0.06256172 0.91886608
0.06256172 0.06256172 0.91886608
0.06256172 0.06256172 0.91886608
0.73118621 0.06256172 0.91886608
0.88749442 0.06256172 0.91886608
0.91886608 0.06256172 0.91886608
0.91886608 0.06256172 0.91886608
0.91886608 0.06256172 0.91886608
0.06256172 0.06256172 0.91886608
0.06256172 0.06256172 0.91886608
0.06256172 0.06256172 0.91886608
0.06256172 0.06256172 0.91886608
0.73078542 0.06256172 0.91886608
0.88742262 0.06256172 0.91886608
0.91886608 0.06256172 0.91886608
0.91886608 0.06256172 0.91886608
0.91886608 0.06256172 0.91886608
0.06256172 0.06256172 0.91886608
0.06256172 0.06256172 0.91886608
0.06256172 0.06256172 0.91886608
0.06256172 0.06256172 0.91886608
0.72764924 0.06256172 0.91886608
0.88686934 0.06256172 0.91886608
0.91886608 0.06256172 0.91886608
0.91886608 0.06256172 0.91886608
0.91886608 0.06256172 0.91886608
0.06256172 0.59920215 0.91886608
0.06256172 0.59885799 0.91886608
0.06256172 0.59617264 0.91886608
0.06256172 0.58380079 0.91886608
0.71298158 0.52045075 0.91886608
0.88447428 0.06256172 0.91886608
0.91886608 0.06256172 0.91886608
0.91886608 0.06256172 0.91886608
0.91886608 0.06256172 0.91886608
0.06256172 0.74673208 0.91886608
0.06256172 0.74666029 0.91886608
0.06256172 0.74610721 0.91886608
0.06256172 0.74371534 0.91886608
0.62955126 0.73486152 0.91886608
0.87557511 0.69907547 0.91886608
0.91886608 0.06256172 0.91886608
0.91886608 0.06256172 0.91886608
0.91886608 0.06256172 0.91886608
0.06256172 0.86418936 0.91886608
0.06256172 0.86416956 0.91886608
0.06256172 0.86401735 0.91886608
0.06256172 0.86336649 0.91886608
0.06256172 0.86105943 0.91886608
0.83900373 0.85324178 0.91886608
0.91886608 0.82335893 0.91886608
0.91886608 0.06256172 0.91886608
0.91886608 0.06256172 0.91886608
0.06256172 0.91886608 0.91886608
0.06256172 0.91886608 0.91886608
0.06256172 0.91886608 0.91886608
0.06256172 0.91886608 0.91886608
0.06256172 0.91886608 0.91886608
0.06256172 0.91886608 0.91886608
0.91886608 0.91886608 0.91886608
0.91886608 0.91886608 0.91886608
0.91886608 0.06256172 0.91886608
0.06256172 0.91886608 0.91886608
0.06256172 0.91886608 0.91886608
0.06256172 0.91886608 0.91886608
0.06256172 0.91886608 0.91886608
0.06256172 0.91886608 0.91886608
0.06256172 0.91886608 0.91886608
0.06256172 0.91886608 0.91886608
0.91886608 0.91886608 0.91886608
0.91886608 0.91886608 0.91623687
0.06256172 0.91886608 0.74482135
0.06256172 0.91886608 0.74481068
0.06256172 0.91886608 0.74472867
0.06256172 0.91886608 0.74437875
0.06256172 0.91886608 0.74314847
0.06256172 0.91886608 0.73909560
0.06256172 0.91886608 0.72522659
0.06256172 0.91886608 0.66026751
0.91886608 0.91886608 0.06256172
0.06256172 0.06256172 0.91886608
0.06256172 0.06256172 0.91886608
0.06256172 0.06256172 0.91886608
0.06256172 0.06256172 0.91886608
0.06256172 0.06256172 0.91886608
0.84825009 0.06256172 0.91886608
0.91886608 0.06256172 0.91886608
0.91886608 0.06256172 0.91886608
0.91886608 0.06256172 0.91886608
0.06256172 0.06256172 0.91886608
0.06256172 0.06256172 0.91886608
0.06256172 0.06256172 0.91886608
0.06256172 0.06256172 0.91886608
0.06256172 0.06256172 0.91886608
0.84813834 0.06256172 0.91886608
0.91886608 0.06256172 0.91886608
0.91886608 0.06256172 0.91886608
0.91886608 0.06256172 0.91886608
0.06256172 0.06256172 0.91886608
0.06256172 0.06256172 0.91886608
0.06256172 0.06256172 0.91886608
0.06256172 0.06256172 0.91886608
0.06256172 0.06256172 0.91886608
0.84727560 0.06256172 0.91886608
0.91886608 0.06256172 0.91886608
0.91886608 0.06256172 0.91886608
0.91886608 0.06256172 0.91886608
0.06256172 0.40234871 0.91886608
0.06256172 0.39935866 0.91886608
0.06256172 0.37209856 0.91886608
0.06256172 0.06256172 0.91886608
0.06256172 0.06256172 0.91886608
0.84350717 0.06256172 0.91886608
0.91886608 0.06256172 0.91886608
0.91886608 0.06256172 0.91886608
0.91886608 0.06256172 0.91886608
0.06256172 0.72779870 0.91886608
0.06256172 0.72771076 0.91886608
0.06256172 0.72703278 0.91886608
0.06256172 0.72409036 0.91886608
0.06256172 0.71304322 0.91886608
0.82897844 0.66513028 0.91886608
0.91886608 0.06256172 0.91886608
0.91886608 0.06256172 0.91886608
0.91886608 0.06256172 0.91886608
0.06256172 0.85933087 0.91886608
0.06256172 0.85930996 0.91886608
0.06256172 0.85914921 0.91886608
0.06256172 0.85846164 0.91886608
0.06256172 0.85602228 0.91886608
0.75547188 0.84772969 0.91886608
0.91886608 0.81558615 0.91886608
0.91886608 0.06256172 0.91886608
0.91886608 0.06256172 0.91886608
0.06256172 0.91886608 0.91886608
0.06256172 0.91886608 0.91886608
0.06256172 0.91886608 0.91886608
0.06256172 0.91886608 0.91886608
0.06256172 0.91886608 0.91886608
0.06256172 0.91886608 0.91886608
0.91886608 0.91886608 0.91886608
0.91886608 0.91886608 0.91886608
0.91886608 0.06256172 0.91886608
0.06256172 0.91886608 0.91886608
0.06256172 0.91886608 0.91886608
0.06256172 0.91886608 0.91886608
0.06256172 0.91886608 0.91886608
0.06256172 0.91886608 0.91886608
0.06256172 0.91886608 0.91886608
0.06256172 0.91886608 0.91886608
0.91886608 0.91886608 0.91886608
0.91886608 0.91886608 0.91886608
0.06256172 0.91886608 0.91886608
0.06256172 0.91886608 0.91886608
0.06256172 0.91886608 0.91886608
0.06256172 0.91886608 0.91886608
0.06256172 0.91886608 0.91886608
0.06256172 0.91886608 0.91886608
0.06256172 0.91886608 0.91886608
0.06256172 0.91886608 0.91886608
0.91886608 0.91886608 0.91886608
0.06256172 0.06256172 0.91886608
0.06256172 0.06256172 0.91886608
0.06256172 0.06256172 0.91886608
0.06256172 0.06256172 0.91886608
0.06256172 0.06256172 0.91886608
0.06256172 0.06256172 0.91886608
0.91886608 0.06256172 0.91886608
0.91886608 0.06256172 0.91886608
0.91886608 0.06256172 0.91886608
0.06256172 0.06256172 0.91886608
0.06256172 0.06256172 0.91886608
0.06256172 0.06256172 0.91886608
0.06256172 0.06256172 0.91886608
0.06256172 0.06256172 0.91886608
0.06256172 0.06256172 0.91886608
0.91886608 0.06256172 0.91886608
0.91886608 0.06256172 0.91886608
0.91886608 0.06256172 0.91886608
0.06256172 0.06256172 0.91886608
0.06256172 0.06256172 0.91886608
0.06256172 0.06256172 0.91886608
0.06256172 0.06256172 0.91886608
0.06256172 0.06256172 0.91886608
0.06256172 0.06256172 0.91886608
0.91886608 0.06256172 0.91886608
0.91886608 0.06256172 0.91886608
0.91886608 0.06256172 0.91886608
0.06256172 0.06256172 0.91886608
0.06256172 0.06256172 0.91886608
0.06256172 0.06256172 0.91886608
0.06256172 0.06256172 0.91886608
0.06256172 0.06256172 0.91886608
0.06256172 0.06256172 0.91886608
0.91886608 0.06256172 0.91886608
0.91886608 0.06256172 0.91886608
0.91886608 0.06256172 0.91886608
0.06256172 0.60544433 0.91886608
0.06256172 0.60512220 0.91886608
0.06256172 0.60261141 0.91886608
0.06256172 0.59110694 0.91886608
0.06256172 0.53429979 0.91886608
0.06256172 0.06256172 0.91886608
0.91886608 0.06256172 0.91886608
0.91886608 0.06256172 0.91886608
0.91886608 0.06256172 0.91886608
0.06256172 0.84134905 0.91886608
0.06256172 0.84132349 0.91886608
0.06256172 0.84112694 0.91886608
0.06256172 0.84028542 0.91886608
0.06256172 0.83728856 0.91886608
0.06256172 0.82696069 0.91886608
0.91886608 0.78432644 0.91886608
0.91886608 0.06256172 0.91886608
0.91886608 0.06256172 0.91886608
0.06256172 0.91886608 0.91886608
0.06256172 0.91886608 0.91886608
0.06256172 0.91886608 0.91886608
0.06256172 0.91886608 0.91886608
0.06256172 0.91886608 0.91886608
0.06256172 0.91886608 0.91886608
0.85999073 0.91886608 0.91886608
0.91886608 0.91886608 0.91886608
0.91886608 0.06256172 0.91886608
0.06256172 0.91886608 0.91886608
0.06256172 0.91886608 0.91886608
0.06256172 0.91886608 0.91886608
0.06256172 0.91886608 0.91886608
0.06256172 0.91886608 0.91886608
0.06256172 0.91886608 0.91886608
0.06256172 0.91886608 0.91886608
0.91886608 0.91886608 0.91886608
0.91886608 0.91886608 0.91886608
0.06256172 0.91886608 0.91886608
0.06256172 0.91886608 0.91886608
0.06256172 0.91886608 0.91886608
0.06256172 0.91886608 0.91886608
0.06256172 0.91886608 0.91886608
0.06256172 0.91886608 0.91886608
0.06256172 0.91886608 0.91886608
0.06256172 0.91886608 0.91886608
0.91886608 0.91886608 0.91886608
