src/ffmpeg_scripts/luts/rec2020-sRGB_-2p00.cube
TITLE "rec2020-srgb_-2p00"
LUT_3D_SIZE 5
# PQ (EOTF Only)/Rec2020 -> PQ (EOTF Only)/Rec709, CineEI Shift -2.00, Black Level 0.00% IRE, Input 100% -> Output 109% - Created with LUTCalc v4.01 by Ben Turley October 2020
0.06256172 0.06256172 0.06256172
0.22718299 0.06256172 0.06256172
0.41812667 0.06256172 0.06256172
0.62323677 0.06256172 0.06256172
0.83886025 0.06256172 0.06256172
0.06256172 0.20821738 0.06256172
0.20564091 0.20274547 0.06256172
0.41654248 0.06256172 0.06256172
0.62306616 0.06256172 0.06256172
0.83884344 0.06256172 0.06256172
0.06256172 0.38835424 0.06256172
0.06256172 0.38788426 0.06256172
0.38421136 0.37952560 0.06256172
0.62013576 0.06256172 0.06256172
0.83855885 0.06256172 0.06256172
0.06256172 0.58831466 0.06256172
0.06256172 0.58826236 0.06256172
0.06256172 0.58737434 0.06256172
0.58337880 0.57777258 0.06256172
0.83559408 0.06256172 0.06256172
0.06256172 0.80347786 0.06256172
0.06256172 0.80347259 0.06256172
0.06256172 0.80338362 0.06256172
0.06256172 0.80246824 0.06256172
0.79841770 0.79265186 0.06256172
0.06256172 0.06256172 0.20761917
0.22487768 0.06256172 0.20684423
0.41793182 0.06256172 0.19195356
0.62321564 0.06256172 0.06256172
0.83885817 0.06256172 0.06256172
0.06256172 0.20786561 0.20319454
0.20236025 0.20236025 0.20236025
0.41634408 0.06256172 0.18610269
0.62304499 0.06256172 0.06256172
0.83884135 0.06256172 0.06256172
0.06256172 0.38832281 0.06256172
0.06256172 0.38785266 0.06256172
0.38392314 0.37949075 0.06256172
0.62011392 0.06256172 0.06256172
0.83855676 0.06256172 0.06256172
0.06256172 0.58831115 0.06256172
0.06256172 0.58825886 0.06256172
0.06256172 0.58737080 0.06256172
0.58334658 0.57776866 0.06256172
0.83559192 0.06256172 0.06256172
0.06256172 0.80347750 0.06256172
0.06256172 0.80347224 0.06256172
0.06256172 0.80338327 0.06256172
0.06256172 0.80246789 0.06256172
0.79841445 0.79265147 0.06256172
0.06256172 0.06256172 0.38739454
0.16008643 0.06256172 0.38732544
0.41457237 0.06256172 0.38614934
0.62285782 0.06256172 0.37307969
0.83882294 0.06256172 0.06256172
0.06256172 0.20159009 0.38701093
0.06256172 0.19544138 0.38694152
0.41292214 0.06256172 0.38576010
0.62268652 0.06256172 0.37262561
0.83880612 0.06256172 0.06256172
0.06256172 0.38779006 0.38025445
0.06256172 0.38731697 0.38017932
0.37889974 0.37889974 0.37889974
0.61974414 0.06256172 0.36455786
0.83852142 0.06256172 0.06256172
0.06256172 0.58825191 0.19405094
0.06256172 0.58819958 0.19307517
0.06256172 0.58731097 0.17335429
0.58280038 0.57770241 0.06256172
0.83555540 0.06256172 0.06256172
0.06256172 0.80347154 0.06256172
0.06256172 0.80346628 0.06256172
0.06256172 0.80337730 0.06256172
0.06256172 0.80246186 0.06256172
0.79835946 0.79264476 0.06256172
0.06256172 0.06256172 0.58717299
0.06256172 0.06256172 0.58716527
0.36967969 0.06256172 0.58703487
0.61911656 0.06256172 0.58569014
0.83846172 0.06256172 0.57088210
0.06256172 0.06256172 0.58713025
0.06256172 0.06256172 0.58712253
0.36687885 0.06256172 0.58699207
0.61893835 0.06256172 0.58564672
0.83844483 0.06256172 0.57083129
0.06256172 0.38213942 0.58640511
0.06256172 0.38163391 0.58639733
0.29418846 0.37260341 0.58626587
0.61587509 0.06256172 0.58491005
0.83815898 0.06256172 0.56996863
0.06256172 0.58764363 0.57864627
0.06256172 0.58759096 0.57863783
0.06256172 0.58669657 0.57849508
0.57702187 0.57702187 0.57702187
0.83518081 0.06256172 0.56065490
0.06256172 0.80341052 0.38059488
0.06256172 0.80340526 0.38052005
0.06256172 0.80331622 0.37924563
0.06256172 0.80240016 0.36496767
0.79779492 0.79257608 0.06256172
0.06256172 0.06256172 0.80230878
0.06256172 0.06256172 0.80230800
0.06256172 0.06256172 0.80229487
0.56947693 0.06256172 0.80216045
0.83472294 0.06256172 0.80078912
0.06256172 0.06256172 0.80230447
0.06256172 0.06256172 0.80230369
0.06256172 0.06256172 0.80229057
0.56917522 0.06256172 0.80215614
0.83470533 0.06256172 0.80078475
0.06256172 0.27779164 0.80223171
0.06256172 0.27590257 0.80223093
0.06256172 0.23274855 0.80221779
0.56392518 0.06256172 0.80208326
0.83440736 0.06256172 0.80071076
0.06256172 0.58125772 0.80148382
0.06256172 0.58120136 0.80148304
0.06256172 0.58024396 0.80146979
0.48030967 0.56984447 0.80133415
0.83130052 0.06256172 0.79995029
0.06256172 0.80279082 0.79355173
0.06256172 0.80278551 0.79355087
0.06256172 0.80269587 0.79353643
0.06256172 0.80177355 0.79338851
0.79187828 0.79187828 0.79187828
