src/ffmpeg_scripts/luts/rec2020-sRGB_-2p33.cube
TITLE "rec2020-srgb_-2p33"
LUT_3D_SIZE 5
# PQ (EOTF Only)/Rec2020 -> PQ (EOTF Only)/Rec709, CineEI Shift -2.33, Black Level 0.00% IRE, Input 100% -> Output 109% - Created with LUTCalc v4.01 by Ben Turley October 2020
0.06256172 0.06256172 0.06256172
0.21553767 0.06256172 0.06256172
0.39999267 0.06256172 0.06256172
0.60207874 0.06256172 0.06256172
0.81750982 0.06256172 0.06256172
0.06256172 0.19750032 0.06256172
0.19505517 0.19230887 0.06256172
0.39844535 0.06256172 0.06256172
0.60190937 0.06256172 0.06256172
0.81749292 0.06256172 0.06256172
0.06256172 0.37095383 0.06256172
0.06256172 0.37049613 0.06256172
0.36692001 0.36235970 0.06256172
0.59900058 0.06256172 0.06256172
0.81720693 0.06256172 0.06256172
0.06256172 0.56745083 0.06256172
0.06256172 0.56739904 0.06256172
0.06256172 0.56651957 0.06256172
0.56256320 0.55701379 0.06256172
0.81422778 0.06256172 0.06256172
0.06256172 0.78198413 0.06256172
0.06256172 0.78197885 0.06256172
0.06256172 0.78188960 0.06256172
0.06256172 0.78097137 0.06256172
0.77690872 0.77112712 0.06256172
0.06256172 0.06256172 0.19693248
0.21334170 0.06256172 0.19619699
0.39980234 0.06256172 0.18208779
0.60205776 0.06256172 0.06256172
0.81750772 0.06256172 0.06256172
0.06256172 0.19716640 0.19273470
0.19194361 0.19194361 0.19194361
0.39825159 0.06256172 0.17655667
0.60188836 0.06256172 0.06256172
0.81749083 0.06256172 0.06256172
0.06256172 0.37092323 0.06256172
0.06256172 0.37046536 0.06256172
0.36663944 0.36232579 0.06256172
0.59897891 0.06256172 0.06256172
0.81720483 0.06256172 0.06256172
0.06256172 0.56744736 0.06256172
0.06256172 0.56739556 0.06256172
0.06256172 0.56651607 0.06256172
0.56253129 0.55700991 0.06256172
0.81422561 0.06256172 0.06256172
0.06256172 0.78198378 0.06256172
0.06256172 0.78197850 0.06256172
0.06256172 0.78188925 0.06256172
0.06256172 0.78097101 0.06256172
0.77690545 0.77112672 0.06256172
0.06256172 0.06256172 0.37001924
0.15205799 0.06256172 0.36995195
0.39652143 0.06256172 0.36880675
0.60170255 0.06256172 0.35609010
0.81747232 0.06256172 0.06256172
0.06256172 0.19121346 0.36964570
0.06256172 0.18538850 0.36957811
0.39491018 0.06256172 0.36842778
0.60153250 0.06256172 0.35564861
0.81745542 0.06256172 0.06256172
0.06256172 0.37040440 0.36306889
0.06256172 0.36994370 0.36299579
0.36175078 0.36175078 0.36175078
0.59861190 0.06256172 0.34780809
0.81716931 0.06256172 0.06256172
0.06256172 0.56738869 0.18407234
0.06256172 0.56733686 0.18314896
0.06256172 0.56645681 0.16453151
0.56199053 0.55694435 0.06256172
0.81418891 0.06256172 0.06256172
0.06256172 0.78197780 0.06256172
0.06256172 0.78197252 0.06256172
0.06256172 0.78188326 0.06256172
0.06256172 0.78096497 0.06256172
0.77685031 0.77111999 0.06256172
0.06256172 0.06256172 0.56632016
0.06256172 0.06256172 0.56631253
0.35278485 0.06256172 0.56618339
0.59798904 0.06256172 0.56485174
0.81710932 0.06256172 0.55019614
0.06256172 0.06256172 0.56627784
0.06256172 0.06256172 0.56627020
0.35006299 0.06256172 0.56614100
0.59781216 0.06256172 0.56480875
0.81709235 0.06256172 0.55014588
0.06256172 0.36490326 0.56555974
0.06256172 0.36441128 0.56555204
0.27973656 0.35562702 0.56542185
0.59477235 0.06256172 0.56407930
0.81680509 0.06256172 0.54929257
0.06256172 0.56678626 0.55787848
0.06256172 0.56673410 0.55787012
0.06256172 0.56584837 0.55772884
0.55627085 0.55627085 0.55627085
0.81381253 0.06256172 0.54008321
0.06256172 0.78191659 0.36340016
0.06256172 0.78191131 0.36332734
0.06256172 0.78182199 0.36208730
0.06256172 0.78090308 0.34820619
0.77628415 0.77105114 0.06256172
0.06256172 0.06256172 0.78081141
0.06256172 0.06256172 0.78081063
0.06256172 0.06256172 0.78079746
0.54880623 0.06256172 0.78066263
0.81335249 0.06256172 0.77928713
0.06256172 0.06256172 0.78080709
0.06256172 0.06256172 0.78080631
0.06256172 0.06256172 0.78079315
0.54850781 0.06256172 0.78065830
0.81333480 0.06256172 0.77928274
0.06256172 0.26396492 0.78073410
0.06256172 0.26215027 0.78073332
0.06256172 0.22084309 0.78072015
0.54331614 0.06256172 0.78058520
0.81303541 0.06256172 0.77920853
0.06256172 0.56046335 0.77998393
0.06256172 0.56040756 0.77998314
0.06256172 0.55945986 0.77996985
0.46090720 0.54916976 0.77983380
0.80991416 0.06256172 0.77844579
0.06256172 0.78129495 0.77202932
0.06256172 0.78128963 0.77202847
0.06256172 0.78119971 0.77201399
0.06256172 0.78027454 0.77186568
0.77035155 0.77035155 0.77035155
