src/ffmpeg_scripts/luts/rec2020-sRGB_3p00.cube
TITLE "rec2020-srgb_3p00"
LUT_3D_SIZE 9
# PQ (EOTF Only)/Rec2020 -> PQ (EOTF Only)/Rec709, CineEI Shift 3.00, Black Level 0.00% IRE, Input 100% -> Output 109% - Created with LUTCalc v4.01 by Ben Turley October 2020
0.06256172 0.06256172 0.06256172
0.30346408 0.06256172 0.06256172
0.46551259 0.06256172 0.06256172
0.60273589 0.06256172 0.06256172
0.72533724 0.06256172 0.06256172
0.83781759 0.06256172 0.06256172
0.91886608 0.06256172 0.06256172
0.91886608 0.06256172 0.06256172
0.91886608 0.06256172 0.06256172
0.06256172 0.27928484 0.06256172
0.27596211 0.27221654 0.06256172
0.46203853 0.13963102 0.06256172
0.60195197 0.06256172 0.06256172
0.72512413 0.06256172 0.06256172
0.83775486 0.06256172 0.06256172
0.91886608 0.06256172 0.06256172
0.91886608 0.06256172 0.06256172
0.91886608 0.06256172 0.06256172
0.06256172 0.43405842 0.06256172
0.06256172 0.43302759 0.06256172
0.42966319 0.42468640 0.06256172
0.59570548 0.37615828 0.06256172
0.72347135 0.06256172 0.06256172
0.83727168 0.06256172 0.06256172
0.91886608 0.06256172 0.06256172
0.91886608 0.06256172 0.06256172
0.91886608 0.06256172 0.06256172
0.06256172 0.56809809 0.06256172
0.06256172 0.56785890 0.06256172
0.06256172 0.56600172 0.06256172
0.56320886 0.55765756 0.06256172
0.71608982 0.52087099 0.06256172
0.83518533 0.06256172 0.06256172
0.91886608 0.06256172 0.06256172
0.91886608 0.06256172 0.06256172
0.91886608 0.06256172 0.06256172
0.06256172 0.68965043 0.06256172
0.06256172 0.68958444 0.06256172
0.06256172 0.68907618 0.06256172
0.06256172 0.68688133 0.06256172
0.68457619 0.67880342 0.06256172
0.82750984 0.64699026 0.06256172
0.91886608 0.06256172 0.06256172
0.91886608 0.06256172 0.06256172
0.91886608 0.06256172 0.06256172
0.06256172 0.80242731 0.06256172
0.06256172 0.80240768 0.06256172
0.06256172 0.80225680 0.06256172
0.06256172 0.80161173 0.06256172
0.06256172 0.79932658 0.06256172
0.79736628 0.79159952 0.06256172
0.91886608 0.76231739 0.06256172
0.91886608 0.06256172 0.06256172
0.91886608 0.06256172 0.06256172
0.06256172 0.90852462 0.06256172
0.06256172 0.90851864 0.06256172
0.06256172 0.90847273 0.06256172
0.06256172 0.90827700 0.06256172
0.06256172 0.90759118 0.06256172
0.06256172 0.90535765 0.06256172
0.90361655 0.89801685 0.06256172
0.91886608 0.86994439 0.06256172
0.91886608 0.06256172 0.06256172
0.06256172 0.91886608 0.06256172
0.06256172 0.91886608 0.06256172
0.06256172 0.91886608 0.06256172
0.06256172 0.91886608 0.06256172
0.06256172 0.91886608 0.06256172
0.06256172 0.91886608 0.06256172
0.06256172 0.91886608 0.06256172
0.91886608 0.91886608 0.06256172
0.91886608 0.91886608 0.06256172
0.06256172 0.91886608 0.06256172
0.06256172 0.91886608 0.06256172
0.06256172 0.91886608 0.06256172
0.06256172 0.91886608 0.06256172
0.06256172 0.91886608 0.06256172
0.06256172 0.91886608 0.06256172
0.06256172 0.91886608 0.06256172
0.06256172 0.91886608 0.06256172
0.91886608 0.91886608 0.06256172
0.06256172 0.06256172 0.27851421
0.30055023 0.06256172 0.27751514
0.46508907 0.06256172 0.26935129
0.60263906 0.06256172 0.21696088
0.72531085 0.06256172 0.06256172
0.83780982 0.06256172 0.06256172
0.91886608 0.06256172 0.06256172
0.91886608 0.06256172 0.06256172
0.91886608 0.06256172 0.06256172
0.06256172 0.27883174 0.27279827
0.27171728 0.27171728 0.27171728
0.46159842 0.13450167 0.26282841
0.60185433 0.06256172 0.20169235
0.72509767 0.06256172 0.06256172
0.83774708 0.06256172 0.06256172
0.91886608 0.06256172 0.06256172
0.91886608 0.06256172 0.06256172
0.91886608 0.06256172 0.06256172
0.06256172 0.43398969 0.19786460
0.06256172 0.43295806 0.19442350
0.42903111 0.42461001 0.15686120
0.59560117 0.37602451 0.06256172
0.72344442 0.06256172 0.06256172
0.83726386 0.06256172 0.06256172
0.91886608 0.06256172 0.06256172
0.91886608 0.06256172 0.06256172
0.91886608 0.06256172 0.06256172
0.06256172 0.56808208 0.06256172
0.06256172 0.56784285 0.06256172
0.06256172 0.56598534 0.06256172
0.56306156 0.55763966 0.06256172
0.71606068 0.52084447 0.06256172
0.83517733 0.06256172 0.06256172
0.91886608 0.06256172 0.06256172
0.91886608 0.06256172 0.06256172
0.91886608 0.06256172 0.06256172
0.06256172 0.68964601 0.06256172
0.06256172 0.68958001 0.06256172
0.06256172 0.68907173 0.06256172
0.06256172 0.68687678 0.06256172
0.68453547 0.67879846 0.06256172
0.82750113 0.64698331 0.06256172
0.91886608 0.06256172 0.06256172
0.91886608 0.06256172 0.06256172
0.91886608 0.06256172 0.06256172
0.06256172 0.80242599 0.06256172
0.06256172 0.80240636 0.06256172
0.06256172 0.80225548 0.06256172
0.06256172 0.80161040 0.06256172
0.06256172 0.79932522 0.06256172
0.79735414 0.79159804 0.06256172
0.91886608 0.76231535 0.06256172
0.91886608 0.06256172 0.06256172
0.91886608 0.06256172 0.06256172
0.06256172 0.90852422 0.06256172
0.06256172 0.90851824 0.06256172
0.06256172 0.90847233 0.06256172
0.06256172 0.90827660 0.06256172
0.06256172 0.90759077 0.06256172
0.06256172 0.90535724 0.06256172
0.90361285 0.89801640 0.06256172
0.91886608 0.86994377 0.06256172
0.91886608 0.06256172 0.06256172
0.06256172 0.91886608 0.06256172
0.06256172 0.91886608 0.06256172
0.06256172 0.91886608 0.06256172
0.06256172 0.91886608 0.06256172
0.06256172 0.91886608 0.06256172
0.06256172 0.91886608 0.06256172
0.06256172 0.91886608 0.06256172
0.91886608 0.91886608 0.06256172
0.91886608 0.91886608 0.06256172
0.06256172 0.91886608 0.06256172
0.06256172 0.91886608 0.06256172
0.06256172 0.91886608 0.06256172
0.06256172 0.91886608 0.06256172
0.06256172 0.91886608 0.06256172
0.06256172 0.91886608 0.06256172
0.06256172 0.91886608 0.06256172
0.06256172 0.91886608 0.06256172
0.91886608 0.91886608 0.06256172
0.06256172 0.06256172 0.43304068
0.27339291 0.06256172 0.43288947
0.46176935 0.06256172 0.43171979
0.60189221 0.06256172 0.42656057
0.72510793 0.06256172 0.40576980
0.83775010 0.06256172 0.20141666
0.91886608 0.06256172 0.06256172
0.91886608 0.06256172 0.06256172
0.91886608 0.06256172 0.06256172
0.06256172 0.27525613 0.43219957
0.22605804 0.26776436 0.43204692
0.45814576 0.06256172 0.43086603
0.60110123 0.06256172 0.42565542
0.72489430 0.06256172 0.40462129
0.83768732 0.06256172 0.18067398
0.91886608 0.06256172 0.06256172
0.91886608 0.06256172 0.06256172
0.91886608 0.06256172 0.06256172
0.06256172 0.43346015 0.42546092
0.06256172 0.43242233 0.42529622
0.42402122 0.42402122 0.42402122
0.59479631 0.37499025 0.41837767
0.72323742 0.06256172 0.39525643
0.83720378 0.06256172 0.06256172
0.91886608 0.06256172 0.06256172
0.91886608 0.06256172 0.06256172
0.91886608 0.06256172 0.06256172
0.06256172 0.56795901 0.38903850
0.06256172 0.56771947 0.38878829
0.06256172 0.56585950 0.38684230
0.56192278 0.55750213 0.37802355
0.71583670 0.52064051 0.33706280
0.83511584 0.06256172 0.06256172
0.91886608 0.06256172 0.06256172
0.91886608 0.06256172 0.06256172
0.91886608 0.06256172 0.06256172
0.06256172 0.68961204 0.06256172
0.06256172 0.68954603 0.06256172
0.06256172 0.68903756 0.06256172
0.06256172 0.68684180 0.06256172
0.68422215 0.67876035 0.06256172
0.82743418 0.64692995 0.06256172
0.91886608 0.06256172 0.06256172
0.91886608 0.06256172 0.06256172
0.91886608 0.06256172 0.06256172
0.06256172 0.80241589 0.06256172
0.06256172 0.80239626 0.06256172
0.06256172 0.80224536 0.06256172
0.06256172 0.80160020 0.06256172
0.06256172 0.79931477 0.06256172
0.79726092 0.79158667 0.06256172
0.91886608 0.76229973 0.06256172
0.91886608 0.06256172 0.06256172
0.91886608 0.06256172 0.06256172
0.06256172 0.90852114 0.06256172
0.06256172 0.90851516 0.06256172
0.06256172 0.90846925 0.06256172
0.06256172 0.90827351 0.06256172
0.06256172 0.90758766 0.06256172
0.06256172 0.90535405 0.06256172
0.90358443 0.89801293 0.06256172
0.91886608 0.86993899 0.06256172
0.91886608 0.06256172 0.06256172
0.06256172 0.91886608 0.06256172
0.06256172 0.91886608 0.06256172
0.06256172 0.91886608 0.06256172
0.06256172 0.91886608 0.06256172
0.06256172 0.91886608 0.06256172
0.06256172 0.91886608 0.06256172
0.06256172 0.91886608 0.06256172
0.91886608 0.91886608 0.06256172
0.91886608 0.91886608 0.06256172
0.06256172 0.91886608 0.06256172
0.06256172 0.91886608 0.06256172
0.06256172 0.91886608 0.06256172
0.06256172 0.91886608 0.06256172
0.06256172 0.91886608 0.06256172
0.06256172 0.91886608 0.06256172
0.06256172 0.91886608 0.06256172
0.06256172 0.91886608 0.06256172
0.91886608 0.91886608 0.06256172
0.06256172 0.06256172 0.56696706
0.06256172 0.06256172 0.56693182
0.44608991 0.06256172 0.56666078
0.59864514 0.06256172 0.56549816
0.72423919 0.06256172 0.56132872
0.83749542 0.06256172 0.54657457
0.91886608 0.06256172 0.47546136
0.91886608 0.06256172 0.06256172
0.91886608 0.06256172 0.06256172
0.06256172 0.25768131 0.56677162
0.06256172 0.24793560 0.56673630
0.44176046 0.06256172 0.56646470
0.59782639 0.06256172 0.56529964
0.72402356 0.06256172 0.56112119
0.83743246 0.06256172 0.54633164
0.91886608 0.06256172 0.47493689
0.91886608 0.06256172 0.06256172
0.91886608 0.06256172 0.06256172
0.06256172 0.43116997 0.56525719
0.06256172 0.43010490 0.56522130
0.39877496 0.42146992 0.56494528
0.59129115 0.37044015 0.56376112
0.72235107 0.06256172 0.55951213
0.83694754 0.06256172 0.54444501
0.91886608 0.06256172 0.47080587
0.91886608 0.06256172 0.06256172
0.91886608 0.06256172 0.06256172
0.06256172 0.56743331 0.55852255
0.06256172 0.56719242 0.55848400
0.06256172 0.56532190 0.55818743
0.55691437 0.55691437 0.55691437
0.71487716 0.51976723 0.55233606
0.83485359 0.06256172 0.53595868
0.91886608 0.06256172 0.45075375
0.91886608 0.06256172 0.06256172
0.91886608 0.06256172 0.06256172
0.06256172 0.68946732 0.53033908
0.06256172 0.68940120 0.53028698
0.06256172 0.68889195 0.52988593
0.06256172 0.68669276 0.52815911
0.68287661 0.67859796 0.52187560
0.82714863 0.64670244 0.49830063
0.91886608 0.06256172 0.24252919
0.91886608 0.06256172 0.06256172
0.91886608 0.06256172 0.06256172
0.06256172 0.80237286 0.06256172
0.06256172 0.80235322 0.06256172
0.06256172 0.80220225 0.06256172
0.06256172 0.80155679 0.06256172
0.06256172 0.79927025 0.06256172
0.79686298 0.79153824 0.06256172
0.91886608 0.76223322 0.06256172
0.91886608 0.06256172 0.06256172
0.91886608 0.06256172 0.06256172
0.06256172 0.90850804 0.06256172
0.06256172 0.90850206 0.06256172
0.06256172 0.90845614 0.06256172
0.06256172 0.90826038 0.06256172
0.06256172 0.90757442 0.06256172
0.06256172 0.90534046 0.06256172
0.90346338 0.89799815 0.06256172
0.91886608 0.86991866 0.06256172
0.91886608 0.06256172 0.06256172
0.06256172 0.91886608 0.06256172
0.06256172 0.91886608 0.06256172
0.06256172 0.91886608 0.06256172
0.06256172 0.91886608 0.06256172
0.06256172 0.91886608 0.06256172
0.06256172 0.91886608 0.06256172
0.06256172 0.91886608 0.06256172
0.91886608 0.91886608 0.06256172
0.91886608 0.91886608 0.06256172
0.06256172 0.91886608 0.06256172
0.06256172 0.91886608 0.06256172
0.06256172 0.91886608 0.06256172
0.06256172 0.91886608 0.06256172
0.06256172 0.91886608 0.06256172
0.06256172 0.91886608 0.06256172
0.06256172 0.91886608 0.06256172
0.06256172 0.91886608 0.06256172
0.91886608 0.91886608 0.06256172
0.06256172 0.06256172 0.68847743
0.06256172 0.06256172 0.68846770
0.34595390 0.06256172 0.68839292
0.58636313 0.06256172 0.68807392
0.72114591 0.06256172 0.68695329
0.83660187 0.06256172 0.68327212
0.91886608 0.06256172 0.67080263
0.91886608 0.06256172 0.61559325
0.91886608 0.06256172 0.06256172
0.06256172 0.06256172 0.68842348
0.06256172 0.06256172 0.68841374
0.33117379 0.06256172 0.68833892
0.58543006 0.06256172 0.68801974
0.72092303 0.06256172 0.68689846
0.83653828 0.06256172 0.68321510
0.91886608 0.06256172 0.67073756
0.91886608 0.06256172 0.61547655
0.91886608 0.06256172 0.06256172
0.06256172 0.42268920 0.68800816
0.06256172 0.42151637 0.68799838
0.06256172 0.41194880 0.68792323
0.57794006 0.35231342 0.68760263
0.71919374 0.06256172 0.68647635
0.83604852 0.06256172 0.68277614
0.91886608 0.06256172 0.67023638
0.91886608 0.06256172 0.61457561
0.91886608 0.06256172 0.06256172
0.06256172 0.56557727 0.68621939
0.06256172 0.56533157 0.68620942
0.06256172 0.56342329 0.68613283
0.53700844 0.55483603 0.68580607
0.71145308 0.51665692 0.68465799
0.83393334 0.06256172 0.68088427
0.91886608 0.06256172 0.66807262
0.91886608 0.06256172 0.61064133
0.91886608 0.06256172 0.06256172
0.06256172 0.68896104 0.67970372
0.06256172 0.68889457 0.67969304
0.06256172 0.68838257 0.67961097
0.06256172 0.68617131 0.67926077
0.67802964 0.67802964 0.67802964
0.82614604 0.64590497 0.67397529
0.91886608 0.06256172 0.66011631
0.91886608 0.06256172 0.59548312
0.91886608 0.06256172 0.06256172
0.06256172 0.80222270 0.65517194
0.06256172 0.80220303 0.65515808
0.06256172 0.80205181 0.65505165
0.06256172 0.80140528 0.65459723
0.06256172 0.79911491 0.65299568
0.79546203 0.79136922 0.64767624
0.91886608 0.76200094 0.62890525
0.91886608 0.06256172 0.51832366
0.91886608 0.06256172 0.06256172
0.06256172 0.90846236 0.40949320
0.06256172 0.90845638 0.40929567
0.06256172 0.90841043 0.40776387
0.06256172 0.90821456 0.40092386
0.06256172 0.90752824 0.37165508
0.06256172 0.90529308 0.06256172
0.90304003 0.89794660 0.06256172
0.91886608 0.86984772 0.06256172
0.91886608 0.06256172 0.06256172
0.06256172 0.91886608 0.06256172
0.06256172 0.91886608 0.06256172
0.06256172 0.91886608 0.06256172
0.06256172 0.91886608 0.06256172
0.06256172 0.91886608 0.06256172
0.06256172 0.91886608 0.06256172
0.06256172 0.91886608 0.06256172
0.91886608 0.91886608 0.06256172
0.91886608 0.91886608 0.06256172
0.06256172 0.91886608 0.06256172
0.06256172 0.91886608 0.06256172
0.06256172 0.91886608 0.06256172
0.06256172 0.91886608 0.06256172
0.06256172 0.91886608 0.06256172
0.06256172 0.91886608 0.06256172
0.06256172 0.91886608 0.06256172
0.06256172 0.91886608 0.06256172
0.91886608 0.91886608 0.06256172
0.06256172 0.06256172 0.80125802
0.06256172 0.06256172 0.80125512
0.06256172 0.06256172 0.80123287
0.53071510 0.06256172 0.80113809
0.71049134 0.06256172 0.80080690
0.83367920 0.06256172 0.79973811
0.91886608 0.06256172 0.79633041
0.91886608 0.06256172 0.78473716
0.91886608 0.06256172 0.73181151
0.06256172 0.06256172 0.80124197
0.06256172 0.06256172 0.80123907
0.06256172 0.06256172 0.80121681
0.52902021 0.06256172 0.80112202
0.71024162 0.06256172 0.80079076
0.83361352 0.06256172 0.79972178
0.91886608 0.06256172 0.79631347
0.91886608 0.06256172 0.78471794
0.91886608 0.06256172 0.73177750
0.06256172 0.38820295 0.80111858
0.06256172 0.38645402 0.80111568
0.06256172 0.37167616 0.80109340
0.51486261 0.21249619 0.80099847
0.70830166 0.06256172 0.80066677
0.83310757 0.06256172 0.79959633
0.91886608 0.06256172 0.79618326
0.91886608 0.06256172 0.78457020
0.91886608 0.06256172 0.73151598
0.06256172 0.55937405 0.80059148
0.06256172 0.55911157 0.80058856
0.06256172 0.55707127 0.80056615
0.40097038 0.54785228 0.80047067
0.69956353 0.50593039 0.80013705
0.83092149 0.06256172 0.79906036
0.91886608 0.06256172 0.79562688
0.91886608 0.06256172 0.78393859
0.91886608 0.06256172 0.73039445
0.06256172 0.68732114 0.79872975
0.06256172 0.68725350 0.79872677
0.06256172 0.68673248 0.79870390
0.06256172 0.68448171 0.79860646
0.66058497 0.67618623 0.79826596
0.82285847 0.64330489 0.79716692
0.91886608 0.06256172 0.79366039
0.91886608 0.06256172 0.78170216
0.91886608 0.06256172 0.72637585
0.06256172 0.80174015 0.79249952
0.06256172 0.80172037 0.79249634
0.06256172 0.80156836 0.79247185
0.06256172 0.80091839 0.79236756
0.06256172 0.79861564 0.79200304
0.79082582 0.79082582 0.79082582
0.91886608 0.76125315 0.78706331
0.91886608 0.06256172 0.77415153
0.91886608 0.06256172 0.71220658
0.06256172 0.90831589 0.76987366
0.06256172 0.90830990 0.76986958
0.06256172 0.90826388 0.76983829
0.06256172 0.90806768 0.76970494
0.06256172 0.90738019 0.76923854
0.06256172 0.90514117 0.76772890
0.90167025 0.89778130 0.76286769
0.91886608 0.86962017 0.74572132
0.91886608 0.06256172 0.64591298
0.06256172 0.91886608 0.58613218
0.06256172 0.91886608 0.58610342
0.06256172 0.91886608 0.58588235
0.06256172 0.91886608 0.58493539
0.06256172 0.91886608 0.58155769
0.06256172 0.91886608 0.56984605
0.06256172 0.91886608 0.51976687
0.91886608 0.91886608 0.06256172
0.91886608 0.91886608 0.06256172
0.06256172 0.91886608 0.06256172
0.06256172 0.91886608 0.06256172
0.06256172 0.91886608 0.06256172
0.06256172 0.91886608 0.06256172
0.06256172 0.91886608 0.06256172
0.06256172 0.91886608 0.06256172
0.06256172 0.91886608 0.06256172
0.06256172 0.91886608 0.06256172
0.91886608 0.91886608 0.06256172
0.06256172 0.06256172 0.90739119
0.06256172 0.06256172 0.90739031
0.06256172 0.06256172 0.90738353
0.06256172 0.06256172 0.90735468
0.66655413 0.06256172 0.90725401
0.82392884 0.06256172 0.90693081
0.91886608 0.06256172 0.90591742
0.91886608 0.06256172 0.90265960
0.91886608 0.06256172 0.89109737
0.06256172 0.06256172 0.90738630
0.06256172 0.06256172 0.90738542
0.06256172 0.06256172 0.90737864
0.06256172 0.06256172 0.90734979
0.66615573 0.06256172 0.90724911
0.82385568 0.06256172 0.90692590
0.91886608 0.06256172 0.90591245
0.91886608 0.06256172 0.90265443
0.91886608 0.06256172 0.89109148
0.06256172 0.06256172 0.90734874
0.06256172 0.06256172 0.90734786
0.06256172 0.06256172 0.90734108
0.06256172 0.06256172 0.90731221
0.66303932 0.06256172 0.90721149
0.82329193 0.06256172 0.90688813
0.91886608 0.06256172 0.90587425
0.91886608 0.06256172 0.90261477
0.91886608 0.06256172 0.89104620
0.06256172 0.53693962 0.90718866
0.06256172 0.53660600 0.90718777
0.06256172 0.53400376 0.90718098
0.06256172 0.52203388 0.90715206
0.64848682 0.46125156 0.90705115
0.82085208 0.06256172 0.90672720
0.91886608 0.06256172 0.90571142
0.91886608 0.06256172 0.90244572
0.91886608 0.06256172 0.89085319
0.06256172 0.68202804 0.90662825
0.06256172 0.68195649 0.90662736
0.06256172 0.68140527 0.90662052
0.06256172 0.67902204 0.90659141
0.56645196 0.67020868 0.90648985
0.81179398 0.63472486 0.90616379
0.91886608 0.06256172 0.90514137
0.91886608 0.06256172 0.90185379
0.91886608 0.06256172 0.89017695
0.06256172 0.80022218 0.90480882
0.06256172 0.80020207 0.90480791
0.06256172 0.80004751 0.90480093
0.06256172 0.79938661 0.90477120
0.06256172 0.79704452 0.90466749
0.77469484 0.78911416 0.90433451
0.91886608 0.75888703 0.90329022
0.91886608 0.06256172 0.89993061
0.91886608 0.06256172 0.88797556
0.06256172 0.90785857 0.89889129
0.06256172 0.90785255 0.89889032
0.06256172 0.90780628 0.89888284
0.06256172 0.90760904 0.89885103
0.06256172 0.90691790 0.89874001
0.06256172 0.90466677 0.89838355
0.89726498 0.89726498 0.89726498
0.91886608 0.86890838 0.89366020
0.91886608 0.06256172 0.88075033
0.06256172 0.91886608 0.87720884
0.06256172 0.91886608 0.87720759
0.06256172 0.91886608 0.87719803
0.06256172 0.91886608 0.87715730
0.06256172 0.91886608 0.87701514
0.06256172 0.91886608 0.87655836
0.06256172 0.91886608 0.87512176
0.91886608 0.91886608 0.87045766
0.91886608 0.91886608 0.85327704
0.06256172 0.91886608 0.68012393
0.06256172 0.91886608 0.68011330
0.06256172 0.91886608 0.68003159
0.06256172 0.91886608 0.67968295
0.06256172 0.91886608 0.67845736
0.06256172 0.91886608 0.67442173
0.06256172 0.91886608 0.66063311
0.06256172 0.91886608 0.59650403
0.91886608 0.91886608 0.06256172
0.06256172 0.06256172 0.91886608
0.06256172 0.06256172 0.91886608
0.06256172 0.06256172 0.91886608
0.06256172 0.06256172 0.91886608
0.06256172 0.06256172 0.91886608
0.78405538 0.06256172 0.91886608
0.91886608 0.06256172 0.91886608
0.91886608 0.06256172 0.91886608
0.91886608 0.06256172 0.91886608
0.06256172 0.06256172 0.91886608
0.06256172 0.06256172 0.91886608
0.06256172 0.06256172 0.91886608
0.06256172 0.06256172 0.91886608
0.06256172 0.06256172 0.91886608
0.78394217 0.06256172 0.91886608
0.91886608 0.06256172 0.91886608
0.91886608 0.06256172 0.91886608
0.91886608 0.06256172 0.91886608
0.06256172 0.06256172 0.91886608
0.06256172 0.06256172 0.91886608
0.06256172 0.06256172 0.91886608
0.06256172 0.06256172 0.91886608
0.06256172 0.06256172 0.91886608
0.78306823 0.06256172 0.91886608
0.91886608 0.06256172 0.91886608
0.91886608 0.06256172 0.91886608
0.91886608 0.06256172 0.91886608
0.06256172 0.35046368 0.91886608
0.06256172 0.34770643 0.91886608
0.06256172 0.32268847 0.91886608
0.06256172 0.06256172 0.91886608
0.06256172 0.06256172 0.91886608
0.77925224 0.06256172 0.91886608
0.91886608 0.06256172 0.91886608
0.91886608 0.06256172 0.91886608
0.91886608 0.06256172 0.91886608
0.06256172 0.66318780 0.91886608
0.06256172 0.66310044 0.91886608
0.06256172 0.66242694 0.91886608
0.06256172 0.65950494 0.91886608
0.06256172 0.64854789 0.91886608
0.76456070 0.60127803 0.91886608
0.91886608 0.06256172 0.91886608
0.91886608 0.06256172 0.91886608
0.91886608 0.06256172 0.91886608
0.06256172 0.79529024 0.91886608
0.06256172 0.79526902 0.91886608
0.06256172 0.79510590 0.91886608
0.06256172 0.79440824 0.91886608
0.06256172 0.79193368 0.91886608
0.69074544 0.78352820 0.91886608
0.91709587 0.75104751 0.91886608
0.91886608 0.06256172 0.91886608
0.91886608 0.06256172 0.91886608
0.06256172 0.90640815 0.91886608
0.06256172 0.90640203 0.91886608
0.06256172 0.90635498 0.91886608
0.06256172 0.90615442 0.91886608
0.06256172 0.90545155 0.91886608
0.06256172 0.90316163 0.91886608
0.88180340 0.89562520 0.91886608
0.91886608 0.86663776 0.91886608
0.91886608 0.06256172 0.91886608
0.06256172 0.91886608 0.91886608
0.06256172 0.91886608 0.91886608
0.06256172 0.91886608 0.91886608
0.06256172 0.91886608 0.91886608
0.06256172 0.91886608 0.91886608
0.06256172 0.91886608 0.91886608
0.06256172 0.91886608 0.91886608
0.91886608 0.91886608 0.91886608
0.91886608 0.91886608 0.91886608
0.06256172 0.91886608 0.91886608
0.06256172 0.91886608 0.91886608
0.06256172 0.91886608 0.91886608
0.06256172 0.91886608 0.91886608
0.06256172 0.91886608 0.91886608
0.06256172 0.91886608 0.91886608
0.06256172 0.91886608 0.91886608
0.06256172 0.91886608 0.91886608
0.91886608 0.91886608 0.91886608
0.06256172 0.06256172 0.91886608
0.06256172 0.06256172 0.91886608
0.06256172 0.06256172 0.91886608
0.06256172 0.06256172 0.91886608
0.06256172 0.06256172 0.91886608
0.06256172 0.06256172 0.91886608
0.88968121 0.06256172 0.91886608
0.91886608 0.06256172 0.91886608
0.91886608 0.06256172 0.91886608
0.06256172 0.06256172 0.91886608
0.06256172 0.06256172 0.91886608
0.06256172 0.06256172 0.91886608
0.06256172 0.06256172 0.91886608
0.06256172 0.06256172 0.91886608
0.06256172 0.06256172 0.91886608
0.88964621 0.06256172 0.91886608
0.91886608 0.06256172 0.91886608
0.91886608 0.06256172 0.91886608
0.06256172 0.06256172 0.91886608
0.06256172 0.06256172 0.91886608
0.06256172 0.06256172 0.91886608
0.06256172 0.06256172 0.91886608
0.06256172 0.06256172 0.91886608
0.06256172 0.06256172 0.91886608
0.88937692 0.06256172 0.91886608
0.91886608 0.06256172 0.91886608
0.91886608 0.06256172 0.91886608
0.06256172 0.06256172 0.91886608
0.06256172 0.06256172 0.91886608
0.06256172 0.06256172 0.91886608
0.06256172 0.06256172 0.91886608
0.06256172 0.06256172 0.91886608
0.06256172 0.06256172 0.91886608
0.88822124 0.06256172 0.91886608
0.91886608 0.06256172 0.91886608
0.91886608 0.06256172 0.91886608
0.06256172 0.54299468 0.91886608
0.06256172 0.54268202 0.91886608
0.06256172 0.54024571 0.91886608
0.06256172 0.52909885 0.91886608
0.06256172 0.47446420 0.91886608
0.06256172 0.06256172 0.91886608
0.88406903 0.06256172 0.91886608
0.91886608 0.06256172 0.91886608
0.91886608 0.06256172 0.91886608
0.06256172 0.77706788 0.91886608
0.06256172 0.77704201 0.91886608
0.06256172 0.77684311 0.91886608
0.06256172 0.77599157 0.91886608
0.06256172 0.77295994 0.91886608
0.06256172 0.76252293 0.91886608
0.86927958 0.71961661 0.91886608
0.91886608 0.06256172 0.91886608
0.91886608 0.06256172 0.91886608
0.06256172 0.90150108 0.91886608
0.06256172 0.90149460 0.91886608
0.06256172 0.90144482 0.91886608
0.06256172 0.90123260 0.91886608
0.06256172 0.90048866 0.91886608
0.06256172 0.89806258 0.91886608
0.79595986 0.89005180 0.91886608
0.91886608 0.85879978 0.91886608
0.91886608 0.06256172 0.91886608
0.06256172 0.91886608 0.91886608
0.06256172 0.91886608 0.91886608
0.06256172 0.91886608 0.91886608
0.06256172 0.91886608 0.91886608
0.06256172 0.91886608 0.91886608
0.06256172 0.91886608 0.91886608
0.06256172 0.91886608 0.91886608
0.91886608 0.91886608 0.91886608
0.91886608 0.91886608 0.91886608
0.06256172 0.91886608 0.91886608
0.06256172 0.91886608 0.91886608
0.06256172 0.91886608 0.91886608
0.06256172 0.91886608 0.91886608
0.06256172 0.91886608 0.91886608
0.06256172 0.91886608 0.91886608
0.06256172 0.91886608 0.91886608
0.06256172 0.91886608 0.91886608
0.91886608 0.91886608 0.91886608
