src/ffmpeg_scripts/luts/rec2020-sRGB_-0p33.cube
TITLE "rec2020-srgb_-0p33"
LUT_3D_SIZE 9
# PQ (EOTF Only)/Rec2020 -> PQ (EOTF Only)/Rec709, CineEI Shift -0.33, Black Level 0.00% IRE, Input 100% -> Output 109% - Created with LUTCalc v4.01 by Ben Turley October 2020
0.06256172 0.06256172 0.06256172
0.18057350 0.06256172 0.06256172
0.29382514 0.06256172 0.06256172
0.40491434 0.06256172 0.06256172
0.51452812 0.06256172 0.06256172
0.62301123 0.06256172 0.06256172
0.73057385 0.06256172 0.06256172
0.83735836 0.06256172 0.06256172
0.91886608 0.06256172 0.06256172
0.06256172 0.16557748 0.06256172
0.16355946 0.16129729 0.06256172
0.29118330 0.09100822 0.06256172
0.40424387 0.06256172 0.06256172
0.51432960 0.06256172 0.06256172
0.62294870 0.06256172 0.06256172
0.73055387 0.06256172 0.06256172
0.83735210 0.06256172 0.06256172
0.91886608 0.06256172 0.06256172
0.06256172 0.27022995 0.06256172
0.06256172 0.26946913 0.06256172
0.26699158 0.26334235 0.06256172
0.39891553 0.22876385 0.06256172
0.51279093 0.06256172 0.06256172
0.62246720 0.06256172 0.06256172
0.73040037 0.06256172 0.06256172
0.83730407 0.06256172 0.06256172
0.91886608 0.06256172 0.06256172
0.06256172 0.37567126 0.06256172
0.06256172 0.37547207 0.06256172
0.06256172 0.37392672 0.06256172
0.37160713 0.36701197 0.06256172
0.50593895 0.33708694 0.06256172
0.62038961 0.06256172 0.06256172
0.72974410 0.06256172 0.06256172
0.83709930 0.06256172 0.06256172
0.91886608 0.06256172 0.06256172
0.06256172 0.48166560 0.06256172
0.06256172 0.48160555 0.06256172
0.06256172 0.48114310 0.06256172
0.06256172 0.47914790 0.06256172
0.47705560 0.47183013 0.06256172
0.61276742 0.44340205 0.06256172
0.72741945 0.06256172 0.06256172
0.83638174 0.06256172 0.06256172
0.91886608 0.06256172 0.06256172
0.06256172 0.58809199 0.06256172
0.06256172 0.58807282 0.06256172
0.06256172 0.58792548 0.06256172
0.06256172 0.58729566 0.06256172
0.06256172 0.58506650 0.06256172
0.58315661 0.57755095 0.06256172
0.71956078 0.54938340 0.06256172
0.83404459 0.06256172 0.06256172
0.91886608 0.06256172 0.06256172
0.06256172 0.69487547 0.06256172
0.06256172 0.69486928 0.06256172
0.06256172 0.69482172 0.06256172
0.06256172 0.69461900 0.06256172
0.06256172 0.69390883 0.06256172
0.06256172 0.69159779 0.06256172
0.68979815 0.68402141 0.06256172
0.82635968 0.65532080 0.06256172
0.91886608 0.06256172 0.06256172
0.06256172 0.80196463 0.06256172
0.06256172 0.80196267 0.06256172
0.06256172 0.80194764 0.06256172
0.06256172 0.80188363 0.06256172
0.06256172 0.80166011 0.06256172
0.06256172 0.80094061 0.06256172
0.06256172 0.79866496 0.06256172
0.79690322 0.79113606 0.06256172
0.91886608 0.76114982 0.06256172
0.06256172 0.90932180 0.06256172
0.06256172 0.90932121 0.06256172
0.06256172 0.90931670 0.06256172
0.06256172 0.90929749 0.06256172
0.06256172 0.90923048 0.06256172
0.06256172 0.90901554 0.06256172
0.06256172 0.90834332 0.06256172
0.06256172 0.90620018 0.06256172
0.90441535 0.89881745 0.06256172
0.06256172 0.06256172 0.16510851
0.17873779 0.06256172 0.16450137
0.29350260 0.06256172 0.15957590
0.40483150 0.06256172 0.12955801
0.51450353 0.06256172 0.06256172
0.62300348 0.06256172 0.06256172
0.73057137 0.06256172 0.06256172
0.83735758 0.06256172 0.06256172
0.91886608 0.06256172 0.06256172
0.06256172 0.16530168 0.16164774
0.16099677 0.16099677 0.16099677
0.29084925 0.08873904 0.15568682
0.40416039 0.06256172 0.12136212
0.51430496 0.06256172 0.06256172
0.62294095 0.06256172 0.06256172
0.73055140 0.06256172 0.06256172
0.83735133 0.06256172 0.06256172
0.91886608 0.06256172 0.06256172
0.06256172 0.27017919 0.11934929
0.06256172 0.26941784 0.11755447
0.26652706 0.26328649 0.09891871
0.39882676 0.22867111 0.06256172
0.51276588 0.06256172 0.06256172
0.62245941 0.06256172 0.06256172
0.73039789 0.06256172 0.06256172
0.83730329 0.06256172 0.06256172
0.91886608 0.06256172 0.06256172
0.06256172 0.37565792 0.06256172
0.06256172 0.37545870 0.06256172
0.06256172 0.37391310 0.06256172
0.37148494 0.36699719 0.06256172
0.50591197 0.33706569 0.06256172
0.62038164 0.06256172 0.06256172
0.72974160 0.06256172 0.06256172
0.83709852 0.06256172 0.06256172
0.91886608 0.06256172 0.06256172
0.06256172 0.48166158 0.06256172
0.06256172 0.48160152 0.06256172
0.06256172 0.48113905 0.06256172
0.06256172 0.47914376 0.06256172
0.47701867 0.47182564 0.06256172
0.61275879 0.44339592 0.06256172
0.72741689 0.06256172 0.06256172
0.83638096 0.06256172 0.06256172
0.91886608 0.06256172 0.06256172
0.06256172 0.58809070 0.06256172
0.06256172 0.58807153 0.06256172
0.06256172 0.58792419 0.06256172
0.06256172 0.58729437 0.06256172
0.06256172 0.58506517 0.06256172
0.58314480 0.57754952 0.06256172
0.71955800 0.54938146 0.06256172
0.83404379 0.06256172 0.06256172
0.91886608 0.06256172 0.06256172
0.06256172 0.69487506 0.06256172
0.06256172 0.69486887 0.06256172
0.06256172 0.69482131 0.06256172
0.06256172 0.69461859 0.06256172
0.06256172 0.69390841 0.06256172
0.06256172 0.69159737 0.06256172
0.68979433 0.68402094 0.06256172
0.82635880 0.65532016 0.06256172
0.91886608 0.06256172 0.06256172
0.06256172 0.80196450 0.06256172
0.06256172 0.80196254 0.06256172
0.06256172 0.80194751 0.06256172
0.06256172 0.80188350 0.06256172
0.06256172 0.80165998 0.06256172
0.06256172 0.80094048 0.06256172
0.06256172 0.79866483 0.06256172
0.79690201 0.79113591 0.06256172
0.91886608 0.76114962 0.06256172
0.06256172 0.90932176 0.06256172
0.06256172 0.90932117 0.06256172
0.06256172 0.90931666 0.06256172
0.06256172 0.90929745 0.06256172
0.06256172 0.90923044 0.06256172
0.06256172 0.90901550 0.06256172
0.06256172 0.90834328 0.06256172
0.06256172 0.90620014 0.06256172
0.90441498 0.89881741 0.06256172
0.06256172 0.06256172 0.26947878
0.16200632 0.06256172 0.26936725
0.29097897 0.06256172 0.26850505
0.40419277 0.06256172 0.26471438
0.51431452 0.06256172 0.24964458
0.62294396 0.06256172 0.12121658
0.73055236 0.06256172 0.06256172
0.83735163 0.06256172 0.06256172
0.91886608 0.06256172 0.06256172
0.06256172 0.16313205 0.26885858
0.13456446 0.15862592 0.26874608
0.28823352 0.06256172 0.26787637
0.40351669 0.06256172 0.26405141
0.51411554 0.06256172 0.24882183
0.62288139 0.06256172 0.11052510
0.73053238 0.06256172 0.06256172
0.83734538 0.06256172 0.06256172
0.91886608 0.06256172 0.06256172
0.06256172 0.26978829 0.26390903
0.06256172 0.26902278 0.26378849
0.26285604 0.26285604 0.26285604
0.39814210 0.22795455 0.25874358
0.51257328 0.06256172 0.24215161
0.62239954 0.06256172 0.06256172
0.73037885 0.06256172 0.06256172
0.83729734 0.06256172 0.06256172
0.91886608 0.06256172 0.06256172
0.06256172 0.37555543 0.23776096
0.06256172 0.37535596 0.23758492
0.06256172 0.37380847 0.23621749
0.37054073 0.36688360 0.23005854
0.50570456 0.33690236 0.20228600
0.62032044 0.06256172 0.06256172
0.72972242 0.06256172 0.06256172
0.83709255 0.06256172 0.06256172
0.91886608 0.06256172 0.06256172
0.06256172 0.48163067 0.06256172
0.06256172 0.48157059 0.06256172
0.06256172 0.48110797 0.06256172
0.06256172 0.47911199 0.06256172
0.47673454 0.47179122 0.06256172
0.61269245 0.44334876 0.06256172
0.72739723 0.06256172 0.06256172
0.83637494 0.06256172 0.06256172
0.91886608 0.06256172 0.06256172
0.06256172 0.58808084 0.06256172
0.06256172 0.58806166 0.06256172
0.06256172 0.58791430 0.06256172
0.06256172 0.58728441 0.06256172
0.06256172 0.58505498 0.06256172
0.58305402 0.57753848 0.06256172
0.71953661 0.54936657 0.06256172
0.83403761 0.06256172 0.06256172
0.91886608 0.06256172 0.06256172
0.06256172 0.69487187 0.06256172
0.06256172 0.69486568 0.06256172
0.06256172 0.69481812 0.06256172
0.06256172 0.69461539 0.06256172
0.06256172 0.69390519 0.06256172
0.06256172 0.69159407 0.06256172
0.68976497 0.68401736 0.06256172
0.82635208 0.65531532 0.06256172
0.91886608 0.06256172 0.06256172
0.06256172 0.80196349 0.06256172
0.06256172 0.80196153 0.06256172
0.06256172 0.80194650 0.06256172
0.06256172 0.80188249 0.06256172
0.06256172 0.80165897 0.06256172
0.06256172 0.80093946 0.06256172
0.06256172 0.79866378 0.06256172
0.79689272 0.79113478 0.06256172
0.91886608 0.76114805 0.06256172
0.06256172 0.90932145 0.06256172
0.06256172 0.90932087 0.06256172
0.06256172 0.90931635 0.06256172
0.06256172 0.90929714 0.06256172
0.06256172 0.90923014 0.06256172
0.06256172 0.90901520 0.06256172
0.06256172 0.90834297 0.06256172
0.06256172 0.90619983 0.06256172
0.90441219 0.89881707 0.06256172
0.06256172 0.06256172 0.37472969
0.06256172 0.06256172 0.37470036
0.27916878 0.06256172 0.37447486
0.40141995 0.06256172 0.37350811
0.51350555 0.06256172 0.37004852
0.62269014 0.06256172 0.35789964
0.73047138 0.06256172 0.30143911
0.83732628 0.06256172 0.06256172
0.91886608 0.06256172 0.06256172
0.06256172 0.15264748 0.37456707
0.06256172 0.14696507 0.37453769
0.27593975 0.06256172 0.37431175
0.40072185 0.06256172 0.37334312
0.51330483 0.06256172 0.36987662
0.62262741 0.06256172 0.35770084
0.73045139 0.06256172 0.30103594
0.83732003 0.06256172 0.06256172
0.91886608 0.06256172 0.06256172
0.06256172 0.26810012 0.37330785
0.06256172 0.26731637 0.37327803
0.24464966 0.26099389 0.37304869
0.39516532 0.22481244 0.37206540
0.51174892 0.06256172 0.36854482
0.62214426 0.06256172 0.35615822
0.73029772 0.06256172 0.29786727
0.83727197 0.06256172 0.06256172
0.91886608 0.06256172 0.06256172
0.06256172 0.37511773 0.36772662
0.06256172 0.37491723 0.36769476
0.06256172 0.37336162 0.36744969
0.36639834 0.36639834 0.36639834
0.50481641 0.33620333 0.36262638
0.62005948 0.06256172 0.34924911
0.72964072 0.06256172 0.28266278
0.83706713 0.06256172 0.06256172
0.91886608 0.06256172 0.06256172
0.06256172 0.48149897 0.34470093
0.06256172 0.48143881 0.34465886
0.06256172 0.48097552 0.34433512
0.06256172 0.47897662 0.34294240
0.47551503 0.47164453 0.33789189
0.61240954 0.44314773 0.31918696
0.72731347 0.06256172 0.14385428
0.83634932 0.06256172 0.06256172
0.91886608 0.06256172 0.06256172
0.06256172 0.58803882 0.06256172
0.06256172 0.58801963 0.06256172
0.06256172 0.58787221 0.06256172
0.06256172 0.58724204 0.06256172
0.06256172 0.58501160 0.06256172
0.58266662 0.57749149 0.06256172
0.71944552 0.54930315 0.06256172
0.83401131 0.06256172 0.06256172
0.91886608 0.06256172 0.06256172
0.06256172 0.69485830 0.06256172
0.06256172 0.69485211 0.06256172
0.06256172 0.69480454 0.06256172
0.06256172 0.69460178 0.06256172
0.06256172 0.69389148 0.06256172
0.06256172 0.69158002 0.06256172
0.68963991 0.68400214 0.06256172
0.82632345 0.65529468 0.06256172
0.91886608 0.06256172 0.06256172
0.06256172 0.80195920 0.06256172
0.06256172 0.80195725 0.06256172
0.06256172 0.80194221 0.06256172
0.06256172 0.80187820 0.06256172
0.06256172 0.80165467 0.06256172
0.06256172 0.80093512 0.06256172
0.06256172 0.79865934 0.06256172
0.79685316 0.79112995 0.06256172
0.91886608 0.76114137 0.06256172
0.06256172 0.90932017 0.06256172
0.06256172 0.90931958 0.06256172
0.06256172 0.90931507 0.06256172
0.06256172 0.90929586 0.06256172
0.06256172 0.90922885 0.06256172
0.06256172 0.90901390 0.06256172
0.06256172 0.90834167 0.06256172
0.06256172 0.90619849 0.06256172
0.90440030 0.89881562 0.06256172
0.06256172 0.06256172 0.48059853
0.06256172 0.06256172 0.48058967
0.20819548 0.06256172 0.48052168
0.39099371 0.06256172 0.48023164
0.51062879 0.06256172 0.47921326
0.62179993 0.06256172 0.47587338
0.73018852 0.06256172 0.46462170
0.83723786 0.06256172 0.41596762
0.91886608 0.06256172 0.06256172
0.06256172 0.06256172 0.48054947
0.06256172 0.06256172 0.48054061
0.19840904 0.06256172 0.48047257
0.39020565 0.06256172 0.48018239
0.51042174 0.06256172 0.47916345
0.62173660 0.06256172 0.47582171
0.73016847 0.06256172 0.46456324
0.83723160 0.06256172 0.41586681
0.91886608 0.06256172 0.06256172
0.06256172 0.26188320 0.48017186
0.06256172 0.26102775 0.48016297
0.06256172 0.25408858 0.48009465
0.38390034 0.21246331 0.47980326
0.50881622 0.06256172 0.47878007
0.62124887 0.06256172 0.47542401
0.73001434 0.06256172 0.46411302
0.83718350 0.06256172 0.41508890
0.91886608 0.06256172 0.06256172
0.06256172 0.37357386 0.47854675
0.06256172 0.37336966 0.47853769
0.06256172 0.37178503 0.47846815
0.35010112 0.36468431 0.47817152
0.50165156 0.33371795 0.47712979
0.61914404 0.06256172 0.47371135
0.72935533 0.06256172 0.46217108
0.83697845 0.06256172 0.41169794
0.91886608 0.06256172 0.06256172
0.06256172 0.48103836 0.47264373
0.06256172 0.48097790 0.47263407
0.06256172 0.48051226 0.47255988
0.06256172 0.47850309 0.47224337
0.47113126 0.47113126 0.47113126
0.61141657 0.44244336 0.46747544
0.72702089 0.06256172 0.45505533
0.83625993 0.06256172 0.39872631
0.91886608 0.06256172 0.06256172
0.06256172 0.58789218 0.45065311
0.06256172 0.58787296 0.45064080
0.06256172 0.58772531 0.45054621
0.06256172 0.58709415 0.45014241
0.06256172 0.58486017 0.44872032
0.58130344 0.57732748 0.44400841
0.71912725 0.54908172 0.42752326
0.83391958 0.06256172 0.33504898
0.91886608 0.06256172 0.06256172
0.06256172 0.69481098 0.25231895
0.06256172 0.69480479 0.25217680
0.06256172 0.69475720 0.25107550
0.06256172 0.69455434 0.24618009
0.06256172 0.69384367 0.22564978
0.06256172 0.69153102 0.06256172
0.68920262 0.68394904 0.06256172
0.82622357 0.65522271 0.06256172
0.91886608 0.06256172 0.06256172
0.06256172 0.80194425 0.06256172
0.06256172 0.80194229 0.06256172
0.06256172 0.80192726 0.06256172
0.06256172 0.80186323 0.06256172
0.06256172 0.80163966 0.06256172
0.06256172 0.80092000 0.06256172
0.06256172 0.79864383 0.06256172
0.79671510 0.79111312 0.06256172
0.91886608 0.76111808 0.06256172
0.06256172 0.90931568 0.06256172
0.06256172 0.90931509 0.06256172
0.06256172 0.90931058 0.06256172
0.06256172 0.90929136 0.06256172
0.06256172 0.90922435 0.06256172
0.06256172 0.90900940 0.06256172
0.06256172 0.90833713 0.06256172
0.06256172 0.90619384 0.06256172
0.90435884 0.89881055 0.06256172
0.06256172 0.06256172 0.58695043
0.06256172 0.06256172 0.58694760
0.06256172 0.06256172 0.58692589
0.34500458 0.06256172 0.58683339
0.50076390 0.06256172 0.58651021
0.61889131 0.06256172 0.58546772
0.72927688 0.06256172 0.58214828
0.83695410 0.06256172 0.57090524
0.91886608 0.06256172 0.52057193
0.06256172 0.06256172 0.58693476
0.06256172 0.06256172 0.58693193
0.06256172 0.06256172 0.58691021
0.34363664 0.06256172 0.58681770
0.50053351 0.06256172 0.58649447
0.61882600 0.06256172 0.58545181
0.72925663 0.06256172 0.58213179
0.83694782 0.06256172 0.57088667
0.91886608 0.06256172 0.52054012
0.06256172 0.23717329 0.58681435
0.06256172 0.23594501 0.58681152
0.06256172 0.22566432 0.58678977
0.33228721 0.12713425 0.58669714
0.49874496 0.06256172 0.58637349
0.61832299 0.06256172 0.58532949
0.72910098 0.06256172 0.58200508
0.83689957 0.06256172 0.57074389
0.91886608 0.06256172 0.52029551
0.06256172 0.36843062 0.58630004
0.06256172 0.36821356 0.58629719
0.06256172 0.36652786 0.58627533
0.24621326 0.35894595 0.58618219
0.49071700 0.32519814 0.58585677
0.61615127 0.06256172 0.58480700
0.72843549 0.06256172 0.58146380
0.83669387 0.06256172 0.57013365
0.91886608 0.06256172 0.51924695
0.06256172 0.47954747 0.58448479
0.06256172 0.47948601 0.58448189
0.06256172 0.47901269 0.58445960
0.06256172 0.47696991 0.58436465
0.45547339 0.46946780 0.58403289
0.60816455 0.44014956 0.58296250
0.72607769 0.06256172 0.57955205
0.83597307 0.06256172 0.56797473
0.91886608 0.06256172 0.51549599
0.06256172 0.58742103 0.57842455
0.06256172 0.58740172 0.57842146
0.06256172 0.58725333 0.57839769
0.06256172 0.58661899 0.57829643
0.06256172 0.58437360 0.57794257
0.57680032 0.57680032 0.57680032
0.71810067 0.54836906 0.57315491
0.83362517 0.06256172 0.56070718
0.91886608 0.06256172 0.50234741
0.06256172 0.69465928 0.55660438
0.06256172 0.69465308 0.55660048
0.06256172 0.69460541 0.55657050
0.06256172 0.69440222 0.55644279
0.06256172 0.69369041 0.55599617
0.06256172 0.69137394 0.55455141
0.68778837 0.68377879 0.54990816
0.82590295 0.65499186 0.53364108
0.91886608 0.06256172 0.44245043
0.06256172 0.80189634 0.39079860
0.06256172 0.80189438 0.39077431
0.06256172 0.80187934 0.39058758
0.06256172 0.80181528 0.38978809
0.06256172 0.80159160 0.38694117
0.06256172 0.80087155 0.37712808
0.06256172 0.79859417 0.33620305
0.79627158 0.79105920 0.06256172
0.91886608 0.76104345 0.06256172
0.06256172 0.90930130 0.06256172
0.06256172 0.90930071 0.06256172
0.06256172 0.90929620 0.06256172
0.06256172 0.90927698 0.06256172
0.06256172 0.90920996 0.06256172
0.06256172 0.90899497 0.06256172
0.06256172 0.90832259 0.06256172
0.06256172 0.90617893 0.06256172
0.90422593 0.89879433 0.06256172
0.06256172 0.06256172 0.69370180
0.06256172 0.06256172 0.69370088
0.06256172 0.06256172 0.69369387
0.06256172 0.06256172 0.69366400
0.46080999 0.06256172 0.69355978
0.60922267 0.06256172 0.69322527
0.72638206 0.06256172 0.69217674
0.83606543 0.06256172 0.68880973
0.91886608 0.06256172 0.67690685
0.06256172 0.06256172 0.69369673
0.06256172 0.06256172 0.69369582
0.06256172 0.06256172 0.69368880
0.06256172 0.06256172 0.69365893
0.46045312 0.06256172 0.69355471
0.60915033 0.06256172 0.69322018
0.72636118 0.06256172 0.69217159
0.83605908 0.06256172 0.68880440
0.91886608 0.06256172 0.67690080
0.06256172 0.06256172 0.69365785
0.06256172 0.06256172 0.69365694
0.06256172 0.06256172 0.69364992
0.06256172 0.06256172 0.69362003
0.45766498 0.06256172 0.69351577
0.60859297 0.06256172 0.69318110
0.72620064 0.06256172 0.69213207
0.83601035 0.06256172 0.68876344
0.91886608 0.06256172 0.67685433
0.06256172 0.35004524 0.69349214
0.06256172 0.34977441 0.69349123
0.06256172 0.34766447 0.69348420
0.06256172 0.33801877 0.69345426
0.44472526 0.29058607 0.69334981
0.60618286 0.06256172 0.69301455
0.72551412 0.06256172 0.69196365
0.83580262 0.06256172 0.68858889
0.91886608 0.06256172 0.67665626
0.06256172 0.47474651 0.69291215
0.06256172 0.47468174 0.69291123
0.06256172 0.47418278 0.69290415
0.06256172 0.47202765 0.69287403
0.37430115 0.46408814 0.69276894
0.59726475 0.43261041 0.69243160
0.72308059 0.06256172 0.69137414
0.83507463 0.06256172 0.68797781
0.91886608 0.06256172 0.67596246
0.06256172 0.58593980 0.69103033
0.06256172 0.58592019 0.69102939
0.06256172 0.58576944 0.69102217
0.06256172 0.58512502 0.69099144
0.06256172 0.58284334 0.69088423
0.56122901 0.57514092 0.69054005
0.71483260 0.54611626 0.68946103
0.83270292 0.06256172 0.68599375
0.91886608 0.06256172 0.67370563
0.06256172 0.69418569 0.68492236
0.06256172 0.69417945 0.68492136
0.06256172 0.69413154 0.68491366
0.06256172 0.69392733 0.68488087
0.06256172 0.69321190 0.68476647
0.06256172 0.69088349 0.68439917
0.68324706 0.68324706 0.68324706
0.82489803 0.65426992 0.67953887
0.91886608 0.06256172 0.66631714
0.06256172 0.80174711 0.66270614
0.06256172 0.80174515 0.66270488
0.06256172 0.80173009 0.66269513
0.06256172 0.80166592 0.66265364
0.06256172 0.80144187 0.66250885
0.06256172 0.80072064 0.66204365
0.06256172 0.79843945 0.66058134
0.79487766 0.79089123 0.65584165
0.91886608 0.76081085 0.63848670
0.06256172 0.90925655 0.47302365
0.06256172 0.90925596 0.47301403
0.06256172 0.90925144 0.47294014
0.06256172 0.90923222 0.47262496
0.06256172 0.90916516 0.47151752
0.06256172 0.90895006 0.46787750
0.06256172 0.90827733 0.45551634
0.06256172 0.90613254 0.39959529
0.90381108 0.89874383 0.06256172
0.06256172 0.06256172 0.80079525
0.06256172 0.06256172 0.80079496
0.06256172 0.06256172 0.80079274
0.06256172 0.06256172 0.80078330
0.06256172 0.06256172 0.80075037
0.57024647 0.06256172 0.80064482
0.71667303 0.06256172 0.80031563
0.83321949 0.06256172 0.79927522
0.91886608 0.06256172 0.79579671
0.06256172 0.06256172 0.80079365
0.06256172 0.06256172 0.80079336
0.06256172 0.06256172 0.80079114
0.06256172 0.06256172 0.80078170
0.06256172 0.06256172 0.80074877
0.57013711 0.06256172 0.80064322
0.71664986 0.06256172 0.80031402
0.83321294 0.06256172 0.79927359
0.91886608 0.06256172 0.79579501
0.06256172 0.06256172 0.80078136
0.06256172 0.06256172 0.80078107
0.06256172 0.06256172 0.80077885
0.06256172 0.06256172 0.80076940
0.06256172 0.06256172 0.80073647
0.56929311 0.06256172 0.80063090
0.71647177 0.06256172 0.80030166
0.83316265 0.06256172 0.79926109
0.91886608 0.06256172 0.79578203
0.06256172 0.21121846 0.80072900
0.06256172 0.20936819 0.80072872
0.06256172 0.19287555 0.80072650
0.06256172 0.06256172 0.80071704
0.06256172 0.06256172 0.80068409
0.56561304 0.06256172 0.80057846
0.71570984 0.06256172 0.80024903
0.83294825 0.06256172 0.79920786
0.91886608 0.06256172 0.79572674
0.06256172 0.45779768 0.80054626
0.06256172 0.45771960 0.80054597
0.06256172 0.45711781 0.80054374
0.06256172 0.45451017 0.80053427
0.06256172 0.44477929 0.80050125
0.55152369 0.40366777 0.80039541
0.71300410 0.06256172 0.80006532
0.83219676 0.06256172 0.79902205
0.91886608 0.06256172 0.79553372
0.06256172 0.58113637 0.79995854
0.06256172 0.58111573 0.79995825
0.06256172 0.58095710 0.79995601
0.06256172 0.58027882 0.79994648
0.06256172 0.57787526 0.79991324
0.48266249 0.56973726 0.79980672
0.70377374 0.53867564 0.79947450
0.82974721 0.06256172 0.79842443
0.91886608 0.06256172 0.79491284
0.06256172 0.69268441 0.79810532
0.06256172 0.69267808 0.79810502
0.06256172 0.69262940 0.79810274
0.06256172 0.69242190 0.79809301
0.06256172 0.69169490 0.79805910
0.06256172 0.68932821 0.79795040
0.66739222 0.68155937 0.79761136
0.82167136 0.65196881 0.79653959
0.91886608 0.06256172 0.79295361
0.06256172 0.80127742 0.79203612
0.06256172 0.80127544 0.79203580
0.06256172 0.80126030 0.79203336
0.06256172 0.80119580 0.79202297
0.06256172 0.80097060 0.79198674
0.06256172 0.80024563 0.79187059
0.06256172 0.79795243 0.79150827
0.79036231 0.79036231 0.79036231
0.91886608 0.76007741 0.78652149
0.06256172 0.90911601 0.76888657
0.06256172 0.90911542 0.76888616
0.06256172 0.90911090 0.76888302
0.06256172 0.90909164 0.76886966
0.06256172 0.90902447 0.76882308
0.06256172 0.90880902 0.76867373
0.06256172 0.90813520 0.76820747
0.06256172 0.90598685 0.76672944
0.90249672 0.89858522 0.76173708
0.06256172 0.06256172 0.90818875
0.06256172 0.06256172 0.90818866
0.06256172 0.06256172 0.90818800
0.06256172 0.06256172 0.90818516
0.06256172 0.06256172 0.90817527
0.06256172 0.06256172 0.90814360
0.67545401 0.06256172 0.90804497
0.82325866 0.06256172 0.90773486
0.91886608 0.06256172 0.90671547
0.06256172 0.06256172 0.90818827
0.06256172 0.06256172 0.90818818
0.06256172 0.06256172 0.90818752
0.06256172 0.06256172 0.90818468
0.06256172 0.06256172 0.90817479
0.06256172 0.06256172 0.90814312
0.67541810 0.06256172 0.90804449
0.82325135 0.06256172 0.90773438
0.91886608 0.06256172 0.90671498
0.06256172 0.06256172 0.90818458
0.06256172 0.06256172 0.90818449
0.06256172 0.06256172 0.90818382
0.06256172 0.06256172 0.90818099
0.06256172 0.06256172 0.90817110
0.06256172 0.06256172 0.90813943
0.67514197 0.06256172 0.90804080
0.82319521 0.06256172 0.90773067
0.91886608 0.06256172 0.90671123
0.06256172 0.06256172 0.90816886
0.06256172 0.06256172 0.90816877
0.06256172 0.06256172 0.90816811
0.06256172 0.06256172 0.90816527
0.06256172 0.06256172 0.90815538
0.06256172 0.06256172 0.90812370
0.67395736 0.06256172 0.90802505
0.82295580 0.06256172 0.90771487
0.91886608 0.06256172 0.90669524
0.06256172 0.35497398 0.90811405
0.06256172 0.35471886 0.90811396
0.06256172 0.35273327 0.90811329
0.06256172 0.34370007 0.90811045
0.06256172 0.30067274 0.90810056
0.06256172 0.06256172 0.90806886
0.66970726 0.06256172 0.90797015
0.82211619 0.06256172 0.90765977
0.91886608 0.06256172 0.90663949
0.06256172 0.56351027 0.90793827
0.06256172 0.56348539 0.90793818
0.06256172 0.56329406 0.90793751
0.06256172 0.56247519 0.90793467
0.06256172 0.55956329 0.90792475
0.06256172 0.54957938 0.90789299
0.65464637 0.50920866 0.90779407
0.81937384 0.06256172 0.90748306
0.91886608 0.06256172 0.90646069
0.06256172 0.68761378 0.90738903
0.06256172 0.68760710 0.90738895
0.06256172 0.68755573 0.90738827
0.06256172 0.68733673 0.90738541
0.06256172 0.68656925 0.90737543
0.06256172 0.68406851 0.90734346
0.58178773 0.67583408 0.90724393
0.81026987 0.64404757 0.90693093
0.91886608 0.06256172 0.90590200
0.06256172 0.79972822 0.90564323
0.06256172 0.79972622 0.90564314
0.06256172 0.79971082 0.90564246
0.06256172 0.79964522 0.90563954
0.06256172 0.79941616 0.90562935
0.06256172 0.79867873 0.90559674
0.06256172 0.79634545 0.90549518
0.77387154 0.78861543 0.90517581
0.91886608 0.75764370 0.90412576
0.06256172 0.90865597 0.89969161
0.06256172 0.90865538 0.89969152
0.06256172 0.90865083 0.89969078
0.06256172 0.90863147 0.89968766
0.06256172 0.90856395 0.89967675
0.06256172 0.90834735 0.89964183
0.06256172 0.90766991 0.89953307
0.06256172 0.90550988 0.89919103
0.89806582 0.89806582 0.89806582
