src/ffmpeg_scripts/luts/rec2020-sRGB_-4p00.cube
TITLE "rec2020-srgb_-4p00"
LUT_3D_SIZE 9
# PQ (EOTF Only)/Rec2020 -> PQ (EOTF Only)/Rec709, CineEI Shift -4.00, Black Level 0.00% IRE, Input 100% -> Output 109% - Created with LUTCalc v4.01 by Ben Turley October 2020
0.06256172 0.06256172 0.06256172
0.10588548 0.06256172 0.06256172
0.16563950 0.06256172 0.06256172
0.23639504 0.06256172 0.06256172
0.31626019 0.06256172 0.06256172
0.40416082 0.06256172 0.06256172
0.49938111 0.06256172 0.06256172
0.60140052 0.06256172 0.06256172
0.70981882 0.06256172 0.06256172
0.06256172 0.09908554 0.06256172
0.09819318 0.09719942 0.06256172
0.16409357 0.07032411 0.06256172
0.23593599 0.06256172 0.06256172
0.31610718 0.06256172 0.06256172
0.40410775 0.06256172 0.06256172
0.49936271 0.06256172 0.06256172
0.60139433 0.06256172 0.06256172
0.70981686 0.06256172 0.06256172
0.06256172 0.15207348 0.06256172
0.06256172 0.15164521 0.06256172
0.15025461 0.14821767 0.06256172
0.23230111 0.12960339 0.06256172
0.31492225 0.06256172 0.06256172
0.40369918 0.06256172 0.06256172
0.49922134 0.06256172 0.06256172
0.60134682 0.06256172 0.06256172
0.70980179 0.06256172 0.06256172
0.06256172 0.21672237 0.06256172
0.06256172 0.21659085 0.06256172
0.06256172 0.21557162 0.06256172
0.21404557 0.21103609 0.06256172
0.30966704 0.19188834 0.06256172
0.40193811 0.06256172 0.06256172
0.49861709 0.06256172 0.06256172
0.60114429 0.06256172 0.06256172
0.70973761 0.06256172 0.06256172
0.06256172 0.29133565 0.06256172
0.06256172 0.29129086 0.06256172
0.06256172 0.29094599 0.06256172
0.06256172 0.28945998 0.06256172
0.28790494 0.28403599 0.06256172
0.39550286 0.26336047 0.06256172
0.49647898 0.06256172 0.06256172
0.60043479 0.06256172 0.06256172
0.70951352 0.06256172 0.06256172
0.06256172 0.37494875 0.06256172
0.06256172 0.37493295 0.06256172
0.06256172 0.37481151 0.06256172
0.06256172 0.37429258 0.06256172
0.06256172 0.37245813 0.06256172
0.37088923 0.36629937 0.06256172
0.48927714 0.34357706 0.06256172
0.59812612 0.06256172 0.06256172
0.70879227 0.06256172 0.06256172
0.06256172 0.46691969 0.06256172
0.06256172 0.46691413 0.06256172
0.06256172 0.46687145 0.06256172
0.06256172 0.46668952 0.06256172
0.06256172 0.46605242 0.06256172
0.06256172 0.46398148 0.06256172
0.46237127 0.45721721 0.06256172
0.59055888 0.43194276 0.06256172
0.70651199 0.06256172 0.06256172
0.06256172 0.56678285 0.06256172
0.06256172 0.56678096 0.06256172
0.06256172 0.56676642 0.06256172
0.06256172 0.56670453 0.06256172
0.06256172 0.56648843 0.06256172
0.06256172 0.56579302 0.06256172
0.06256172 0.56359572 0.06256172
0.56189688 0.55634943 0.06256172
0.69897736 0.52784734 0.06256172
0.06256172 0.67418155 0.06256172
0.06256172 0.67418095 0.06256172
0.06256172 0.67417628 0.06256172
0.06256172 0.67415643 0.06256172
0.06256172 0.67408719 0.06256172
0.06256172 0.67386511 0.06256172
0.06256172 0.67317072 0.06256172
0.06256172 0.67095874 0.06256172
0.66911870 0.66336022 0.06256172
0.06256172 0.06256172 0.09887767
0.10503742 0.06256172 0.09860900
0.16545040 0.06256172 0.09644793
0.23633831 0.06256172 0.08403329
0.31624124 0.06256172 0.06256172
0.40415424 0.06256172 0.06256172
0.49937883 0.06256172 0.06256172
0.60139975 0.06256172 0.06256172
0.70981858 0.06256172 0.06256172
0.06256172 0.09896326 0.09735292
0.09706793 0.09706793 0.09706793
0.16389858 0.06961354 0.09476522
0.23587886 0.06256172 0.08088811
0.31608819 0.06256172 0.06256172
0.40410117 0.06256172 0.06256172
0.49936043 0.06256172 0.06256172
0.60139357 0.06256172 0.06256172
0.70981661 0.06256172 0.06256172
0.06256172 0.15204489 0.08013317
0.06256172 0.15161636 0.07946598
0.14999458 0.14818659 0.07289547
0.23224076 0.12955519 0.06256172
0.31490297 0.06256172 0.06256172
0.40369257 0.06256172 0.06256172
0.49921906 0.06256172 0.06256172
0.60134605 0.06256172 0.06256172
0.70980154 0.06256172 0.06256172
0.06256172 0.21671357 0.06256172
0.06256172 0.21658202 0.06256172
0.06256172 0.21556265 0.06256172
0.21396531 0.21102644 0.06256172
0.30964642 0.19187503 0.06256172
0.40193136 0.06256172 0.06256172
0.49861479 0.06256172 0.06256172
0.60114352 0.06256172 0.06256172
0.70973736 0.06256172 0.06256172
0.06256172 0.29133265 0.06256172
0.06256172 0.29128785 0.06256172
0.06256172 0.29094298 0.06256172
0.06256172 0.28945690 0.06256172
0.28787752 0.28403268 0.06256172
0.39549559 0.26335607 0.06256172
0.49647663 0.06256172 0.06256172
0.60043402 0.06256172 0.06256172
0.70951328 0.06256172 0.06256172
0.06256172 0.37494770 0.06256172
0.06256172 0.37493189 0.06256172
0.06256172 0.37481045 0.06256172
0.06256172 0.37429151 0.06256172
0.06256172 0.37245704 0.06256172
0.37087953 0.36629819 0.06256172
0.48927459 0.34357551 0.06256172
0.59812532 0.06256172 0.06256172
0.70879203 0.06256172 0.06256172
0.06256172 0.46691931 0.06256172
0.06256172 0.46691376 0.06256172
0.06256172 0.46687107 0.06256172
0.06256172 0.46668915 0.06256172
0.06256172 0.46605204 0.06256172
0.06256172 0.46398109 0.06256172
0.46236785 0.45721679 0.06256172
0.59055802 0.43194221 0.06256172
0.70651174 0.06256172 0.06256172
0.06256172 0.56678272 0.06256172
0.06256172 0.56678083 0.06256172
0.06256172 0.56676630 0.06256172
0.06256172 0.56670440 0.06256172
0.06256172 0.56648830 0.06256172
0.06256172 0.56579289 0.06256172
0.06256172 0.56359559 0.06256172
0.56189572 0.55634928 0.06256172
0.69897708 0.52784715 0.06256172
0.06256172 0.67418151 0.06256172
0.06256172 0.67418090 0.06256172
0.06256172 0.67417624 0.06256172
0.06256172 0.67415639 0.06256172
0.06256172 0.67408715 0.06256172
0.06256172 0.67386506 0.06256172
0.06256172 0.67317068 0.06256172
0.06256172 0.67095870 0.06256172
0.66911833 0.66336017 0.06256172
0.06256172 0.06256172 0.15165064
0.09751014 0.06256172 0.15158791
0.16397428 0.06256172 0.15110336
0.23590103 0.06256172 0.14898193
0.31609556 0.06256172 0.14069341
0.40410372 0.06256172 0.08083329
0.49936132 0.06256172 0.06256172
0.60139387 0.06256172 0.06256172
0.70981671 0.06256172 0.06256172
0.06256172 0.09800488 0.15130195
0.08600874 0.09603495 0.15123874
0.16237541 0.06256172 0.15075052
0.23543854 0.06256172 0.14861240
0.31594223 0.06256172 0.14024766
0.40405062 0.06256172 0.07690899
0.49934292 0.06256172 0.06256172
0.60138768 0.06256172 0.06256172
0.70981474 0.06256172 0.06256172
0.06256172 0.15182480 0.14853310
0.06256172 0.15139423 0.14846597
0.14794724 0.14794724 0.14794724
0.23177545 0.12918305 0.14567000
0.31475478 0.06256172 0.13666019
0.40364178 0.06256172 0.06256172
0.49920152 0.06256172 0.06256172
0.60134016 0.06256172 0.06256172
0.70979967 0.06256172 0.06256172
0.06256172 0.21664589 0.13432453
0.06256172 0.21651420 0.13423132
0.06256172 0.21549371 0.13350838
0.21334554 0.21095228 0.13027733
0.30948790 0.19177270 0.11623334
0.40187953 0.06256172 0.06256172
0.49859713 0.06256172 0.06256172
0.60113761 0.06256172 0.06256172
0.70973550 0.06256172 0.06256172
0.06256172 0.29130959 0.06256172
0.06256172 0.29126478 0.06256172
0.06256172 0.29091980 0.06256172
0.06256172 0.28943326 0.06256172
0.28766662 0.28400726 0.06256172
0.39543977 0.26332230 0.06256172
0.49645856 0.06256172 0.06256172
0.60042807 0.06256172 0.06256172
0.70951140 0.06256172 0.06256172
0.06256172 0.37493956 0.06256172
0.06256172 0.37492376 0.06256172
0.06256172 0.37480230 0.06256172
0.06256172 0.37428331 0.06256172
0.06256172 0.37244866 0.06256172
0.37080503 0.36628918 0.06256172
0.48925505 0.34356365 0.06256172
0.59811923 0.06256172 0.06256172
0.70879014 0.06256172 0.06256172
0.06256172 0.46691645 0.06256172
0.06256172 0.46691090 0.06256172
0.06256172 0.46686821 0.06256172
0.06256172 0.46668628 0.06256172
0.06256172 0.46604915 0.06256172
0.06256172 0.46397814 0.06256172
0.46234160 0.45721361 0.06256172
0.59055141 0.43193799 0.06256172
0.70650980 0.06256172 0.06256172
0.06256172 0.56678175 0.06256172
0.06256172 0.56677986 0.06256172
0.06256172 0.56676532 0.06256172
0.06256172 0.56670343 0.06256172
0.06256172 0.56648733 0.06256172
0.06256172 0.56579190 0.06256172
0.06256172 0.56359458 0.06256172
0.56188676 0.55634820 0.06256172
0.69897499 0.52784568 0.06256172
0.06256172 0.67418120 0.06256172
0.06256172 0.67418059 0.06256172
0.06256172 0.67417593 0.06256172
0.06256172 0.67415608 0.06256172
0.06256172 0.67408684 0.06256172
0.06256172 0.67386475 0.06256172
0.06256172 0.67317036 0.06256172
0.06256172 0.67095838 0.06256172
0.66911545 0.66335982 0.06256172
0.06256172 0.06256172 0.21610096
0.06256172 0.06256172 0.21608162
0.15714847 0.06256172 0.21593291
0.23400664 0.06256172 0.21529588
0.31547236 0.06256172 0.21302276
0.40388834 0.06256172 0.20512224
0.49928674 0.06256172 0.17013239
0.60136879 0.06256172 0.06256172
0.70980875 0.06256172 0.06256172
0.06256172 0.09346497 0.21599371
0.06256172 0.09106951 0.21597434
0.15530604 0.06256172 0.21582537
0.23353071 0.06256172 0.21518724
0.31531781 0.06256172 0.21291008
0.40383510 0.06256172 0.20499402
0.49926832 0.06256172 0.16989310
0.60136261 0.06256172 0.06256172
0.70980679 0.06256172 0.06256172
0.06256172 0.15087605 0.21516402
0.06256172 0.15043656 0.21514438
0.13799822 0.14691395 0.21499343
0.22975695 0.12755792 0.21434670
0.31412080 0.06256172 0.21203797
0.40342525 0.06256172 0.20400029
0.49912681 0.06256172 0.16801781
0.60131508 0.06256172 0.06256172
0.70979172 0.06256172 0.06256172
0.06256172 0.21635697 0.21150294
0.06256172 0.21622467 0.21148212
0.06256172 0.21519942 0.21132198
0.21063559 0.21063559 0.21063559
0.30880945 0.19133503 0.20818087
0.40165856 0.06256172 0.19957519
0.49852193 0.06256172 0.15915367
0.60111247 0.06256172 0.06256172
0.70972754 0.06256172 0.06256172
0.06256172 0.29121137 0.19668519
0.06256172 0.29116650 0.19665855
0.06256172 0.29082106 0.19645355
0.06256172 0.28933255 0.19557271
0.28676210 0.28389896 0.19239301
0.39520170 0.26317837 0.18081743
0.49638159 0.06256172 0.08977814
0.60040274 0.06256172 0.06256172
0.70950343 0.06256172 0.06256172
0.06256172 0.37490493 0.06256172
0.06256172 0.37488911 0.06256172
0.06256172 0.37476761 0.06256172
0.06256172 0.37424841 0.06256172
0.06256172 0.37241299 0.06256172
0.37048713 0.36625080 0.06256172
0.48917181 0.34351314 0.06256172
0.59809327 0.06256172 0.06256172
0.70878210 0.06256172 0.06256172
0.06256172 0.46690428 0.06256172
0.06256172 0.46689872 0.06256172
0.06256172 0.46685603 0.06256172
0.06256172 0.46667407 0.06256172
0.06256172 0.46603686 0.06256172
0.06256172 0.46396556 0.06256172
0.46222979 0.45720006 0.06256172
0.59052329 0.43192002 0.06256172
0.70650156 0.06256172 0.06256172
0.06256172 0.56677760 0.06256172
0.06256172 0.56677571 0.06256172
0.06256172 0.56676118 0.06256172
0.06256172 0.56669928 0.06256172
0.06256172 0.56648317 0.06256172
0.06256172 0.56578771 0.06256172
0.06256172 0.56359029 0.06256172
0.56184864 0.55634356 0.06256172
0.69896606 0.52783939 0.06256172
0.06256172 0.67417987 0.06256172
0.06256172 0.67417926 0.06256172
0.06256172 0.67417460 0.06256172
0.06256172 0.67415475 0.06256172
0.06256172 0.67408550 0.06256172
0.06256172 0.67386342 0.06256172
0.06256172 0.67316902 0.06256172
0.06256172 0.67095700 0.06256172
0.66910320 0.66335833 0.06256172
0.06256172 0.06256172 0.29054009
0.06256172 0.06256172 0.29053350
0.11914775 0.06256172 0.29048283
0.22694070 0.06256172 0.29026677
0.31326017 0.06256172 0.28950861
0.40313324 0.06256172 0.28702777
0.49902625 0.06256172 0.27873355
0.60128133 0.06256172 0.24401614
0.70978102 0.06256172 0.06256172
0.06256172 0.06256172 0.29050354
0.06256172 0.06256172 0.29049694
0.11434368 0.06256172 0.29044625
0.22641031 0.06256172 0.29023008
0.31310119 0.06256172 0.28947155
0.40307954 0.06256172 0.28698946
0.49900779 0.06256172 0.27869070
0.60127514 0.06256172 0.24394619
0.70977906 0.06256172 0.06256172
0.06256172 0.14740698 0.29022224
0.06256172 0.14693270 0.29021562
0.06256172 0.14311329 0.29016474
0.22218553 0.12127778 0.28994775
0.31186951 0.06256172 0.28918636
0.40266610 0.06256172 0.28669464
0.49886587 0.06256172 0.27836089
0.60122757 0.06256172 0.24340661
0.70976399 0.06256172 0.06256172
0.06256172 0.21533918 0.28901284
0.06256172 0.21520471 0.28900611
0.06256172 0.21416245 0.28895441
0.20011861 0.20951860 0.28873389
0.30639672 0.18978245 0.28796002
0.40088375 0.06256172 0.28542642
0.49825927 0.06256172 0.27694010
0.60102478 0.06256172 0.24106037
0.70969978 0.06256172 0.06256172
0.06256172 0.29086791 0.28463700
0.06256172 0.29082283 0.28462986
0.06256172 0.29047582 0.28457503
0.06256172 0.28898039 0.28434119
0.28352015 0.28352015 0.28352015
0.39436659 0.26267431 0.28082790
0.49611275 0.06256172 0.27175915
0.60031438 0.06256172 0.23217247
0.70947561 0.06256172 0.06256172
0.06256172 0.37478407 0.26857381
0.06256172 0.37476823 0.26856492
0.06256172 0.37464655 0.26849665
0.06256172 0.37412661 0.26820526
0.06256172 0.37228851 0.26718011
0.36936940 0.36611686 0.26379482
0.48888102 0.34333680 0.25209024
0.59800272 0.06256172 0.19061323
0.70875406 0.06256172 0.06256172
0.06256172 0.46686181 0.14214721
0.06256172 0.46685625 0.14206975
0.06256172 0.46681354 0.14147034
0.06256172 0.46663149 0.13882123
0.06256172 0.46599398 0.12798993
0.06256172 0.46392169 0.06256172
0.46183890 0.45715278 0.06256172
0.59042518 0.43185735 0.06256172
0.70647284 0.06256172 0.06256172
0.06256172 0.56676314 0.06256172
0.06256172 0.56676125 0.06256172
0.06256172 0.56674671 0.06256172
0.06256172 0.56668481 0.06256172
0.06256172 0.56646866 0.06256172
0.06256172 0.56577310 0.06256172
0.06256172 0.56357533 0.06256172
0.56171560 0.55632740 0.06256172
0.69893494 0.52781748 0.06256172
0.06256172 0.67417523 0.06256172
0.06256172 0.67417462 0.06256172
0.06256172 0.67416996 0.06256172
0.06256172 0.67415011 0.06256172
0.06256172 0.67408086 0.06256172
0.06256172 0.67385876 0.06256172
0.06256172 0.67316433 0.06256172
0.06256172 0.67095220 0.06256172
0.66906048 0.66335313 0.06256172
0.06256172 0.06256172 0.37400824
0.06256172 0.06256172 0.37400592
0.06256172 0.06256172 0.37398803
0.19687757 0.06256172 0.37391187
0.30572136 0.06256172 0.37364580
0.40066994 0.06256172 0.37278805
0.49818708 0.06256172 0.37006196
0.60100070 0.06256172 0.36088697
0.70969217 0.06256172 0.32093253
0.06256172 0.06256172 0.37399534
0.06256172 0.06256172 0.37399301
0.06256172 0.06256172 0.37397513
0.19601157 0.06256172 0.37389895
0.30554617 0.06256172 0.37363284
0.40061470 0.06256172 0.37277496
0.49816844 0.06256172 0.37004844
0.60099449 0.06256172 0.36087188
0.70969020 0.06256172 0.32090787
0.06256172 0.13401348 0.37389619
0.06256172 0.13336456 0.37389386
0.06256172 0.12799744 0.37387595
0.18889122 0.08309149 0.37379969
0.30418751 0.06256172 0.37353327
0.40018932 0.06256172 0.37267437
0.49802522 0.06256172 0.36994454
0.60094677 0.06256172 0.36075595
0.70967511 0.06256172 0.32071824
0.06256172 0.21196326 0.37347282
0.06256172 0.21182128 0.37347047
0.06256172 0.21072010 0.37345248
0.13883909 0.20579762 0.37337583
0.29811898 0.18450271 0.37310807
0.39835479 0.06256172 0.37224481
0.49741305 0.06256172 0.36950081
0.60074338 0.06256172 0.36026061
0.70961085 0.06256172 0.31990589
0.06256172 0.28975733 0.37198000
0.06256172 0.28971159 0.37197762
0.06256172 0.28935939 0.37195930
0.06256172 0.28784133 0.37188128
0.27206244 0.28229384 0.37160873
0.39163636 0.26103555 0.37072992
0.49524650 0.06256172 0.36793528
0.60003086 0.06256172 0.35851034
0.70938646 0.06256172 0.31700660
0.06256172 0.37439585 0.36701319
0.06256172 0.37437994 0.36701066
0.06256172 0.37425771 0.36699123
0.06256172 0.37373535 0.36690847
0.06256172 0.37188863 0.36661930
0.36568646 0.36568646 0.36568646
0.48794353 0.34276950 0.36271561
0.59771217 0.06256172 0.35264304
0.70866423 0.06256172 0.30692655
0.06256172 0.46672567 0.34934756
0.06256172 0.46672010 0.34934443
0.06256172 0.46667732 0.34932039
0.06256172 0.46649501 0.34921801
0.06256172 0.46585653 0.34886006
0.06256172 0.46378107 0.34770312
0.46057560 0.45700123 0.34399513
0.59011031 0.43165632 0.33112865
0.70638079 0.06256172 0.26267936
0.06256172 0.56671682 0.22680933
0.06256172 0.56671493 0.22679298
0.06256172 0.56670038 0.22666729
0.06256172 0.56663844 0.22612950
0.06256172 0.56642219 0.22421881
0.06256172 0.56572629 0.21768534
0.06256172 0.56352741 0.19133485
0.56128828 0.55627564 0.06256172
0.69883521 0.52774726 0.06256172
0.06256172 0.67416037 0.06256172
0.06256172 0.67415976 0.06256172
0.06256172 0.67415510 0.06256172
0.06256172 0.67413524 0.06256172
0.06256172 0.67406599 0.06256172
0.06256172 0.67384385 0.06256172
0.06256172 0.67314931 0.06256172
0.06256172 0.67093683 0.06256172
0.66892354 0.66333647 0.06256172
0.06256172 0.06256172 0.46586675
0.06256172 0.06256172 0.46586593
0.06256172 0.06256172 0.46585964
0.06256172 0.06256172 0.46583285
0.27594603 0.06256172 0.46573940
0.39252389 0.06256172 0.46543950
0.49552598 0.06256172 0.46449994
0.60012213 0.06256172 0.46148781
0.70941514 0.06256172 0.45090024
0.06256172 0.06256172 0.46586221
0.06256172 0.06256172 0.46586139
0.06256172 0.06256172 0.46585510
0.06256172 0.06256172 0.46582831
0.27568563 0.06256172 0.46573486
0.39246319 0.06256172 0.46543494
0.49550680 0.06256172 0.46449533
0.60011586 0.06256172 0.46148305
0.70941317 0.06256172 0.45089488
0.06256172 0.06256172 0.46582734
0.06256172 0.06256172 0.46582652
0.06256172 0.06256172 0.46582023
0.06256172 0.06256172 0.46579343
0.27365462 0.06256172 0.46569994
0.39199562 0.06256172 0.46539990
0.49535938 0.06256172 0.46445993
0.60006770 0.06256172 0.46144645
0.70939803 0.06256172 0.45085373
0.06256172 0.20008295 0.46567876
0.06256172 0.19991015 0.46567793
0.06256172 0.19856620 0.46567163
0.06256172 0.19247262 0.46564479
0.26430872 0.16374503 0.46555115
0.38997627 0.06256172 0.46525062
0.49472918 0.06256172 0.46430909
0.59986241 0.06256172 0.46129051
0.70933358 0.06256172 0.45067836
0.06256172 0.28619269 0.46515885
0.06256172 0.28614471 0.46515802
0.06256172 0.28577529 0.46515168
0.06256172 0.28418185 0.46512469
0.21581839 0.27834267 0.46503051
0.38253947 0.25567894 0.46472825
0.49249775 0.06256172 0.46378125
0.59914318 0.06256172 0.46074474
0.70910852 0.06256172 0.45006427
0.06256172 0.37317638 0.46347351
0.06256172 0.37316024 0.46347267
0.06256172 0.37303622 0.46346621
0.06256172 0.37250624 0.46343871
0.06256172 0.37063213 0.46334277
0.35306307 0.36433294 0.46303482
0.48496367 0.34097864 0.46206988
0.59680233 0.06256172 0.45897444
0.70838414 0.06256172 0.44806898
0.06256172 0.46630075 0.45801958
0.06256172 0.46629515 0.45801869
0.06256172 0.46625218 0.45801183
0.06256172 0.46606901 0.45798262
0.06256172 0.46542752 0.45788071
0.06256172 0.46334210 0.45755357
0.45652803 0.45652803 0.45652803
0.58912379 0.43102791 0.45323323
0.70609381 0.06256172 0.44156072
0.06256172 0.56657254 0.43839332
0.06256172 0.56657064 0.43839221
0.06256172 0.56655608 0.43838368
0.06256172 0.56649405 0.43834733
0.06256172 0.56627746 0.43822052
0.06256172 0.56558048 0.43781317
0.06256172 0.56337815 0.43653367
0.55994608 0.55611439 0.43239648
0.69852421 0.52752845 0.41737827
0.06256172 0.67411413 0.28491781
0.06256172 0.67411352 0.28491070
0.06256172 0.67410885 0.28485608
0.06256172 0.67408899 0.28462312
0.06256172 0.67401970 0.28380520
0.06256172 0.67379745 0.28112348
0.06256172 0.67310257 0.27209360
0.06256172 0.67088897 0.23276352
0.66849618 0.66328461 0.06256172
0.06256172 0.06256172 0.56565257
0.06256172 0.06256172 0.56565229
0.06256172 0.06256172 0.56565014
0.06256172 0.06256172 0.56564102
0.06256172 0.06256172 0.56560920
0.36035217 0.06256172 0.56550723
0.48664093 0.06256172 0.56518923
0.59731188 0.06256172 0.56418464
0.70854078 0.06256172 0.56083089
0.06256172 0.06256172 0.56565102
0.06256172 0.06256172 0.56565074
0.06256172 0.06256172 0.56564860
0.06256172 0.06256172 0.56563947
0.06256172 0.06256172 0.56560765
0.36026342 0.06256172 0.56550568
0.48661980 0.06256172 0.56518767
0.59730542 0.06256172 0.56418307
0.70853879 0.06256172 0.56082926
0.06256172 0.06256172 0.56563914
0.06256172 0.06256172 0.56563886
0.06256172 0.06256172 0.56563672
0.06256172 0.06256172 0.56562759
0.06256172 0.06256172 0.56559577
0.35957877 0.06256172 0.56549378
0.48645740 0.06256172 0.56517573
0.59725581 0.06256172 0.56417101
0.70852351 0.06256172 0.56081676
0.06256172 0.12065432 0.56558856
0.06256172 0.11973095 0.56558828
0.06256172 0.11167780 0.56558614
0.06256172 0.06256172 0.56557700
0.06256172 0.06256172 0.56554516
0.35659951 0.06256172 0.56544312
0.48576286 0.06256172 0.56512490
0.59704430 0.06256172 0.56411963
0.70845845 0.06256172 0.56076351
0.06256172 0.27375114 0.56541201
0.06256172 0.27369435 0.56541173
0.06256172 0.27325675 0.56540958
0.06256172 0.27136386 0.56540043
0.06256172 0.26434747 0.56536853
0.34528348 0.23554186 0.56526629
0.48329950 0.06256172 0.56494748
0.59630322 0.06256172 0.56394029
0.70823129 0.06256172 0.56057765
0.06256172 0.36923250 0.56484436
0.06256172 0.36921559 0.56484407
0.06256172 0.36908562 0.56484191
0.06256172 0.36853013 0.56483271
0.06256172 0.36656429 0.56480061
0.29207968 0.35993901 0.56469776
0.47493237 0.33509005 0.56437701
0.59388999 0.06256172 0.56336366
0.70750009 0.06256172 0.55997994
0.06256172 0.46495476 0.56305585
0.06256172 0.46494908 0.56305556
0.06256172 0.46490547 0.56305336
0.06256172 0.46471955 0.56304398
0.06256172 0.46406842 0.56301127
0.06256172 0.46195115 0.56290643
0.44250542 0.45502734 0.56257950
0.58596049 0.42902728 0.56154648
0.70518784 0.06256172 0.55809546
0.06256172 0.56611851 0.55721381
0.06256172 0.56611660 0.55721350
0.06256172 0.56610196 0.55721116
0.06256172 0.56603963 0.55720118
0.06256172 0.56582200 0.55716637
0.06256172 0.56512162 0.55705480
0.06256172 0.56290839 0.55670682
0.55560676 0.55560676 0.55560676
0.69754190 0.52683868 0.55192587
0.06256172 0.67396891 0.53514605
0.06256172 0.67396830 0.53514566
0.06256172 0.67396363 0.53514269
0.06256172 0.67394374 0.53513006
0.06256172 0.67387434 0.53508600
0.06256172 0.67365175 0.53494474
0.06256172 0.67295579 0.53450386
0.06256172 0.67073871 0.53310718
0.66714289 0.66312173 0.52840000
0.06256172 0.06256172 0.67301109
0.06256172 0.06256172 0.67301100
0.06256172 0.06256172 0.67301032
0.06256172 0.06256172 0.67300739
0.06256172 0.06256172 0.67299718
0.06256172 0.06256172 0.67296447
0.44961444 0.06256172 0.67286263
0.58751580 0.06256172 0.67254244
0.70563058 0.06256172 0.67149033
0.06256172 0.06256172 0.67301060
0.06256172 0.06256172 0.67301051
0.06256172 0.06256172 0.67300982
0.06256172 0.06256172 0.67300689
0.06256172 0.06256172 0.67299668
0.06256172 0.06256172 0.67296397
0.44958269 0.06256172 0.67286213
0.58750864 0.06256172 0.67254194
0.70562853 0.06256172 0.67148982
0.06256172 0.06256172 0.67300678
0.06256172 0.06256172 0.67300669
0.06256172 0.06256172 0.67300601
0.06256172 0.06256172 0.67300308
0.06256172 0.06256172 0.67299287
0.06256172 0.06256172 0.67296016
0.44933847 0.06256172 0.67285831
0.58745360 0.06256172 0.67253811
0.70561277 0.06256172 0.67148595
0.06256172 0.06256172 0.67299055
0.06256172 0.06256172 0.67299046
0.06256172 0.06256172 0.67298978
0.06256172 0.06256172 0.67298685
0.06256172 0.06256172 0.67297663
0.06256172 0.06256172 0.67294392
0.44829137 0.06256172 0.67284205
0.58721892 0.06256172 0.67252179
0.70554566 0.06256172 0.67146945
0.06256172 0.20323884 0.67293395
0.06256172 0.20307497 0.67293386
0.06256172 0.20180146 0.67293317
0.06256172 0.19605169 0.67293024
0.06256172 0.16967766 0.67292002
0.06256172 0.06256172 0.67288729
0.44454238 0.06256172 0.67278536
0.58639619 0.06256172 0.67246491
0.70531134 0.06256172 0.67141193
0.06256172 0.35490156 0.67275244
0.06256172 0.35488148 0.67275235
0.06256172 0.35472714 0.67275166
0.06256172 0.35406691 0.67274873
0.06256172 0.35172302 0.67273849
0.06256172 0.34373317 0.67270569
0.43135555 0.31217039 0.67260357
0.58371207 0.06256172 0.67228250
0.70455697 0.06256172 0.67122747
0.06256172 0.46041974 0.67218544
0.06256172 0.46041377 0.67218535
0.06256172 0.46036791 0.67218465
0.06256172 0.46017244 0.67218170
0.06256172 0.45948767 0.67217140
0.06256172 0.45725915 0.67213840
0.36976633 0.44995068 0.67203566
0.57483529 0.42216799 0.67171265
0.70217024 0.06256172 0.67065121
0.06256172 0.56462196 0.67038436
0.06256172 0.56462003 0.67038427
0.06256172 0.56460516 0.67038356
0.06256172 0.56454182 0.67038055
0.06256172 0.56432069 0.67037005
0.06256172 0.56360900 0.67033642
0.06256172 0.56135944 0.67023170
0.53986914 0.55393145 0.66990245
0.69426432 0.52455242 0.66882034
0.06256172 0.67349365 0.66425820
0.06256172 0.67349304 0.66425810
0.06256172 0.67348834 0.66425735
0.06256172 0.67346834 0.66425413
0.06256172 0.67339860 0.66424293
0.06256172 0.67317488 0.66420705
0.06256172 0.67247538 0.66409531
0.06256172 0.67024686 0.66374391
0.66258847 0.66258847 0.66258847
