src/ffmpeg_scripts/luts/rec2020-sRGB_2p00.cube
TITLE "rec2020-srgb_2p00"
LUT_3D_SIZE 9
# PQ (EOTF Only)/Rec2020 -> PQ (EOTF Only)/Rec709, CineEI Shift 2.00, Black Level 0.00% IRE, Input 100% -> Output 109% - Created with LUTCalc v4.01 by Ben Turley October 2020
0.06256172 0.06256172 0.06256172
0.26073489 0.06256172 0.06256172
0.40927845 0.06256172 0.06256172
0.54036646 0.06256172 0.06256172
0.66074298 0.06256172 0.06256172
0.77349501 0.06256172 0.06256172
0.88038609 0.06256172 0.06256172
0.91886608 0.06256172 0.06256172
0.91886608 0.06256172 0.06256172
0.06256172 0.23930225 0.06256172
0.23637453 0.23307953 0.06256172
0.40601652 0.12086493 0.06256172
0.53960604 0.06256172 0.06256172
0.66053136 0.06256172 0.06256172
0.77343156 0.06256172 0.06256172
0.88036664 0.06256172 0.06256172
0.91886608 0.06256172 0.06256172
0.91886608 0.06256172 0.06256172
0.06256172 0.37985748 0.06256172
0.06256172 0.37889765 0.06256172
0.37576692 0.37114137 0.06256172
0.53355122 0.32640032 0.06256172
0.65889041 0.06256172 0.06256172
0.77294287 0.06256172 0.06256172
0.88021712 0.06256172 0.06256172
0.91886608 0.06256172 0.06256172
0.91886608 0.06256172 0.06256172
0.06256172 0.50688709 0.06256172
0.06256172 0.50665678 0.06256172
0.06256172 0.50486886 0.06256172
0.50218156 0.49684503 0.06256172
0.65156751 0.46165185 0.06256172
0.77083314 0.06256172 0.06256172
0.87957775 0.06256172 0.06256172
0.91886608 0.06256172 0.06256172
0.91886608 0.06256172 0.06256172
0.06256172 0.62541717 0.06256172
0.06256172 0.62535205 0.06256172
0.06256172 0.62485058 0.06256172
0.06256172 0.62268559 0.06256172
0.62041275 0.61472510 0.06256172
0.76307747 0.58349178 0.06256172
0.87731182 0.06256172 0.06256172
0.91886608 0.06256172 0.06256172
0.91886608 0.06256172 0.06256172
0.06256172 0.73779749 0.06256172
0.06256172 0.73777774 0.06256172
0.06256172 0.73762598 0.06256172
0.06256172 0.73697716 0.06256172
0.06256172 0.73467930 0.06256172
0.73270876 0.72691547 0.06256172
0.86963778 0.69758238 0.06256172
0.91886608 0.06256172 0.06256172
0.91886608 0.06256172 0.06256172
0.06256172 0.84539043 0.06256172
0.06256172 0.84538432 0.06256172
0.06256172 0.84533739 0.06256172
0.06256172 0.84513736 0.06256172
0.06256172 0.84443647 0.06256172
0.06256172 0.84215437 0.06256172
0.84037589 0.83465901 0.06256172
0.91886608 0.80606882 0.06256172
0.91886608 0.06256172 0.06256172
0.06256172 0.91886608 0.06256172
0.06256172 0.91886608 0.06256172
0.06256172 0.91886608 0.06256172
0.06256172 0.91886608 0.06256172
0.06256172 0.91886608 0.06256172
0.06256172 0.91886608 0.06256172
0.06256172 0.91886608 0.06256172
0.91886608 0.91886608 0.06256172
0.91886608 0.91001102 0.06256172
0.06256172 0.91886608 0.06256172
0.06256172 0.91886608 0.06256172
0.06256172 0.91886608 0.06256172
0.06256172 0.91886608 0.06256172
0.06256172 0.91886608 0.06256172
0.06256172 0.91886608 0.06256172
0.06256172 0.91886608 0.06256172
0.06256172 0.91886608 0.06256172
0.91886608 0.91886608 0.06256172
0.06256172 0.06256172 0.23862284
0.25814042 0.06256172 0.23774239
0.40888062 0.06256172 0.23056278
0.54027253 0.06256172 0.18517262
0.66071677 0.06256172 0.06256172
0.77348715 0.06256172 0.06256172
0.88038368 0.06256172 0.06256172
0.91886608 0.06256172 0.06256172
0.91886608 0.06256172 0.06256172
0.06256172 0.23890276 0.23359092
0.23264076 0.23264076 0.23264076
0.40560351 0.11674686 0.22484577
0.53951134 0.06256172 0.17219138
0.66050509 0.06256172 0.06256172
0.77342369 0.06256172 0.06256172
0.88036423 0.06256172 0.06256172
0.91886608 0.06256172 0.06256172
0.91886608 0.06256172 0.06256172
0.06256172 0.37979348 0.16895652
0.06256172 0.37883291 0.16605535
0.37517908 0.37107042 0.13485262
0.53345017 0.32627794 0.06256172
0.65886368 0.06256172 0.06256172
0.77293496 0.06256172 0.06256172
0.88021470 0.06256172 0.06256172
0.91886608 0.06256172 0.06256172
0.91886608 0.06256172 0.06256172
0.06256172 0.50687167 0.06256172
0.06256172 0.50664132 0.06256172
0.06256172 0.50485310 0.06256172
0.50203988 0.49682784 0.06256172
0.65153863 0.46162658 0.06256172
0.77082505 0.06256172 0.06256172
0.87957532 0.06256172 0.06256172
0.91886608 0.06256172 0.06256172
0.91886608 0.06256172 0.06256172
0.06256172 0.62541280 0.06256172
0.06256172 0.62534769 0.06256172
0.06256172 0.62484619 0.06256172
0.06256172 0.62268110 0.06256172
0.62037260 0.61472022 0.06256172
0.76306867 0.58348498 0.06256172
0.87730932 0.06256172 0.06256172
0.91886608 0.06256172 0.06256172
0.91886608 0.06256172 0.06256172
0.06256172 0.73779617 0.06256172
0.06256172 0.73777642 0.06256172
0.06256172 0.73762466 0.06256172
0.06256172 0.73697583 0.06256172
0.06256172 0.73467793 0.06256172
0.73269656 0.72691398 0.06256172
0.86963505 0.69758035 0.06256172
0.91886608 0.06256172 0.06256172
0.91886608 0.06256172 0.06256172
0.06256172 0.84539002 0.06256172
0.06256172 0.84538391 0.06256172
0.06256172 0.84533699 0.06256172
0.06256172 0.84513695 0.06256172
0.06256172 0.84443606 0.06256172
0.06256172 0.84215394 0.06256172
0.84037211 0.83465855 0.06256172
0.91886608 0.80606818 0.06256172
0.91886608 0.06256172 0.06256172
0.06256172 0.91886608 0.06256172
0.06256172 0.91886608 0.06256172
0.06256172 0.91886608 0.06256172
0.06256172 0.91886608 0.06256172
0.06256172 0.91886608 0.06256172
0.06256172 0.91886608 0.06256172
0.06256172 0.91886608 0.06256172
0.91886608 0.91886608 0.06256172
0.91886608 0.91001083 0.06256172
0.06256172 0.91886608 0.06256172
0.06256172 0.91886608 0.06256172
0.06256172 0.91886608 0.06256172
0.06256172 0.91886608 0.06256172
0.06256172 0.91886608 0.06256172
0.06256172 0.91886608 0.06256172
0.06256172 0.91886608 0.06256172
0.06256172 0.91886608 0.06256172
0.91886608 0.91886608 0.06256172
0.06256172 0.06256172 0.37890983
0.23411379 0.06256172 0.37876906
0.40576391 0.06256172 0.37768032
0.53954808 0.06256172 0.37288249
0.66051528 0.06256172 0.35362153
0.77342674 0.06256172 0.17195813
0.88036516 0.06256172 0.06256172
0.91886608 0.06256172 0.06256172
0.91886608 0.06256172 0.06256172
0.06256172 0.23575305 0.37812685
0.19296339 0.22917029 0.37798478
0.40236507 0.06256172 0.37688587
0.53878094 0.06256172 0.37204147
0.66030315 0.06256172 0.35256103
0.77336324 0.06256172 0.15453125
0.88034570 0.06256172 0.06256172
0.91886608 0.06256172 0.06256172
0.91886608 0.06256172 0.06256172
0.06256172 0.37930038 0.37186078
0.06256172 0.37833420 0.37170779
0.37052364 0.37052364 0.37052364
0.53267060 0.32533187 0.36528751
0.65865819 0.06256172 0.34392773
0.77287419 0.06256172 0.06256172
0.88019614 0.06256172 0.06256172
0.91886608 0.06256172 0.06256172
0.91886608 0.06256172 0.06256172
0.06256172 0.50675317 0.33820946
0.06256172 0.50652251 0.33797959
0.06256172 0.50473198 0.33619242
0.50094465 0.49669571 0.32810743
0.65131657 0.46143230 0.29086801
0.77076288 0.06256172 0.06256172
0.87955663 0.06256172 0.06256172
0.91886608 0.06256172 0.06256172
0.91886608 0.06256172 0.06256172
0.06256172 0.62537929 0.06256172
0.06256172 0.62531415 0.06256172
0.06256172 0.62481248 0.06256172
0.06256172 0.62264661 0.06256172
0.62006375 0.61468269 0.06256172
0.76300106 0.58343275 0.06256172
0.87729015 0.06256172 0.06256172
0.91886608 0.06256172 0.06256172
0.91886608 0.06256172 0.06256172
0.06256172 0.73778600 0.06256172
0.06256172 0.73776625 0.06256172
0.06256172 0.73761447 0.06256172
0.06256172 0.73696557 0.06256172
0.06256172 0.73466742 0.06256172
0.73260286 0.72690256 0.06256172
0.86961414 0.69756474 0.06256172
0.91886608 0.06256172 0.06256172
0.91886608 0.06256172 0.06256172
0.06256172 0.84538688 0.06256172
0.06256172 0.84538077 0.06256172
0.06256172 0.84533384 0.06256172
0.06256172 0.84513379 0.06256172
0.06256172 0.84443288 0.06256172
0.06256172 0.84215068 0.06256172
0.84034309 0.83465501 0.06256172
0.91886608 0.80606333 0.06256172
0.91886608 0.06256172 0.06256172
0.06256172 0.91886608 0.06256172
0.06256172 0.91886608 0.06256172
0.06256172 0.91886608 0.06256172
0.06256172 0.91886608 0.06256172
0.06256172 0.91886608 0.06256172
0.06256172 0.91886608 0.06256172
0.06256172 0.91886608 0.06256172
0.91886608 0.91886608 0.06256172
0.91886608 0.91000932 0.06256172
0.06256172 0.91886608 0.06256172
0.06256172 0.91886608 0.06256172
0.06256172 0.91886608 0.06256172
0.06256172 0.91886608 0.06256172
0.06256172 0.91886608 0.06256172
0.06256172 0.91886608 0.06256172
0.06256172 0.91886608 0.06256172
0.06256172 0.91886608 0.06256172
0.91886608 0.91886608 0.06256172
0.06256172 0.06256172 0.50579811
0.06256172 0.06256172 0.50576418
0.39108108 0.06256172 0.50550326
0.53639969 0.06256172 0.50438422
0.65965269 0.06256172 0.50037342
0.77316915 0.06256172 0.48621070
0.88028628 0.06256172 0.41863636
0.91886608 0.06256172 0.06256172
0.91886608 0.06256172 0.06256172
0.06256172 0.22034707 0.50560996
0.06256172 0.21186011 0.50557596
0.38703797 0.06256172 0.50531451
0.53560616 0.06256172 0.50419317
0.65943861 0.06256172 0.50017388
0.77310548 0.06256172 0.48597791
0.88026681 0.06256172 0.41814243
0.91886608 0.06256172 0.06256172
0.91886608 0.06256172 0.06256172
0.06256172 0.37716868 0.50415232
0.06256172 0.37617778 0.50411778
0.34716847 0.36815545 0.50385216
0.52927713 0.32117360 0.50271282
0.65777841 0.06256172 0.49862712
0.77261506 0.06256172 0.48417041
0.88011712 0.06256172 0.41425431
0.91886608 0.06256172 0.06256172
0.91886608 0.06256172 0.06256172
0.06256172 0.50624699 0.49767612
0.06256172 0.50601507 0.49763908
0.06256172 0.50421459 0.49735412
0.49613109 0.49613109 0.49613109
0.65036539 0.46060057 0.49173562
0.77049775 0.06256172 0.47604974
0.87947702 0.06256172 0.39544190
0.91886608 0.06256172 0.06256172
0.91886608 0.06256172 0.06256172
0.06256172 0.62523650 0.47068109
0.06256172 0.62517126 0.47063135
0.06256172 0.62466883 0.47024849
0.06256172 0.62249963 0.46860037
0.61873759 0.61452279 0.46260893
0.76271271 0.58321007 0.44021055
0.87720847 0.06256172 0.20716994
0.91886608 0.06256172 0.06256172
0.91886608 0.06256172 0.06256172
0.06256172 0.73774272 0.06256172
0.06256172 0.73772297 0.06256172
0.06256172 0.73757111 0.06256172
0.06256172 0.73692191 0.06256172
0.06256172 0.73462267 0.06256172
0.73220294 0.72685394 0.06256172
0.86952506 0.69749827 0.06256172
0.91886608 0.06256172 0.06256172
0.91886608 0.06256172 0.06256172
0.06256172 0.84537349 0.06256172
0.06256172 0.84536738 0.06256172
0.06256172 0.84532044 0.06256172
0.06256172 0.84512037 0.06256172
0.06256172 0.84441935 0.06256172
0.06256172 0.84213680 0.06256172
0.84021946 0.83463992 0.06256172
0.91886608 0.80604266 0.06256172
0.91886608 0.06256172 0.06256172
0.06256172 0.91886608 0.06256172
0.06256172 0.91886608 0.06256172
0.06256172 0.91886608 0.06256172
0.06256172 0.91886608 0.06256172
0.06256172 0.91886608 0.06256172
0.06256172 0.91886608 0.06256172
0.06256172 0.91886608 0.06256172
0.91886608 0.91886608 0.06256172
0.91886608 0.91000288 0.06256172
0.06256172 0.91886608 0.06256172
0.06256172 0.91886608 0.06256172
0.06256172 0.91886608 0.06256172
0.06256172 0.91886608 0.06256172
0.06256172 0.91886608 0.06256172
0.06256172 0.91886608 0.06256172
0.06256172 0.91886608 0.06256172
0.06256172 0.91886608 0.06256172
0.91886608 0.91886608 0.06256172
0.06256172 0.06256172 0.62425990
0.06256172 0.06256172 0.62425029
0.29890607 0.06256172 0.62417653
0.52451038 0.06256172 0.62386185
0.65658241 0.06256172 0.62275656
0.77226548 0.06256172 0.61912737
0.88001074 0.06256172 0.60685241
0.91886608 0.06256172 0.55285608
0.91886608 0.06256172 0.06256172
0.06256172 0.06256172 0.62420667
0.06256172 0.06256172 0.62419706
0.28555840 0.06256172 0.62412325
0.52360841 0.06256172 0.62380840
0.65636125 0.06256172 0.62270248
0.77220117 0.06256172 0.61907118
0.87999120 0.06256172 0.60678842
0.91886608 0.06256172 0.55274256
0.91886608 0.06256172 0.06256172
0.06256172 0.36928700 0.62379698
0.06256172 0.36819855 0.62378733
0.06256172 0.35933340 0.62371320
0.51637459 0.30467116 0.62339698
0.65464562 0.06256172 0.62228621
0.77170592 0.06256172 0.61863858
0.87984104 0.06256172 0.60629567
0.91886608 0.06256172 0.55186635
0.91886608 0.06256172 0.06256172
0.06256172 0.50446035 0.62203283
0.06256172 0.50422390 0.62202299
0.06256172 0.50238783 0.62194747
0.47705341 0.49413520 0.62162528
0.64697249 0.45763965 0.62049338
0.76956745 0.06256172 0.61677457
0.87919893 0.06256172 0.60416880
0.91886608 0.06256172 0.54804188
0.91886608 0.06256172 0.06256172
0.06256172 0.62473699 0.61561173
0.06256172 0.62467141 0.61560121
0.06256172 0.62416631 0.61552037
0.06256172 0.62198542 0.61517549
0.61396320 0.61396320 0.61396320
0.76170038 0.58242963 0.60997286
0.87692313 0.06256172 0.59635565
0.91886608 0.06256172 0.53333582
0.91886608 0.06256172 0.06256172
0.06256172 0.73759168 0.59150622
0.06256172 0.73757189 0.59149264
0.06256172 0.73741980 0.59138830
0.06256172 0.73676954 0.59094284
0.06256172 0.73446650 0.58937322
0.73079515 0.72668422 0.58416326
0.86921380 0.69726616 0.56582188
0.91886608 0.06256172 0.45922606
0.91886608 0.06256172 0.06256172
0.06256172 0.84532680 0.35706216
0.06256172 0.84532068 0.35687954
0.06256172 0.84527372 0.35546368
0.06256172 0.84507354 0.34914945
0.06256172 0.84437216 0.32228329
0.06256172 0.84208840 0.06256172
0.83978710 0.83458732 0.06256172
0.91886608 0.80597057 0.06256172
0.91886608 0.06256172 0.06256172
0.06256172 0.91886608 0.06256172
0.06256172 0.91886608 0.06256172
0.06256172 0.91886608 0.06256172
0.06256172 0.91886608 0.06256172
0.06256172 0.91886608 0.06256172
0.06256172 0.91886608 0.06256172
0.06256172 0.91886608 0.06256172
0.91886608 0.91886608 0.06256172
0.91886608 0.90998043 0.06256172
0.06256172 0.91886608 0.06256172
0.06256172 0.91886608 0.06256172
0.06256172 0.91886608 0.06256172
0.06256172 0.91886608 0.06256172
0.06256172 0.91886608 0.06256172
0.06256172 0.91886608 0.06256172
0.06256172 0.91886608 0.06256172
0.06256172 0.91886608 0.06256172
0.91886608 0.91886608 0.06256172
0.06256172 0.06256172 0.73662144
0.06256172 0.06256172 0.73661852
0.06256172 0.06256172 0.73659615
0.47104010 0.06256172 0.73650083
0.64601988 0.06256172 0.73616776
0.76931055 0.06256172 0.73509305
0.87912248 0.06256172 0.73166773
0.91886608 0.06256172 0.72002856
0.91886608 0.06256172 0.66717572
0.06256172 0.06256172 0.73660529
0.06256172 0.06256172 0.73660238
0.06256172 0.06256172 0.73657999
0.46942214 0.06256172 0.73648466
0.64577255 0.06256172 0.73615153
0.76924416 0.06256172 0.73507664
0.87910275 0.06256172 0.73165070
0.91886608 0.06256172 0.72000928
0.91886608 0.06256172 0.66714192
0.06256172 0.33744190 0.73648121
0.06256172 0.33583596 0.73647829
0.06256172 0.32230255 0.73645588
0.45593253 0.18136422 0.73636042
0.64385158 0.06256172 0.73602685
0.76873277 0.06256172 0.73495051
0.87895106 0.06256172 0.73151986
0.91886608 0.06256172 0.71986109
0.91886608 0.06256172 0.66688194
0.06256172 0.49849441 0.73595114
0.06256172 0.49824215 0.73594820
0.06256172 0.49628181 0.73592566
0.34919235 0.48743532 0.73582966
0.63520728 0.44744539 0.73549418
0.76652362 0.06256172 0.73441165
0.87830242 0.06256172 0.73096080
0.91886608 0.06256172 0.71922763
0.91886608 0.06256172 0.66576713
0.06256172 0.62311935 0.73407929
0.06256172 0.62305264 0.73407630
0.06256172 0.62253879 0.73405330
0.06256172 0.62031961 0.73395535
0.59681556 0.61214852 0.73361307
0.75838198 0.57988590 0.73250839
0.87600309 0.06256172 0.72898520
0.91886608 0.06256172 0.71698514
0.91886608 0.06256172 0.66177444
0.06256172 0.73710633 0.72781926
0.06256172 0.73708643 0.72781606
0.06256172 0.73693354 0.72779147
0.06256172 0.73627988 0.72768673
0.06256172 0.73396458 0.72732067
0.72613862 0.72613862 0.72613862
0.86820959 0.69651896 0.72236217
0.91886608 0.06256172 0.70942013
0.91886608 0.06256172 0.64771895
0.06256172 0.84517710 0.70513828
0.06256172 0.84517098 0.70513420
0.06256172 0.84512394 0.70510288
0.06256172 0.84492343 0.70496946
0.06256172 0.84422086 0.70450283
0.06256172 0.84193321 0.70299266
0.83838834 0.83441864 0.69813234
0.91886608 0.80573930 0.68102071
0.91886608 0.06256172 0.58243747
0.06256172 0.91886608 0.52428711
0.06256172 0.91886608 0.52425931
0.06256172 0.91886608 0.52404560
0.06256172 0.91886608 0.52313030
0.06256172 0.91886608 0.51986703
0.06256172 0.91886608 0.50857060
0.06256172 0.91886608 0.46060023
0.91886608 0.91886608 0.06256172
0.91886608 0.90990850 0.06256172
0.06256172 0.91886608 0.06256172
0.06256172 0.91886608 0.06256172
0.06256172 0.91886608 0.06256172
0.06256172 0.91886608 0.06256172
0.06256172 0.91886608 0.06256172
0.06256172 0.91886608 0.06256172
0.06256172 0.91886608 0.06256172
0.06256172 0.91886608 0.06256172
0.91886608 0.91886608 0.06256172
0.06256172 0.06256172 0.84423211
0.06256172 0.06256172 0.84423121
0.06256172 0.06256172 0.84422428
0.06256172 0.06256172 0.84419479
0.60267672 0.06256172 0.84409192
0.75946220 0.06256172 0.84376167
0.87630003 0.06256172 0.84272624
0.91886608 0.06256172 0.83939859
0.91886608 0.06256172 0.82760108
0.06256172 0.06256172 0.84422711
0.06256172 0.06256172 0.84422621
0.06256172 0.06256172 0.84421928
0.06256172 0.06256172 0.84418979
0.60228533 0.06256172 0.84408691
0.75938836 0.06256172 0.84375664
0.87627965 0.06256172 0.84272116
0.91886608 0.06256172 0.83939332
0.91886608 0.06256172 0.82759507
0.06256172 0.06256172 0.84418873
0.06256172 0.06256172 0.84418782
0.06256172 0.06256172 0.84418089
0.06256172 0.06256172 0.84415139
0.59922470 0.06256172 0.84404847
0.75881941 0.06256172 0.84371806
0.87612304 0.06256172 0.84268213
0.91886608 0.06256172 0.83935281
0.91886608 0.06256172 0.82754891
0.06256172 0.47698761 0.84402514
0.06256172 0.47666862 0.84402424
0.06256172 0.47418133 0.84401730
0.06256172 0.46275974 0.84398774
0.58495680 0.40527803 0.84388463
0.75635761 0.06256172 0.84355361
0.87545321 0.06256172 0.84251578
0.91886608 0.06256172 0.83918018
0.91886608 0.06256172 0.82735214
0.06256172 0.61790142 0.84345251
0.06256172 0.61783092 0.84345160
0.06256172 0.61728784 0.84344461
0.06256172 0.61494039 0.84341487
0.50530225 0.60626843 0.84331109
0.74722624 0.57150102 0.84297796
0.87307755 0.06256172 0.84193341
0.91886608 0.06256172 0.83857575
0.91886608 0.06256172 0.82666278
0.06256172 0.73557978 0.84159371
0.06256172 0.73555956 0.84159278
0.06256172 0.73540415 0.84158565
0.06256172 0.73473965 0.84155528
0.06256172 0.73238538 0.84144934
0.70996416 0.72442033 0.84110921
0.86501027 0.69415534 0.84004261
0.91886608 0.06256172 0.83661231
0.91886608 0.06256172 0.82441912
0.06256172 0.84470973 0.83555145
0.06256172 0.84470357 0.83555045
0.06256172 0.84465629 0.83554283
0.06256172 0.84445473 0.83551035
0.06256172 0.84374847 0.83539705
0.06256172 0.84144860 0.83503324
0.83389175 0.83389175 0.83389175
0.91886608 0.80501595 0.83021437
0.91886608 0.06256172 0.81706019
0.06256172 0.91886608 0.81345601
0.06256172 0.91886608 0.81345474
0.06256172 0.91886608 0.81344501
0.06256172 0.91886608 0.81340356
0.06256172 0.91886608 0.81325893
0.06256172 0.91886608 0.81279421
0.06256172 0.91886608 0.81133285
0.91886608 0.91886608 0.80659050
0.91886608 0.90968430 0.78914990
0.06256172 0.91886608 0.61602561
0.06256172 0.91886608 0.61601513
0.06256172 0.91886608 0.61593465
0.06256172 0.91886608 0.61559127
0.06256172 0.91886608 0.61438434
0.06256172 0.91886608 0.61041211
0.06256172 0.91886608 0.59686279
0.06256172 0.91886608 0.53432482
0.91886608 0.91886608 0.06256172
0.06256172 0.06256172 0.91886608
0.06256172 0.06256172 0.91886608
0.06256172 0.06256172 0.91886608
0.06256172 0.06256172 0.91886608
0.06256172 0.06256172 0.91886608
0.71934475 0.06256172 0.91886608
0.86681245 0.06256172 0.91886608
0.91886608 0.06256172 0.91886608
0.91886608 0.06256172 0.91886608
0.06256172 0.06256172 0.91886608
0.06256172 0.06256172 0.91886608
0.06256172 0.06256172 0.91886608
0.06256172 0.06256172 0.91886608
0.06256172 0.06256172 0.91886608
0.71923122 0.06256172 0.91886608
0.86678977 0.06256172 0.91886608
0.91886608 0.06256172 0.91886608
0.91886608 0.06256172 0.91886608
0.06256172 0.06256172 0.91886608
0.06256172 0.06256172 0.91886608
0.06256172 0.06256172 0.91886608
0.06256172 0.06256172 0.91886608
0.06256172 0.06256172 0.91886608
0.71835481 0.06256172 0.91886608
0.86661543 0.06256172 0.91886608
0.91886608 0.06256172 0.91886608
0.91886608 0.06256172 0.91886608
0.06256172 0.30299298 0.91886608
0.06256172 0.30049348 0.91886608
0.06256172 0.27792850 0.91886608
0.06256172 0.06256172 0.91886608
0.06256172 0.06256172 0.91886608
0.71452953 0.06256172 0.91886608
0.86586943 0.06256172 0.91886608
0.91886608 0.06256172 0.91886608
0.91886608 0.06256172 0.91886608
0.06256172 0.59937048 0.91886608
0.06256172 0.59928471 0.91886608
0.06256172 0.59862349 0.91886608
0.06256172 0.59575577 0.91886608
0.06256172 0.58501660 0.91886608
0.69982459 0.53895240 0.91886608
0.86321860 0.06256172 0.91886608
0.91886608 0.06256172 0.91886608
0.91886608 0.06256172 0.91886608
0.06256172 0.73062255 0.91886608
0.06256172 0.73060123 0.91886608
0.06256172 0.73043734 0.91886608
0.06256172 0.72973644 0.91886608
0.06256172 0.72725102 0.91886608
0.62649773 0.71881607 0.91886608
0.85415600 0.68633080 0.91886608
0.91886608 0.06256172 0.91886608
0.91886608 0.06256172 0.91886608
0.06256172 0.84322762 0.91886608
0.06256172 0.84322137 0.91886608
0.06256172 0.84317330 0.91886608
0.06256172 0.84296837 0.91886608
0.06256172 0.84225029 0.91886608
0.06256172 0.83991128 0.91886608
0.81813226 0.83221871 0.91886608
0.91886608 0.80270894 0.91886608
0.91886608 0.06256172 0.91886608
0.06256172 0.91886608 0.91886608
0.06256172 0.91886608 0.91886608
0.06256172 0.91886608 0.91886608
0.06256172 0.91886608 0.91886608
0.06256172 0.91886608 0.91886608
0.06256172 0.91886608 0.91886608
0.06256172 0.91886608 0.91886608
0.91886608 0.91886608 0.91886608
0.91886608 0.90897722 0.91886608
0.06256172 0.91886608 0.91745813
0.06256172 0.91886608 0.91745773
0.06256172 0.91886608 0.91745472
0.06256172 0.91886608 0.91744187
0.06256172 0.91886608 0.91739709
0.06256172 0.91886608 0.91725351
0.06256172 0.91886608 0.91680523
0.06256172 0.91886608 0.91538370
0.91886608 0.91886608 0.91057698
0.06256172 0.06256172 0.91886608
0.06256172 0.06256172 0.91886608
0.06256172 0.06256172 0.91886608
0.06256172 0.06256172 0.91886608
0.06256172 0.06256172 0.91886608
0.06256172 0.06256172 0.91886608
0.82615746 0.06256172 0.91886608
0.91886608 0.06256172 0.91886608
0.91886608 0.06256172 0.91886608
0.06256172 0.06256172 0.91886608
0.06256172 0.06256172 0.91886608
0.06256172 0.06256172 0.91886608
0.06256172 0.06256172 0.91886608
0.06256172 0.06256172 0.91886608
0.06256172 0.06256172 0.91886608
0.82612177 0.06256172 0.91886608
0.91886608 0.06256172 0.91886608
0.91886608 0.06256172 0.91886608
0.06256172 0.06256172 0.91886608
0.06256172 0.06256172 0.91886608
0.06256172 0.06256172 0.91886608
0.06256172 0.06256172 0.91886608
0.06256172 0.06256172 0.91886608
0.06256172 0.06256172 0.91886608
0.82584730 0.06256172 0.91886608
0.91886608 0.06256172 0.91886608
0.91886608 0.06256172 0.91886608
0.06256172 0.06256172 0.91886608
0.06256172 0.06256172 0.91886608
0.06256172 0.06256172 0.91886608
0.06256172 0.06256172 0.91886608
0.06256172 0.06256172 0.91886608
0.06256172 0.06256172 0.91886608
0.82466948 0.06256172 0.91886608
0.91886608 0.06256172 0.91886608
0.91886608 0.06256172 0.91886608
0.06256172 0.48278145 0.91886608
0.06256172 0.48248208 0.91886608
0.06256172 0.48015007 0.91886608
0.06256172 0.46949720 0.91886608
0.06256172 0.41769732 0.91886608
0.06256172 0.06256172 0.91886608
0.82043934 0.06256172 0.91886608
0.91886608 0.06256172 0.91886608
0.91886608 0.06256172 0.91886608
0.06256172 0.71234092 0.91886608
0.06256172 0.71231501 0.91886608
0.06256172 0.71211576 0.91886608
0.06256172 0.71126281 0.91886608
0.06256172 0.70822713 0.91886608
0.06256172 0.69778779 0.91886608
0.80539316 0.65506510 0.91886608
0.91886608 0.06256172 0.91886608
0.91886608 0.06256172 0.91886608
0.06256172 0.83821562 0.91886608
0.06256172 0.83820900 0.91886608
0.06256172 0.83815817 0.91886608
0.06256172 0.83794149 0.91886608
0.06256172 0.83718198 0.91886608
0.06256172 0.83470568 0.91886608
0.73129538 0.82653520 0.91886608
0.91886608 0.79475133 0.91886608
0.91886608 0.06256172 0.91886608
0.06256172 0.91886608 0.91886608
0.06256172 0.91886608 0.91886608
0.06256172 0.91886608 0.91886608
0.06256172 0.91886608 0.91886608
0.06256172 0.91886608 0.91886608
0.06256172 0.91886608 0.91886608
0.06256172 0.91886608 0.91886608
0.91886608 0.91886608 0.91886608
0.91886608 0.90662974 0.91886608
0.06256172 0.91886608 0.91886608
0.06256172 0.91886608 0.91886608
0.06256172 0.91886608 0.91886608
0.06256172 0.91886608 0.91886608
0.06256172 0.91886608 0.91886608
0.06256172 0.91886608 0.91886608
0.06256172 0.91886608 0.91886608
0.06256172 0.91886608 0.91886608
0.91886608 0.91886608 0.91886608
