src/ffmpeg_scripts/luts/rec2020-sRGB_2p33.cube
TITLE "rec2020-srgb_2p33"
LUT_3D_SIZE 33
# PQ (EOTF Only)/Rec2020 -> PQ (EOTF Only)/Rec709, CineEI Shift 2.33, Black Level 0.00% IRE, Input 100% -> Output 109% - Created with LUTCalc v4.01 by Ben Turley October 2020
0.06256172 0.06256172 0.06256172
0.13059547 0.06256172 0.06256172
0.18360644 0.06256172 0.06256172
0.23083049 0.06256172 0.06256172
0.27442876 0.06256172 0.06256172
0.31541426 0.06256172 0.06256172
0.35437404 0.06256172 0.06256172
0.39168980 0.06256172 0.06256172
0.42762869 0.06256172 0.06256172
0.46238760 0.06256172 0.06256172
0.49611727 0.06256172 0.06256172
0.52893656 0.06256172 0.06256172
0.56094146 0.06256172 0.06256172
0.59221097 0.06256172 0.06256172
0.62281118 0.06256172 0.06256172
0.65279811 0.06256172 0.06256172
0.68221981 0.06256172 0.06256172
0.71111791 0.06256172 0.06256172
0.73952879 0.06256172 0.06256172
0.76748451 0.06256172 0.06256172
0.79501351 0.06256172 0.06256172
0.82214116 0.06256172 0.06256172
0.84889022 0.06256172 0.06256172
0.87528126 0.06256172 0.06256172
0.90133287 0.06256172 0.06256172
0.91886608 0.06256172 0.06256172
0.91886608 0.06256172 0.06256172
0.91886608 0.06256172 0.06256172
0.91886608 0.06256172 0.06256172
0.91886608 0.06256172 0.06256172
0.91886608 0.06256172 0.06256172
0.91886608 0.06256172 0.06256172
0.91886608 0.06256172 0.06256172
0.06256172 0.12076144 0.06256172
0.11945703 0.11800035 0.06256172
0.18033954 0.10530194 0.06256172
0.22935938 0.06256172 0.06256172
0.27364883 0.06256172 0.06256172
0.31496128 0.06256172 0.06256172
0.35409492 0.06256172 0.06256172
0.39151049 0.06256172 0.06256172
0.42750989 0.06256172 0.06256172
0.46230700 0.06256172 0.06256172
0.49606154 0.06256172 0.06256172
0.52889745 0.06256172 0.06256172
0.56091368 0.06256172 0.06256172
0.59219104 0.06256172 0.06256172
0.62279676 0.06256172 0.06256172
0.65278761 0.06256172 0.06256172
0.68221212 0.06256172 0.06256172
0.71111225 0.06256172 0.06256172
0.73952461 0.06256172 0.06256172
0.76748142 0.06256172 0.06256172
0.79501122 0.06256172 0.06256172
0.82213945 0.06256172 0.06256172
0.84888896 0.06256172 0.06256172
0.87528031 0.06256172 0.06256172
0.90133217 0.06256172 0.06256172
0.91886608 0.06256172 0.06256172
0.91886608 0.06256172 0.06256172
0.91886608 0.06256172 0.06256172
0.91886608 0.06256172 0.06256172
0.91886608 0.06256172 0.06256172
0.91886608 0.06256172 0.06256172
0.91886608 0.06256172 0.06256172
0.91886608 0.06256172 0.06256172
0.06256172 0.16833023 0.06256172
0.06256172 0.16742744 0.06256172
0.16627305 0.16396657 0.06256172
0.22365034 0.15540080 0.06256172
0.27070971 0.13373391 0.06256172
0.31327440 0.06256172 0.06256172
0.35306139 0.06256172 0.06256172
0.39084858 0.06256172 0.06256172
0.42707211 0.06256172 0.06256172
0.46201028 0.06256172 0.06256172
0.49585656 0.06256172 0.06256172
0.52875366 0.06256172 0.06256172
0.56081156 0.06256172 0.06256172
0.59211778 0.06256172 0.06256172
0.62274377 0.06256172 0.06256172
0.65274902 0.06256172 0.06256172
0.68218386 0.06256172 0.06256172
0.71109146 0.06256172 0.06256172
0.73950927 0.06256172 0.06256172
0.76747006 0.06256172 0.06256172
0.79500279 0.06256172 0.06256172
0.82213320 0.06256172 0.06256172
0.84888431 0.06256172 0.06256172
0.87527686 0.06256172 0.06256172
0.90132960 0.06256172 0.06256172
0.91886608 0.06256172 0.06256172
0.91886608 0.06256172 0.06256172
0.91886608 0.06256172 0.06256172
0.91886608 0.06256172 0.06256172
0.91886608 0.06256172 0.06256172
0.91886608 0.06256172 0.06256172
0.91886608 0.06256172 0.06256172
0.91886608 0.06256172 0.06256172
0.06256172 0.21158211 0.06256172
0.06256172 0.21116358 0.06256172
0.09374198 0.20960125 0.06256172
0.20896554 0.20602454 0.06256172
0.26380372 0.19882896 0.06256172
0.30943796 0.18433692 0.06256172
0.35074590 0.14827012 0.06256172
0.38937726 0.06256172 0.06256172
0.42610331 0.06256172 0.06256172
0.46135542 0.06256172 0.06256172
0.49540491 0.06256172 0.06256172
0.52843719 0.06256172 0.06256172
0.56058697 0.06256172 0.06256172
0.59195675 0.06256172 0.06256172
0.62262733 0.06256172 0.06256172
0.65266424 0.06256172 0.06256172
0.68212179 0.06256172 0.06256172
0.71104581 0.06256172 0.06256172
0.73947557 0.06256172 0.06256172
0.76744512 0.06256172 0.06256172
0.79498429 0.06256172 0.06256172
0.82211946 0.06256172 0.06256172
0.84887409 0.06256172 0.06256172
0.87526926 0.06256172 0.06256172
0.90132396 0.06256172 0.06256172
0.91886608 0.06256172 0.06256172
0.91886608 0.06256172 0.06256172
0.91886608 0.06256172 0.06256172
0.91886608 0.06256172 0.06256172
0.91886608 0.06256172 0.06256172
0.91886608 0.06256172 0.06256172
0.91886608 0.06256172 0.06256172
0.91886608 0.06256172 0.06256172
0.06256172 0.25207056 0.06256172
0.06256172 0.25184510 0.06256172
0.06256172 0.25101049 0.06256172
0.16573617 0.24914204 0.06256172
0.24901022 0.24556408 0.06256172
0.30183816 0.23911011 0.06256172
0.34630548 0.22743926 0.06256172
0.38660114 0.20431113 0.06256172
0.42429178 0.12667164 0.06256172
0.46013747 0.06256172 0.06256172
0.49456771 0.06256172 0.06256172
0.52785182 0.06256172 0.06256172
0.56017215 0.06256172 0.06256172
0.59165961 0.06256172 0.06256172
0.62241262 0.06256172 0.06256172
0.65250799 0.06256172 0.06256172
0.68200742 0.06256172 0.06256172
0.71096172 0.06256172 0.06256172
0.73941351 0.06256172 0.06256172
0.76739919 0.06256172 0.06256172
0.79495023 0.06256172 0.06256172
0.82209416 0.06256172 0.06256172
0.84885529 0.06256172 0.06256172
0.87525529 0.06256172 0.06256172
0.90131357 0.06256172 0.06256172
0.91886608 0.06256172 0.06256172
0.91886608 0.06256172 0.06256172
0.91886608 0.06256172 0.06256172
0.91886608 0.06256172 0.06256172
0.91886608 0.06256172 0.06256172
0.91886608 0.06256172 0.06256172
0.91886608 0.06256172 0.06256172
0.91886608 0.06256172 0.06256172
0.06256172 0.29053796 0.06256172
0.06256172 0.29040554 0.06256172
0.06256172 0.28991709 0.06256172
0.06256172 0.28883344 0.06256172
0.21336266 0.28679680 0.06256172
0.28711425 0.28325330 0.06256172
0.33827529 0.27728317 0.06256172
0.38173590 0.26717638 0.06256172
0.42116951 0.24906848 0.06256172
0.45805846 0.20960231 0.06256172
0.49314710 0.06256172 0.06256172
0.52686232 0.06256172 0.06256172
0.55947271 0.06256172 0.06256172
0.59115943 0.06256172 0.06256172
0.62205163 0.06256172 0.06256172
0.65224550 0.06256172 0.06256172
0.68181542 0.06256172 0.06256172
0.71082059 0.06256172 0.06256172
0.73930939 0.06256172 0.06256172
0.76732215 0.06256172 0.06256172
0.79489311 0.06256172 0.06256172
0.82205174 0.06256172 0.06256172
0.84882377 0.06256172 0.06256172
0.87523185 0.06256172 0.06256172
0.90129616 0.06256172 0.06256172
0.91886608 0.06256172 0.06256172
0.91886608 0.06256172 0.06256172
0.91886608 0.06256172 0.06256172
0.91886608 0.06256172 0.06256172
0.91886608 0.06256172 0.06256172
0.91886608 0.06256172 0.06256172
0.91886608 0.06256172 0.06256172
0.91886608 0.06256172 0.06256172
0.06256172 0.32742039 0.06256172
0.06256172 0.32733808 0.06256172
0.06256172 0.32703500 0.06256172
0.06256172 0.32636552 0.06256172
0.06256172 0.32511828 0.06256172
0.25547579 0.32298283 0.06256172
0.32369385 0.31948627 0.06256172
0.37343094 0.31386511 0.06256172
0.41599805 0.30476911 0.06256172
0.45467214 0.28942550 0.06256172
0.49085632 0.26028298 0.06256172
0.52527681 0.16542292 0.06256172
0.55835661 0.06256172 0.06256172
0.59036354 0.06256172 0.06256172
0.62147830 0.06256172 0.06256172
0.65182919 0.06256172 0.06256172
0.68151118 0.06256172 0.06256172
0.71059713 0.06256172 0.06256172
0.73914461 0.06256172 0.06256172
0.76720027 0.06256172 0.06256172
0.79480276 0.06256172 0.06256172
0.82198466 0.06256172 0.06256172
0.84877392 0.06256172 0.06256172
0.87519480 0.06256172 0.06256172
0.90126863 0.06256172 0.06256172
0.91886608 0.06256172 0.06256172
0.91886608 0.06256172 0.06256172
0.91886608 0.06256172 0.06256172
0.91886608 0.06256172 0.06256172
0.91886608 0.06256172 0.06256172
0.91886608 0.06256172 0.06256172
0.91886608 0.06256172 0.06256172
0.91886608 0.06256172 0.06256172
0.06256172 0.36300440 0.06256172
0.06256172 0.36295115 0.06256172
0.06256172 0.36275522 0.06256172
0.06256172 0.36232346 0.06256172
0.06256172 0.36152280 0.06256172
0.06256172 0.36016328 0.06256172
0.29464181 0.35796845 0.06256172
0.35902293 0.35452279 0.06256172
0.40751761 0.34916956 0.06256172
0.44927737 0.34078754 0.06256172
0.48726708 0.32721429 0.06256172
0.52281793 0.30328685 0.06256172
0.55663713 0.24880049 0.06256172
0.58914277 0.06256172 0.06256172
0.62060157 0.06256172 0.06256172
0.65119389 0.06256172 0.06256172
0.68104760 0.06256172 0.06256172
0.71025701 0.06256172 0.06256172
0.73889400 0.06256172 0.06256172
0.76701501 0.06256172 0.06256172
0.79466548 0.06256172 0.06256172
0.82188277 0.06256172 0.06256172
0.84869823 0.06256172 0.06256172
0.87513855 0.06256172 0.06256172
0.90122683 0.06256172 0.06256172
0.91886608 0.06256172 0.06256172
0.91886608 0.06256172 0.06256172
0.91886608 0.06256172 0.06256172
0.91886608 0.06256172 0.06256172
0.91886608 0.06256172 0.06256172
0.91886608 0.06256172 0.06256172
0.91886608 0.06256172 0.06256172
0.91886608 0.06256172 0.06256172
0.06256172 0.39749230 0.06256172
0.06256172 0.39745680 0.06256172
0.06256172 0.39732626 0.06256172
0.06256172 0.39703896 0.06256172
0.06256172 0.39650761 0.06256172
0.06256172 0.39560958 0.06256172
0.20184936 0.39417104 0.06256172
0.33181966 0.39194111 0.06256172
0.39329511 0.38854680 0.06256172
0.44068834 0.38340819 0.06256172
0.48170936 0.37556070 0.06256172
0.51907265 0.36322423 0.06256172
0.55404507 0.34249233 0.06256172
0.58731499 0.30121177 0.06256172
0.61929491 0.06256172 0.06256172
0.65025008 0.06256172 0.06256172
0.68036045 0.06256172 0.06256172
0.70975365 0.06256172 0.06256172
0.73852354 0.06256172 0.06256172
0.76674139 0.06256172 0.06256172
0.79446286 0.06256172 0.06256172
0.82173246 0.06256172 0.06256172
0.84858660 0.06256172 0.06256172
0.87505562 0.06256172 0.06256172
0.90116523 0.06256172 0.06256172
0.91886608 0.06256172 0.06256172
0.91886608 0.06256172 0.06256172
0.91886608 0.06256172 0.06256172
0.91886608 0.06256172 0.06256172
0.91886608 0.06256172 0.06256172
0.91886608 0.06256172 0.06256172
0.91886608 0.06256172 0.06256172
0.91886608 0.06256172 0.06256172
0.06256172 0.43103432 0.06256172
0.06256172 0.43101010 0.06256172
0.06256172 0.43092107 0.06256172
0.06256172 0.43072531 0.06256172
0.06256172 0.43036383 0.06256172
0.06256172 0.42975460 0.06256172
0.06256172 0.42878319 0.06256172
0.26082837 0.42728840 0.06256172
0.36749953 0.42503919 0.06256172
0.42665433 0.42169515 0.06256172
0.47305870 0.41673380 0.06256172
0.51339735 0.40930316 0.06256172
0.55018056 0.39788106 0.06256172
0.58461816 0.37931666 0.06256172
0.61738033 0.34503392 0.06256172
0.64887371 0.24172772 0.06256172
0.67936171 0.06256172 0.06256172
0.70902378 0.06256172 0.06256172
0.73798728 0.06256172 0.06256172
0.76634580 0.06256172 0.06256172
0.79417018 0.06256172 0.06256172
0.82151548 0.06256172 0.06256172
0.84842554 0.06256172 0.06256172
0.87493600 0.06256172 0.06256172
0.90107640 0.06256172 0.06256172
0.91886608 0.06256172 0.06256172
0.91886608 0.06256172 0.06256172
0.91886608 0.06256172 0.06256172
0.91886608 0.06256172 0.06256172
0.91886608 0.06256172 0.06256172
0.91886608 0.06256172 0.06256172
0.91886608 0.06256172 0.06256172
0.91886608 0.06256172 0.06256172
0.06256172 0.46374619 0.06256172
0.06256172 0.46372937 0.06256172
0.06256172 0.46366754 0.06256172
0.06256172 0.46353165 0.06256172
0.06256172 0.46328097 0.06256172
0.06256172 0.46285922 0.06256172
0.06256172 0.46218869 0.06256172
0.06256172 0.46116156 0.06256172
0.30726382 0.45962676 0.06256172
0.40197747 0.45736904 0.06256172
0.45921159 0.45407355 0.06256172
0.50471910 0.44926199 0.06256172
0.54442267 0.44216633 0.06256172
0.58066392 0.43144751 0.06256172
0.61460219 0.41444907 0.06256172
0.64689056 0.38455088 0.06256172
0.67792965 0.31310908 0.06256172
0.70798084 0.06256172 0.06256172
0.73722290 0.06256172 0.06256172
0.76578294 0.06256172 0.06256172
0.79375429 0.06256172 0.06256172
0.82120746 0.06256172 0.06256172
0.84819707 0.06256172 0.06256172
0.87476642 0.06256172 0.06256172
0.90095051 0.06256172 0.06256172
0.91886608 0.06256172 0.06256172
0.91886608 0.06256172 0.06256172
0.91886608 0.06256172 0.06256172
0.91886608 0.06256172 0.06256172
0.91886608 0.06256172 0.06256172
0.91886608 0.06256172 0.06256172
0.91886608 0.06256172 0.06256172
0.91886608 0.06256172 0.06256172
0.06256172 0.49571976 0.06256172
0.06256172 0.49570790 0.06256172
0.06256172 0.49566433 0.06256172
0.06256172 0.49556859 0.06256172
0.06256172 0.49539209 0.06256172
0.06256172 0.49509549 0.06256172
0.06256172 0.49462480 0.06256172
0.06256172 0.49390587 0.06256172
0.06256172 0.49283637 0.06256172
0.34841316 0.49127352 0.06256172
0.43545163 0.48901485 0.06256172
0.49105503 0.48576598 0.06256172
0.53574221 0.48108328 0.06256172
0.57485104 0.47426297 0.06256172
0.61058230 0.46410088 0.06256172
0.64405075 0.44828297 0.06256172
0.67589353 0.42138990 0.06256172
0.70650532 0.36396177 0.06256172
0.73614530 0.06256172 0.06256172
0.76499146 0.06256172 0.06256172
0.79317057 0.06256172 0.06256172
0.82077573 0.06256172 0.06256172
0.84787717 0.06256172 0.06256172
0.87452914 0.06256172 0.06256172
0.90077448 0.06256172 0.06256172
0.91886608 0.06256172 0.06256172
0.91886608 0.06256172 0.06256172
0.91886608 0.06256172 0.06256172
0.91886608 0.06256172 0.06256172
0.91886608 0.06256172 0.06256172
0.91886608 0.06256172 0.06256172
0.91886608 0.06256172 0.06256172
0.91886608 0.06256172 0.06256172
0.06256172 0.52702955 0.06256172
0.06256172 0.52702109 0.06256172
0.06256172 0.52699001 0.06256172
0.06256172 0.52692175 0.06256172
0.06256172 0.52679596 0.06256172
0.06256172 0.52658472 0.06256172
0.06256172 0.52624992 0.06256172
0.06256172 0.52573954 0.06256172
0.06256172 0.52498247 0.06256172
0.06256172 0.52388095 0.06256172
0.38649510 0.52229911 0.06256172
0.46806412 0.52004496 0.06256172
0.52225625 0.51684072 0.06256172
0.56618769 0.51227045 0.06256172
0.60473660 0.50568048 0.06256172
0.63998515 0.49596865 0.06256172
0.67300871 0.48106772 0.06256172
0.70442970 0.45635178 0.06256172
0.73463705 0.40705017 0.06256172
0.76388767 0.06256172 0.06256172
0.79235865 0.06256172 0.06256172
0.82017637 0.06256172 0.06256172
0.84743368 0.06256172 0.06256172
0.87420055 0.06256172 0.06256172
0.90053089 0.06256172 0.06256172
0.91886608 0.06256172 0.06256172
0.91886608 0.06256172 0.06256172
0.91886608 0.06256172 0.06256172
0.91886608 0.06256172 0.06256172
0.91886608 0.06256172 0.06256172
0.91886608 0.06256172 0.06256172
0.91886608 0.06256172 0.06256172
0.91886608 0.06256172 0.06256172
0.06256172 0.55773720 0.06256172
0.06256172 0.55773111 0.06256172
0.06256172 0.55770873 0.06256172
0.06256172 0.55765958 0.06256172
0.06256172 0.55756903 0.06256172
0.06256172 0.55741706 0.06256172
0.06256172 0.55717639 0.06256172
0.06256172 0.55680998 0.06256172
0.06256172 0.55626754 0.06256172
0.06256172 0.55548059 0.06256172
0.06256172 0.55435525 0.06256172
0.42250043 0.55276142 0.06256172
0.49992197 0.55051585 0.06256172
0.55287449 0.54735433 0.06256172
0.59610541 0.54288328 0.06256172
0.63412477 0.53648864 0.06256172
0.66891415 0.52714685 0.06256172
0.70151414 0.51297353 0.06256172
0.73253368 0.48989334 0.06256172
0.76235618 0.44589929 0.06256172
0.79123627 0.26722666 0.06256172
0.81935005 0.06256172 0.06256172
0.84682347 0.06256172 0.06256172
0.87374908 0.06256172 0.06256172
0.90019658 0.06256172 0.06256172
0.91886608 0.06256172 0.06256172
0.91886608 0.06256172 0.06256172
0.91886608 0.06256172 0.06256172
0.91886608 0.06256172 0.06256172
0.91886608 0.06256172 0.06256172
0.91886608 0.06256172 0.06256172
0.91886608 0.06256172 0.06256172
0.91886608 0.06256172 0.06256172
0.06256172 0.58789450 0.06256172
0.06256172 0.58789008 0.06256172
0.06256172 0.58787383 0.06256172
0.06256172 0.58783816 0.06256172
0.06256172 0.58777245 0.06256172
0.06256172 0.58766221 0.06256172
0.06256172 0.58748773 0.06256172
0.06256172 0.58722232 0.06256172
0.06256172 0.58682995 0.06256172
0.06256172 0.58626184 0.06256172
0.06256172 0.58545177 0.06256172
0.06256172 0.58430921 0.06256172
0.45696477 0.58270894 0.06256172
0.53110879 0.58047499 0.06256172
0.58295955 0.57735439 0.06256172
0.62553764 0.57297170 0.06256172
0.66305414 0.56674450 0.06256172
0.69740486 0.55771044 0.06256172
0.72959973 0.54412311 0.06256172
0.76023537 0.52230180 0.06256172
0.78968998 0.48200840 0.06256172
0.81821589 0.35811106 0.06256172
0.84598822 0.06256172 0.06256172
0.87313237 0.06256172 0.06256172
0.89974059 0.06256172 0.06256172
0.91886608 0.06256172 0.06256172
0.91886608 0.06256172 0.06256172
0.91886608 0.06256172 0.06256172
0.91886608 0.06256172 0.06256172
0.91886608 0.06256172 0.06256172
0.91886608 0.06256172 0.06256172
0.91886608 0.06256172 0.06256172
0.91886608 0.06256172 0.06256172
0.06256172 0.61754553 0.06256172
0.06256172 0.61754230 0.06256172
0.06256172 0.61753043 0.06256172
0.06256172 0.61750436 0.06256172
0.06256172 0.61745636 0.06256172
0.06256172 0.61737585 0.06256172
0.06256172 0.61724848 0.06256172
0.06256172 0.61705486 0.06256172
0.06256172 0.61676888 0.06256172
0.06256172 0.61635538 0.06256172
0.06256172 0.61576697 0.06256172
0.06256172 0.61493941 0.06256172
0.29167181 0.61378503 0.06256172
0.49021446 0.61218277 0.06256172
0.56169176 0.60996281 0.06256172
0.61255387 0.60688145 0.06256172
0.65452069 0.60257806 0.06256172
0.69155791 0.59649557 0.06256172
0.72548802 0.58771956 0.06256172
0.75729384 0.57460874 0.06256172
0.78756085 0.55377074 0.06256172
0.81666234 0.51615753 0.06256172
0.84484842 0.41425019 0.06256172
0.87229313 0.06256172 0.06256172
0.89912134 0.06256172 0.06256172
0.91886608 0.06256172 0.06256172
0.91886608 0.06256172 0.06256172
0.91886608 0.06256172 0.06256172
0.91886608 0.06256172 0.06256172
0.91886608 0.06256172 0.06256172
0.91886608 0.06256172 0.06256172
0.91886608 0.06256172 0.06256172
0.91886608 0.06256172 0.06256172
0.06256172 0.64672823 0.06256172
0.06256172 0.64672586 0.06256172
0.06256172 0.64671714 0.06256172
0.06256172 0.64669799 0.06256172
0.06256172 0.64666274 0.06256172
0.06256172 0.64660362 0.06256172
0.06256172 0.64651012 0.06256172
0.06256172 0.64636805 0.06256172
0.06256172 0.64615835 0.06256172
0.06256172 0.64585546 0.06256172
0.06256172 0.64542504 0.06256172
0.06256172 0.64482090 0.06256172
0.06256172 0.64398057 0.06256172
0.35864153 0.64281886 0.06256172
0.52246540 0.64121827 0.06256172
0.59172606 0.63901413 0.06256172
0.64169398 0.63597046 0.06256172
0.68308603 0.63173870 0.06256172
0.71966495 0.62578203 0.06256172
0.75319037 0.61722357 0.06256172
0.78462127 0.60450211 0.06256172
0.81453303 0.58443753 0.06256172
0.84329438 0.54880457 0.06256172
0.87115325 0.45917330 0.06256172
0.89828263 0.06256172 0.06256172
0.91886608 0.06256172 0.06256172
0.91886608 0.06256172 0.06256172
0.91886608 0.06256172 0.06256172
0.91886608 0.06256172 0.06256172
0.91886608 0.06256172 0.06256172
0.91886608 0.06256172 0.06256172
0.91886608 0.06256172 0.06256172
0.91886608 0.06256172 0.06256172
0.06256172 0.67547561 0.06256172
0.06256172 0.67547386 0.06256172
0.06256172 0.67546743 0.06256172
0.06256172 0.67545330 0.06256172
0.06256172 0.67542730 0.06256172
0.06256172 0.67538370 0.06256172
0.06256172 0.67531475 0.06256172
0.06256172 0.67521003 0.06256172
0.06256172 0.67505553 0.06256172
0.06256172 0.67483252 0.06256172
0.06256172 0.67451595 0.06256172
0.06256172 0.67407225 0.06256172
0.06256172 0.67345633 0.06256172
0.06256172 0.67260724 0.06256172
0.40854367 0.67144198 0.06256172
0.55386937 0.66984609 0.06256172
0.62125781 0.66765925 0.06256172
0.67041168 0.66465185 0.06256172
0.71126122 0.66048512 0.06256172
0.74740056 0.65463833 0.06256172
0.78053544 0.64626367 0.06256172
0.81160389 0.63386038 0.06256172
0.84117219 0.61440355 0.06256172
0.86960484 0.58024067 0.06256172
0.89714771 0.49824898 0.06256172
0.91886608 0.06256172 0.06256172
0.91886608 0.06256172 0.06256172
0.91886608 0.06256172 0.06256172
0.91886608 0.06256172 0.06256172
0.91886608 0.06256172 0.06256172
0.91886608 0.06256172 0.06256172
0.91886608 0.06256172 0.06256172
0.91886608 0.06256172 0.06256172
0.06256172 0.70381660 0.06256172
0.06256172 0.70381530 0.06256172
0.06256172 0.70381054 0.06256172
0.06256172 0.70380009 0.06256172
0.06256172 0.70378084 0.06256172
0.06256172 0.70374858 0.06256172
0.06256172 0.70369756 0.06256172
0.06256172 0.70362008 0.06256172
0.06256172 0.70350583 0.06256172
0.06256172 0.70334099 0.06256172
0.06256172 0.70310717 0.06256172
0.06256172 0.70277979 0.06256172
0.06256172 0.70232600 0.06256172
0.06256172 0.70170170 0.06256172
0.06256172 0.70084732 0.06256172
0.45113434 0.69968173 0.06256172
0.58453809 0.69809310 0.06256172
0.65032618 0.69592475 0.06256172
0.69873485 0.69295232 0.06256172
0.73907058 0.68884490 0.06256172
0.77478710 0.68309430 0.06256172
0.80754404 0.67487478 0.06256172
0.83826109 0.66273009 0.06256172
0.86749636 0.64374593 0.06256172
0.89561048 0.61066149 0.06256172
0.91886608 0.53359255 0.06256172
0.91886608 0.06256172 0.06256172
0.91886608 0.06256172 0.06256172
0.91886608 0.06256172 0.06256172
0.91886608 0.06256172 0.06256172
0.91886608 0.06256172 0.06256172
0.91886608 0.06256172 0.06256172
0.91886608 0.06256172 0.06256172
0.06256172 0.73177678 0.06256172
0.06256172 0.73177581 0.06256172
0.06256172 0.73177228 0.06256172
0.06256172 0.73176452 0.06256172
0.06256172 0.73175024 0.06256172
0.06256172 0.73172630 0.06256172
0.06256172 0.73168844 0.06256172
0.06256172 0.73163097 0.06256172
0.06256172 0.73154623 0.06256172
0.06256172 0.73142403 0.06256172
0.06256172 0.73125078 0.06256172
0.06256172 0.73100839 0.06256172
0.06256172 0.73067276 0.06256172
0.06256172 0.73021169 0.06256172
0.06256172 0.72958199 0.06256172
0.06256172 0.72872531 0.06256172
0.48953169 0.72756219 0.06256172
0.61455677 0.72598301 0.06256172
0.67896479 0.72383415 0.06256172
0.72668817 0.72089551 0.06256172
0.76653571 0.71684235 0.06256172
0.80184446 0.71117602 0.06256172
0.83423472 0.70308686 0.06256172
0.86461018 0.69114974 0.06256172
0.89352170 0.67252468 0.06256172
0.91886608 0.64020351 0.06256172
0.91886608 0.56623875 0.06256172
0.91886608 0.06256172 0.06256172
0.91886608 0.06256172 0.06256172
0.91886608 0.06256172 0.06256172
0.91886608 0.06256172 0.06256172
0.91886608 0.06256172 0.06256172
0.91886608 0.06256172 0.06256172
0.06256172 0.75937888 0.06256172
0.06256172 0.75937817 0.06256172
0.06256172 0.75937554 0.06256172
0.06256172 0.75936977 0.06256172
0.06256172 0.75935915 0.06256172
0.06256172 0.75934135 0.06256172
0.06256172 0.75931321 0.06256172
0.06256172 0.75927049 0.06256172
0.06256172 0.75920751 0.06256172
0.06256172 0.75911672 0.06256172
0.06256172 0.75898805 0.06256172
0.06256172 0.75880813 0.06256172
0.06256172 0.75855920 0.06256172
0.06256172 0.75821761 0.06256172
0.06256172 0.75775176 0.06256172
0.06256172 0.75711929 0.06256172
0.06256172 0.75626295 0.06256172
0.52514170 0.75510472 0.06256172
0.64399224 0.75353690 0.06256172
0.70720284 0.75140837 0.06256172
0.75429357 0.74850244 0.06256172
0.79367593 0.74449908 0.06256172
0.82859045 0.73890650 0.06256172
0.86062407 0.73092588 0.06256172
0.89066668 0.71915164 0.06256172
0.91886608 0.70078727 0.06256172
0.91886608 0.66896402 0.06256172
0.91886608 0.59674909 0.06256172
0.91886608 0.06256172 0.06256172
0.91886608 0.06256172 0.06256172
0.91886608 0.06256172 0.06256172
0.91886608 0.06256172 0.06256172
0.91886608 0.06256172 0.06256172
0.06256172 0.78664329 0.06256172
0.06256172 0.78664275 0.06256172
0.06256172 0.78664080 0.06256172
0.06256172 0.78663650 0.06256172
0.06256172 0.78662860 0.06256172
0.06256172 0.78661534 0.06256172
0.06256172 0.78659440 0.06256172
0.06256172 0.78656260 0.06256172
0.06256172 0.78651573 0.06256172
0.06256172 0.78644818 0.06256172
0.06256172 0.78635247 0.06256172
0.06256172 0.78621869 0.06256172
0.06256172 0.78603372 0.06256172
0.06256172 0.78578008 0.06256172
0.06256172 0.78543457 0.06256172
0.06256172 0.78496617 0.06256172
0.06256172 0.78433326 0.06256172
0.06256172 0.78347960 0.06256172
0.55871854 0.78232841 0.06256172
0.67289816 0.78077362 0.06256172
0.73506593 0.77866616 0.06256172
0.78157070 0.77579196 0.06256172
0.82050862 0.77183440 0.06256172
0.85504106 0.76630613 0.06256172
0.88672704 0.75841451 0.06256172
0.91644460 0.74676312 0.06256172
0.91886608 0.72857163 0.06256172
