src/ffmpeg_scripts/luts/rec2020-sRGB_0p67.cube
TITLE "rec2020-srgb_0p67"
LUT_3D_SIZE 9
# PQ (EOTF Only)/Rec2020 -> PQ (EOTF Only)/Rec709, CineEI Shift 0.67, Black Level 0.00% IRE, Input 100% -> Output 109% - Created with LUTCalc v4.01 by Ben Turley October 2020
0.06256172 0.06256172 0.06256172
0.21156770 0.06256172 0.06256172
0.34033709 0.06256172 0.06256172
0.46086394 0.06256172 0.06256172
0.57602625 0.06256172 0.06256172
0.68721152 0.06256172 0.06256172
0.79524176 0.06256172 0.06256172
0.90066143 0.06256172 0.06256172
0.91886608 0.06256172 0.06256172
0.06256172 0.19385594 0.06256172
0.19145675 0.18876261 0.06256172
0.33741209 0.10168816 0.06256172
0.46014923 0.06256172 0.06256172
0.57582045 0.06256172 0.06256172
0.68714812 0.06256172 0.06256172
0.79522189 0.06256172 0.06256172
0.90065530 0.06256172 0.06256172
0.91886608 0.06256172 0.06256172
0.06256172 0.31409870 0.06256172
0.06256172 0.31324824 0.06256172
0.31047676 0.30638902 0.06256172
0.45446448 0.26730094 0.06256172
0.57422498 0.06256172 0.06256172
0.68665988 0.06256172 0.06256172
0.79506911 0.06256172 0.06256172
0.90060825 0.06256172 0.06256172
0.91886608 0.06256172 0.06256172
0.06256172 0.42956033 0.06256172
0.06256172 0.42934616 0.06256172
0.06256172 0.42768411 0.06256172
0.42518785 0.42023734 0.06256172
0.56711335 0.38781646 0.06256172
0.68455272 0.06256172 0.06256172
0.79441586 0.06256172 0.06256172
0.90040766 0.06256172 0.06256172
0.91886608 0.06256172 0.06256172
0.06256172 0.54182918 0.06256172
0.06256172 0.54176645 0.06256172
0.06256172 0.54128333 0.06256172
0.06256172 0.53919830 0.06256172
0.53701073 0.53154245 0.06256172
0.67681500 0.50166812 0.06256172
0.79210141 0.06256172 0.06256172
0.89970474 0.06256172 0.06256172
0.91886608 0.06256172 0.06256172
0.06256172 0.65168804 0.06256172
0.06256172 0.65166847 0.06256172
0.06256172 0.65151807 0.06256172
0.06256172 0.65087513 0.06256172
0.06256172 0.64859886 0.06256172
0.64664782 0.64091706 0.06256172
0.78427078 0.61202173 0.06256172
0.89741475 0.06256172 0.06256172
0.91886608 0.06256172 0.06256172
0.06256172 0.75960802 0.06256172
0.06256172 0.75960182 0.06256172
0.06256172 0.75955421 0.06256172
0.06256172 0.75935126 0.06256172
0.06256172 0.75864021 0.06256172
0.06256172 0.75632573 0.06256172
0.75452277 0.74873171 0.06256172
0.88987960 0.71987436 0.06256172
0.91886608 0.06256172 0.06256172
0.06256172 0.86590503 0.06256172
0.06256172 0.86590310 0.06256172
0.06256172 0.86588830 0.06256172
0.06256172 0.86582528 0.06256172
0.06256172 0.86560522 0.06256172
0.06256172 0.86489680 0.06256172
0.06256172 0.86265572 0.06256172
0.86092022 0.85523582 0.06256172
0.91886608 0.82560072 0.06256172
0.06256172 0.91886608 0.06256172
0.06256172 0.91886608 0.06256172
0.06256172 0.91886608 0.06256172
0.06256172 0.91886608 0.06256172
0.06256172 0.91886608 0.06256172
0.06256172 0.91886608 0.06256172
0.06256172 0.91886608 0.06256172
0.06256172 0.91886608 0.06256172
0.91886608 0.91886608 0.06256172
0.06256172 0.06256172 0.19329873
0.20941015 0.06256172 0.19257705
0.33998015 0.06256172 0.18670914
0.46077564 0.06256172 0.15037213
0.57600076 0.06256172 0.06256172
0.68720366 0.06256172 0.06256172
0.79523930 0.06256172 0.06256172
0.90066067 0.06256172 0.06256172
0.91886608 0.06256172 0.06256172
0.06256172 0.19352827 0.18918031
0.18840433 0.18840433 0.18840433
0.33704201 0.09871660 0.18205876
0.46006023 0.06256172 0.14024844
0.57579490 0.06256172 0.06256172
0.68714026 0.06256172 0.06256172
0.79521942 0.06256172 0.06256172
0.90065454 0.06256172 0.06256172
0.91886608 0.06256172 0.06256172
0.06256172 0.31404197 0.13774642
0.06256172 0.31319089 0.13550981
0.30995680 0.30632639 0.11193310
0.45436970 0.26719519 0.06256172
0.57419900 0.06256172 0.06256172
0.68665198 0.06256172 0.06256172
0.79506664 0.06256172 0.06256172
0.90060749 0.06256172 0.06256172
0.91886608 0.06256172 0.06256172
0.06256172 0.42954599 0.06256172
0.06256172 0.42933178 0.06256172
0.06256172 0.42766947 0.06256172
0.42505630 0.42022141 0.06256172
0.56708533 0.38779333 0.06256172
0.68454463 0.06256172 0.06256172
0.79441337 0.06256172 0.06256172
0.90040690 0.06256172 0.06256172
0.91886608 0.06256172 0.06256172
0.06256172 0.54182498 0.06256172
0.06256172 0.54176224 0.06256172
0.06256172 0.54127910 0.06256172
0.06256172 0.53919398 0.06256172
0.53697211 0.53153775 0.06256172
0.67680623 0.50166165 0.06256172
0.79209886 0.06256172 0.06256172
0.89970397 0.06256172 0.06256172
0.91886608 0.06256172 0.06256172
0.06256172 0.65168673 0.06256172
0.06256172 0.65166716 0.06256172
0.06256172 0.65151676 0.06256172
0.06256172 0.65087381 0.06256172
0.06256172 0.64859751 0.06256172
0.64663574 0.64091559 0.06256172
0.78426800 0.61201974 0.06256172
0.89741397 0.06256172 0.06256172
0.91886608 0.06256172 0.06256172
0.06256172 0.75960761 0.06256172
0.06256172 0.75960141 0.06256172
0.06256172 0.75955380 0.06256172
0.06256172 0.75935084 0.06256172
0.06256172 0.75863979 0.06256172
0.06256172 0.75632530 0.06256172
0.75451894 0.74873124 0.06256172
0.88987874 0.71987372 0.06256172
0.91886608 0.06256172 0.06256172
0.06256172 0.86590490 0.06256172
0.06256172 0.86590297 0.06256172
0.06256172 0.86588817 0.06256172
0.06256172 0.86582515 0.06256172
0.06256172 0.86560509 0.06256172
0.06256172 0.86489667 0.06256172
0.06256172 0.86265559 0.06256172
0.86091902 0.85523567 0.06256172
0.91886608 0.82560051 0.06256172
0.06256172 0.91886608 0.06256172
0.06256172 0.91886608 0.06256172
0.06256172 0.91886608 0.06256172
0.06256172 0.91886608 0.06256172
0.06256172 0.91886608 0.06256172
0.06256172 0.91886608 0.06256172
0.06256172 0.91886608 0.06256172
0.06256172 0.91886608 0.06256172
0.91886608 0.91886608 0.06256172
0.06256172 0.06256172 0.31325903
0.18960757 0.06256172 0.31313433
0.33718573 0.06256172 0.31217015
0.46009476 0.06256172 0.30792671
0.57580481 0.06256172 0.29098373
0.68714331 0.06256172 0.14006775
0.79522038 0.06256172 0.06256172
0.90065484 0.06256172 0.06256172
0.91886608 0.06256172 0.06256172
0.06256172 0.19094811 0.31256553
0.15650901 0.18557462 0.31243972
0.33414244 0.06256172 0.31146687
0.45937393 0.06256172 0.30718381
0.57559852 0.06256172 0.29005524
0.68707986 0.06256172 0.12669665
0.79520050 0.06256172 0.06256172
0.90064871 0.06256172 0.06256172
0.91886608 0.06256172 0.06256172
0.06256172 0.31360503 0.30702423
0.06256172 0.31274916 0.30688913
0.30584375 0.30584375 0.30584375
0.45363859 0.26637790 0.30122794
0.57399926 0.06256172 0.28251394
0.68659127 0.06256172 0.06256172
0.79504768 0.06256172 0.06256172
0.90060165 0.06256172 0.06256172
0.91886608 0.06256172 0.06256172
0.06256172 0.42943579 0.27753622
0.06256172 0.42922132 0.27733641
0.06256172 0.42755691 0.27578373
0.42403962 0.42009894 0.26877678
0.56686989 0.38761547 0.23688318
0.68448255 0.06256172 0.06256172
0.79439428 0.06256172 0.06256172
0.90040105 0.06256172 0.06256172
0.91886608 0.06256172 0.06256172
0.06256172 0.54179269 0.06256172
0.06256172 0.54172993 0.06256172
0.06256172 0.54124662 0.06256172
0.06256172 0.53916077 0.06256172
0.53667495 0.53150170 0.06256172
0.67673884 0.50161191 0.06256172
0.79207928 0.06256172 0.06256172
0.89969808 0.06256172 0.06256172
0.91886608 0.06256172 0.06256172
0.06256172 0.65167666 0.06256172
0.06256172 0.65165709 0.06256172
0.06256172 0.65150667 0.06256172
0.06256172 0.65086365 0.06256172
0.06256172 0.64858710 0.06256172
0.64654299 0.64090430 0.06256172
0.78424668 0.61200441 0.06256172
0.89740791 0.06256172 0.06256172
0.91886608 0.06256172 0.06256172
0.06256172 0.75960442 0.06256172
0.06256172 0.75959822 0.06256172
0.06256172 0.75955060 0.06256172
0.06256172 0.75934764 0.06256172
0.06256172 0.75863656 0.06256172
0.06256172 0.75632199 0.06256172
0.75448953 0.74872765 0.06256172
0.88987215 0.71986883 0.06256172
0.91886608 0.06256172 0.06256172
0.06256172 0.86590391 0.06256172
0.06256172 0.86590198 0.06256172
0.06256172 0.86588718 0.06256172
0.06256172 0.86582416 0.06256172
0.06256172 0.86560410 0.06256172
0.06256172 0.86489567 0.06256172
0.06256172 0.86265456 0.06256172
0.86090987 0.85523455 0.06256172
0.91886608 0.82559896 0.06256172
0.06256172 0.91886608 0.06256172
0.06256172 0.91886608 0.06256172
0.06256172 0.91886608 0.06256172
0.06256172 0.91886608 0.06256172
0.06256172 0.91886608 0.06256172
0.06256172 0.91886608 0.06256172
0.06256172 0.91886608 0.06256172
0.06256172 0.91886608 0.06256172
0.91886608 0.91886608 0.06256172
0.06256172 0.06256172 0.42854782
0.06256172 0.06256172 0.42851628
0.32406968 0.06256172 0.42827374
0.45713751 0.06256172 0.42723376
0.57496606 0.06256172 0.42350951
0.68688595 0.06256172 0.41039887
0.79513978 0.06256172 0.34874989
0.90063001 0.06256172 0.06256172
0.91886608 0.06256172 0.06256172
0.06256172 0.17841353 0.42837292
0.06256172 0.17157147 0.42834132
0.32047224 0.06256172 0.42809829
0.45639261 0.06256172 0.42705624
0.57475792 0.06256172 0.42332436
0.68682233 0.06256172 0.41018390
0.79511988 0.06256172 0.34830505
0.90062388 0.06256172 0.06256172
0.91886608 0.06256172 0.06256172
0.06256172 0.31171719 0.42701829
0.06256172 0.31084026 0.42698620
0.28534112 0.30375477 0.42673943
0.45045814 0.26279033 0.42568117
0.57314420 0.06256172 0.42188953
0.68633240 0.06256172 0.40851537
0.79496693 0.06256172 0.34480646
0.90057681 0.06256172 0.06256172
0.91886608 0.06256172 0.06256172
0.06256172 0.42896514 0.42100773
0.06256172 0.42874952 0.42097339
0.06256172 0.42707614 0.42070922
0.41957572 0.41957572 0.41957572
0.56594721 0.38685418 0.41550587
0.68421782 0.06256172 0.40103193
0.79431295 0.06256172 0.32795674
0.90037615 0.06256172 0.06256172
0.91886608 0.06256172 0.06256172
0.06256172 0.54165511 0.39609626
0.06256172 0.54159226 0.39605057
0.06256172 0.54110824 0.39569895
0.06256172 0.53901926 0.39418587
0.53539930 0.53134809 0.38869283
0.67645142 0.50139988 0.36826387
0.79199587 0.06256172 0.16781039
0.89967298 0.06256172 0.06256172
0.91886608 0.06256172 0.06256172
0.06256172 0.65163377 0.06256172
0.06256172 0.65161418 0.06256172
0.06256172 0.65146370 0.06256172
0.06256172 0.65082039 0.06256172
0.06256172 0.64854278 0.06256172
0.64614714 0.64085623 0.06256172
0.78415585 0.61193917 0.06256172
0.89738214 0.06256172 0.06256172
0.91886608 0.06256172 0.06256172
0.06256172 0.75959083 0.06256172
0.06256172 0.75958463 0.06256172
0.06256172 0.75953701 0.06256172
0.06256172 0.75933402 0.06256172
0.06256172 0.75862284 0.06256172
0.06256172 0.75630792 0.06256172
0.75436422 0.74871238 0.06256172
0.88984406 0.71984804 0.06256172
0.91886608 0.06256172 0.06256172
0.06256172 0.86589968 0.06256172
0.06256172 0.86589776 0.06256172
0.06256172 0.86588296 0.06256172
0.06256172 0.86581993 0.06256172
0.06256172 0.86559986 0.06256172
0.06256172 0.86489140 0.06256172
0.06256172 0.86265018 0.06256172
0.86087089 0.85522979 0.06256172
0.91886608 0.82559234 0.06256172
0.06256172 0.91886608 0.06256172
0.06256172 0.91886608 0.06256172
0.06256172 0.91886608 0.06256172
0.06256172 0.91886608 0.06256172
0.06256172 0.91886608 0.06256172
0.06256172 0.91886608 0.06256172
0.06256172 0.91886608 0.06256172
0.06256172 0.91886608 0.06256172
0.91886608 0.91886608 0.06256172
0.06256172 0.06256172 0.54071433
0.06256172 0.06256172 0.54070508
0.24371262 0.06256172 0.54063403
0.44599642 0.06256172 0.54033096
0.57198211 0.06256172 0.53926662
0.68598320 0.06256172 0.53577418
0.79485824 0.06256172 0.52398753
0.90054340 0.06256172 0.47262677
0.91886608 0.06256172 0.06256172
0.06256172 0.06256172 0.54066307
0.06256172 0.06256172 0.54065382
0.23238915 0.06256172 0.54058272
0.44515293 0.06256172 0.54027948
0.57176727 0.06256172 0.53921456
0.68591897 0.06256172 0.53572014
0.79483828 0.06256172 0.52392620
0.90053726 0.06256172 0.47251966
0.91886608 0.06256172 0.06256172
0.06256172 0.30475263 0.54026849
0.06256172 0.30379276 0.54025920
0.06256172 0.29599257 0.54018780
0.43839699 0.24862983 0.53988328
0.57010101 0.06256172 0.53881381
0.68542431 0.06256172 0.53530408
0.79468486 0.06256172 0.52345389
0.90049015 0.06256172 0.47169298
0.91886608 0.06256172 0.06256172
0.06256172 0.42730450 0.53856989
0.06256172 0.42708480 0.53856042
0.06256172 0.42537938 0.53848772
0.40195569 0.41772693 0.53817760
0.56265783 0.38414592 0.53708832
0.68328903 0.06256172 0.53351188
0.79402886 0.06256172 0.52141603
0.90028929 0.06256172 0.46808736
0.91886608 0.06256172 0.06256172
0.06256172 0.54117390 0.53239432
0.06256172 0.54111072 0.53238421
0.06256172 0.54062419 0.53230653
0.06256172 0.53852425 0.53197515
0.53081058 0.53081058 0.53081058
0.67544251 0.50065686 0.52698005
0.79170450 0.06256172 0.51394031
0.89958541 0.06256172 0.45426245
0.91886608 0.06256172 0.06256172
0.06256172 0.65148408 0.50930862
0.06256172 0.65146447 0.50929566
0.06256172 0.65131374 0.50919608
0.06256172 0.65066941 0.50877095
0.06256172 0.64838812 0.50727342
0.64475400 0.64068846 0.50230759
0.78383851 0.61171134 0.48488552
0.89729224 0.06256172 0.38559660
0.91886608 0.06256172 0.06256172
0.06256172 0.75954346 0.29399928
0.06256172 0.75953726 0.29383910
0.06256172 0.75948961 0.29259769
0.06256172 0.75928651 0.28707146
0.06256172 0.75857497 0.26374697
0.06256172 0.75625884 0.06256172
0.75392603 0.74865912 0.06256172
0.88974607 0.71977549 0.06256172
0.91886608 0.06256172 0.06256172
0.06256172 0.86588496 0.06256172
0.06256172 0.86588303 0.06256172
0.06256172 0.86586823 0.06256172
0.06256172 0.86580520 0.06256172
0.06256172 0.86558509 0.06256172
0.06256172 0.86487651 0.06256172
0.06256172 0.86263491 0.06256172
0.86073487 0.85521320 0.06256172
0.91886608 0.82556927 0.06256172
0.06256172 0.91886608 0.06256172
0.06256172 0.91886608 0.06256172
0.06256172 0.91886608 0.06256172
0.06256172 0.91886608 0.06256172
0.06256172 0.91886608 0.06256172
0.06256172 0.91886608 0.06256172
0.06256172 0.91886608 0.06256172
0.06256172 0.91886608 0.06256172
0.91886608 0.91886608 0.06256172
0.06256172 0.06256172 0.65052267
0.06256172 0.06256172 0.65051978
0.06256172 0.06256172 0.65049761
0.39642601 0.06256172 0.65040317
0.56173481 0.06256172 0.65007320
0.68303259 0.06256172 0.64900864
0.79395076 0.06256172 0.64561745
0.90026544 0.06256172 0.63411466
0.91886608 0.06256172 0.58228751
0.06256172 0.06256172 0.65050667
0.06256172 0.06256172 0.65050378
0.06256172 0.06256172 0.65048161
0.39494019 0.06256172 0.65038715
0.56149521 0.06256172 0.65005712
0.68296632 0.06256172 0.64899238
0.79393060 0.06256172 0.64560060
0.90025928 0.06256172 0.63409563
0.91886608 0.06256172 0.58225458
0.06256172 0.27686913 0.65038373
0.06256172 0.27547421 0.65038084
0.06256172 0.26376358 0.65035864
0.38258580 0.14738859 0.65026406
0.55963474 0.06256172 0.64993360
0.68245588 0.06256172 0.64886746
0.79377565 0.06256172 0.64547111
0.90021202 0.06256172 0.63394939
0.91886608 0.06256172 0.58200133
0.06256172 0.42176646 0.64985859
0.06256172 0.42153254 0.64985569
0.06256172 0.41971538 0.64983336
0.28710895 0.41153002 0.64973826
0.55127439 0.37484403 0.64940595
0.68025152 0.06256172 0.64833381
0.79311310 0.06256172 0.64491790
0.90001052 0.06256172 0.63332429
0.91886608 0.06256172 0.58091559
0.06256172 0.53961594 0.64800469
0.06256172 0.53955170 0.64800173
0.06256172 0.53905697 0.64797896
0.06256172 0.53692112 0.64788197
0.51437989 0.52906805 0.64754307
0.67213696 0.49823626 0.64644948
0.79076513 0.06256172 0.64296355
0.89930437 0.06256172 0.63111215
0.91886608 0.06256172 0.57702952
0.06256172 0.65100312 0.64181057
0.06256172 0.65098340 0.64180741
0.06256172 0.65083191 0.64178310
0.06256172 0.65018427 0.64167954
0.06256172 0.64789111 0.64131762
0.64014918 0.64014918 0.64014918
0.78281478 0.61097803 0.63641839
0.89700372 0.06256172 0.62365826
0.91886608 0.06256172 0.56338127
0.06256172 0.75939158 0.61944532
0.06256172 0.75938537 0.61944131
0.06256172 0.75933765 0.61941052
0.06256172 0.75913421 0.61927931
0.06256172 0.75842149 0.61882047
0.06256172 0.75610149 0.61733589
0.75250866 0.74848836 0.61256160
0.88943152 0.71954278 0.59579825
0.91886608 0.06256172 0.50066431
0.06256172 0.86583780 0.44578760
0.06256172 0.86583587 0.44576160
0.06256172 0.86582106 0.44556174
0.06256172 0.86575799 0.44470592
0.06256172 0.86553776 0.44165674
0.06256172 0.86482880 0.43112635
0.06256172 0.86258599 0.38685388
0.86029788 0.85516003 0.06256172
0.91886608 0.82549535 0.06256172
0.06256172 0.91886608 0.06256172
0.06256172 0.91886608 0.06256172
0.06256172 0.91886608 0.06256172
0.06256172 0.91886608 0.06256172
0.06256172 0.91886608 0.06256172
0.06256172 0.91886608 0.06256172
0.06256172 0.91886608 0.06256172
0.06256172 0.91886608 0.06256172
0.91886608 0.91886608 0.06256172
0.06256172 0.06256172 0.75843290
0.06256172 0.06256172 0.75843199
0.06256172 0.06256172 0.75842496
0.06256172 0.06256172 0.75839505
0.51998712 0.06256172 0.75829070
0.67321272 0.06256172 0.75795572
0.79106829 0.06256172 0.75690562
0.89939485 0.06256172 0.75353231
0.91886608 0.06256172 0.74159167
0.06256172 0.06256172 0.75842783
0.06256172 0.06256172 0.75842692
0.06256172 0.06256172 0.75841989
0.06256172 0.06256172 0.75838998
0.51961240 0.06256172 0.75828562
0.67313918 0.06256172 0.75795062
0.79104749 0.06256172 0.75690046
0.89938864 0.06256172 0.75352696
0.91886608 0.06256172 0.74158560
0.06256172 0.06256172 0.75838890
0.06256172 0.06256172 0.75838798
0.06256172 0.06256172 0.75838095
0.06256172 0.06256172 0.75835103
0.51668353 0.06256172 0.75824662
0.67257255 0.06256172 0.75791148
0.79088759 0.06256172 0.75686088
0.89934090 0.06256172 0.75348592
0.91886608 0.06256172 0.74153893
0.06256172 0.40189512 0.75822296
0.06256172 0.40160150 0.75822205
0.06256172 0.39931314 0.75821501
0.06256172 0.38883095 0.75818503
0.50306347 0.33675042 0.75808044
0.67012164 0.06256172 0.75774470
0.79020378 0.06256172 0.75669219
0.89913737 0.06256172 0.75331098
0.91886608 0.06256172 0.74134002
0.06256172 0.53459521 0.75764215
0.06256172 0.53452742 0.75764123
0.06256172 0.53400528 0.75763414
0.06256172 0.53174927 0.75760398
0.42808690 0.52342779 0.75749873
0.66104268 0.49026997 0.75716088
0.78777926 0.06256172 0.75610170
0.89842410 0.06256172 0.75269853
0.91886608 0.06256172 0.74064324
0.06256172 0.64949074 0.75575728
0.06256172 0.64947071 0.75575634
0.06256172 0.64931677 0.75574911
0.06256172 0.64865863 0.75571832
0.06256172 0.64632772 0.75561092
0.62419384 0.63845126 0.75526611
0.77955466 0.60865921 0.75418498
0.89609982 0.06256172 0.75070958
0.91886608 0.06256172 0.73837613
0.06256172 0.75891742 0.74963527
0.06256172 0.75891117 0.74963427
0.06256172 0.75886320 0.74962654
0.06256172 0.75865873 0.74959366
0.06256172 0.75794233 0.74947894
0.06256172 0.75561017 0.74911058
0.74795501 0.74795501 0.74795501
0.88844551 0.71881499 0.74423413
0.91886608 0.06256172 0.73094781
0.06256172 0.86569088 0.72731385
0.06256172 0.86568895 0.72731257
0.06256172 0.86567411 0.72730276
0.06256172 0.86561094 0.72726100
0.06256172 0.86539035 0.72711523
0.06256172 0.86468021 0.72664689
0.06256172 0.86243359 0.72517446
0.85892427 0.85499439 0.72039934
0.91886608 0.82526494 0.70288017
0.06256172 0.91886608 0.53279204
0.06256172 0.91886608 0.53278197
0.06256172 0.91886608 0.53270463
0.06256172 0.91886608 0.53237466
0.06256172 0.91886608 0.53121510
0.06256172 0.91886608 0.52740150
0.06256172 0.91886608 0.51442505
0.06256172 0.91886608 0.45519019
0.91886608 0.91886608 0.06256172
0.06256172 0.06256172 0.86475367
0.06256172 0.06256172 0.86475339
0.06256172 0.06256172 0.86475121
0.06256172 0.06256172 0.86474191
0.06256172 0.06256172 0.86470948
0.63343986 0.06256172 0.86460555
0.78139083 0.06256172 0.86428139
0.89660613 0.06256172 0.86325678
0.91886608 0.06256172 0.85982996
0.06256172 0.06256172 0.86475210
0.06256172 0.06256172 0.86475181
0.06256172 0.06256172 0.86474963
0.06256172 0.06256172 0.86474033
0.06256172 0.06256172 0.86470790
0.63332783 0.06256172 0.86460397
0.78136772 0.06256172 0.86427980
0.89659971 0.06256172 0.86325518
0.91886608 0.06256172 0.85982829
0.06256172 0.06256172 0.86473999
0.06256172 0.06256172 0.86473971
0.06256172 0.06256172 0.86473752
0.06256172 0.06256172 0.86472822
0.06256172 0.06256172 0.86469579
0.63246314 0.06256172 0.86459184
0.78119006 0.06256172 0.86426763
0.89655042 0.06256172 0.86324287
0.91886608 0.06256172 0.85981550
0.06256172 0.24719685 0.86468844
0.06256172 0.24506501 0.86468816
0.06256172 0.22595573 0.86468597
0.06256172 0.06256172 0.86467667
0.06256172 0.06256172 0.86464421
0.62869112 0.06256172 0.86454021
0.78042994 0.06256172 0.86421581
0.89634028 0.06256172 0.86319044
0.91886608 0.06256172 0.85976101
0.06256172 0.51682298 0.86450849
0.06256172 0.51674093 0.86450821
0.06256172 0.51610851 0.86450602
0.06256172 0.51336702 0.86449669
0.06256172 0.50312044 0.86446417
0.61422325 0.45953502 0.86435996
0.77772985 0.06256172 0.86403490
0.89560369 0.06256172 0.86300743
0.91886608 0.06256172 0.85957081
0.06256172 0.64458323 0.86392974
0.06256172 0.64456213 0.86392945
0.06256172 0.64439998 0.86392725
0.06256172 0.64370660 0.86391786
0.06256172 0.64124877 0.86388513
0.54287045 0.63291820 0.86378023
0.76850976 0.60099264 0.86345304
0.89320213 0.06256172 0.86241880
0.91886608 0.06256172 0.85895895
0.06256172 0.75741408 0.86210446
0.06256172 0.75740773 0.86210417
0.06256172 0.75735898 0.86210192
0.06256172 0.75715116 0.86209234
0.06256172 0.75642299 0.86205893
0.06256172 0.75405188 0.86195185
0.73202927 0.74626183 0.86161786
0.88527861 0.71649458 0.86056195
0.91886608 0.06256172 0.85702781
0.06256172 0.86522843 0.85612328
0.06256172 0.86522649 0.85612297
0.06256172 0.86521158 0.85612056
0.06256172 0.86514807 0.85611031
0.06256172 0.86492633 0.85607459
0.06256172 0.86421246 0.85596008
0.06256172 0.86195385 0.85560283
0.85447280 0.85447280 0.85447280
0.91886608 0.82453836 0.85068397
0.06256172 0.91886608 0.83325974
0.06256172 0.91886608 0.83325933
0.06256172 0.91886608 0.83325623
0.06256172 0.91886608 0.83324301
0.06256172 0.91886608 0.83319692
0.06256172 0.91886608 0.83304916
0.06256172 0.91886608 0.83258783
0.06256172 0.91886608 0.83112519
0.91886608 0.91886608 0.82618239
0.06256172 0.06256172 0.91886608
0.06256172 0.06256172 0.91886608
0.06256172 0.06256172 0.91886608
0.06256172 0.06256172 0.91886608
0.06256172 0.06256172 0.91886608
0.06256172 0.06256172 0.91886608
0.74013255 0.06256172 0.91886608
0.88683669 0.06256172 0.91886608
0.91886608 0.06256172 0.91886608
0.06256172 0.06256172 0.91886608
0.06256172 0.06256172 0.91886608
0.06256172 0.06256172 0.91886608
0.06256172 0.06256172 0.91886608
0.06256172 0.06256172 0.91886608
0.06256172 0.06256172 0.91886608
0.74009649 0.06256172 0.91886608
0.88682952 0.06256172 0.91886608
0.91886608 0.06256172 0.91886608
0.06256172 0.06256172 0.91886608
0.06256172 0.06256172 0.91886608
0.06256172 0.06256172 0.91886608
0.06256172 0.06256172 0.91886608
0.06256172 0.06256172 0.91886608
0.06256172 0.06256172 0.91886608
0.73981912 0.06256172 0.91886608
0.88677441 0.06256172 0.91886608
0.91886608 0.06256172 0.91886608
0.06256172 0.06256172 0.91886608
0.06256172 0.06256172 0.91886608
0.06256172 0.06256172 0.91886608
0.06256172 0.06256172 0.91886608
0.06256172 0.06256172 0.91886608
0.06256172 0.06256172 0.91886608
0.73862906 0.06256172 0.91886608
0.88653943 0.06256172 0.91886608
0.91886608 0.06256172 0.91886608
0.06256172 0.40723390 0.91886608
0.06256172 0.40695777 0.91886608
0.06256172 0.40480785 0.91886608
0.06256172 0.39500910 0.91886608
0.06256172 0.34790426 0.91886608
0.06256172 0.06256172 0.91886608
0.73435739 0.06256172 0.91886608
0.88571529 0.06256172 0.91886608
0.91886608 0.06256172 0.91886608
0.06256172 0.62653454 0.91886608
0.06256172 0.62650901 0.91886608
0.06256172 0.62631274 0.91886608
0.06256172 0.62547262 0.91886608
0.06256172 0.62248402 0.91886608
0.06256172 0.61222336 0.91886608
0.71919451 0.57050835 0.91886608
0.88302276 0.06256172 0.91886608
0.91886608 0.06256172 0.91886608
0.06256172 0.75233366 0.91886608
0.06256172 0.75232696 0.91886608
0.06256172 0.75227546 0.91886608
0.06256172 0.75205595 0.91886608
0.06256172 0.75128657 0.91886608
0.06256172 0.74877896 0.91886608
0.64524897 0.74051430 0.91886608
0.87407660 0.70849962 0.91886608
0.91886608 0.06256172 0.91886608
0.06256172 0.86370292 0.91886608
0.06256172 0.86370095 0.91886608
0.06256172 0.86368578 0.91886608
0.06256172 0.86362118 0.91886608
0.06256172 0.86339559 0.91886608
0.06256172 0.86266927 0.91886608
0.06256172 0.86037066 0.91886608
0.83818985 0.85274983 0.91886608
0.91886608 0.82212682 0.91886608
0.06256172 0.91886608 0.91886608
0.06256172 0.91886608 0.91886608
0.06256172 0.91886608 0.91886608
0.06256172 0.91886608 0.91886608
0.06256172 0.91886608 0.91886608
0.06256172 0.91886608 0.91886608
0.06256172 0.91886608 0.91886608
0.06256172 0.91886608 0.91886608
0.91886608 0.91886608 0.91886608
