src/ffmpeg_scripts/luts/rec2020-sRGB_-2p00.cube
TITLE "rec2020-srgb_-2p00"
LUT_3D_SIZE 9
# PQ (EOTF Only)/Rec2020 -> PQ (EOTF Only)/Rec709, CineEI Shift -2.00, Black Level 0.00% IRE, Input 100% -> Output 109% - Created with LUTCalc v4.01 by Ben Turley October 2020
0.06256172 0.06256172 0.06256172
0.13958646 0.06256172 0.06256172
0.22718299 0.06256172 0.06256172
0.32052314 0.06256172 0.06256172
0.41812667 0.06256172 0.06256172
0.51920029 0.06256172 0.06256172
0.62323677 0.06256172 0.06256172
0.72987914 0.06256172 0.06256172
0.83886025 0.06256172 0.06256172
0.06256172 0.12873856 0.06256172
0.12729517 0.12568198 0.06256172
0.22504302 0.07870289 0.06256172
0.31994176 0.06256172 0.06256172
0.41794557 0.06256172 0.06256172
0.51914087 0.06256172 0.06256172
0.62321713 0.06256172 0.06256172
0.72987280 0.06256172 0.06256172
0.83885832 0.06256172 0.06256172
0.06256172 0.20821738 0.06256172
0.06256172 0.20761148 0.06256172
0.20564091 0.20274547 0.06256172
0.31532869 0.17574524 0.06256172
0.41654248 0.06256172 0.06256172
0.51868337 0.06256172 0.06256172
0.62306616 0.06256172 0.06256172
0.72982412 0.06256172 0.06256172
0.83884344 0.06256172 0.06256172
0.06256172 0.29535770 0.06256172
0.06256172 0.29518765 0.06256172
0.06256172 0.29386907 0.06256172
0.29189201 0.28798307 0.06256172
0.41030512 0.26278243 0.06256172
0.51671016 0.06256172 0.06256172
0.62242078 0.06256172 0.06256172
0.72961663 0.06256172 0.06256172
0.83878008 0.06256172 0.06256172
0.06256172 0.38835424 0.06256172
0.06256172 0.38830021 0.06256172
0.06256172 0.38788426 0.06256172
0.06256172 0.38609060 0.06256172
0.38421136 0.37952560 0.06256172
0.50948315 0.35422801 0.06256172
0.62013576 0.06256172 0.06256172
0.72888963 0.06256172 0.06256172
0.83855885 0.06256172 0.06256172
0.06256172 0.48622001 0.06256172
0.06256172 0.48620202 0.06256172
0.06256172 0.48606373 0.06256172
0.06256172 0.48547269 0.06256172
0.06256172 0.48338187 0.06256172
0.48159186 0.47634531 0.06256172
0.61242279 0.45014830 0.06256172
0.72652267 0.06256172 0.06256172
0.83784669 0.06256172 0.06256172
0.06256172 0.58831466 0.06256172
0.06256172 0.58830863 0.06256172
0.06256172 0.58826236 0.06256172
0.06256172 0.58806514 0.06256172
0.06256172 0.58737434 0.06256172
0.06256172 0.58512741 0.06256172
0.58337880 0.57777258 0.06256172
0.71875003 0.55007206 0.06256172
0.83559408 0.06256172 0.06256172
0.06256172 0.69418215 0.06256172
0.06256172 0.69418018 0.06256172
0.06256172 0.69416510 0.06256172
0.06256172 0.69410084 0.06256172
0.06256172 0.69387650 0.06256172
0.06256172 0.69315442 0.06256172
0.06256172 0.69087156 0.06256172
0.68910521 0.68332897 0.06256172
0.82813929 0.65344501 0.06256172
0.06256172 0.80347786 0.06256172
0.06256172 0.80347725 0.06256172
0.06256172 0.80347259 0.06256172
0.06256172 0.80345277 0.06256172
0.06256172 0.80338362 0.06256172
0.06256172 0.80316183 0.06256172
0.06256172 0.80246824 0.06256172
0.06256172 0.80025775 0.06256172
0.79841770 0.79265186 0.06256172
0.06256172 0.06256172 0.12840277
0.13824732 0.06256172 0.12796837
0.22692151 0.06256172 0.12445788
0.32045129 0.06256172 0.10363349
0.41810424 0.06256172 0.06256172
0.51919293 0.06256172 0.06256172
0.62323434 0.06256172 0.06256172
0.72987835 0.06256172 0.06256172
0.83886001 0.06256172 0.06256172
0.06256172 0.12854105 0.12593156
0.12546806 0.12546806 0.12546806
0.22477272 0.07732044 0.12170351
0.31986938 0.06256172 0.09813897
0.41792310 0.06256172 0.06256172
0.51913350 0.06256172 0.06256172
0.62321470 0.06256172 0.06256172
0.72987201 0.06256172 0.06256172
0.83885807 0.06256172 0.06256172
0.06256172 0.20817695 0.09680376
0.06256172 0.20757065 0.09561808
0.20527188 0.20270121 0.08360897
0.31525194 0.17567394 0.06256172
0.41651964 0.06256172 0.06256172
0.51867596 0.06256172 0.06256172
0.62306372 0.06256172 0.06256172
0.72982334 0.06256172 0.06256172
0.83884320 0.06256172 0.06256172
0.06256172 0.29534631 0.06256172
0.06256172 0.29517624 0.06256172
0.06256172 0.29385746 0.06256172
0.29178794 0.28797051 0.06256172
0.41028060 0.26276470 0.06256172
0.51670260 0.06256172 0.06256172
0.62241833 0.06256172 0.06256172
0.72961584 0.06256172 0.06256172
0.83877984 0.06256172 0.06256172
0.06256172 0.38835062 0.06256172
0.06256172 0.38829659 0.06256172
0.06256172 0.38788062 0.06256172
0.06256172 0.38608689 0.06256172
0.38417820 0.37952158 0.06256172
0.50947497 0.35422258 0.06256172
0.62013324 0.06256172 0.06256172
0.72888884 0.06256172 0.06256172
0.83855861 0.06256172 0.06256172
0.06256172 0.48621880 0.06256172
0.06256172 0.48620081 0.06256172
0.06256172 0.48606252 0.06256172
0.06256172 0.48547148 0.06256172
0.06256172 0.48338063 0.06256172
0.48158079 0.47634396 0.06256172
0.61242006 0.45014650 0.06256172
0.72652185 0.06256172 0.06256172
0.83784645 0.06256172 0.06256172
0.06256172 0.58831425 0.06256172
0.06256172 0.58830823 0.06256172
0.06256172 0.58826196 0.06256172
0.06256172 0.58806474 0.06256172
0.06256172 0.58737394 0.06256172
0.06256172 0.58512699 0.06256172
0.58337509 0.57777213 0.06256172
0.71874915 0.55007145 0.06256172
0.83559384 0.06256172 0.06256172
0.06256172 0.69418202 0.06256172
0.06256172 0.69418005 0.06256172
0.06256172 0.69416497 0.06256172
0.06256172 0.69410071 0.06256172
0.06256172 0.69387637 0.06256172
0.06256172 0.69315429 0.06256172
0.06256172 0.69087143 0.06256172
0.68910400 0.68332882 0.06256172
0.82813902 0.65344481 0.06256172
0.06256172 0.80347781 0.06256172
0.06256172 0.80347721 0.06256172
0.06256172 0.80347255 0.06256172
0.06256172 0.80345273 0.06256172
0.06256172 0.80338358 0.06256172
0.06256172 0.80316179 0.06256172
0.06256172 0.80246820 0.06256172
0.06256172 0.80025770 0.06256172
0.79841732 0.79265182 0.06256172
0.06256172 0.06256172 0.20761917
0.12618705 0.06256172 0.20753038
0.22487768 0.06256172 0.20684423
0.31989746 0.06256172 0.20383310
0.41793182 0.06256172 0.19195356
0.51913636 0.06256172 0.09804223
0.62321564 0.06256172 0.06256172
0.72987232 0.06256172 0.06256172
0.83885817 0.06256172 0.06256172
0.06256172 0.12698999 0.20712551
0.10703317 0.12378364 0.20703599
0.22265844 0.06256172 0.20634421
0.31931144 0.06256172 0.20330740
0.41775032 0.06256172 0.19130927
0.51907690 0.06256172 0.09102108
0.62319599 0.06256172 0.06256172
0.72986598 0.06256172 0.06256172
0.83885623 0.06256172 0.06256172
0.06256172 0.20786561 0.20319454
0.06256172 0.20725619 0.20309900
0.20236025 0.20236025 0.20236025
0.31466015 0.17512320 0.19910870
0.41634408 0.06256172 0.18610269
0.51861908 0.06256172 0.06256172
0.62304499 0.06256172 0.06256172
0.72981730 0.06256172 0.06256172
0.83884135 0.06256172 0.06256172
0.06256172 0.29525881 0.18269205
0.06256172 0.29508855 0.18255558
0.06256172 0.29376823 0.18149626
0.29098395 0.28787401 0.17674135
0.41009208 0.26262840 0.15564760
0.51664450 0.06256172 0.06256172
0.62239946 0.06256172 0.06256172
0.72960979 0.06256172 0.06256172
0.83877800 0.06256172 0.06256172
0.06256172 0.38832281 0.06256172
0.06256172 0.38826877 0.06256172
0.06256172 0.38785266 0.06256172
0.06256172 0.38605834 0.06256172
0.38392314 0.37949075 0.06256172
0.50941216 0.35418089 0.06256172
0.62011392 0.06256172 0.06256172
0.72888274 0.06256172 0.06256172
0.83855676 0.06256172 0.06256172
0.06256172 0.48620954 0.06256172
0.06256172 0.48619155 0.06256172
0.06256172 0.48605324 0.06256172
0.06256172 0.48546214 0.06256172
0.06256172 0.48337107 0.06256172
0.48149575 0.47633364 0.06256172
0.61239910 0.45013273 0.06256172
0.72651560 0.06256172 0.06256172
0.83784459 0.06256172 0.06256172
0.06256172 0.58831115 0.06256172
0.06256172 0.58830513 0.06256172
0.06256172 0.58825886 0.06256172
0.06256172 0.58806163 0.06256172
0.06256172 0.58737080 0.06256172
0.06256172 0.58512378 0.06256172
0.58334658 0.57776866 0.06256172
0.71874236 0.55006680 0.06256172
0.83559192 0.06256172 0.06256172
0.06256172 0.69418101 0.06256172
0.06256172 0.69417904 0.06256172
0.06256172 0.69416395 0.06256172
0.06256172 0.69409970 0.06256172
0.06256172 0.69387535 0.06256172
0.06256172 0.69315326 0.06256172
0.06256172 0.69087038 0.06256172
0.68909469 0.68332769 0.06256172
0.82813694 0.65344325 0.06256172
0.06256172 0.80347750 0.06256172
0.06256172 0.80347690 0.06256172
0.06256172 0.80347224 0.06256172
0.06256172 0.80345242 0.06256172
0.06256172 0.80338327 0.06256172
0.06256172 0.80316147 0.06256172
0.06256172 0.80246789 0.06256172
0.06256172 0.80025738 0.06256172
0.79841445 0.79265147 0.06256172
0.06256172 0.06256172 0.29455407
0.06256172 0.06256172 0.29452905
0.21536288 0.06256172 0.29433665
0.31749531 0.06256172 0.29351209
0.41719403 0.06256172 0.29056501
0.51889519 0.06256172 0.28026195
0.62313600 0.06256172 0.23337310
0.72984663 0.06256172 0.06256172
0.83885032 0.06256172 0.06256172
0.06256172 0.11956197 0.29441532
0.06256172 0.11558482 0.29439025
0.21277601 0.06256172 0.29419750
0.31689109 0.06256172 0.29337142
0.41701100 0.06256172 0.29041873
0.51883558 0.06256172 0.28009395
0.62311633 0.06256172 0.23304449
0.72984029 0.06256172 0.06256172
0.83884838 0.06256172 0.06256172
0.06256172 0.20652214 0.29334134
0.06256172 0.20589902 0.29331592
0.18804907 0.20088658 0.29312040
0.31208965 0.17271259 0.29228241
0.41559279 0.06256172 0.28928588
0.51837656 0.06256172 0.27879105
0.62296520 0.06256172 0.23046507
0.72979160 0.06256172 0.06256172
0.83883350 0.06256172 0.06256172
0.06256172 0.29488521 0.28859033
0.06256172 0.29471410 0.28856325
0.06256172 0.29338719 0.28835498
0.28746185 0.28746185 0.28746185
0.40928497 0.26204524 0.28426195
0.51639676 0.06256172 0.27297018
0.62231913 0.06256172 0.21816913
0.72958403 0.06256172 0.06256172
0.83877014 0.06256172 0.06256172
0.06256172 0.38820434 0.26915150
0.06256172 0.38815023 0.26911623
0.06256172 0.38773354 0.26884482
0.06256172 0.38593670 0.26767785
0.38282877 0.37935937 0.26345436
0.50914430 0.35400320 0.24792879
0.62003162 0.06256172 0.11342274
0.72885678 0.06256172 0.06256172
0.83854888 0.06256172 0.06256172
0.06256172 0.48617010 0.06256172
0.06256172 0.48615210 0.06256172
0.06256172 0.48601374 0.06256172
0.06256172 0.48542238 0.06256172
0.06256172 0.48333039 0.06256172
0.48113282 0.47628971 0.06256172
0.61230980 0.45007406 0.06256172
0.72648898 0.06256172 0.06256172
0.83783665 0.06256172 0.06256172
0.06256172 0.58829795 0.06256172
0.06256172 0.58829192 0.06256172
0.06256172 0.58824565 0.06256172
0.06256172 0.58804839 0.06256172
0.06256172 0.58735747 0.06256172
0.06256172 0.58511013 0.06256172
0.58322510 0.57775390 0.06256172
0.71871343 0.55004698 0.06256172
0.83558378 0.06256172 0.06256172
0.06256172 0.69417670 0.06256172
0.06256172 0.69417474 0.06256172
0.06256172 0.69415965 0.06256172
0.06256172 0.69409539 0.06256172
0.06256172 0.69387103 0.06256172
0.06256172 0.69314891 0.06256172
0.06256172 0.69086592 0.06256172
0.68905503 0.68332286 0.06256172
0.82812810 0.65343662 0.06256172
0.06256172 0.80347617 0.06256172
0.06256172 0.80347557 0.06256172
0.06256172 0.80347091 0.06256172
0.06256172 0.80345109 0.06256172
0.06256172 0.80338194 0.06256172
0.06256172 0.80316014 0.06256172
0.06256172 0.80246654 0.06256172
0.06256172 0.80025600 0.06256172
0.79840219 0.79264997 0.06256172
0.06256172 0.06256172 0.38739454
0.06256172 0.06256172 0.38738658
0.16008643 0.06256172 0.38732544
0.30849422 0.06256172 0.38706468
0.41457237 0.06256172 0.38614934
0.51804947 0.06256172 0.38315029
0.62285782 0.06256172 0.37307969
0.72975703 0.06256172 0.33013660
0.83882294 0.06256172 0.06256172
0.06256172 0.06256172 0.38735042
0.06256172 0.06256172 0.38734246
0.15275071 0.06256172 0.38728129
0.30781591 0.06256172 0.38702039
0.41438379 0.06256172 0.38610458
0.51798931 0.06256172 0.38310393
0.62283809 0.06256172 0.37302749
0.72975069 0.06256172 0.33004869
0.83882100 0.06256172 0.06256172
0.06256172 0.20159009 0.38701093
0.06256172 0.20091335 0.38700294
0.06256172 0.19544138 0.38694152
0.30239910 0.16330923 0.38667959
0.41292214 0.06256172 0.38576010
0.51752608 0.06256172 0.38274712
0.62268652 0.06256172 0.37262561
0.72970195 0.06256172 0.32937037
0.83880612 0.06256172 0.06256172
0.06256172 0.29356816 0.38555048
0.06256172 0.29339404 0.38554235
0.06256172 0.29204356 0.38547988
0.27368669 0.28600691 0.38521343
0.40641140 0.25997387 0.38427796
0.51552787 0.06256172 0.38121126
0.62203853 0.06256172 0.37089309
0.72949418 0.06256172 0.32641665
0.83874274 0.06256172 0.06256172
0.06256172 0.38779006 0.38025445
0.06256172 0.38773568 0.38024580
0.06256172 0.38731697 0.38017932
0.06256172 0.38551127 0.37989576
0.37889974 0.37889974 0.37889974
0.50820434 0.35338071 0.37562905
0.61974414 0.06256172 0.36455786
0.72876623 0.06256172 0.31516511
0.83852142 0.06256172 0.06256172
0.06256172 0.48603248 0.36064895
0.06256172 0.48601444 0.36063803
0.06256172 0.48587587 0.36055413
0.06256172 0.48528362 0.36019600
0.06256172 0.48318843 0.35893528
0.47985621 0.47613637 0.35476410
0.61199783 0.44986924 0.34024460
0.72639610 0.06256172 0.26108277
0.83780896 0.06256172 0.06256172
0.06256172 0.58825191 0.19405094
0.06256172 0.58824588 0.19393934
0.06256172 0.58819958 0.19307517
0.06256172 0.58800223 0.18924361
0.06256172 0.58731097 0.17335429
0.06256172 0.58506251 0.06256172
0.58280038 0.57770241 0.06256172
0.71861251 0.54997784 0.06256172
0.83555540 0.06256172 0.06256172
0.06256172 0.69416169 0.06256172
0.06256172 0.69415972 0.06256172
0.06256172 0.69414463 0.06256172
0.06256172 0.69408037 0.06256172
0.06256172 0.69385597 0.06256172
0.06256172 0.69313374 0.06256172
0.06256172 0.69085037 0.06256172
0.68891665 0.68330602 0.06256172
0.82809727 0.65341351 0.06256172
0.06256172 0.80347154 0.06256172
0.06256172 0.80347093 0.06256172
0.06256172 0.80346628 0.06256172
0.06256172 0.80344645 0.06256172
0.06256172 0.80337730 0.06256172
0.06256172 0.80315549 0.06256172
0.06256172 0.80246186 0.06256172
0.06256172 0.80025121 0.06256172
0.79835946 0.79264476 0.06256172
0.06256172 0.06256172 0.48514877
0.06256172 0.06256172 0.48514612
0.06256172 0.06256172 0.48512575
0.26940612 0.06256172 0.48503897
0.40560612 0.06256172 0.48473579
0.51528803 0.06256172 0.48375807
0.62196140 0.06256172 0.48064732
0.72946952 0.06256172 0.47013941
0.83873522 0.06256172 0.42364698
0.06256172 0.06256172 0.48513407
0.06256172 0.06256172 0.48513142
0.06256172 0.06256172 0.48511104
0.26825943 0.06256172 0.48502425
0.40539716 0.06256172 0.48472102
0.51522606 0.06256172 0.48374314
0.62194149 0.06256172 0.48063188
0.72946315 0.06256172 0.47012208
0.83873328 0.06256172 0.42361790
0.06256172 0.18223656 0.48502110
0.06256172 0.18128533 0.48501845
0.06256172 0.17336544 0.48499805
0.25878292 0.10199920 0.48491115
0.40377568 0.06256172 0.48460755
0.51474880 0.06256172 0.48362845
0.62178847 0.06256172 0.48051322
0.72941426 0.06256172 0.46998892
0.83871838 0.06256172 0.42339421
0.06256172 0.28918877 0.48453865
0.06256172 0.28900423 0.48453598
0.06256172 0.28757185 0.48451547
0.18926952 0.28114644 0.48442811
0.39651285 0.25289794 0.48412290
0.51268920 0.06256172 0.48313858
0.62113428 0.06256172 0.48000635
0.72920585 0.06256172 0.46941988
0.83865494 0.06256172 0.42243560
0.06256172 0.38644968 0.48283654
0.06256172 0.38639445 0.48283382
0.06256172 0.38596911 0.48281292
0.06256172 0.38413443 0.48272393
0.36492949 0.37741085 0.48241298
0.50512824 0.35135503 0.48141000
0.61881758 0.06256172 0.47821697
0.72847564 0.06256172 0.46740773
0.83843340 0.06256172 0.41900978
0.06256172 0.48559033 0.47716223
0.06256172 0.48557221 0.47715933
0.06256172 0.48543297 0.47713710
0.06256172 0.48483784 0.47704240
0.06256172 0.48273231 0.47671149
0.47564358 0.47564358 0.47564358
0.61099176 0.44921016 0.47223848
0.72609805 0.06256172 0.46064626
0.83772024 0.06256172 0.40704287
0.06256172 0.58810433 0.45683740
0.06256172 0.58809829 0.45683378
0.06256172 0.58805192 0.45680598
0.06256172 0.58785426 0.45668751
0.06256172 0.58716191 0.45627327
0.06256172 0.58490985 0.45493375
0.58142719 0.57753735 0.45063378
0.71828859 0.54975608 0.43563059
0.83546443 0.06256172 0.35338696
0.06256172 0.69411360 0.30832625
0.06256172 0.69411164 0.30830535
0.06256172 0.69409654 0.30814461
0.06256172 0.69403224 0.30745662
0.06256172 0.69380773 0.30500912
0.06256172 0.69308512 0.29660193
0.06256172 0.69080056 0.26204500
0.68847213 0.68325206 0.06256172
0.82799848 0.65333945 0.06256172
0.06256172 0.80345670 0.06256172
0.06256172 0.80345610 0.06256172
0.06256172 0.80345144 0.06256172
0.06256172 0.80343161 0.06256172
0.06256172 0.80336245 0.06256172
0.06256172 0.80314060 0.06256172
0.06256172 0.80244686 0.06256172
0.06256172 0.80023584 0.06256172
0.79822247 0.79262806 0.06256172
0.06256172 0.06256172 0.58717299
0.06256172 0.06256172 0.58717210
0.06256172 0.06256172 0.58716527
0.06256172 0.06256172 0.58713622
0.36967969 0.06256172 0.58703487
0.50612873 0.06256172 0.58670957
0.61911656 0.06256172 0.58569014
0.72856920 0.06256172 0.58241884
0.83846172 0.06256172 0.57088210
0.06256172 0.06256172 0.58716806
0.06256172 0.06256172 0.58716717
0.06256172 0.06256172 0.58716035
0.06256172 0.06256172 0.58713130
0.36936168 0.06256172 0.58702994
0.50606031 0.06256172 0.58670462
0.61909604 0.06256172 0.58568514
0.72856277 0.06256172 0.58241366
0.83845977 0.06256172 0.57087625
0.06256172 0.06256172 0.58713025
0.06256172 0.06256172 0.58712936
0.06256172 0.06256172 0.58712253
0.06256172 0.06256172 0.58709347
0.36687885 0.06256172 0.58699207
0.50553328 0.06256172 0.58666662
0.61893835 0.06256172 0.58564672
0.72851341 0.06256172 0.58237389
0.83844483 0.06256172 0.57083129
0.06256172 0.27363969 0.58696909
0.06256172 0.27341189 0.58696820
0.06256172 0.27163851 0.58696136
0.06256172 0.26356030 0.58693225
0.35539809 0.22455982 0.58683068
0.50325547 0.06256172 0.58650467
0.61826408 0.06256172 0.58548301
0.72830298 0.06256172 0.58220439
0.83838119 0.06256172 0.57063969
0.06256172 0.38213942 0.58640511
0.06256172 0.38208132 0.58640421
0.06256172 0.38163391 0.58639733
0.06256172 0.37970252 0.58636805
0.29418846 0.37260341 0.58626587
0.49484383 0.34471281 0.58593790
0.61587509 0.06256172 0.58491005
0.72756566 0.06256172 0.58161110
0.83815898 0.06256172 0.56996863
0.06256172 0.48420077 0.58457593
0.06256172 0.48418238 0.58457502
0.06256172 0.48404101 0.58456801
0.06256172 0.48343674 0.58453814
0.06256172 0.48129837 0.58443396
0.46113114 0.47409300 0.58409955
0.60779107 0.44712794 0.58305136
0.72516454 0.06256172 0.57968555
0.83744364 0.06256172 0.56778679
0.06256172 0.58764363 0.57864627
0.06256172 0.58763756 0.57864530
0.06256172 0.58759096 0.57863783
0.06256172 0.58739234 0.57860603
0.06256172 0.58669657 0.57849508
0.06256172 0.58443324 0.57813888
0.57702187 0.57702187 0.57702187
0.71727349 0.54906270 0.57342941
0.83518081 0.06256172 0.56065490
0.06256172 0.69396382 0.55717551
0.06256172 0.69396185 0.55717428
0.06256172 0.69394673 0.55716490
0.06256172 0.69388233 0.55712494
0.06256172 0.69365746 0.55698552
0.06256172 0.69293369 0.55653760
0.06256172 0.69064542 0.55513005
0.68707541 0.68308396 0.55057247
0.82769037 0.65310865 0.53394518
0.06256172 0.80341052 0.38059488
0.06256172 0.80340992 0.38058626
0.06256172 0.80340526 0.38052005
0.06256172 0.80338542 0.38023763
0.06256172 0.80331622 0.37924563
0.06256172 0.80309426 0.37598849
0.06256172 0.80240016 0.36496767
0.06256172 0.80018800 0.31591648
0.79779492 0.79257608 0.06256172
0.06256172 0.06256172 0.69300856
0.06256172 0.06256172 0.69300827
0.06256172 0.06256172 0.69300604
0.06256172 0.06256172 0.69299657
0.06256172 0.06256172 0.69296352
0.46952507 0.06256172 0.69285761
0.60959316 0.06256172 0.69252731
0.72568740 0.06256172 0.69148361
0.83759833 0.06256172 0.68799624
0.06256172 0.06256172 0.69300695
0.06256172 0.06256172 0.69300666
0.06256172 0.06256172 0.69300444
0.06256172 0.06256172 0.69299496
0.06256172 0.06256172 0.69296191
0.46942310 0.06256172 0.69285600
0.60957047 0.06256172 0.69252570
0.72568077 0.06256172 0.69148198
0.83759636 0.06256172 0.68799455
0.06256172 0.06256172 0.69299462
0.06256172 0.06256172 0.69299433
0.06256172 0.06256172 0.69299210
0.06256172 0.06256172 0.69298262
0.06256172 0.06256172 0.69294957
0.46863629 0.06256172 0.69284365
0.60939605 0.06256172 0.69251330
0.72562986 0.06256172 0.69146944
0.83758128 0.06256172 0.68798154
0.06256172 0.16236774 0.69294208
0.06256172 0.16097058 0.69294179
0.06256172 0.14863746 0.69293957
0.06256172 0.06256172 0.69293008
0.06256172 0.06256172 0.69289701
0.46520846 0.06256172 0.69279103
0.60864991 0.06256172 0.69246050
0.72541284 0.06256172 0.69141605
0.83751703 0.06256172 0.68792614
0.06256172 0.36699694 0.69275871
0.06256172 0.36692746 0.69275842
0.06256172 0.36639197 0.69275619
0.06256172 0.36407336 0.69274669
0.06256172 0.35544589 0.69271356
0.45212900 0.31944238 0.69260737
0.60600164 0.06256172 0.69227619
0.72465231 0.06256172 0.69122968
0.83729267 0.06256172 0.68773273
0.06256172 0.47969979 0.69216906
0.06256172 0.47968047 0.69216877
0.06256172 0.47953196 0.69216652
0.06256172 0.47889707 0.69215696
0.06256172 0.47664854 0.69212362
0.38925122 0.46905032 0.69201676
0.59698381 0.44026372 0.69168350
0.72217428 0.06256172 0.69063035
0.83657039 0.06256172 0.68711066
0.06256172 0.58618369 0.69031036
0.06256172 0.58617752 0.69031006
0.06256172 0.58613020 0.69030777
0.06256172 0.58592847 0.69029802
0.06256172 0.58522179 0.69026402
0.06256172 0.58292235 0.69015503
0.56169158 0.57538632 0.68981510
0.71401598 0.54685370 0.68874074
0.83428526 0.06256172 0.68514839
0.06256172 0.69349241 0.68422984
0.06256172 0.69349043 0.68422953
0.06256172 0.69347524 0.68422708
0.06256172 0.69341051 0.68421668
0.06256172 0.69318451 0.68418041
0.06256172 0.69245709 0.68406415
0.06256172 0.69015706 0.68370149
0.68255470 0.68255470 0.68255470
0.82671701 0.65238095 0.67871377
0.06256172 0.80326550 0.66113116
0.06256172 0.80326489 0.66113075
0.06256172 0.80326023 0.66112763
0.06256172 0.80324035 0.66111435
0.06256172 0.80317105 0.66106802
0.06256172 0.80294874 0.66091949
0.06256172 0.80225353 0.66045583
0.06256172 0.80003777 0.65898643
0.79644061 0.79241283 0.65402783
0.06256172 0.06256172 0.80230878
0.06256172 0.06256172 0.80230869
0.06256172 0.06256172 0.80230800
0.06256172 0.06256172 0.80230507
0.06256172 0.06256172 0.80229487
0.06256172 0.06256172 0.80226220
0.56947693 0.06256172 0.80216045
0.71561811 0.06256172 0.80184054
0.83472294 0.06256172 0.80078912
0.06256172 0.06256172 0.80230828
0.06256172 0.06256172 0.80230819
0.06256172 0.06256172 0.80230750
0.06256172 0.06256172 0.80230458
0.06256172 0.06256172 0.80229438
0.06256172 0.06256172 0.80226170
0.56944221 0.06256172 0.80215995
0.71561073 0.06256172 0.80184005
0.83472091 0.06256172 0.80078862
0.06256172 0.06256172 0.80230447
0.06256172 0.06256172 0.80230438
0.06256172 0.06256172 0.80230369
0.06256172 0.06256172 0.80230077
0.06256172 0.06256172 0.80229057
0.06256172 0.06256172 0.80225789
0.56917522 0.06256172 0.80215614
0.71555405 0.06256172 0.80183622
0.83470533 0.06256172 0.80078475
0.06256172 0.06256172 0.80228826
0.06256172 0.06256172 0.80228817
0.06256172 0.06256172 0.80228748
0.06256172 0.06256172 0.80228455
0.06256172 0.06256172 0.80227435
0.06256172 0.06256172 0.80224167
0.56803008 0.06256172 0.80213990
0.71531236 0.06256172 0.80181992
0.83463900 0.06256172 0.80076826
0.06256172 0.27779164 0.80223171
0.06256172 0.27757644 0.80223162
0.06256172 0.27590257 0.80223093
0.06256172 0.26831258 0.80222800
0.06256172 0.23274855 0.80221779
0.06256172 0.06256172 0.80218509
0.56392518 0.06256172 0.80208326
0.71446490 0.06256172 0.80176308
0.83440736 0.06256172 0.80071076
0.06256172 0.46325196 0.80205037
0.06256172 0.46322881 0.80205028
0.06256172 0.46305087 0.80204959
0.06256172 0.46228945 0.80204666
0.06256172 0.45958373 0.80203643
0.06256172 0.45032960 0.80200366
0.54942424 0.41327932 0.80190162
0.71169821 0.06256172 0.80158081
0.83366150 0.06256172 0.80052638
0.06256172 0.58125772 0.80148382
0.06256172 0.58125123 0.80148373
0.06256172 0.58120136 0.80148304
0.06256172 0.58098880 0.80148008
0.06256172 0.58024396 0.80146979
0.06256172 0.57781826 0.80143682
0.48030967 0.56984447 0.80133415
0.70252808 0.53926242 0.80101133
0.83130052 0.06256172 0.79995029
0.06256172 0.69193801 0.79968348
0.06256172 0.69193600 0.79968339
0.06256172 0.69192055 0.79968268
0.06256172 0.69185475 0.79967967
0.06256172 0.69162498 0.79966917
0.06256172 0.69088536 0.79963555
0.06256172 0.68854616 0.79953084
0.66609250 0.68080726 0.79920159
0.82346705 0.64996741 0.79811923
0.06256172 0.80279082 0.79355173
0.06256172 0.80279021 0.79355163
0.06256172 0.80278551 0.79355087
0.06256172 0.80276554 0.79354765
0.06256172 0.80269587 0.79353643
0.06256172 0.80247240 0.79350047
0.06256172 0.80177355 0.79338851
0.06256172 0.79954600 0.79303640
0.79187828 0.79187828 0.79187828
