src/ffmpeg_scripts/luts/rec2020-sRGB_0p33.cube
TITLE "rec2020-srgb_0p33"
LUT_3D_SIZE 5
# PQ (EOTF Only)/Rec2020 -> PQ (EOTF Only)/Rec709, CineEI Shift 0.33, Black Level 0.00% IRE, Input 100% -> Output 109% - Created with LUTCalc v4.01 by Ben Turley October 2020
0.06256172 0.06256172 0.06256172
0.32431226 0.06256172 0.06256172
0.55528560 0.06256172 0.06256172
0.77372388 0.06256172 0.06256172
0.91886608 0.06256172 0.06256172
0.06256172 0.29893574 0.06256172
0.29543937 0.29149534 0.06256172
0.55350327 0.06256172 0.06256172
0.77355076 0.06256172 0.06256172
0.91886608 0.06256172 0.06256172
0.06256172 0.52148753 0.06256172
0.06256172 0.52094873 0.06256172
0.51673214 0.51133751 0.06256172
0.77057524 0.06256172 0.06256172
0.91886608 0.06256172 0.06256172
0.06256172 0.73802682 0.06256172
0.06256172 0.73797296 0.06256172
0.06256172 0.73705823 0.06256172
0.73293809 0.72714479 0.06256172
0.91886608 0.06256172 0.06256172
0.06256172 0.91886608 0.06256172
0.06256172 0.91886608 0.06256172
0.06256172 0.91886608 0.06256172
0.06256172 0.91886608 0.06256172
0.91886608 0.91886608 0.06256172
0.06256172 0.06256172 0.29812503
0.32126010 0.06256172 0.29707384
0.55506648 0.06256172 0.27665113
0.77370244 0.06256172 0.06256172
0.91886608 0.06256172 0.06256172
0.06256172 0.29845909 0.29210809
0.29096941 0.29096941 0.29096941
0.55327994 0.06256172 0.26850336
0.77352927 0.06256172 0.06256172
0.91886608 0.06256172 0.06256172
0.06256172 0.52145151 0.06256172
0.06256172 0.52091250 0.06256172
0.51640081 0.51129732 0.06256172
0.77055306 0.06256172 0.06256172
0.91886608 0.06256172 0.06256172
0.06256172 0.73802321 0.06256172
0.06256172 0.73796935 0.06256172
0.06256172 0.73705458 0.06256172
0.73290483 0.72714073 0.06256172
0.91886608 0.06256172 0.06256172
0.06256172 0.91886608 0.06256172
0.06256172 0.91886608 0.06256172
0.06256172 0.91886608 0.06256172
0.06256172 0.91886608 0.06256172
0.91886608 0.91886608 0.06256172
0.06256172 0.06256172 0.52038712
0.23131006 0.06256172 0.52030786
0.55128430 0.06256172 0.51895829
0.77333932 0.06256172 0.50388807
0.91886608 0.06256172 0.06256172
0.06256172 0.28991708 0.51994707
0.06256172 0.28147411 0.51986744
0.54942351 0.06256172 0.51851141
0.77316547 0.06256172 0.50336204
0.91886608 0.06256172 0.06256172
0.06256172 0.52084072 0.51217775
0.06256172 0.52029815 0.51209116
0.51061567 0.51061567 0.51061567
0.77017733 0.06256172 0.49398786
0.91886608 0.06256172 0.06256172
0.06256172 0.73796220 0.27955438
0.06256172 0.73790831 0.27820483
0.06256172 0.73699294 0.25048595
0.73234103 0.72707219 0.06256172
0.91886608 0.06256172 0.06256172
0.06256172 0.91886608 0.06256172
0.06256172 0.91886608 0.06256172
0.06256172 0.91886608 0.06256172
0.06256172 0.91886608 0.06256172
0.91886608 0.91886608 0.06256172
0.06256172 0.06256172 0.73685077
0.06256172 0.06256172 0.73684282
0.49994526 0.06256172 0.73670845
0.76953951 0.06256172 0.73532239
0.91886608 0.06256172 0.72000454
0.06256172 0.06256172 0.73680673
0.06256172 0.06256172 0.73679878
0.49669017 0.06256172 0.73666435
0.76935836 0.06256172 0.73527762
0.91886608 0.06256172 0.71995181
0.06256172 0.51434887 0.73605943
0.06256172 0.51376689 0.73605142
0.40972644 0.50333631 0.73591591
0.76624254 0.06256172 0.73451794
0.91886608 0.06256172 0.71905630
0.06256172 0.73733565 0.72804858
0.06256172 0.73728140 0.72803985
0.06256172 0.73635983 0.72789220
0.72636793 0.72636793 0.72636793
0.91886608 0.06256172 0.70936562
0.06256172 0.91886608 0.51257007
0.06256172 0.91886608 0.51248385
0.06256172 0.91886608 0.51101464
0.06256172 0.91886608 0.49446533
0.91886608 0.91886608 0.06256172
0.06256172 0.06256172 0.91886608
0.06256172 0.06256172 0.91886608
0.06256172 0.06256172 0.91886608
0.71854572 0.06256172 0.91886608
0.91886608 0.06256172 0.91886608
0.06256172 0.06256172 0.91886608
0.06256172 0.06256172 0.91886608
0.06256172 0.06256172 0.91886608
0.71823237 0.06256172 0.91886608
0.91886608 0.06256172 0.91886608
0.06256172 0.38935828 0.91886608
0.06256172 0.38699134 0.91886608
0.06256172 0.33164589 0.91886608
0.71277293 0.06256172 0.91886608
0.91886608 0.06256172 0.91886608
0.06256172 0.73074791 0.91886608
0.06256172 0.73068969 0.91886608
0.06256172 0.72970041 0.91886608
0.62394651 0.71892738 0.91886608
0.91886608 0.06256172 0.91886608
0.06256172 0.91886608 0.91886608
0.06256172 0.91886608 0.91886608
0.06256172 0.91886608 0.91886608
0.06256172 0.91886608 0.91886608
0.91886608 0.91886608 0.91886608
