src/ffmpeg_scripts/luts/rec2020-sRGB_2p00.cube
TITLE "rec2020-srgb_2p00"
LUT_3D_SIZE 5
# PQ (EOTF Only)/Rec2020 -> PQ (EOTF Only)/Rec709, CineEI Shift 2.00, Black Level 0.00% IRE, Input 100% -> Output 109% - Created with LUTCalc v4.01 by Ben Turley October 2020
0.06256172 0.06256172 0.06256172
0.40927845 0.06256172 0.06256172
0.66074298 0.06256172 0.06256172
0.88038609 0.06256172 0.06256172
0.91886608 0.06256172 0.06256172
0.06256172 0.37985748 0.06256172
0.37576692 0.37114137 0.06256172
0.65889041 0.06256172 0.06256172
0.88021712 0.06256172 0.06256172
0.91886608 0.06256172 0.06256172
0.06256172 0.62541717 0.06256172
0.06256172 0.62485058 0.06256172
0.62041275 0.61472510 0.06256172
0.87731182 0.06256172 0.06256172
0.91886608 0.06256172 0.06256172
0.06256172 0.84539043 0.06256172
0.06256172 0.84533739 0.06256172
0.06256172 0.84443647 0.06256172
0.84037589 0.83465901 0.06256172
0.91886608 0.06256172 0.06256172
0.06256172 0.91886608 0.06256172
0.06256172 0.91886608 0.06256172
0.06256172 0.91886608 0.06256172
0.06256172 0.91886608 0.06256172
0.91886608 0.91886608 0.06256172
0.06256172 0.06256172 0.37890983
0.40576391 0.06256172 0.37768032
0.66051528 0.06256172 0.35362153
0.88036516 0.06256172 0.06256172
0.91886608 0.06256172 0.06256172
0.06256172 0.37930038 0.37186078
0.37052364 0.37052364 0.37052364
0.65865819 0.06256172 0.34392773
0.88019614 0.06256172 0.06256172
0.91886608 0.06256172 0.06256172
0.06256172 0.62537929 0.06256172
0.06256172 0.62481248 0.06256172
0.62006375 0.61468269 0.06256172
0.87729015 0.06256172 0.06256172
0.91886608 0.06256172 0.06256172
0.06256172 0.84538688 0.06256172
0.06256172 0.84533384 0.06256172
0.06256172 0.84443288 0.06256172
0.84034309 0.83465501 0.06256172
0.91886608 0.06256172 0.06256172
0.06256172 0.91886608 0.06256172
0.06256172 0.91886608 0.06256172
0.06256172 0.91886608 0.06256172
0.06256172 0.91886608 0.06256172
0.91886608 0.91886608 0.06256172
0.06256172 0.06256172 0.62425990
0.29890607 0.06256172 0.62417653
0.65658241 0.06256172 0.62275656
0.88001074 0.06256172 0.60685241
0.91886608 0.06256172 0.06256172
0.06256172 0.36928700 0.62379698
0.06256172 0.35933340 0.62371320
0.65464562 0.06256172 0.62228621
0.87984104 0.06256172 0.60629567
0.91886608 0.06256172 0.06256172
0.06256172 0.62473699 0.61561173
0.06256172 0.62416631 0.61552037
0.61396320 0.61396320 0.61396320
0.87692313 0.06256172 0.59635565
0.91886608 0.06256172 0.06256172
0.06256172 0.84532680 0.35706216
0.06256172 0.84527372 0.35546368
0.06256172 0.84437216 0.32228329
0.83978710 0.83458732 0.06256172
0.91886608 0.06256172 0.06256172
0.06256172 0.91886608 0.06256172
0.06256172 0.91886608 0.06256172
0.06256172 0.91886608 0.06256172
0.06256172 0.91886608 0.06256172
0.91886608 0.91886608 0.06256172
0.06256172 0.06256172 0.84423211
0.06256172 0.06256172 0.84422428
0.60267672 0.06256172 0.84409192
0.87630003 0.06256172 0.84272624
0.91886608 0.06256172 0.82760108
0.06256172 0.06256172 0.84418873
0.06256172 0.06256172 0.84418089
0.59922470 0.06256172 0.84404847
0.87612304 0.06256172 0.84268213
0.91886608 0.06256172 0.82754891
0.06256172 0.61790142 0.84345251
0.06256172 0.61728784 0.84344461
0.50530225 0.60626843 0.84331109
0.87307755 0.06256172 0.84193341
0.91886608 0.06256172 0.82666278
0.06256172 0.84470973 0.83555145
0.06256172 0.84465629 0.83554283
0.06256172 0.84374847 0.83539705
0.83389175 0.83389175 0.83389175
0.91886608 0.06256172 0.81706019
0.06256172 0.91886608 0.61602561
0.06256172 0.91886608 0.61593465
0.06256172 0.91886608 0.61438434
0.06256172 0.91886608 0.59686279
0.91886608 0.91886608 0.06256172
0.06256172 0.06256172 0.91886608
0.06256172 0.06256172 0.91886608
0.06256172 0.06256172 0.91886608
0.82615746 0.06256172 0.91886608
0.91886608 0.06256172 0.91886608
0.06256172 0.06256172 0.91886608
0.06256172 0.06256172 0.91886608
0.06256172 0.06256172 0.91886608
0.82584730 0.06256172 0.91886608
0.91886608 0.06256172 0.91886608
0.06256172 0.48278145 0.91886608
0.06256172 0.48015007 0.91886608
0.06256172 0.41769732 0.91886608
0.82043934 0.06256172 0.91886608
0.91886608 0.06256172 0.91886608
0.06256172 0.83821562 0.91886608
0.06256172 0.83815817 0.91886608
0.06256172 0.83718198 0.91886608
0.73129538 0.82653520 0.91886608
0.91886608 0.06256172 0.91886608
0.06256172 0.91886608 0.91886608
0.06256172 0.91886608 0.91886608
0.06256172 0.91886608 0.91886608
0.06256172 0.91886608 0.91886608
0.91886608 0.91886608 0.91886608
