src/ffmpeg_scripts/luts/rec2020-sRGB_1p67.cube
TITLE "rec2020-srgb_1p67"
LUT_3D_SIZE 5
# PQ (EOTF Only)/Rec2020 -> PQ (EOTF Only)/Rec709, CineEI Shift 1.67, Black Level 0.00% IRE, Input 100% -> Output 109% - Created with LUTCalc v4.01 by Ben Turley October 2020
0.06256172 0.06256172 0.06256172
0.39135347 0.06256172 0.06256172
0.63935721 0.06256172 0.06256172
0.85928310 0.06256172 0.06256172
0.91886608 0.06256172 0.06256172
0.06256172 0.36268263 0.06256172
0.35870331 0.35420565 0.06256172
0.63751381 0.06256172 0.06256172
0.85911295 0.06256172 0.06256172
0.91886608 0.06256172 0.06256172
0.06256172 0.60424344 0.06256172
0.06256172 0.60368091 0.06256172
0.59927551 0.59363131 0.06256172
0.85618765 0.06256172 0.06256172
0.91886608 0.06256172 0.06256172
0.06256172 0.82407332 0.06256172
0.06256172 0.82402000 0.06256172
0.06256172 0.82311436 0.06256172
0.81903300 0.81328826 0.06256172
0.91886608 0.06256172 0.06256172
0.06256172 0.91886608 0.06256172
0.06256172 0.91886608 0.06256172
0.06256172 0.91886608 0.06256172
0.06256172 0.91886608 0.06256172
0.91886608 0.91886608 0.06256172
0.06256172 0.06256172 0.36176059
0.38792403 0.06256172 0.36056446
0.63913063 0.06256172 0.33719101
0.85926202 0.06256172 0.06256172
0.91886608 0.06256172 0.06256172
0.06256172 0.36214057 0.35490502
0.35360517 0.35360517 0.35360517
0.63728276 0.06256172 0.32779127
0.85909183 0.06256172 0.06256172
0.91886608 0.06256172 0.06256172
0.06256172 0.60420583 0.06256172
0.06256172 0.60364308 0.06256172
0.59892912 0.59358924 0.06256172
0.85616583 0.06256172 0.06256172
0.91886608 0.06256172 0.06256172
0.06256172 0.82406975 0.06256172
0.06256172 0.82401643 0.06256172
0.06256172 0.82311075 0.06256172
0.81900004 0.81328424 0.06256172
0.91886608 0.06256172 0.06256172
0.06256172 0.91886608 0.06256172
0.06256172 0.91886608 0.06256172
0.06256172 0.91886608 0.06256172
0.06256172 0.91886608 0.06256172
0.91886608 0.91886608 0.06256172
0.06256172 0.06256172 0.60309446
0.28428103 0.06256172 0.60301169
0.63521754 0.06256172 0.60160202
0.85890514 0.06256172 0.58582228
0.91886608 0.06256172 0.06256172
0.06256172 0.35240319 0.60263489
0.06256172 0.34273451 0.60255172
0.63329085 0.06256172 0.60113512
0.85873426 0.06256172 0.58527020
0.91886608 0.06256172 0.06256172
0.06256172 0.60356813 0.59451103
0.06256172 0.60300155 0.59442038
0.59287539 0.59287539 0.59287539
0.85579632 0.06256172 0.57541684
0.91886608 0.06256172 0.06256172
0.06256172 0.82400935 0.34052979
0.06256172 0.82395600 0.33897847
0.06256172 0.82304971 0.30684258
0.81844127 0.81321623 0.06256172
0.91886608 0.06256172 0.06256172
0.06256172 0.91886608 0.06256172
0.06256172 0.91886608 0.06256172
0.06256172 0.91886608 0.06256172
0.06256172 0.91886608 0.06256172
0.91886608 0.91886608 0.06256172
0.06256172 0.06256172 0.82290893
0.06256172 0.06256172 0.82290106
0.58168203 0.06256172 0.82276801
0.85516899 0.06256172 0.82139528
0.91886608 0.06256172 0.80619819
0.06256172 0.06256172 0.82286532
0.06256172 0.06256172 0.82285745
0.57826019 0.06256172 0.82272434
0.85499080 0.06256172 0.82135094
0.91886608 0.06256172 0.80614579
0.06256172 0.59678310 0.82212529
0.06256172 0.59617420 0.82211735
0.48548246 0.58524319 0.82198314
0.85192495 0.06256172 0.82059840
0.91886608 0.06256172 0.80525580
0.06256172 0.82338905 0.81418494
0.06256172 0.82333533 0.81417628
0.06256172 0.82242278 0.81402980
0.81251739 0.81251739 0.81251739
0.91886608 0.06256172 0.79561396
0.06256172 0.91886608 0.59492169
0.06256172 0.91886608 0.59483144
0.06256172 0.91886608 0.59329322
0.06256172 0.91886608 0.57591940
0.91886608 0.91886608 0.06256172
0.06256172 0.06256172 0.91886608
0.06256172 0.06256172 0.91886608
0.06256172 0.06256172 0.91886608
0.80474829 0.06256172 0.91886608
0.91886608 0.06256172 0.91886608
0.06256172 0.06256172 0.91886608
0.06256172 0.06256172 0.91886608
0.06256172 0.06256172 0.91886608
0.80443680 0.06256172 0.91886608
0.91886608 0.06256172 0.91886608
0.06256172 0.46333545 0.91886608
0.06256172 0.46075043 0.91886608
0.06256172 0.39957329 0.91886608
0.79900638 0.06256172 0.91886608
0.91886608 0.06256172 0.91886608
0.06256172 0.81686201 0.91886608
0.06256172 0.81680428 0.91886608
0.06256172 0.81582333 0.91886608
0.70971293 0.80512766 0.91886608
0.91886608 0.06256172 0.91886608
0.06256172 0.91886608 0.91886608
0.06256172 0.91886608 0.91886608
0.06256172 0.91886608 0.91886608
0.06256172 0.91886608 0.91886608
0.91886608 0.91886608 0.91886608
