src/ffmpeg_scripts/luts/rec2020-sRGB_4p00.cube
TITLE "rec2020-srgb_4p00"
LUT_3D_SIZE 5
# PQ (EOTF Only)/Rec2020 -> PQ (EOTF Only)/Rec709, CineEI Shift 4.00, Black Level 0.00% IRE, Input 100% -> Output 109% - Created with LUTCalc v4.01 by Ben Turley October 2020
0.06256172 0.06256172 0.06256172
0.52492198 0.06256172 0.06256172
0.79002759 0.06256172 0.06256172
0.91886608 0.06256172 0.06256172
0.91886608 0.06256172 0.06256172
0.06256172 0.49180126 0.06256172
0.48715141 0.48187965 0.06256172
0.78816863 0.06256172 0.06256172
0.91886608 0.06256172 0.06256172
0.91886608 0.06256172 0.06256172
0.06256172 0.75437476 0.06256172
0.06256172 0.75379933 0.06256172
0.74928812 0.74349588 0.06256172
0.91886608 0.06256172 0.06256172
0.91886608 0.06256172 0.06256172
0.06256172 0.91886608 0.06256172
0.06256172 0.91886608 0.06256172
0.06256172 0.91886608 0.06256172
0.91886608 0.91886608 0.06256172
0.91886608 0.06256172 0.06256172
0.06256172 0.91886608 0.06256172
0.06256172 0.91886608 0.06256172
0.06256172 0.91886608 0.06256172
0.06256172 0.91886608 0.06256172
0.91886608 0.91886608 0.06256172
0.06256172 0.06256172 0.49072504
0.52099433 0.06256172 0.48932784
0.78979917 0.06256172 0.46177563
0.91886608 0.06256172 0.06256172
0.91886608 0.06256172 0.06256172
0.06256172 0.49116865 0.48270054
0.48117450 0.48117450 0.48117450
0.78793553 0.06256172 0.45055551
0.91886608 0.06256172 0.06256172
0.91886608 0.06256172 0.06256172
0.06256172 0.75433630 0.06256172
0.06256172 0.75376062 0.06256172
0.74893305 0.74345265 0.06256172
0.91886608 0.06256172 0.06256172
0.91886608 0.06256172 0.06256172
0.06256172 0.91886608 0.06256172
0.06256172 0.91886608 0.06256172
0.06256172 0.91886608 0.06256172
0.91886608 0.91886608 0.06256172
0.91886608 0.06256172 0.06256172
0.06256172 0.91886608 0.06256172
0.06256172 0.91886608 0.06256172
0.06256172 0.91886608 0.06256172
0.06256172 0.91886608 0.06256172
0.91886608 0.91886608 0.06256172
0.06256172 0.06256172 0.75319929
0.39745673 0.06256172 0.75311458
0.78585105 0.06256172 0.75167157
0.91886608 0.06256172 0.73545862
0.91886608 0.06256172 0.06256172
0.06256172 0.47976207 0.75272896
0.06256172 0.46835421 0.75264382
0.78390480 0.06256172 0.75119343
0.91886608 0.06256172 0.73488937
0.91886608 0.06256172 0.06256172
0.06256172 0.75368394 0.74439960
0.06256172 0.75310421 0.74430650
0.74271906 0.74271906 0.74271906
0.91886608 0.06256172 0.72470613
0.91886608 0.06256172 0.06256172
0.06256172 0.91886608 0.46574119
0.06256172 0.91886608 0.46389992
0.06256172 0.91886608 0.42523947
0.91886608 0.91886608 0.06256172
0.91886608 0.06256172 0.06256172
0.06256172 0.91886608 0.06256172
0.06256172 0.91886608 0.06256172
0.06256172 0.91886608 0.06256172
0.06256172 0.91886608 0.06256172
0.91886608 0.91886608 0.06256172
0.06256172 0.06256172 0.91886608
0.06256172 0.06256172 0.91886608
0.73118621 0.06256172 0.91886608
0.91886608 0.06256172 0.91886608
0.91886608 0.06256172 0.91886608
0.06256172 0.06256172 0.91886608
0.06256172 0.06256172 0.91886608
0.72764924 0.06256172 0.91886608
0.91886608 0.06256172 0.91886608
0.91886608 0.06256172 0.91886608
0.06256172 0.74673208 0.91886608
0.06256172 0.74610721 0.91886608
0.62955126 0.73486152 0.91886608
0.91886608 0.06256172 0.91886608
0.91886608 0.06256172 0.91886608
0.06256172 0.91886608 0.91886608
0.06256172 0.91886608 0.91886608
0.06256172 0.91886608 0.91886608
0.91886608 0.91886608 0.91886608
0.91886608 0.06256172 0.91886608
0.06256172 0.91886608 0.74482135
0.06256172 0.91886608 0.74472867
0.06256172 0.91886608 0.74314847
0.06256172 0.91886608 0.72522659
0.91886608 0.91886608 0.06256172
0.06256172 0.06256172 0.91886608
0.06256172 0.06256172 0.91886608
0.06256172 0.06256172 0.91886608
0.91886608 0.06256172 0.91886608
0.91886608 0.06256172 0.91886608
0.06256172 0.06256172 0.91886608
0.06256172 0.06256172 0.91886608
0.06256172 0.06256172 0.91886608
0.91886608 0.06256172 0.91886608
0.91886608 0.06256172 0.91886608
0.06256172 0.60544433 0.91886608
0.06256172 0.60261141 0.91886608
0.06256172 0.53429979 0.91886608
0.91886608 0.06256172 0.91886608
0.91886608 0.06256172 0.91886608
0.06256172 0.91886608 0.91886608
0.06256172 0.91886608 0.91886608
0.06256172 0.91886608 0.91886608
0.85999073 0.91886608 0.91886608
0.91886608 0.06256172 0.91886608
0.06256172 0.91886608 0.91886608
0.06256172 0.91886608 0.91886608
0.06256172 0.91886608 0.91886608
0.06256172 0.91886608 0.91886608
0.91886608 0.91886608 0.91886608
