src/ffmpeg_scripts/luts/rec2020-sRGB_2p00.cube
TITLE "rec2020-srgb_2p00"
LUT_3D_SIZE 33
# PQ (EOTF Only)/Rec2020 -> PQ (EOTF Only)/Rec709, CineEI Shift 2.00, Black Level 0.00% IRE, Input 100% -> Output 109% - Created with LUTCalc v4.01 by Ben Turley October 2020
0.06256172 0.06256172 0.06256172
0.12450916 0.06256172 0.06256172
0.17419911 0.06256172 0.06256172
0.21901407 0.06256172 0.06256172
0.26073489 0.06256172 0.06256172
0.30020610 0.06256172 0.06256172
0.33792113 0.06256172 0.06256172
0.37420286 0.06256172 0.06256172
0.40927845 0.06256172 0.06256172
0.44331608 0.06256172 0.06256172
0.47644500 0.06256172 0.06256172
0.50876751 0.06256172 0.06256172
0.54036646 0.06256172 0.06256172
0.57131026 0.06256172 0.06256172
0.60165625 0.06256172 0.06256172
0.63145319 0.06256172 0.06256172
0.66074298 0.06256172 0.06256172
0.68956200 0.06256172 0.06256172
0.71794212 0.06256172 0.06256172
0.74591146 0.06256172 0.06256172
0.77349501 0.06256172 0.06256172
0.80071511 0.06256172 0.06256172
0.82759184 0.06256172 0.06256172
0.85414334 0.06256172 0.06256172
0.88038609 0.06256172 0.06256172
0.90633509 0.06256172 0.06256172
0.91886608 0.06256172 0.06256172
0.91886608 0.06256172 0.06256172
0.91886608 0.06256172 0.06256172
0.91886608 0.06256172 0.06256172
0.91886608 0.06256172 0.06256172
0.91886608 0.06256172 0.06256172
0.91886608 0.06256172 0.06256172
0.06256172 0.11538667 0.06256172
0.11417943 0.11283208 0.06256172
0.17111585 0.10112590 0.06256172
0.21761170 0.06256172 0.06256172
0.25998600 0.06256172 0.06256172
0.29976866 0.06256172 0.06256172
0.33765031 0.06256172 0.06256172
0.37402817 0.06256172 0.06256172
0.40916230 0.06256172 0.06256172
0.44323702 0.06256172 0.06256172
0.47639019 0.06256172 0.06256172
0.50872895 0.06256172 0.06256172
0.54033900 0.06256172 0.06256172
0.57129051 0.06256172 0.06256172
0.60164194 0.06256172 0.06256172
0.63144275 0.06256172 0.06256172
0.66073532 0.06256172 0.06256172
0.68955635 0.06256172 0.06256172
0.71793795 0.06256172 0.06256172
0.74590837 0.06256172 0.06256172
0.77349271 0.06256172 0.06256172
0.80071340 0.06256172 0.06256172
0.82759057 0.06256172 0.06256172
0.85414240 0.06256172 0.06256172
0.88038539 0.06256172 0.06256172
0.90633456 0.06256172 0.06256172
0.91886608 0.06256172 0.06256172
0.91886608 0.06256172 0.06256172
0.91886608 0.06256172 0.06256172
0.91886608 0.06256172 0.06256172
0.91886608 0.06256172 0.06256172
0.91886608 0.06256172 0.06256172
0.91886608 0.06256172 0.06256172
0.06256172 0.15980302 0.06256172
0.06256172 0.15895402 0.06256172
0.15786868 0.15570119 0.06256172
0.21217295 0.14766383 0.06256172
0.25716466 0.12742788 0.06256172
0.29813987 0.06256172 0.06256172
0.33664758 0.06256172 0.06256172
0.37338336 0.06256172 0.06256172
0.40873430 0.06256172 0.06256172
0.44294602 0.06256172 0.06256172
0.47618858 0.06256172 0.06256172
0.50858715 0.06256172 0.06256172
0.54023806 0.06256172 0.06256172
0.57121794 0.06256172 0.06256172
0.60158934 0.06256172 0.06256172
0.63140436 0.06256172 0.06256172
0.66070716 0.06256172 0.06256172
0.68953561 0.06256172 0.06256172
0.71792261 0.06256172 0.06256172
0.74589699 0.06256172 0.06256172
0.77348426 0.06256172 0.06256172
0.80070712 0.06256172 0.06256172
0.82758589 0.06256172 0.06256172
0.85413892 0.06256172 0.06256172
0.88038280 0.06256172 0.06256172
0.90633264 0.06256172 0.06256172
0.91886608 0.06256172 0.06256172
0.91886608 0.06256172 0.06256172
0.91886608 0.06256172 0.06256172
0.91886608 0.06256172 0.06256172
0.91886608 0.06256172 0.06256172
0.91886608 0.06256172 0.06256172
0.91886608 0.06256172 0.06256172
0.06256172 0.20069547 0.06256172
0.06256172 0.20029792 0.06256172
0.09053987 0.19881418 0.06256172
0.19821058 0.19541916 0.06256172
0.25054036 0.18859676 0.06256172
0.29443689 0.17488886 0.06256172
0.33440152 0.14098844 0.06256172
0.37195019 0.06256172 0.06256172
0.40778721 0.06256172 0.06256172
0.44230379 0.06256172 0.06256172
0.47574437 0.06256172 0.06256172
0.50827508 0.06256172 0.06256172
0.54001607 0.06256172 0.06256172
0.57105841 0.06256172 0.06256172
0.60147375 0.06256172 0.06256172
0.63132004 0.06256172 0.06256172
0.66064531 0.06256172 0.06256172
0.68949004 0.06256172 0.06256172
0.71788892 0.06256172 0.06256172
0.74587202 0.06256172 0.06256172
0.77346571 0.06256172 0.06256172
0.80069332 0.06256172 0.06256172
0.82757562 0.06256172 0.06256172
0.85413127 0.06256172 0.06256172
0.88037711 0.06256172 0.06256172
0.90632841 0.06256172 0.06256172
0.91886608 0.06256172 0.06256172
0.91886608 0.06256172 0.06256172
0.91886608 0.06256172 0.06256172
0.91886608 0.06256172 0.06256172
0.91886608 0.06256172 0.06256172
0.91886608 0.06256172 0.06256172
0.91886608 0.06256172 0.06256172
0.06256172 0.23930225 0.06256172
0.06256172 0.23908650 0.06256172
0.06256172 0.23828795 0.06256172
0.15736403 0.23650061 0.06256172
0.23637453 0.23307953 0.06256172
0.28710699 0.22691379 0.06256172
0.33009591 0.21578184 0.06256172
0.36924667 0.19379367 0.06256172
0.40601652 0.12086493 0.06256172
0.44110942 0.06256172 0.06256172
0.47492099 0.06256172 0.06256172
0.50769787 0.06256172 0.06256172
0.53960604 0.06256172 0.06256172
0.57076405 0.06256172 0.06256172
0.60126060 0.06256172 0.06256172
0.63116464 0.06256172 0.06256172
0.66053136 0.06256172 0.06256172
0.68940611 0.06256172 0.06256172
0.71782687 0.06256172 0.06256172
0.74582603 0.06256172 0.06256172
0.77343156 0.06256172 0.06256172
0.80066792 0.06256172 0.06256172
0.82755672 0.06256172 0.06256172
0.85411720 0.06256172 0.06256172
0.88036664 0.06256172 0.06256172
0.90632062 0.06256172 0.06256172
0.91886608 0.06256172 0.06256172
0.91886608 0.06256172 0.06256172
0.91886608 0.06256172 0.06256172
0.91886608 0.06256172 0.06256172
0.91886608 0.06256172 0.06256172
0.91886608 0.06256172 0.06256172
0.91886608 0.06256172 0.06256172
0.06256172 0.27622207 0.06256172
0.06256172 0.27609461 0.06256172
0.06256172 0.27562450 0.06256172
0.06256172 0.27458166 0.06256172
0.20238717 0.27262216 0.06256172
0.27292755 0.26921421 0.06256172
0.32231523 0.26347643 0.06256172
0.36451054 0.25377456 0.06256172
0.40296535 0.23643026 0.06256172
0.43907096 0.19881519 0.06256172
0.47352398 0.06256172 0.06256172
0.50672221 0.06256172 0.06256172
0.53891471 0.06256172 0.06256172
0.57026857 0.06256172 0.06256172
0.60090226 0.06256172 0.06256172
0.63090357 0.06256172 0.06256172
0.66034005 0.06256172 0.06256172
0.68926525 0.06256172 0.06256172
0.71772279 0.06256172 0.06256172
0.74574890 0.06256172 0.06256172
0.77337428 0.06256172 0.06256172
0.80062532 0.06256172 0.06256172
0.82752502 0.06256172 0.06256172
0.85409361 0.06256172 0.06256172
0.88034909 0.06256172 0.06256172
0.90630758 0.06256172 0.06256172
0.91886608 0.06256172 0.06256172
0.91886608 0.06256172 0.06256172
0.91886608 0.06256172 0.06256172
0.91886608 0.06256172 0.06256172
0.91886608 0.06256172 0.06256172
0.91886608 0.06256172 0.06256172
0.91886608 0.06256172 0.06256172
0.06256172 0.31180953 0.06256172
0.06256172 0.31172993 0.06256172
0.06256172 0.31143680 0.06256172
0.06256172 0.31078934 0.06256172
0.06256172 0.30958328 0.06256172
0.24256162 0.30751876 0.06256172
0.30820611 0.30413955 0.06256172
0.35643163 0.29871020 0.06256172
0.39791366 0.28993297 0.06256172
0.43575150 0.27515140 0.06256172
0.47127159 0.24716596 0.06256172
0.50515903 0.15706962 0.06256172
0.53781163 0.06256172 0.06256172
0.56948019 0.06256172 0.06256172
0.60033316 0.06256172 0.06256172
0.63048952 0.06256172 0.06256172
0.66003691 0.06256172 0.06256172
0.68904222 0.06256172 0.06256172
0.71755806 0.06256172 0.06256172
0.74562687 0.06256172 0.06256172
0.77328369 0.06256172 0.06256172
0.80055797 0.06256172 0.06256172
0.82747491 0.06256172 0.06256172
0.85405631 0.06256172 0.06256172
0.88032134 0.06256172 0.06256172
0.90628695 0.06256172 0.06256172
0.91886608 0.06256172 0.06256172
0.91886608 0.06256172 0.06256172
0.91886608 0.06256172 0.06256172
0.91886608 0.06256172 0.06256172
0.91886608 0.06256172 0.06256172
0.91886608 0.06256172 0.06256172
0.91886608 0.06256172 0.06256172
0.06256172 0.34629918 0.06256172
0.06256172 0.34624746 0.06256172
0.06256172 0.34605717 0.06256172
0.06256172 0.34563785 0.06256172
0.06256172 0.34486032 0.06256172
0.06256172 0.34354023 0.06256172
0.28017314 0.34140947 0.06256172
0.34243309 0.33806546 0.06256172
0.38963512 0.33287278 0.06256172
0.43046531 0.32474863 0.06256172
0.46774336 0.31161020 0.06256172
0.50273518 0.28850366 0.06256172
0.53611238 0.23617395 0.06256172
0.56827102 0.06256172 0.06256172
0.59946292 0.06256172 0.06256172
0.62985769 0.06256172 0.06256172
0.65957502 0.06256172 0.06256172
0.68870275 0.06256172 0.06256172
0.71730752 0.06256172 0.06256172
0.74544138 0.06256172 0.06256172
0.77314604 0.06256172 0.06256172
0.80045567 0.06256172 0.06256172
0.82739880 0.06256172 0.06256172
0.85399968 0.06256172 0.06256172
0.88027921 0.06256172 0.06256172
0.90625564 0.06256172 0.06256172
0.91886608 0.06256172 0.06256172
0.91886608 0.06256172 0.06256172
0.91886608 0.06256172 0.06256172
0.91886608 0.06256172 0.06256172
0.91886608 0.06256172 0.06256172
0.91886608 0.06256172 0.06256172
0.91886608 0.06256172 0.06256172
0.06256172 0.37985748 0.06256172
0.06256172 0.37982288 0.06256172
0.06256172 0.37969562 0.06256172
0.06256172 0.37941557 0.06256172
0.06256172 0.37889765 0.06256172
0.06256172 0.37802237 0.06256172
0.19145925 0.37662046 0.06256172
0.31606560 0.37444769 0.06256172
0.37576692 0.37114137 0.06256172
0.42205446 0.36613817 0.06256172
0.46228219 0.35850274 0.06256172
0.49904413 0.34651269 0.06256172
0.53355122 0.32640032 0.06256172
0.56646079 0.28650319 0.06256172
0.59816605 0.06256172 0.06256172
0.62891909 0.06256172 0.06256172
0.65889041 0.06256172 0.06256172
0.68820038 0.06256172 0.06256172
0.71693718 0.06256172 0.06256172
0.74516742 0.06256172 0.06256172
0.77294287 0.06256172 0.06256172
0.80030474 0.06256172 0.06256172
0.82728656 0.06256172 0.06256172
0.85391619 0.06256172 0.06256172
0.88021712 0.06256172 0.06256172
0.90620949 0.06256172 0.06256172
0.91886608 0.06256172 0.06256172
0.91886608 0.06256172 0.06256172
0.91886608 0.06256172 0.06256172
0.91886608 0.06256172 0.06256172
0.91886608 0.06256172 0.06256172
0.91886608 0.06256172 0.06256172
0.91886608 0.06256172 0.06256172
0.06256172 0.41260861 0.06256172
0.06256172 0.41258492 0.06256172
0.06256172 0.41249786 0.06256172
0.06256172 0.41230640 0.06256172
0.06256172 0.41195289 0.06256172
0.06256172 0.41135712 0.06256172
0.06256172 0.41040724 0.06256172
0.24768856 0.40894576 0.06256172
0.35066610 0.40674705 0.06256172
0.40832587 0.40347895 0.06256172
0.45378687 0.39863221 0.06256172
0.49345307 0.39137759 0.06256172
0.52973368 0.38023645 0.06256172
0.56379028 0.36215642 0.06256172
0.59626599 0.32886337 0.06256172
0.62755042 0.22941368 0.06256172
0.65789539 0.06256172 0.06256172
0.68747196 0.06256172 0.06256172
0.71640112 0.06256172 0.06256172
0.74477137 0.06256172 0.06256172
0.77264942 0.06256172 0.06256172
0.80008688 0.06256172 0.06256172
0.82712464 0.06256172 0.06256172
0.85379578 0.06256172 0.06256172
0.88012759 0.06256172 0.06256172
0.90614297 0.06256172 0.06256172
0.91886608 0.06256172 0.06256172
0.91886608 0.06256172 0.06256172
0.91886608 0.06256172 0.06256172
0.91886608 0.06256172 0.06256172
0.91886608 0.06256172 0.06256172
0.91886608 0.06256172 0.06256172
0.91886608 0.06256172 0.06256172
0.06256172 0.44464863 0.06256172
0.06256172 0.44463212 0.06256172
0.06256172 0.44457148 0.06256172
0.06256172 0.44443818 0.06256172
0.06256172 0.44419230 0.06256172
0.06256172 0.44377864 0.06256172
0.06256172 0.44312099 0.06256172
0.06256172 0.44211366 0.06256172
0.29233921 0.44060864 0.06256172
0.38423063 0.43839507 0.06256172
0.44020156 0.43516483 0.06256172
0.48490848 0.43045025 0.06256172
0.52404779 0.42350132 0.06256172
0.55987556 0.41301272 0.06256172
0.59350936 0.39640104 0.06256172
0.62557856 0.36725052 0.06256172
0.65646878 0.29798026 0.06256172
0.68643116 0.06256172 0.06256172
0.71563704 0.06256172 0.06256172
0.74420785 0.06256172 0.06256172
0.77223242 0.06256172 0.06256172
0.79977761 0.06256172 0.06256172
0.82689493 0.06256172 0.06256172
0.85362505 0.06256172 0.06256172
0.88000070 0.06256172 0.06256172
0.90604872 0.06256172 0.06256172
0.91886608 0.06256172 0.06256172
0.91886608 0.06256172 0.06256172
0.91886608 0.06256172 0.06256172
0.91886608 0.06256172 0.06256172
0.91886608 0.06256172 0.06256172
0.91886608 0.06256172 0.06256172
0.91886608 0.06256172 0.06256172
0.06256172 0.47605403 0.06256172
0.06256172 0.47604237 0.06256172
0.06256172 0.47599951 0.06256172
0.06256172 0.47590534 0.06256172
0.06256172 0.47573175 0.06256172
0.06256172 0.47544005 0.06256172
0.06256172 0.47497714 0.06256172
0.06256172 0.47427013 0.06256172
0.06256172 0.47321843 0.06256172
0.33213932 0.47168177 0.06256172
0.41692962 0.46946129 0.06256172
0.47146696 0.46626808 0.06256172
0.51548050 0.46166714 0.06256172
0.55412272 0.45496914 0.06256172
0.58952150 0.44499654 0.06256172
0.62275536 0.42949121 0.06256172
0.65444062 0.40318068 0.06256172
0.68495876 0.34722906 0.06256172
0.71455990 0.06256172 0.06256172
0.74341546 0.06256172 0.06256172
0.77164717 0.06256172 0.06256172
0.79934413 0.06256172 0.06256172
0.82657330 0.06256172 0.06256172
0.85338618 0.06256172 0.06256172
0.87982326 0.06256172 0.06256172
0.90591699 0.06256172 0.06256172
0.91886608 0.06256172 0.06256172
0.91886608 0.06256172 0.06256172
0.91886608 0.06256172 0.06256172
0.91886608 0.06256172 0.06256172
0.91886608 0.06256172 0.06256172
0.91886608 0.06256172 0.06256172
0.91886608 0.06256172 0.06256172
0.06256172 0.50688709 0.06256172
0.06256172 0.50687875 0.06256172
0.06256172 0.50684811 0.06256172
0.06256172 0.50678080 0.06256172
0.06256172 0.50665678 0.06256172
0.06256172 0.50644851 0.06256172
0.06256172 0.50611842 0.06256172
0.06256172 0.50561522 0.06256172
0.06256172 0.50486886 0.06256172
0.06256172 0.50378300 0.06256172
0.36914341 0.50222380 0.06256172
0.44888484 0.50000226 0.06256172
0.50218156 0.49684503 0.06256172
0.54555325 0.49234320 0.06256172
0.58372429 0.48585476 0.06256172
0.61871442 0.47629882 0.06256172
0.65156751 0.46165185 0.06256172
0.68288775 0.43739786 0.06256172
0.71305243 0.38917901 0.06256172
0.74231047 0.06256172 0.06256172
0.77083314 0.06256172 0.06256172
0.79874236 0.06256172 0.06256172
0.82612743 0.06256172 0.06256172
0.85305540 0.06256172 0.06256172
0.87957775 0.06256172 0.06256172
0.90573481 0.06256172 0.06256172
0.91886608 0.06256172 0.06256172
0.91886608 0.06256172 0.06256172
0.91886608 0.06256172 0.06256172
0.91886608 0.06256172 0.06256172
0.91886608 0.06256172 0.06256172
0.91886608 0.06256172 0.06256172
0.91886608 0.06256172 0.06256172
0.06256172 0.53719948 0.06256172
0.06256172 0.53719346 0.06256172
0.06256172 0.53717135 0.06256172
0.06256172 0.53712277 0.06256172
0.06256172 0.53703329 0.06256172
0.06256172 0.53688310 0.06256172
0.06256172 0.53664527 0.06256172
0.06256172 0.53628318 0.06256172
0.06256172 0.53574717 0.06256172
0.06256172 0.53496957 0.06256172
0.06256172 0.53385767 0.06256172
0.40426584 0.53228305 0.06256172
0.48018778 0.53006485 0.06256172
0.53239474 0.52694249 0.06256172
0.57516886 0.52252806 0.06256172
0.61289142 0.51621698 0.06256172
0.64749043 0.50700275 0.06256172
0.67997908 0.49303564 0.06256172
0.71095035 0.47032487 0.06256172
0.74077744 0.42715652 0.06256172
0.76970791 0.25382279 0.06256172
0.79791275 0.06256172 0.06256172
0.82551396 0.06256172 0.06256172
0.85260094 0.06256172 0.06256172
0.87924080 0.06256172 0.06256172
0.90548499 0.06256172 0.06256172
0.91886608 0.06256172 0.06256172
0.91886608 0.06256172 0.06256172
0.91886608 0.06256172 0.06256172
0.91886608 0.06256172 0.06256172
0.91886608 0.06256172 0.06256172
0.91886608 0.06256172 0.06256172
0.91886608 0.06256172 0.06256172
0.06256172 0.56703471 0.06256172
0.06256172 0.56703033 0.06256172
0.06256172 0.56701425 0.06256172
0.06256172 0.56697891 0.06256172
0.06256172 0.56691384 0.06256172
0.06256172 0.56680466 0.06256172
0.06256172 0.56663186 0.06256172
0.06256172 0.56636902 0.06256172
0.06256172 0.56598045 0.06256172
0.06256172 0.56541786 0.06256172
0.06256172 0.56461571 0.06256172
0.06256172 0.56348439 0.06256172
0.43799876 0.56190000 0.06256172
0.51090979 0.55968854 0.06256172
0.56214812 0.55659992 0.06256172
0.60436306 0.55226329 0.06256172
0.64165722 0.54610387 0.06256172
0.67588037 0.53717303 0.06256172
0.70801862 0.52375204 0.06256172
0.73865469 0.50222646 0.06256172
0.76815780 0.46257596 0.06256172
0.79677413 0.34154790 0.06256172
0.82467426 0.06256172 0.06256172
0.85198013 0.06256172 0.06256172
0.87878121 0.06256172 0.06256172
0.90514463 0.06256172 0.06256172
0.91886608 0.06256172 0.06256172
0.91886608 0.06256172 0.06256172
0.91886608 0.06256172 0.06256172
0.91886608 0.06256172 0.06256172
0.91886608 0.06256172 0.06256172
0.91886608 0.06256172 0.06256172
0.91886608 0.06256172 0.06256172
0.06256172 0.59642992 0.06256172
0.06256172 0.59642672 0.06256172
0.06256172 0.59641494 0.06256172
0.06256172 0.59638907 0.06256172
0.06256172 0.59634144 0.06256172
0.06256172 0.59626155 0.06256172
0.06256172 0.59613515 0.06256172
0.06256172 0.59594301 0.06256172
0.06256172 0.59565923 0.06256172
0.06256172 0.59524892 0.06256172
0.06256172 0.59466506 0.06256172
0.06256172 0.59384395 0.06256172
0.27731348 0.59269863 0.06256172
0.47064056 0.59110909 0.06256172
0.54110815 0.58890704 0.06256172
0.59147722 0.58585108 0.06256172
0.63316658 0.58158422 0.06256172
0.67005015 0.57555549 0.06256172
0.70391084 0.56686146 0.06256172
0.73571088 0.55388297 0.06256172
0.76602362 0.53328018 0.06256172
0.79521458 0.49617197 0.06256172
0.82352846 0.39620685 0.06256172
0.85113536 0.06256172 0.06256172
0.87815710 0.06256172 0.06256172
0.90468312 0.06256172 0.06256172
0.91886608 0.06256172 0.06256172
0.91886608 0.06256172 0.06256172
0.91886608 0.06256172 0.06256172
0.91886608 0.06256172 0.06256172
0.91886608 0.06256172 0.06256172
0.91886608 0.06256172 0.06256172
0.91886608 0.06256172 0.06256172
0.06256172 0.62541717 0.06256172
0.06256172 0.62541481 0.06256172
0.06256172 0.62540614 0.06256172
0.06256172 0.62538710 0.06256172
0.06256172 0.62535205 0.06256172
0.06256172 0.62529328 0.06256172
0.06256172 0.62520032 0.06256172
0.06256172 0.62505907 0.06256172
0.06256172 0.62485058 0.06256172
0.06256172 0.62454945 0.06256172
0.06256172 0.62412154 0.06256172
0.06256172 0.62352095 0.06256172
0.06256172 0.62268559 0.06256172
0.34206284 0.62153082 0.06256172
0.50238771 0.61993994 0.06256172
0.57082988 0.61774944 0.06256172
0.62041275 0.61472510 0.06256172
0.66160611 0.61052120 0.06256172
0.69809497 0.60460571 0.06256172
0.73160501 0.59611043 0.06256172
0.76307747 0.58349178 0.06256172
0.79307725 0.56361143 0.06256172
0.82196634 0.52837467 0.06256172
0.84998801 0.44016401 0.06256172
0.87731182 0.06256172 0.06256172
0.90405937 0.06256172 0.06256172
0.91886608 0.06256172 0.06256172
0.91886608 0.06256172 0.06256172
0.91886608 0.06256172 0.06256172
0.91886608 0.06256172 0.06256172
0.91886608 0.06256172 0.06256172
0.91886608 0.06256172 0.06256172
0.91886608 0.06256172 0.06256172
0.06256172 0.65402436 0.06256172
0.06256172 0.65402262 0.06256172
0.06256172 0.65401621 0.06256172
0.06256172 0.65400215 0.06256172
0.06256172 0.65397625 0.06256172
0.06256172 0.65393282 0.06256172
0.06256172 0.65386415 0.06256172
0.06256172 0.65375985 0.06256172
0.06256172 0.65360597 0.06256172
0.06256172 0.65338386 0.06256172
0.06256172 0.65306857 0.06256172
0.06256172 0.65262667 0.06256172
0.06256172 0.65201327 0.06256172
0.06256172 0.65116771 0.06256172
0.39063638 0.65000735 0.06256172
0.53337763 0.64841830 0.06256172
0.60011430 0.64624109 0.06256172
0.64898145 0.64324742 0.06256172
0.68970504 0.63910062 0.06256172
0.72581339 0.63328360 0.06256172
0.75898324 0.62495529 0.06256172
0.79013744 0.61262877 0.06256172
0.81983331 0.59331228 0.06256172
0.84842956 0.55945660 0.06256172
0.87616807 0.47854188 0.06256172
0.90321777 0.06256172 0.06256172
0.91886608 0.06256172 0.06256172
0.91886608 0.06256172 0.06256172
0.91886608 0.06256172 0.06256172
0.91886608 0.06256172 0.06256172
0.91886608 0.06256172 0.06256172
0.91886608 0.06256172 0.06256172
0.91886608 0.06256172 0.06256172
0.06256172 0.68227606 0.06256172
0.06256172 0.68227476 0.06256172
0.06256172 0.68227001 0.06256172
0.06256172 0.68225958 0.06256172
0.06256172 0.68224038 0.06256172
0.06256172 0.68220819 0.06256172
0.06256172 0.68215729 0.06256172
0.06256172 0.68208000 0.06256172
0.06256172 0.68196601 0.06256172
0.06256172 0.68180156 0.06256172
0.06256172 0.68156828 0.06256172
0.06256172 0.68124168 0.06256172
0.06256172 0.68078898 0.06256172
0.06256172 0.68016618 0.06256172
0.06256172 0.67931391 0.06256172
0.43228462 0.67815126 0.06256172
0.56371101 0.67656677 0.06256172
0.62899477 0.67440430 0.06256172
0.67720683 0.67144039 0.06256172
0.71748404 0.66734559 0.06256172
0.75322460 0.66161435 0.06256172
0.78606354 0.65342594 0.06256172
0.81690770 0.64133471 0.06256172
0.84630761 0.62245234 0.06256172
0.87461897 0.58960005 0.06256172
0.90208230 0.51335973 0.06256172
0.91886608 0.06256172 0.06256172
0.91886608 0.06256172 0.06256172
0.91886608 0.06256172 0.06256172
0.91886608 0.06256172 0.06256172
0.91886608 0.06256172 0.06256172
0.91886608 0.06256172 0.06256172
0.91886608 0.06256172 0.06256172
0.06256172 0.71019398 0.06256172
0.06256172 0.71019302 0.06256172
0.06256172 0.71018949 0.06256172
0.06256172 0.71018173 0.06256172
0.06256172 0.71016746 0.06256172
0.06256172 0.71014353 0.06256172
0.06256172 0.71010571 0.06256172
0.06256172 0.71004828 0.06256172
0.06256172 0.70996360 0.06256172
0.06256172 0.70984149 0.06256172
0.06256172 0.70966836 0.06256172
0.06256172 0.70942616 0.06256172
0.06256172 0.70909079 0.06256172
0.06256172 0.70863009 0.06256172
0.06256172 0.70800090 0.06256172
0.06256172 0.70714496 0.06256172
0.46996935 0.70598291 0.06256172
0.59346429 0.70440531 0.06256172
0.65749996 0.70225882 0.06256172
0.70510974 0.69932385 0.06256172
0.74496150 0.69527656 0.06256172
0.78034567 0.68962001 0.06256172
0.81286196 0.68154802 0.06256172
0.84340331 0.66964323 0.06256172
0.87251425 0.65108549 0.06256172
0.90054776 0.61893142 0.06256172
0.91886608 0.54560375 0.06256172
0.91886608 0.06256172 0.06256172
0.91886608 0.06256172 0.06256172
0.91886608 0.06256172 0.06256172
0.91886608 0.06256172 0.06256172
0.91886608 0.06256172 0.06256172
0.91886608 0.06256172 0.06256172
0.06256172 0.73779749 0.06256172
0.06256172 0.73779677 0.06256172
0.06256172 0.73779414 0.06256172
0.06256172 0.73778837 0.06256172
0.06256172 0.73777774 0.06256172
0.06256172 0.73775993 0.06256172
0.06256172 0.73773176 0.06256172
0.06256172 0.73768901 0.06256172
0.06256172 0.73762598 0.06256172
0.06256172 0.73753512 0.06256172
0.06256172 0.73740634 0.06256172
0.06256172 0.73722629 0.06256172
0.06256172 0.73697716 0.06256172
0.06256172 0.73663531 0.06256172
0.06256172 0.73616912 0.06256172
0.06256172 0.73553621 0.06256172
0.06256172 0.73467930 0.06256172
0.50502584 0.73352036 0.06256172
0.62269719 0.73195170 0.06256172
0.68565479 0.72982226 0.06256172
0.73270876 0.72691547 0.06256172
0.77215386 0.72291169 0.06256172
0.80719190 0.71732002 0.06256172
0.83939286 0.70934371 0.06256172
0.86963778 0.69758238 0.06256172
0.89846593 0.67925401 0.06256172
0.91886608 0.64754008 0.06256172
0.91886608 0.57580671 0.06256172
0.91886608 0.06256172 0.06256172
0.91886608 0.06256172 0.06256172
0.91886608 0.06256172 0.06256172
0.91886608 0.06256172 0.06256172
0.91886608 0.06256172 0.06256172
0.06256172 0.76510396 0.06256172
0.06256172 0.76510342 0.06256172
0.06256172 0.76510146 0.06256172
0.06256172 0.76509716 0.06256172
0.06256172 0.76508924 0.06256172
0.06256172 0.76507595 0.06256172
0.06256172 0.76505496 0.06256172
0.06256172 0.76502309 0.06256172
0.06256172 0.76497612 0.06256172
0.06256172 0.76490841 0.06256172
0.06256172 0.76481248 0.06256172
0.06256172 0.76467841 0.06256172
0.06256172 0.76449301 0.06256172
0.06256172 0.76423881 0.06256172
0.06256172 0.76389253 0.06256172
0.06256172 0.76342311 0.06256172
0.06256172 0.76278883 0.06256172
0.06256172 0.76193336 0.06256172
0.53816932 0.76077978 0.06256172
0.65145741 0.75922188 0.06256172
0.71348108 0.75711042 0.06256172
0.76002054 0.75423113 0.06256172
0.79907594 0.75026728 0.06256172
0.83377704 0.74473165 0.06256172
0.86566915 0.73683236 0.06256172
0.89562326 0.72517586 0.06256172
0.91886608 0.70699142 0.06256172
