src/ffmpeg_scripts/luts/rec2020-sRGB_-2p67.cube
TITLE "rec2020-srgb_-2p67"
LUT_3D_SIZE 9
# PQ (EOTF Only)/Rec2020 -> PQ (EOTF Only)/Rec709, CineEI Shift -2.67, Black Level 0.00% IRE, Input 100% -> Output 109% - Created with LUTCalc v4.01 by Ben Turley October 2020
0.06256172 0.06256172 0.06256172
0.12663299 0.06256172 0.06256172
0.20445444 0.06256172 0.06256172
0.29029207 0.06256172 0.06256172
0.38229515 0.06256172 0.06256172
0.47944786 0.06256172 0.06256172
0.58108923 0.06256172 0.06256172
0.68674746 0.06256172 0.06256172
0.79606532 0.06256172 0.06256172
0.06256172 0.11725978 0.06256172
0.11601834 0.11463252 0.06256172
0.20251689 0.07528207 0.06256172
0.28975028 0.06256172 0.06256172
0.38212268 0.06256172 0.06256172
0.47939026 0.06256172 0.06256172
0.58106990 0.06256172 0.06256172
0.68674114 0.06256172 0.06256172
0.79606336 0.06256172 0.06256172
0.06256172 0.18733816 0.06256172
0.06256172 0.18679346 0.06256172
0.18502288 0.18242392 0.06256172
0.28545422 0.15834897 0.06256172
0.38078656 0.06256172 0.06256172
0.47894676 0.06256172 0.06256172
0.58092132 0.06256172 0.06256172
0.68669261 0.06256172 0.06256172
0.79604836 0.06256172 0.06256172
0.06256172 0.26691597 0.06256172
0.06256172 0.26675855 0.06256172
0.06256172 0.26553817 0.06256172
0.26370919 0.26009603 0.06256172
0.37485142 0.23690165 0.06256172
0.47703431 0.06256172 0.06256172
0.58028623 0.06256172 0.06256172
0.68648571 0.06256172 0.06256172
0.79598444 0.06256172 0.06256172
0.06256172 0.35402334 0.06256172
0.06256172 0.35397220 0.06256172
0.06256172 0.35357844 0.06256172
0.06256172 0.35188087 0.06256172
0.35010298 0.34567305 0.06256172
0.47003496 0.32183503 0.06256172
0.57803806 0.06256172 0.06256172
0.68576086 0.06256172 0.06256172
0.79576126 0.06256172 0.06256172
0.06256172 0.44756038 0.06256172
0.06256172 0.44754303 0.06256172
0.06256172 0.44740969 0.06256172
0.06256172 0.44683983 0.06256172
0.06256172 0.44482438 0.06256172
0.44309947 0.43804675 0.06256172
0.57045457 0.41288658 0.06256172
0.68340129 0.06256172 0.06256172
0.79504287 0.06256172 0.06256172
0.06256172 0.54680238 0.06256172
0.06256172 0.54679648 0.06256172
0.06256172 0.54675116 0.06256172
0.06256172 0.54655799 0.06256172
0.06256172 0.54588145 0.06256172
0.06256172 0.54368132 0.06256172
0.54196962 0.53648458 0.06256172
0.67565747 0.50944791 0.06256172
0.79277086 0.06256172 0.06256172
0.06256172 0.65122685 0.06256172
0.06256172 0.65122490 0.06256172
0.06256172 0.65120991 0.06256172
0.06256172 0.65114611 0.06256172
0.06256172 0.65092335 0.06256172
0.06256172 0.65020641 0.06256172
0.06256172 0.64794020 0.06256172
0.64618716 0.64045706 0.06256172
0.78525557 0.61087672 0.06256172
0.06256172 0.76043481 0.06256172
0.06256172 0.76043420 0.06256172
0.06256172 0.76042952 0.06256172
0.06256172 0.76040959 0.06256172
0.06256172 0.76034009 0.06256172
0.06256172 0.76011715 0.06256172
0.06256172 0.75942002 0.06256172
0.06256172 0.75719858 0.06256172
0.75534981 0.74955897 0.06256172
0.06256172 0.06256172 0.11697085
0.12547195 0.06256172 0.11659718
0.20421761 0.06256172 0.11358215
0.29022512 0.06256172 0.09588900
0.38227379 0.06256172 0.06256172
0.47944072 0.06256172 0.06256172
0.58108683 0.06256172 0.06256172
0.68674668 0.06256172 0.06256172
0.79606508 0.06256172 0.06256172
0.06256172 0.11708983 0.11484681
0.11444889 0.11444889 0.11444889
0.20227226 0.07416556 0.11122256
0.28968284 0.06256172 0.09128410
0.38210127 0.06256172 0.06256172
0.47938312 0.06256172 0.06256172
0.58106750 0.06256172 0.06256172
0.68674036 0.06256172 0.06256172
0.79606312 0.06256172 0.06256172
0.06256172 0.18730181 0.09016974
0.06256172 0.18675676 0.08918179
0.18469146 0.18238422 0.07927132
0.28538280 0.15828580 0.06256172
0.38076482 0.06256172 0.06256172
0.47893958 0.06256172 0.06256172
0.58091892 0.06256172 0.06256172
0.68669182 0.06256172 0.06256172
0.79604811 0.06256172 0.06256172
0.06256172 0.26690542 0.06256172
0.06256172 0.26674799 0.06256172
0.06256172 0.26552743 0.06256172
0.26361294 0.26008443 0.06256172
0.37482810 0.23688539 0.06256172
0.47702698 0.06256172 0.06256172
0.58028381 0.06256172 0.06256172
0.68648493 0.06256172 0.06256172
0.79598420 0.06256172 0.06256172
0.06256172 0.35401992 0.06256172
0.06256172 0.35396877 0.06256172
0.06256172 0.35357499 0.06256172
0.06256172 0.35187735 0.06256172
0.35007162 0.34566926 0.06256172
0.47002704 0.32182993 0.06256172
0.57803559 0.06256172 0.06256172
0.68576007 0.06256172 0.06256172
0.79576102 0.06256172 0.06256172
0.06256172 0.44755922 0.06256172
0.06256172 0.44754187 0.06256172
0.06256172 0.44740852 0.06256172
0.06256172 0.44683866 0.06256172
0.06256172 0.44482318 0.06256172
0.44308881 0.43804546 0.06256172
0.57045189 0.41288486 0.06256172
0.68340048 0.06256172 0.06256172
0.79504262 0.06256172 0.06256172
0.06256172 0.54680198 0.06256172
0.06256172 0.54679608 0.06256172
0.06256172 0.54675076 0.06256172
0.06256172 0.54655760 0.06256172
0.06256172 0.54588105 0.06256172
0.06256172 0.54368091 0.06256172
0.54196599 0.53648414 0.06256172
0.67565659 0.50944732 0.06256172
0.79277061 0.06256172 0.06256172
0.06256172 0.65122672 0.06256172
0.06256172 0.65122477 0.06256172
0.06256172 0.65120978 0.06256172
0.06256172 0.65114598 0.06256172
0.06256172 0.65092322 0.06256172
0.06256172 0.65020628 0.06256172
0.06256172 0.64794007 0.06256172
0.64618596 0.64045691 0.06256172
0.78525530 0.61087652 0.06256172
0.06256172 0.76043477 0.06256172
0.06256172 0.76043416 0.06256172
0.06256172 0.76042948 0.06256172
0.06256172 0.76040955 0.06256172
0.06256172 0.76034005 0.06256172
0.06256172 0.76011711 0.06256172
0.06256172 0.75941998 0.06256172
0.06256172 0.75719854 0.06256172
0.75534943 0.74955892 0.06256172
0.06256172 0.06256172 0.18680037
0.11506621 0.06256172 0.18672056
0.20236725 0.06256172 0.18610390
0.28970900 0.06256172 0.18339981
0.38210958 0.06256172 0.17276553
0.47938589 0.06256172 0.09120330
0.58106843 0.06256172 0.06256172
0.68674066 0.06256172 0.06256172
0.79606322 0.06256172 0.06256172
0.06256172 0.11575603 0.18635668
0.09875275 0.11300405 0.18627623
0.20035969 0.06256172 0.18565463
0.28916298 0.06256172 0.18292807
0.38193673 0.06256172 0.17219037
0.47932825 0.06256172 0.08536652
0.58104909 0.06256172 0.06256172
0.68673434 0.06256172 0.06256172
0.79606126 0.06256172 0.06256172
0.06256172 0.18702191 0.18282680
0.06256172 0.18647412 0.18274108
0.18207838 0.18207838 0.18207838
0.28483206 0.15779795 0.17916406
0.38059767 0.06256172 0.16754866
0.47888444 0.06256172 0.06256172
0.58090049 0.06256172 0.06256172
0.68668580 0.06256172 0.06256172
0.79604625 0.06256172 0.06256172
0.06256172 0.26682443 0.16451417
0.06256172 0.26666681 0.16439285
0.06256172 0.26544486 0.16345142
0.26286949 0.25999529 0.15923170
0.37464883 0.23676043 0.14063780
0.47697068 0.06256172 0.06256172
0.58026525 0.06256172 0.06256172
0.68647890 0.06256172 0.06256172
0.79598234 0.06256172 0.06256172
0.06256172 0.35399359 0.06256172
0.06256172 0.35394243 0.06256172
0.06256172 0.35354852 0.06256172
0.06256172 0.35185033 0.06256172
0.34983037 0.34564012 0.06256172
0.46996624 0.32179076 0.06256172
0.57801658 0.06256172 0.06256172
0.68575399 0.06256172 0.06256172
0.79575915 0.06256172 0.06256172
0.06256172 0.44755029 0.06256172
0.06256172 0.44753293 0.06256172
0.06256172 0.44739958 0.06256172
0.06256172 0.44682965 0.06256172
0.06256172 0.44481398 0.06256172
0.44300687 0.43803552 0.06256172
0.57043129 0.41287166 0.06256172
0.68339425 0.06256172 0.06256172
0.79504074 0.06256172 0.06256172
0.06256172 0.54679894 0.06256172
0.06256172 0.54679304 0.06256172
0.06256172 0.54674772 0.06256172
0.06256172 0.54655455 0.06256172
0.06256172 0.54587798 0.06256172
0.06256172 0.54367777 0.06256172
0.54193808 0.53648075 0.06256172
0.67564982 0.50944278 0.06256172
0.79276868 0.06256172 0.06256172
0.06256172 0.65122571 0.06256172
0.06256172 0.65122376 0.06256172
0.06256172 0.65120878 0.06256172
0.06256172 0.65114498 0.06256172
0.06256172 0.65092221 0.06256172
0.06256172 0.65020526 0.06256172
0.06256172 0.64793903 0.06256172
0.64617671 0.64045578 0.06256172
0.78525320 0.61087498 0.06256172
0.06256172 0.76043445 0.06256172
0.06256172 0.76043384 0.06256172
0.06256172 0.76042916 0.06256172
0.06256172 0.76040924 0.06256172
0.06256172 0.76033973 0.06256172
0.06256172 0.76011679 0.06256172
0.06256172 0.75941967 0.06256172
0.06256172 0.75719821 0.06256172
0.75534654 0.74955857 0.06256172
0.06256172 0.06256172 0.26617210
0.06256172 0.06256172 0.26614894
0.19377199 0.06256172 0.26597087
0.28747132 0.06256172 0.26520785
0.38140696 0.06256172 0.26248215
0.47915209 0.06256172 0.25297108
0.58099005 0.06256172 0.21006766
0.68671505 0.06256172 0.06256172
0.79605530 0.06256172 0.06256172
0.06256172 0.10939175 0.26604368
0.06256172 0.10600083 0.26602048
0.19144063 0.06256172 0.26584209
0.28690869 0.06256172 0.26507769
0.38123268 0.06256172 0.26234692
0.47909431 0.06256172 0.25281623
0.58097070 0.06256172 0.20976936
0.68670873 0.06256172 0.06256172
0.79605334 0.06256172 0.06256172
0.06256172 0.18581449 0.26504987
0.06256172 0.18525471 0.26502634
0.16928257 0.18075705 0.26484546
0.28244084 0.15566423 0.26407026
0.37988242 0.06256172 0.26129982
0.47864936 0.06256172 0.25161557
0.58082197 0.06256172 0.20742907
0.68666018 0.06256172 0.06256172
0.79603833 0.06256172 0.06256172
0.06256172 0.26647860 0.26065708
0.06256172 0.26632022 0.26063206
0.06256172 0.26509228 0.26043963
0.25961456 0.25961456 0.25961456
0.37388140 0.23622583 0.25666024
0.47673061 0.06256172 0.24625716
0.58018620 0.06256172 0.19630376
0.68645321 0.06256172 0.06256172
0.79597441 0.06256172 0.06256172
0.06256172 0.35388144 0.24274698
0.06256172 0.35383021 0.24271458
0.06256172 0.35343577 0.24246525
0.06256172 0.35173523 0.24139348
0.34879542 0.34551598 0.23751777
0.46970698 0.32162380 0.22331555
0.57793562 0.06256172 0.10416261
0.68572811 0.06256172 0.06256172
0.79575121 0.06256172 0.06256172
0.06256172 0.44751226 0.06256172
0.06256172 0.44749490 0.06256172
0.06256172 0.44736148 0.06256172
0.06256172 0.44679132 0.06256172
0.06256172 0.44477477 0.06256172
0.44265722 0.43799323 0.06256172
0.57034354 0.41281545 0.06256172
0.68336771 0.06256172 0.06256172
0.79503273 0.06256172 0.06256172
0.06256172 0.54678601 0.06256172
0.06256172 0.54678011 0.06256172
0.06256172 0.54673479 0.06256172
0.06256172 0.54654159 0.06256172
0.06256172 0.54586492 0.06256172
0.06256172 0.54366440 0.06256172
0.54181918 0.53646631 0.06256172
0.67562101 0.50942347 0.06256172
0.79276047 0.06256172 0.06256172
0.06256172 0.65122144 0.06256172
0.06256172 0.65121949 0.06256172
0.06256172 0.65120450 0.06256172
0.06256172 0.65114070 0.06256172
0.06256172 0.65091793 0.06256172
0.06256172 0.65020094 0.06256172
0.06256172 0.64793460 0.06256172
0.64613736 0.64045099 0.06256172
0.78524429 0.61086843 0.06256172
0.06256172 0.76043312 0.06256172
0.06256172 0.76043251 0.06256172
0.06256172 0.76042783 0.06256172
0.06256172 0.76040790 0.06256172
0.06256172 0.76033840 0.06256172
0.06256172 0.76011545 0.06256172
0.06256172 0.75941831 0.06256172
0.06256172 0.75719683 0.06256172
0.75533423 0.74955707 0.06256172
0.06256172 0.06256172 0.35311488
0.06256172 0.06256172 0.35310735
0.14453266 0.06256172 0.35304948
0.27909890 0.06256172 0.35280268
0.37891112 0.06256172 0.35193645
0.47833231 0.06256172 0.34909945
0.58071629 0.06256172 0.33958637
0.68662571 0.06256172 0.29926245
0.79602768 0.06256172 0.06256172
0.06256172 0.06256172 0.35307313
0.06256172 0.06256172 0.35306559
0.13810139 0.06256172 0.35300770
0.27846877 0.06256172 0.35276077
0.37873165 0.06256172 0.35189409
0.47827400 0.06256172 0.34905561
0.58069688 0.06256172 0.33953712
0.68661938 0.06256172 0.29918032
0.79602572 0.06256172 0.06256172
0.06256172 0.18138773 0.35275181
0.06256172 0.18078105 0.35274425
0.06256172 0.17588201 0.35268612
0.27344082 0.14736669 0.35243823
0.37734075 0.06256172 0.35156814
0.47782503 0.06256172 0.34871821
0.58054772 0.06256172 0.33915792
0.68657079 0.06256172 0.29854668
0.79601071 0.06256172 0.06256172
0.06256172 0.26525973 0.35136981
0.06256172 0.26509863 0.35136211
0.06256172 0.26384935 0.35130301
0.24691624 0.25827094 0.35105091
0.37115009 0.23432775 0.35016598
0.47588871 0.06256172 0.34726617
0.57991010 0.06256172 0.33752357
0.68636362 0.06256172 0.29578878
0.79594677 0.06256172 0.06256172
0.06256172 0.35348927 0.34636182
0.06256172 0.35343779 0.34635364
0.06256172 0.35304147 0.34629082
0.06256172 0.35133271 0.34602285
0.34508170 0.34508170 0.34508170
0.46879727 0.32103897 0.34199264
0.57765283 0.06256172 0.33155265
0.68563783 0.06256172 0.28530198
0.79572350 0.06256172 0.06256172
0.06256172 0.44737955 0.32787274
0.06256172 0.44736217 0.32786246
0.06256172 0.44722856 0.32778351
0.06256172 0.44665754 0.32744653
0.06256172 0.44463795 0.32626048
0.44142744 0.43784563 0.32233879
0.57003697 0.41261920 0.30871735
0.68327514 0.06256172 0.23534373
0.79500480 0.06256172 0.06256172
0.06256172 0.54674092 0.17463902
0.06256172 0.54673502 0.17453930
0.06256172 0.54668967 0.17376720
0.06256172 0.54649638 0.17034748
0.06256172 0.54581938 0.15623196
0.06256172 0.54361778 0.06256172
0.54140350 0.53641596 0.06256172
0.67552052 0.50935613 0.06256172
0.79273185 0.06256172 0.06256172
0.06256172 0.65120653 0.06256172
0.06256172 0.65120458 0.06256172
0.06256172 0.65118960 0.06256172
0.06256172 0.65112578 0.06256172
0.06256172 0.65090297 0.06256172
0.06256172 0.65018587 0.06256172
0.06256172 0.64791917 0.06256172
0.64600005 0.64043429 0.06256172
0.78521323 0.61084560 0.06256172
0.06256172 0.76042846 0.06256172
0.06256172 0.76042785 0.06256172
0.06256172 0.76042317 0.06256172
0.06256172 0.76040324 0.06256172
0.06256172 0.76033373 0.06256172
0.06256172 0.76011078 0.06256172
0.06256172 0.75941361 0.06256172
0.06256172 0.75719201 0.06256172
0.75529130 0.74955183 0.06256172
0.06256172 0.06256172 0.44652754
0.06256172 0.06256172 0.44652498
0.06256172 0.06256172 0.44650534
0.24298090 0.06256172 0.44642168
0.37038496 0.06256172 0.44612941
0.47565634 0.06256172 0.44518697
0.57983420 0.06256172 0.44218949
0.68633903 0.06256172 0.43207601
0.79593918 0.06256172 0.38755567
0.06256172 0.06256172 0.44651337
0.06256172 0.06256172 0.44651081
0.06256172 0.06256172 0.44649117
0.24192758 0.06256172 0.44640749
0.37018644 0.06256172 0.44611518
0.47559630 0.06256172 0.44517258
0.57981461 0.06256172 0.44217462
0.68633268 0.06256172 0.43205934
0.79593723 0.06256172 0.38752794
0.06256172 0.16410929 0.44640446
0.06256172 0.16326403 0.44640190
0.06256172 0.15624183 0.44638223
0.23323700 0.09451620 0.44629846
0.36864624 0.06256172 0.44600579
0.47513394 0.06256172 0.44506203
0.57966405 0.06256172 0.44206031
0.68628394 0.06256172 0.43193130
0.79592220 0.06256172 0.38731467
0.06256172 0.26121008 0.44593937
0.06256172 0.26103954 0.44593680
0.06256172 0.25971616 0.44591703
0.17037059 0.25378646 0.44583282
0.36175370 0.22785332 0.44553862
0.47313901 0.06256172 0.44458991
0.57902040 0.06256172 0.44157206
0.68607614 0.06256172 0.43138415
0.79585819 0.06256172 0.38640082
0.06256172 0.35222066 0.44429883
0.06256172 0.35216839 0.44429621
0.06256172 0.35176590 0.44427607
0.06256172 0.35003022 0.44419031
0.33190268 0.34367522 0.44389066
0.46582115 0.31913641 0.44292426
0.57674146 0.06256172 0.43984874
0.68534812 0.06256172 0.42944987
0.79563471 0.06256172 0.38313633
0.06256172 0.44695325 0.43883319
0.06256172 0.44693578 0.43883041
0.06256172 0.44680153 0.43880900
0.06256172 0.44622779 0.43871783
0.06256172 0.44419839 0.43839925
0.43737130 0.43737130 0.43737130
0.56904843 0.41198775 0.43409482
0.68297807 0.06256172 0.42295506
0.79491531 0.06256172 0.37175017
0.06256172 0.54659637 0.41929984
0.06256172 0.54659046 0.41929636
0.06256172 0.54654504 0.41926969
0.06256172 0.54635145 0.41915604
0.06256172 0.54567340 0.41875867
0.06256172 0.54346832 0.41747390
0.54005970 0.53625453 0.41335178
0.67519796 0.50914014 0.39899447
0.79264011 0.06256172 0.32104484
0.06256172 0.65115878 0.27894285
0.06256172 0.65115683 0.27892343
0.06256172 0.65114184 0.27877411
0.06256172 0.65107799 0.27813504
0.06256172 0.65085507 0.27586256
0.06256172 0.65013761 0.26806800
0.06256172 0.64786973 0.23622561
0.64555894 0.64038078 0.06256172
0.78511367 0.61077243 0.06256172
0.06256172 0.76041355 0.06256172
0.06256172 0.76041294 0.06256172
0.06256172 0.76040826 0.06256172
0.06256172 0.76038833 0.06256172
0.06256172 0.76031880 0.06256172
0.06256172 0.76009582 0.06256172
0.06256172 0.75939853 0.06256172
0.06256172 0.75717656 0.06256172
0.75515368 0.74953506 0.06256172
0.06256172 0.06256172 0.54568425
0.06256172 0.06256172 0.54568338
0.06256172 0.06256172 0.54567670
0.06256172 0.06256172 0.54564825
0.33637930 0.06256172 0.54554900
0.46678896 0.06256172 0.54523045
0.57703552 0.06256172 0.54423226
0.68544139 0.06256172 0.54103010
0.79566327 0.06256172 0.52974906
0.06256172 0.06256172 0.54567943
0.06256172 0.06256172 0.54567856
0.06256172 0.06256172 0.54567188
0.06256172 0.06256172 0.54564343
0.33607945 0.06256172 0.54554417
0.46672277 0.06256172 0.54522560
0.57701534 0.06256172 0.54422736
0.68543498 0.06256172 0.54102503
0.79566131 0.06256172 0.52974334
0.06256172 0.06256172 0.54564240
0.06256172 0.06256172 0.54564153
0.06256172 0.06256172 0.54563484
0.06256172 0.06256172 0.54560638
0.33373919 0.06256172 0.54550709
0.46621294 0.06256172 0.54518839
0.57686024 0.06256172 0.54418975
0.68538577 0.06256172 0.54098611
0.79564624 0.06256172 0.52969942
0.06256172 0.24687300 0.54548459
0.06256172 0.24666345 0.54548371
0.06256172 0.24503261 0.54547702
0.06256172 0.23761493 0.54544851
0.32293462 0.20207960 0.54534905
0.46400998 0.06256172 0.54502981
0.57619708 0.06256172 0.54402947
0.68517598 0.06256172 0.54082024
0.79558204 0.06256172 0.52951222
0.06256172 0.34814362 0.54493232
0.06256172 0.34808869 0.54493144
0.06256172 0.34766570 0.54492470
0.06256172 0.34584023 0.54489602
0.26583373 0.33913697 0.54479597
0.45588182 0.31290422 0.54447484
0.57384795 0.06256172 0.54346852
0.68444095 0.06256172 0.54023966
0.79535788 0.06256172 0.52885663
0.06256172 0.44561368 0.54314144
0.06256172 0.44559595 0.54314054
0.06256172 0.44545968 0.54313368
0.06256172 0.44487726 0.54310444
0.06256172 0.44281671 0.54300246
0.42342056 0.43587905 0.54267510
0.56590438 0.40999332 0.54164913
0.68204770 0.06256172 0.53835571
0.79463630 0.06256172 0.52672553
0.06256172 0.54614517 0.53733910
0.06256172 0.54613923 0.53733815
0.06256172 0.54609359 0.53733084
0.06256172 0.54589907 0.53729974
0.06256172 0.54521772 0.53719122
0.06256172 0.54300175 0.53684283
0.53575043 0.53575043 0.53575043
0.67418719 0.50846481 0.53223830
0.79235408 0.06256172 0.51976421
0.06256172 0.65101006 0.51637066
0.06256172 0.65100810 0.51636947
0.06256172 0.65099309 0.51636032
0.06256172 0.65092914 0.51632136
0.06256172 0.65070587 0.51618541
0.06256172 0.64998727 0.51574868
0.06256172 0.64771574 0.51437649
0.64417312 0.64021409 0.50993535
0.78480319 0.61054440 0.49375865
0.06256172 0.76036713 0.34668356
0.06256172 0.76036652 0.34667542
0.06256172 0.76036183 0.34661284
0.06256172 0.76034189 0.34634592
0.06256172 0.76027234 0.34540851
0.06256172 0.76004924 0.34233201
0.06256172 0.75935160 0.33193864
0.06256172 0.75712849 0.28600134
0.75472416 0.74948288 0.06256172
0.06256172 0.06256172 0.65006159
0.06256172 0.06256172 0.65006131
0.06256172 0.06256172 0.65005910
0.06256172 0.06256172 0.65004969
0.06256172 0.06256172 0.65001688
0.43148529 0.06256172 0.64991173
0.56767441 0.06256172 0.64958382
0.68256878 0.06256172 0.64854773
0.79479234 0.06256172 0.64508674
0.06256172 0.06256172 0.65006000
0.06256172 0.06256172 0.65005971
0.06256172 0.06256172 0.65005750
0.06256172 0.06256172 0.65004809
0.06256172 0.06256172 0.65001528
0.43138725 0.06256172 0.64991013
0.56765212 0.06256172 0.64958221
0.68256218 0.06256172 0.64854611
0.79479036 0.06256172 0.64508506
0.06256172 0.06256172 0.65004775
0.06256172 0.06256172 0.65004746
0.06256172 0.06256172 0.65004525
0.06256172 0.06256172 0.65003584
0.06256172 0.06256172 0.65000303
0.43063080 0.06256172 0.64989787
0.56748078 0.06256172 0.64956990
0.68251144 0.06256172 0.64853366
0.79477514 0.06256172 0.64507215
0.06256172 0.14653824 0.64999560
0.06256172 0.14530964 0.64999531
0.06256172 0.13450766 0.64999310
0.06256172 0.06256172 0.64998368
0.06256172 0.06256172 0.64995085
0.42733649 0.06256172 0.64984563
0.56674789 0.06256172 0.64951748
0.68229516 0.06256172 0.64848066
0.79471033 0.06256172 0.64501718
0.06256172 0.33385048 0.64981355
0.06256172 0.33378500 0.64981326
0.06256172 0.33328043 0.64981104
0.06256172 0.33109636 0.64980161
0.06256172 0.32297954 0.64976871
0.41478479 0.28928498 0.64966329
0.56414722 0.06256172 0.64933451
0.68153723 0.06256172 0.64829567
0.79448402 0.06256172 0.64482528
0.06256172 0.44127678 0.64922816
0.06256172 0.44125817 0.64922787
0.06256172 0.44111514 0.64922564
0.06256172 0.44050368 0.64921615
0.06256172 0.43833865 0.64918305
0.35487260 0.43102884 0.64907697
0.55529854 0.40342390 0.64874614
0.67906817 0.06256172 0.64770079
0.79375551 0.06256172 0.64420809
0.06256172 0.54471550 0.64738319
0.06256172 0.54470947 0.64738289
0.06256172 0.54466313 0.64738062
0.06256172 0.54446561 0.64737094
0.06256172 0.54377371 0.64733719
0.06256172 0.54152287 0.64722902
0.52077564 0.53415123 0.64689165
0.67094438 0.50631383 0.64582548
0.79145100 0.06256172 0.64226151
0.06256172 0.65054199 0.64135047
0.06256172 0.65054003 0.64135015
0.06256172 0.65052494 0.64134773
0.06256172 0.65046067 0.64133742
0.06256172 0.65023629 0.64130144
0.06256172 0.64951410 0.64118614
0.06256172 0.64723104 0.64082647
0.63968928 0.63968928 0.63968928
0.78382240 0.60982551 0.63588161
0.06256172 0.76022136 0.61847426
0.06256172 0.76022075 0.61847386
0.06256172 0.76021606 0.61847077
0.06256172 0.76019608 0.61845763
0.06256172 0.76012642 0.61841181
0.06256172 0.75990296 0.61826493
0.06256172 0.75920422 0.61780642
0.06256172 0.75697754 0.61635352
0.75336375 0.74931898 0.61145257
0.06256172 0.06256172 0.75925975
0.06256172 0.06256172 0.75925966
0.06256172 0.06256172 0.75925897
0.06256172 0.06256172 0.75925603
0.06256172 0.06256172 0.75924578
0.06256172 0.06256172 0.75921294
0.52837631 0.06256172 0.75911068
0.67253912 0.06256172 0.75878916
0.79189235 0.06256172 0.75773254
0.06256172 0.06256172 0.75925925
0.06256172 0.06256172 0.75925916
0.06256172 0.06256172 0.75925847
0.06256172 0.06256172 0.75925553
0.06256172 0.06256172 0.75924528
0.06256172 0.06256172 0.75921244
0.52834240 0.06256172 0.75911018
0.67253177 0.06256172 0.75878866
0.79189031 0.06256172 0.75773203
0.06256172 0.06256172 0.75925542
0.06256172 0.06256172 0.75925533
0.06256172 0.06256172 0.75925464
0.06256172 0.06256172 0.75925170
0.06256172 0.06256172 0.75924145
0.06256172 0.06256172 0.75920861
0.52808159 0.06256172 0.75910634
0.67247535 0.06256172 0.75878482
0.79187460 0.06256172 0.75772814
0.06256172 0.06256172 0.75923913
0.06256172 0.06256172 0.75923904
0.06256172 0.06256172 0.75923835
0.06256172 0.06256172 0.75923540
0.06256172 0.06256172 0.75922515
0.06256172 0.06256172 0.75919230
0.52696313 0.06256172 0.75909002
0.67223476 0.06256172 0.75876844
0.79180771 0.06256172 0.75771158
0.06256172 0.25069490 0.75918229
0.06256172 0.25049668 0.75918220
0.06256172 0.24895540 0.75918151
0.06256172 0.24197639 0.75917857
0.06256172 0.20950074 0.75916831
0.06256172 0.06256172 0.75913544
0.52295537 0.06256172 0.75903309
0.67139119 0.06256172 0.75871131
0.79157412 0.06256172 0.75765380
0.06256172 0.42545708 0.75900004
0.06256172 0.42543485 0.75899995
0.06256172 0.42526395 0.75899926
0.06256172 0.42453273 0.75899631
0.06256172 0.42193514 0.75898603
0.06256172 0.41306030 0.75895309
0.50881693 0.37768060 0.75885055
0.66863782 0.06256172 0.75852813
0.79082205 0.06256172 0.75746852
0.06256172 0.53989387 0.75843066
0.06256172 0.53988752 0.75843057
0.06256172 0.53983873 0.75842987
0.06256172 0.53963074 0.75842691
0.06256172 0.53890201 0.75841656
0.06256172 0.53652925 0.75838343
0.44186423 0.52873534 0.75828025
0.65951820 0.49892736 0.75795584
0.78844176 0.06256172 0.75688964
0.06256172 0.64899880 0.75662155
0.06256172 0.64899680 0.75662146
0.06256172 0.64898146 0.75662075
0.06256172 0.64891614 0.75661773
0.06256172 0.64868806 0.75660718
0.06256172 0.64795390 0.75657339
0.06256172 0.64563240 0.75646818
0.62338230 0.63795674 0.75613737
0.78054832 0.60744165 0.75504996
0.06256172 0.75974424 0.75046250
0.06256172 0.75974363 0.75046240
0.06256172 0.75973891 0.75046164
0.06256172 0.75971883 0.75045841
0.06256172 0.75964881 0.75044714
0.06256172 0.75942420 0.75041104
0.06256172 0.75872183 0.75029861
0.06256172 0.75648341 0.74994506
0.74878230 0.74878230 0.74878230
