src/ffmpeg_scripts/luts/rec2020-sRGB_1p00.cube
TITLE "rec2020-srgb_1p00"
LUT_3D_SIZE 33
# PQ (EOTF Only)/Rec2020 -> PQ (EOTF Only)/Rec709, CineEI Shift 1.00, Black Level 0.00% IRE, Input 100% -> Output 109% - Created with LUTCalc v4.01 by Ben Turley October 2020
0.06256172 0.06256172 0.06256172
0.10879148 0.06256172 0.06256172
0.14914384 0.06256172 0.06256172
0.18692739 0.06256172 0.06256172
0.22301464 0.06256172 0.06256172
0.25783422 0.06256172 0.06256172
0.29164286 0.06256172 0.06256172
0.32461183 0.06256172 0.06256172
0.35686362 0.06256172 0.06256172
0.38849014 0.06256172 0.06256172
0.41956291 0.06256172 0.06256172
0.45013914 0.06256172 0.06256172
0.48026562 0.06256172 0.06256172
0.50998133 0.06256172 0.06256172
0.53931922 0.06256172 0.06256172
0.56830751 0.06256172 0.06256172
0.59697062 0.06256172 0.06256172
0.62532991 0.06256172 0.06256172
0.65340420 0.06256172 0.06256172
0.68121019 0.06256172 0.06256172
0.70876280 0.06256172 0.06256172
0.73607546 0.06256172 0.06256172
0.76316027 0.06256172 0.06256172
0.79002825 0.06256172 0.06256172
0.81668942 0.06256172 0.06256172
0.84315297 0.06256172 0.06256172
0.86942733 0.06256172 0.06256172
0.89552028 0.06256172 0.06256172
0.91886608 0.06256172 0.06256172
0.91886608 0.06256172 0.06256172
0.91886608 0.06256172 0.06256172
0.91886608 0.06256172 0.06256172
0.91886608 0.06256172 0.06256172
0.06256172 0.10161322 0.06256172
0.10066982 0.09961882 0.06256172
0.14658773 0.09057793 0.06256172
0.18572861 0.06256172 0.06256172
0.22236005 0.06256172 0.06256172
0.25744505 0.06256172 0.06256172
0.29139835 0.06256172 0.06256172
0.32445212 0.06256172 0.06256172
0.35675624 0.06256172 0.06256172
0.38841633 0.06256172 0.06256172
0.41951127 0.06256172 0.06256172
0.45010251 0.06256172 0.06256172
0.48023934 0.06256172 0.06256172
0.50996230 0.06256172 0.06256172
0.53930534 0.06256172 0.06256172
0.56829732 0.06256172 0.06256172
0.59696310 0.06256172 0.06256172
0.62532434 0.06256172 0.06256172
0.65340006 0.06256172 0.06256172
0.68120711 0.06256172 0.06256172
0.70876050 0.06256172 0.06256172
0.73607374 0.06256172 0.06256172
0.76315899 0.06256172 0.06256172
0.79002729 0.06256172 0.06256172
0.81668870 0.06256172 0.06256172
0.84315243 0.06256172 0.06256172
0.86942693 0.06256172 0.06256172
0.89551998 0.06256172 0.06256172
0.91886608 0.06256172 0.06256172
0.91886608 0.06256172 0.06256172
0.91886608 0.06256172 0.06256172
0.91886608 0.06256172 0.06256172
0.91886608 0.06256172 0.06256172
0.06256172 0.13726300 0.06256172
0.06256172 0.13656674 0.06256172
0.13567741 0.13390387 0.06256172
0.18108889 0.12735756 0.06256172
0.21989612 0.11110562 0.06256172
0.25599661 0.06256172 0.06256172
0.29049326 0.06256172 0.06256172
0.32386264 0.06256172 0.06256172
0.35636058 0.06256172 0.06256172
0.38814463 0.06256172 0.06256172
0.41932134 0.06256172 0.06256172
0.44996784 0.06256172 0.06256172
0.48014275 0.06256172 0.06256172
0.50989237 0.06256172 0.06256172
0.53925432 0.06256172 0.06256172
0.56825986 0.06256172 0.06256172
0.59693547 0.06256172 0.06256172
0.62530387 0.06256172 0.06256172
0.65338485 0.06256172 0.06256172
0.68119577 0.06256172 0.06256172
0.70875204 0.06256172 0.06256172
0.73606742 0.06256172 0.06256172
0.76315426 0.06256172 0.06256172
0.79002376 0.06256172 0.06256172
0.81668607 0.06256172 0.06256172
0.84315047 0.06256172 0.06256172
0.86942546 0.06256172 0.06256172
0.89551889 0.06256172 0.06256172
0.91886608 0.06256172 0.06256172
0.91886608 0.06256172 0.06256172
0.91886608 0.06256172 0.06256172
0.91886608 0.06256172 0.06256172
0.91886608 0.06256172 0.06256172
0.06256172 0.17134814 0.06256172
0.06256172 0.17101201 0.06256172
0.08256188 0.16975827 0.06256172
0.16924858 0.16689410 0.06256172
0.21412440 0.16115817 0.06256172
0.25270733 0.14971650 0.06256172
0.28846713 0.12195842 0.06256172
0.32255291 0.06256172 0.06256172
0.35548525 0.06256172 0.06256172
0.38754509 0.06256172 0.06256172
0.41890292 0.06256172 0.06256172
0.44967146 0.06256172 0.06256172
0.47993032 0.06256172 0.06256172
0.50973865 0.06256172 0.06256172
0.53914221 0.06256172 0.06256172
0.56817759 0.06256172 0.06256172
0.59687477 0.06256172 0.06256172
0.62525891 0.06256172 0.06256172
0.65335144 0.06256172 0.06256172
0.68117088 0.06256172 0.06256172
0.70873347 0.06256172 0.06256172
0.73605354 0.06256172 0.06256172
0.76314389 0.06256172 0.06256172
0.79001601 0.06256172 0.06256172
0.81668028 0.06256172 0.06256172
0.84314615 0.06256172 0.06256172
0.86942225 0.06256172 0.06256172
0.89551650 0.06256172 0.06256172
0.91886608 0.06256172 0.06256172
0.91886608 0.06256172 0.06256172
0.91886608 0.06256172 0.06256172
0.91886608 0.06256172 0.06256172
0.91886608 0.06256172 0.06256172
0.06256172 0.20437677 0.06256172
0.06256172 0.20419020 0.06256172
0.06256172 0.20349980 0.06256172
0.13526418 0.20195559 0.06256172
0.20184672 0.19900401 0.06256172
0.24621153 0.19369834 0.06256172
0.28458783 0.18416591 0.06256172
0.32008394 0.16552507 0.06256172
0.35384939 0.10591374 0.06256172
0.38643041 0.06256172 0.06256172
0.41812745 0.06256172 0.06256172
0.44912333 0.06256172 0.06256172
0.47953800 0.06256172 0.06256172
0.50945502 0.06256172 0.06256172
0.53893550 0.06256172 0.06256172
0.56802594 0.06256172 0.06256172
0.59676295 0.06256172 0.06256172
0.62517610 0.06256172 0.06256172
0.65328991 0.06256172 0.06256172
0.68112506 0.06256172 0.06256172
0.70869928 0.06256172 0.06256172
0.73602800 0.06256172 0.06256172
0.76312480 0.06256172 0.06256172
0.79000174 0.06256172 0.06256172
0.81666962 0.06256172 0.06256172
0.84313819 0.06256172 0.06256172
0.86941632 0.06256172 0.06256172
0.89551209 0.06256172 0.06256172
0.91886608 0.06256172 0.06256172
0.91886608 0.06256172 0.06256172
0.91886608 0.06256172 0.06256172
0.91886608 0.06256172 0.06256172
0.91886608 0.06256172 0.06256172
0.06256172 0.23660343 0.06256172
0.06256172 0.23649120 0.06256172
0.06256172 0.23607731 0.06256172
0.06256172 0.23515949 0.06256172
0.17277944 0.23343609 0.06256172
0.23370458 0.23044245 0.06256172
0.27759345 0.22541294 0.06256172
0.31576409 0.21693999 0.06256172
0.35103263 0.20189484 0.06256172
0.38452882 0.16975912 0.06256172
0.41681212 0.06256172 0.06256172
0.44819701 0.06256172 0.06256172
0.47887660 0.06256172 0.06256172
0.50897765 0.06256172 0.06256172
0.53858799 0.06256172 0.06256172
0.56777122 0.06256172 0.06256172
0.59657521 0.06256172 0.06256172
0.62503713 0.06256172 0.06256172
0.65318669 0.06256172 0.06256172
0.68104819 0.06256172 0.06256172
0.70864193 0.06256172 0.06256172
0.73598517 0.06256172 0.06256172
0.76309279 0.06256172 0.06256172
0.78997782 0.06256172 0.06256172
0.81665175 0.06256172 0.06256172
0.84312486 0.06256172 0.06256172
0.86940639 0.06256172 0.06256172
0.89550470 0.06256172 0.06256172
0.91886608 0.06256172 0.06256172
0.91886608 0.06256172 0.06256172
0.91886608 0.06256172 0.06256172
0.91886608 0.06256172 0.06256172
0.91886608 0.06256172 0.06256172
0.06256172 0.26818267 0.06256172
0.06256172 0.26811151 0.06256172
0.06256172 0.26784949 0.06256172
0.06256172 0.26727087 0.06256172
0.06256172 0.26619343 0.06256172
0.20719804 0.26435030 0.06256172
0.26496377 0.26133677 0.06256172
0.30841133 0.25650368 0.06256172
0.34637484 0.24871351 0.06256172
0.38143457 0.23566088 0.06256172
0.41469243 0.21119163 0.06256172
0.44671334 0.13502319 0.06256172
0.47782149 0.06256172 0.06256172
0.50821818 0.06256172 0.06256172
0.53803614 0.06256172 0.06256172
0.56736725 0.06256172 0.06256172
0.59627775 0.06256172 0.06256172
0.62481708 0.06256172 0.06256172
0.65302333 0.06256172 0.06256172
0.68092658 0.06256172 0.06256172
0.70855124 0.06256172 0.06256172
0.73591744 0.06256172 0.06256172
0.76304219 0.06256172 0.06256172
0.78994000 0.06256172 0.06256172
0.81662351 0.06256172 0.06256172
0.84310379 0.06256172 0.06256172
0.86939069 0.06256172 0.06256172
0.89549303 0.06256172 0.06256172
0.91886608 0.06256172 0.06256172
0.91886608 0.06256172 0.06256172
0.91886608 0.06256172 0.06256172
0.91886608 0.06256172 0.06256172
0.91886608 0.06256172 0.06256172
0.06256172 0.29921874 0.06256172
0.06256172 0.29917190 0.06256172
0.06256172 0.29899958 0.06256172
0.06256172 0.29861990 0.06256172
0.06256172 0.29791602 0.06256172
0.06256172 0.29672141 0.06256172
0.24008568 0.29479441 0.06256172
0.29571996 0.29177318 0.06256172
0.33875764 0.28708904 0.06256172
0.37651306 0.27977871 0.06256172
0.41137459 0.26800448 0.06256172
0.44441390 0.24744769 0.06256172
0.47619668 0.20167353 0.06256172
0.50705362 0.06256172 0.06256172
0.53719242 0.06256172 0.06256172
0.56675088 0.06256172 0.06256172
0.59582454 0.06256172 0.06256172
0.62448217 0.06256172 0.06256172
0.65277488 0.06256172 0.06256172
0.68074174 0.06256172 0.06256172
0.70841343 0.06256172 0.06256172
0.73581457 0.06256172 0.06256172
0.76296533 0.06256172 0.06256172
0.78988258 0.06256172 0.06256172
0.81658063 0.06256172 0.06256172
0.84307180 0.06256172 0.06256172
0.86936686 0.06256172 0.06256172
0.89547531 0.06256172 0.06256172
0.91886608 0.06256172 0.06256172
0.91886608 0.06256172 0.06256172
0.91886608 0.06256172 0.06256172
0.91886608 0.06256172 0.06256172
0.91886608 0.06256172 0.06256172
0.06256172 0.32978687 0.06256172
0.06256172 0.32975517 0.06256172
0.06256172 0.32963860 0.06256172
0.06256172 0.32938210 0.06256172
0.06256172 0.32890777 0.06256172
0.06256172 0.32810635 0.06256172
0.16356156 0.32682321 0.06256172
0.27199050 0.32483571 0.06256172
0.32604229 0.32181402 0.06256172
0.36869787 0.31724789 0.06256172
0.40624520 0.31029434 0.06256172
0.44091496 0.29941210 0.06256172
0.47374893 0.28126313 0.06256172
0.50531074 0.24567734 0.06256172
0.53593534 0.06256172 0.06256172
0.56583537 0.06256172 0.06256172
0.59515286 0.06256172 0.06256172
0.62398660 0.06256172 0.06256172
0.65240766 0.06256172 0.06256172
0.68046876 0.06256172 0.06256172
0.70821004 0.06256172 0.06256172
0.73566280 0.06256172 0.06256172
0.76285199 0.06256172 0.06256172
0.78979793 0.06256172 0.06256172
0.81651742 0.06256172 0.06256172
0.84302465 0.06256172 0.06256172
0.86933174 0.06256172 0.06256172
0.89544920 0.06256172 0.06256172
0.91886608 0.06256172 0.06256172
0.91886608 0.06256172 0.06256172
0.91886608 0.06256172 0.06256172
0.91886608 0.06256172 0.06256172
0.91886608 0.06256172 0.06256172
0.06256172 0.35994396 0.06256172
0.06256172 0.35992204 0.06256172
0.06256172 0.35984147 0.06256172
0.06256172 0.35966430 0.06256172
0.06256172 0.35933719 0.06256172
0.06256172 0.35878599 0.06256172
0.06256172 0.35790739 0.06256172
0.21164551 0.35655606 0.06256172
0.30317657 0.35452419 0.06256172
0.35598307 0.35150659 0.06256172
0.39828096 0.34703692 0.06256172
0.43562103 0.34035927 0.06256172
0.47010314 0.33013404 0.06256172
0.50274088 0.31361946 0.06256172
0.53409420 0.28347847 0.06256172
0.56450069 0.19584734 0.06256172
0.59417681 0.06256172 0.06256172
0.62326810 0.06256172 0.06256172
0.65187614 0.06256172 0.06256172
0.68007413 0.06256172 0.06256172
0.70791627 0.06256172 0.06256172
0.73544374 0.06256172 0.06256172
0.76268848 0.06256172 0.06256172
0.78967584 0.06256172 0.06256172
0.81642629 0.06256172 0.06256172
0.84295668 0.06256172 0.06256172
0.86928112 0.06256172 0.06256172
0.89541158 0.06256172 0.06256172
0.91886608 0.06256172 0.06256172
0.91886608 0.06256172 0.06256172
0.91886608 0.06256172 0.06256172
0.91886608 0.06256172 0.06256172
0.91886608 0.06256172 0.06256172
0.06256172 0.38973458 0.06256172
0.06256172 0.38971916 0.06256172
0.06256172 0.38966251 0.06256172
0.06256172 0.38953802 0.06256172
0.06256172 0.38930837 0.06256172
0.06256172 0.38892206 0.06256172
0.06256172 0.38830799 0.06256172
0.06256172 0.38736763 0.06256172
0.25084627 0.38596315 0.06256172
0.33379565 0.38389855 0.06256172
0.38558337 0.38088801 0.06256172
0.42754494 0.37649904 0.06256172
0.46467914 0.37004090 0.06256172
0.49897643 0.36031796 0.06256172
0.53142437 0.34498159 0.06256172
0.56257844 0.31826240 0.06256172
0.59277772 0.25585473 0.06256172
0.62224165 0.06256172 0.06256172
0.65111863 0.06256172 0.06256172
0.67951268 0.06256172 0.06256172
0.70749887 0.06256172 0.06256172
0.73513277 0.06256172 0.06256172
0.76245653 0.06256172 0.06256172
0.78950274 0.06256172 0.06256172
0.81629713 0.06256172 0.06256172
0.84286039 0.06256172 0.06256172
0.86920942 0.06256172 0.06256172
0.89535829 0.06256172 0.06256172
0.91886608 0.06256172 0.06256172
0.91886608 0.06256172 0.06256172
0.91886608 0.06256172 0.06256172
0.91886608 0.06256172 0.06256172
0.91886608 0.06256172 0.06256172
0.06256172 0.41919460 0.06256172
0.06256172 0.41918361 0.06256172
0.06256172 0.41914324 0.06256172
0.06256172 0.41905454 0.06256172
0.06256172 0.41889104 0.06256172
0.06256172 0.41861629 0.06256172
0.06256172 0.41818033 0.06256172
0.06256172 0.41751459 0.06256172
0.06256172 0.41652450 0.06256172
0.28642814 0.41507835 0.06256172
0.36394540 0.41298970 0.06256172
0.41487624 0.40998821 0.06256172
0.45652031 0.40566799 0.06256172
0.49345039 0.39938822 0.06256172
0.52756481 0.39005956 0.06256172
0.55982759 0.37560697 0.06256172
0.59078934 0.35123134 0.06256172
0.62078989 0.30006100 0.06256172
0.65005094 0.06256172 0.06256172
0.67872331 0.06256172 0.06256172
0.70691307 0.06256172 0.06256172
0.73469694 0.06256172 0.06256172
0.76213177 0.06256172 0.06256172
0.78926056 0.06256172 0.06256172
0.81611653 0.06256172 0.06256172
0.84272579 0.06256172 0.06256172
0.86910924 0.06256172 0.06256172
0.89528385 0.06256172 0.06256172
0.91886608 0.06256172 0.06256172
0.91886608 0.06256172 0.06256172
0.91886608 0.06256172 0.06256172
0.91886608 0.06256172 0.06256172
0.91886608 0.06256172 0.06256172
0.06256172 0.44835354 0.06256172
0.06256172 0.44834562 0.06256172
0.06256172 0.44831653 0.06256172
0.06256172 0.44825263 0.06256172
0.06256172 0.44813489 0.06256172
0.06256172 0.44793719 0.06256172
0.06256172 0.44762386 0.06256172
0.06256172 0.44714627 0.06256172
0.06256172 0.44643799 0.06256172
0.06256172 0.44540777 0.06256172
0.31998968 0.44392895 0.06256172
0.39369374 0.44182291 0.06256172
0.44388890 0.43883185 0.06256172
0.48523207 0.43457102 0.06256172
0.52195995 0.42843847 0.06256172
0.55589294 0.41942520 0.06256172
0.58797390 0.40565365 0.06256172
0.61874857 0.38296887 0.06256172
0.64855702 0.33833855 0.06256172
0.67762270 0.06256172 0.06256172
0.70609839 0.06256172 0.06256172
0.73409197 0.06256172 0.06256172
0.76168159 0.06256172 0.06256172
0.78892521 0.06256172 0.06256172
0.81586665 0.06256172 0.06256172
0.84253967 0.06256172 0.06256172
0.86897076 0.06256172 0.06256172
0.89518099 0.06256172 0.06256172
0.91886608 0.06256172 0.06256172
0.91886608 0.06256172 0.06256172
0.91886608 0.06256172 0.06256172
0.91886608 0.06256172 0.06256172
0.91886608 0.06256172 0.06256172
0.06256172 0.47723609 0.06256172
0.06256172 0.47723034 0.06256172
0.06256172 0.47720919 0.06256172
0.06256172 0.47716273 0.06256172
0.06256172 0.47707717 0.06256172
0.06256172 0.47693357 0.06256172
0.06256172 0.47670616 0.06256172
0.06256172 0.47635998 0.06256172
0.06256172 0.47584755 0.06256172
0.06256172 0.47510429 0.06256172
0.06256172 0.47404174 0.06256172
0.35223289 0.47253745 0.06256172
0.42309062 0.47041928 0.06256172
0.47264414 0.46743960 0.06256172
0.51370114 0.46323065 0.06256172
0.55022879 0.45722102 0.06256172
0.58398136 0.44846334 0.06256172
0.61588293 0.43522608 0.06256172
0.64647451 0.41380186 0.06256172
0.67609608 0.37343633 0.06256172
0.70497244 0.21698201 0.06256172
0.73325803 0.06256172 0.06256172
0.76106224 0.06256172 0.06256172
0.78846449 0.06256172 0.06256172
0.81552371 0.06256172 0.06256172
0.84228445 0.06256172 0.06256172
0.86878098 0.06256172 0.06256172
0.89504010 0.06256172 0.06256172
0.91886608 0.06256172 0.06256172
0.91886608 0.06256172 0.06256172
0.91886608 0.06256172 0.06256172
0.91886608 0.06256172 0.06256172
0.91886608 0.06256172 0.06256172
0.06256172 0.50586324 0.06256172
0.06256172 0.50585902 0.06256172
0.06256172 0.50584353 0.06256172
0.06256172 0.50580952 0.06256172
0.06256172 0.50574687 0.06256172
0.06256172 0.50564177 0.06256172
0.06256172 0.50547542 0.06256172
0.06256172 0.50522241 0.06256172
0.06256172 0.50484839 0.06256172
0.06256172 0.50430694 0.06256172
0.06256172 0.50353504 0.06256172
0.06256172 0.50244660 0.06256172
0.38352905 0.50092275 0.06256172
0.45217439 0.49879667 0.06256172
0.50116135 0.49582906 0.06256172
0.54194526 0.49166581 0.06256172
0.57827461 0.48575965 0.06256172
0.61184748 0.47721080 0.06256172
0.64357137 0.46439721 0.06256172
0.67398287 0.44393147 0.06256172
0.70342168 0.40652094 0.06256172
0.73211364 0.29491956 0.06256172
0.76021459 0.06256172 0.06256172
0.78783519 0.06256172 0.06256172
0.81505598 0.06256172 0.06256172
0.84193674 0.06256172 0.06256172
0.86852265 0.06256172 0.06256172
0.89484842 0.06256172 0.06256172
0.91886608 0.06256172 0.06256172
0.91886608 0.06256172 0.06256172
0.91886608 0.06256172 0.06256172
0.91886608 0.06256172 0.06256172
0.91886608 0.06256172 0.06256172
0.06256172 0.53425303 0.06256172
0.06256172 0.53424992 0.06256172
0.06256172 0.53423851 0.06256172
0.06256172 0.53421345 0.06256172
0.06256172 0.53416730 0.06256172
0.06256172 0.53408990 0.06256172
0.06256172 0.53396745 0.06256172
0.06256172 0.53378131 0.06256172
0.06256172 0.53350641 0.06256172
0.06256172 0.53310898 0.06256172
0.06256172 0.53254349 0.06256172
0.06256172 0.53174833 0.06256172
0.23756472 0.53063945 0.06256172
0.41409880 0.52910094 0.06256172
0.48097543 0.52697041 0.06256172
0.52945721 0.52401537 0.06256172
0.56997971 0.51989266 0.06256172
0.60611258 0.51407403 0.06256172
0.63950621 0.50569645 0.06256172
0.67105357 0.49322025 0.06256172
0.70128725 0.47348998 0.06256172
0.73054653 0.43819451 0.06256172
0.75905811 0.34480276 0.06256172
0.78697896 0.06256172 0.06256172
0.81442087 0.06256172 0.06256172
0.84146530 0.06256172 0.06256172
0.86817278 0.06256172 0.06256172
0.89458905 0.06256172 0.06256172
0.91886608 0.06256172 0.06256172
0.91886608 0.06256172 0.06256172
0.91886608 0.06256172 0.06256172
0.91886608 0.06256172 0.06256172
0.91886608 0.06256172 0.06256172
0.06256172 0.56242114 0.06256172
0.06256172 0.56241884 0.06256172
0.06256172 0.56241039 0.06256172
0.06256172 0.56239184 0.06256172
0.06256172 0.56235768 0.06256172
0.06256172 0.56230040 0.06256172
0.06256172 0.56220980 0.06256172
0.06256172 0.56207214 0.06256172
0.06256172 0.56186897 0.06256172
0.06256172 0.56157552 0.06256172
0.06256172 0.56115857 0.06256172
0.06256172 0.56057341 0.06256172
0.06256172 0.55975963 0.06256172
0.29538514 0.55863493 0.06256172
0.44408438 0.55708589 0.06256172
0.50951845 0.55495382 0.06256172
0.55754621 0.55201172 0.06256172
0.59781775 0.54792516 0.06256172
0.63375583 0.54218074 0.06256172
0.66697044 0.53394350 0.06256172
0.69834200 0.52173531 0.06256172
0.72839948 0.50256882 0.06256172
0.75748177 0.46880607 0.06256172
0.78581623 0.38554835 0.06256172
0.81356078 0.06256172 0.06256172
0.84082818 0.06256172 0.06256172
0.86770068 0.06256172 0.06256172
0.89423946 0.06256172 0.06256172
0.91886608 0.06256172 0.06256172
0.91886608 0.06256172 0.06256172
0.91886608 0.06256172 0.06256172
0.91886608 0.06256172 0.06256172
0.91886608 0.06256172 0.06256172
0.06256172 0.59038134 0.06256172
0.06256172 0.59037963 0.06256172
0.06256172 0.59037335 0.06256172
0.06256172 0.59035957 0.06256172
0.06256172 0.59033418 0.06256172
0.06256172 0.59029162 0.06256172
0.06256172 0.59022432 0.06256172
0.06256172 0.59012209 0.06256172
0.06256172 0.58997128 0.06256172
0.06256172 0.58975361 0.06256172
0.06256172 0.58944464 0.06256172
0.06256172 0.58901163 0.06256172
0.06256172 0.58841062 0.06256172
0.06256172 0.58758226 0.06256172
0.33967787 0.58644572 0.06256172
0.47358308 0.58488972 0.06256172
0.53782393 0.58275857 0.06256172
0.58544110 0.57982969 0.06256172
0.62547105 0.57577548 0.06256172
0.66121583 0.57009393 0.06256172
0.69425143 0.56197101 0.06256172
0.72544752 0.54997346 0.06256172
0.75532995 0.53123355 0.06256172
0.78423720 0.49857374 0.06256172
0.81239716 0.42153888 0.06256172
0.83996861 0.06256172 0.06256172
0.86706508 0.06256172 0.06256172
0.89376953 0.06256172 0.06256172
0.91886608 0.06256172 0.06256172
0.91886608 0.06256172 0.06256172
0.91886608 0.06256172 0.06256172
0.91886608 0.06256172 0.06256172
0.91886608 0.06256172 0.06256172
0.06256172 0.61814580 0.06256172
0.06256172 0.61814453 0.06256172
0.06256172 0.61813985 0.06256172
0.06256172 0.61812957 0.06256172
0.06256172 0.61811065 0.06256172
0.06256172 0.61807893 0.06256172
0.06256172 0.61802878 0.06256172
0.06256172 0.61795262 0.06256172
0.06256172 0.61784030 0.06256172
0.06256172 0.61767827 0.06256172
0.06256172 0.61744844 0.06256172
0.06256172 0.61712667 0.06256172
0.06256172 0.61668069 0.06256172
0.06256172 0.61606722 0.06256172
0.06256172 0.61522782 0.06256172
0.37820602 0.61408294 0.06256172
0.50266461 0.61252307 0.06256172
0.56590918 0.61039496 0.06256172
0.61315314 0.60747952 0.06256172
0.65294993 0.60345437 0.06256172
0.68850269 0.59782584 0.06256172
0.72135909 0.58979485 0.06256172
0.75237973 0.57795928 0.06256172
0.78208782 0.55953244 0.06256172
0.81082147 0.52764080 0.06256172
0.83880908 0.45450324 0.06256172
0.86621009 0.06256172 0.06256172
0.89313873 0.06256172 0.06256172
0.91886608 0.06256172 0.06256172
0.91886608 0.06256172 0.06256172
0.91886608 0.06256172 0.06256172
0.91886608 0.06256172 0.06256172
0.91886608 0.06256172 0.06256172
0.06256172 0.64572536 0.06256172
0.06256172 0.64572441 0.06256172
0.06256172 0.64572092 0.06256172
0.06256172 0.64571324 0.06256172
0.06256172 0.64569910 0.06256172
0.06256172 0.64567541 0.06256172
0.06256172 0.64563795 0.06256172
0.06256172 0.64558107 0.06256172
0.06256172 0.64549721 0.06256172
0.06256172 0.64537628 0.06256172
0.06256172 0.64520483 0.06256172
0.06256172 0.64496499 0.06256172
0.06256172 0.64463290 0.06256172
0.06256172 0.64417674 0.06256172
0.06256172 0.64355382 0.06256172
0.06256172 0.64270653 0.06256172
0.41346749 0.64155640 0.06256172
0.53138073 0.63999539 0.06256172
0.59378897 0.63787218 0.06256172
0.64069237 0.63497036 0.06256172
0.68026357 0.63097133 0.06256172
0.71562538 0.62538715 0.06256172
0.74830218 0.61742848 0.06256172
0.77914711 0.60571254 0.06256172
0.80868119 0.58750172 0.06256172
0.83724231 0.55610415 0.06256172
0.86505925 0.48528045 0.06256172
0.89229206 0.06256172 0.06256172
0.91886608 0.06256172 0.06256172
0.91886608 0.06256172 0.06256172
0.91886608 0.06256172 0.06256172
0.91886608 0.06256172 0.06256172
0.91886608 0.06256172 0.06256172
0.06256172 0.67312975 0.06256172
0.06256172 0.67312903 0.06256172
0.06256172 0.67312642 0.06256172
0.06256172 0.67312067 0.06256172
0.06256172 0.67311010 0.06256172
0.06256172 0.67309237 0.06256172
0.06256172 0.67306434 0.06256172
0.06256172 0.67302179 0.06256172
0.06256172 0.67295907 0.06256172
0.06256172 0.67286865 0.06256172
0.06256172 0.67274050 0.06256172
0.06256172 0.67256133 0.06256172
0.06256172 0.67231344 0.06256172
0.06256172 0.67197329 0.06256172
0.06256172 0.67150946 0.06256172
0.06256172 0.67087981 0.06256172
0.06256172 0.67002744 0.06256172
0.44658695 0.66887483 0.06256172
0.55977093 0.66731510 0.06256172
0.62147611 0.66519846 0.06256172
0.66806779 0.66231042 0.06256172
0.70742022 0.65833486 0.06256172
0.74259191 0.65278727 0.06256172
0.77508850 0.64488335 0.06256172
0.80575719 0.63324930 0.06256172
0.83511732 0.61516883 0.06256172
0.86350659 0.58402996 0.06256172
0.89115419 0.51431635 0.06256172
0.91822066 0.06256172 0.06256172
0.91886608 0.06256172 0.06256172
0.91886608 0.06256172 0.06256172
0.91886608 0.06256172 0.06256172
0.91886608 0.06256172 0.06256172
0.06256172 0.70036771 0.06256172
0.06256172 0.70036718 0.06256172
0.06256172 0.70036522 0.06256172
0.06256172 0.70036091 0.06256172
0.06256172 0.70035299 0.06256172
0.06256172 0.70033971 0.06256172
0.06256172 0.70031872 0.06256172
0.06256172 0.70028686 0.06256172
0.06256172 0.70023990 0.06256172
0.06256172 0.70017220 0.06256172
0.06256172 0.70007630 0.06256172
0.06256172 0.69994227 0.06256172
0.06256172 0.69975693 0.06256172
0.06256172 0.69950281 0.06256172
0.06256172 0.69915667 0.06256172
0.06256172 0.69868745 0.06256172
0.06256172 0.69805353 0.06256172
0.06256172 0.69719863 0.06256172
0.47816360 0.69604602 0.06256172
0.58786605 0.69448978 0.06256172
0.64898178 0.69238122 0.06256172
0.69528754 0.68950709 0.06256172
0.73442732 0.68555263 0.06256172
0.76940945 0.68003455 0.06256172
0.80172505 0.67216935 0.06256172
0.83221673 0.66058273 0.06256172
0.86140264 0.64255455 0.06256172
