src/ffmpeg_scripts/luts/rec2020-sRGB_3p00.cube
TITLE "rec2020-srgb_3p00"
LUT_3D_SIZE 33
# PQ (EOTF Only)/Rec2020 -> PQ (EOTF Only)/Rec709, CineEI Shift 3.00, Black Level 0.00% IRE, Input 100% -> Output 109% - Created with LUTCalc v4.01 by Ben Turley October 2020
0.06256172 0.06256172 0.06256172
0.14414759 0.06256172 0.06256172
0.20406333 0.06256172 0.06256172
0.25615371 0.06256172 0.06256172
0.30346408 0.06256172 0.06256172
0.34738924 0.06256172 0.06256172
0.38872466 0.06256172 0.06256172
0.42798116 0.06256172 0.06256172
0.46551259 0.06256172 0.06256172
0.50157744 0.06256172 0.06256172
0.53637211 0.06256172 0.06256172
0.57005044 0.06256172 0.06256172
0.60273589 0.06256172 0.06256172
0.63452949 0.06256172 0.06256172
0.66551534 0.06256172 0.06256172
0.69576440 0.06256172 0.06256172
0.72533724 0.06256172 0.06256172
0.75428615 0.06256172 0.06256172
0.78265666 0.06256172 0.06256172
0.81048870 0.06256172 0.06256172
0.83781759 0.06256172 0.06256172
0.86467476 0.06256172 0.06256172
0.89108830 0.06256172 0.06256172
0.91708351 0.06256172 0.06256172
0.91886608 0.06256172 0.06256172
0.91886608 0.06256172 0.06256172
0.91886608 0.06256172 0.06256172
0.91886608 0.06256172 0.06256172
0.91886608 0.06256172 0.06256172
0.91886608 0.06256172 0.06256172
0.91886608 0.06256172 0.06256172
0.91886608 0.06256172 0.06256172
0.91886608 0.06256172 0.06256172
0.06256172 0.13280122 0.06256172
0.13128929 0.12959882 0.06256172
0.20042074 0.11476331 0.06256172
0.25454538 0.06256172 0.06256172
0.30262336 0.06256172 0.06256172
0.34690635 0.06256172 0.06256172
0.38842984 0.06256172 0.06256172
0.42779325 0.06256172 0.06256172
0.46538895 0.06256172 0.06256172
0.50149406 0.06256172 0.06256172
0.53631479 0.06256172 0.06256172
0.57001042 0.06256172 0.06256172
0.60270758 0.06256172 0.06256172
0.63450927 0.06256172 0.06256172
0.66550077 0.06256172 0.06256172
0.69575382 0.06256172 0.06256172
0.72532952 0.06256172 0.06256172
0.75428049 0.06256172 0.06256172
0.78265249 0.06256172 0.06256172
0.81048562 0.06256172 0.06256172
0.83781532 0.06256172 0.06256172
0.86467308 0.06256172 0.06256172
0.89108706 0.06256172 0.06256172
0.91708258 0.06256172 0.06256172
0.91886608 0.06256172 0.06256172
0.91886608 0.06256172 0.06256172
0.91886608 0.06256172 0.06256172
0.91886608 0.06256172 0.06256172
0.91886608 0.06256172 0.06256172
0.91886608 0.06256172 0.06256172
0.91886608 0.06256172 0.06256172
0.91886608 0.06256172 0.06256172
0.91886608 0.06256172 0.06256172
0.06256172 0.18698024 0.06256172
0.06256172 0.18596655 0.06256172
0.18466963 0.18207598 0.06256172
0.24829569 0.17241478 0.06256172
0.29945344 0.14775048 0.06256172
0.34510762 0.06256172 0.06256172
0.38733802 0.06256172 0.06256172
0.42709953 0.06256172 0.06256172
0.46493328 0.06256172 0.06256172
0.50118711 0.06256172 0.06256172
0.53610390 0.06256172 0.06256172
0.56986322 0.06256172 0.06256172
0.60260353 0.06256172 0.06256172
0.63443494 0.06256172 0.06256172
0.66544722 0.06256172 0.06256172
0.69571496 0.06256172 0.06256172
0.72530117 0.06256172 0.06256172
0.75425970 0.06256172 0.06256172
0.78263719 0.06256172 0.06256172
0.81047433 0.06256172 0.06256172
0.83780697 0.06256172 0.06256172
0.86466689 0.06256172 0.06256172
0.89108247 0.06256172 0.06256172
0.91707918 0.06256172 0.06256172
0.91886608 0.06256172 0.06256172
0.91886608 0.06256172 0.06256172
0.91886608 0.06256172 0.06256172
0.91886608 0.06256172 0.06256172
0.91886608 0.06256172 0.06256172
0.91886608 0.06256172 0.06256172
0.91886608 0.06256172 0.06256172
0.91886608 0.06256172 0.06256172
0.91886608 0.06256172 0.06256172
0.06256172 0.23504082 0.06256172
0.06256172 0.23458004 0.06256172
0.10107614 0.23285929 0.06256172
0.23215881 0.22891587 0.06256172
0.29199422 0.22096507 0.06256172
0.34101397 0.20487704 0.06256172
0.38489102 0.16433537 0.06256172
0.42555716 0.06256172 0.06256172
0.46392477 0.06256172 0.06256172
0.50050961 0.06256172 0.06256172
0.53563922 0.06256172 0.06256172
0.56953926 0.06256172 0.06256172
0.60237468 0.06256172 0.06256172
0.63427155 0.06256172 0.06256172
0.66532954 0.06256172 0.06256172
0.69562960 0.06256172 0.06256172
0.72523888 0.06256172 0.06256172
0.75421405 0.06256172 0.06256172
0.78260359 0.06256172 0.06256172
0.81044954 0.06256172 0.06256172
0.83778863 0.06256172 0.06256172
0.86465330 0.06256172 0.06256172
0.89107240 0.06256172 0.06256172
0.91707171 0.06256172 0.06256172
0.91886608 0.06256172 0.06256172
0.91886608 0.06256172 0.06256172
0.91886608 0.06256172 0.06256172
0.91886608 0.06256172 0.06256172
0.91886608 0.06256172 0.06256172
0.91886608 0.06256172 0.06256172
0.91886608 0.06256172 0.06256172
0.91886608 0.06256172 0.06256172
0.91886608 0.06256172 0.06256172
0.06256172 0.27928484 0.06256172
0.06256172 0.27904016 0.06256172
0.06256172 0.27813426 0.06256172
0.18406619 0.27610530 0.06256172
0.27596211 0.27221654 0.06256172
0.33289270 0.26519025 0.06256172
0.38019484 0.25244486 0.06256172
0.42264575 0.22702476 0.06256172
0.46203853 0.13963102 0.06256172
0.49924935 0.06256172 0.06256172
0.53477777 0.06256172 0.06256172
0.56893999 0.06256172 0.06256172
0.60195197 0.06256172 0.06256172
0.63397004 0.06256172 0.06256172
0.66511254 0.06256172 0.06256172
0.69547227 0.06256172 0.06256172
0.72512413 0.06256172 0.06256172
0.75412994 0.06256172 0.06256172
0.78254172 0.06256172 0.06256172
0.81040388 0.06256172 0.06256172
0.83775486 0.06256172 0.06256172
0.86462829 0.06256172 0.06256172
0.89105385 0.06256172 0.06256172
0.91705796 0.06256172 0.06256172
0.91886608 0.06256172 0.06256172
0.91886608 0.06256172 0.06256172
0.91886608 0.06256172 0.06256172
0.91886608 0.06256172 0.06256172
0.91886608 0.06256172 0.06256172
0.91886608 0.06256172 0.06256172
0.91886608 0.06256172 0.06256172
0.91886608 0.06256172 0.06256172
0.91886608 0.06256172 0.06256172
0.06256172 0.32078696 0.06256172
0.06256172 0.32064489 0.06256172
0.06256172 0.32012076 0.06256172
0.06256172 0.31895771 0.06256172
0.23700031 0.31677093 0.06256172
0.31711186 0.31296322 0.06256172
0.37169004 0.30653932 0.06256172
0.41753944 0.29563899 0.06256172
0.45878599 0.27602540 0.06256172
0.49709752 0.23286046 0.06256172
0.53331577 0.06256172 0.06256172
0.56792686 0.06256172 0.06256172
0.60123917 0.06256172 0.06256172
0.63346250 0.06256172 0.06256172
0.66474768 0.06256172 0.06256172
0.69520796 0.06256172 0.06256172
0.72493146 0.06256172 0.06256172
0.75398880 0.06256172 0.06256172
0.78243790 0.06256172 0.06256172
0.81032729 0.06256172 0.06256172
0.83769823 0.06256172 0.06256172
0.86458635 0.06256172 0.06256172
0.89102276 0.06256172 0.06256172
0.91703490 0.06256172 0.06256172
0.91886608 0.06256172 0.06256172
0.91886608 0.06256172 0.06256172
0.91886608 0.06256172 0.06256172
0.91886608 0.06256172 0.06256172
0.91886608 0.06256172 0.06256172
0.91886608 0.06256172 0.06256172
0.91886608 0.06256172 0.06256172
0.91886608 0.06256172 0.06256172
0.91886608 0.06256172 0.06256172
0.06256172 0.36016822 0.06256172
0.06256172 0.36008074 0.06256172
0.06256172 0.35975860 0.06256172
0.06256172 0.35904694 0.06256172
0.06256172 0.35772082 0.06256172
0.28297821 0.35544939 0.06256172
0.35620582 0.35172759 0.06256172
0.40881116 0.34573759 0.06256172
0.45339461 0.33602666 0.06256172
0.49359096 0.31959319 0.06256172
0.53095754 0.28818542 0.06256172
0.56630318 0.18371403 0.06256172
0.60010160 0.06256172 0.06256172
0.63265482 0.06256172 0.06256172
0.66416819 0.06256172 0.06256172
0.69478873 0.06256172 0.06256172
0.72462617 0.06256172 0.06256172
0.75376530 0.06256172 0.06256172
0.78227361 0.06256172 0.06256172
0.81020612 0.06256172 0.06256172
0.83760866 0.06256172 0.06256172
0.86452003 0.06256172 0.06256172
0.89097361 0.06256172 0.06256172
0.91699846 0.06256172 0.06256172
0.91886608 0.06256172 0.06256172
0.91886608 0.06256172 0.06256172
0.91886608 0.06256172 0.06256172
0.91886608 0.06256172 0.06256172
0.91886608 0.06256172 0.06256172
0.91886608 0.06256172 0.06256172
0.91886608 0.06256172 0.06256172
0.91886608 0.06256172 0.06256172
0.91886608 0.06256172 0.06256172
0.06256172 0.39783154 0.06256172
0.06256172 0.39777539 0.06256172
0.06256172 0.39756884 0.06256172
0.06256172 0.39711362 0.06256172
0.06256172 0.39626936 0.06256172
0.06256172 0.39483545 0.06256172
0.32518761 0.39251963 0.06256172
0.39363237 0.38888177 0.06256172
0.44454215 0.38322442 0.06256172
0.48800041 0.37435247 0.06256172
0.52726089 0.35994917 0.06256172
0.56378436 0.33444203 0.06256172
0.59834871 0.27573427 0.06256172
0.63141580 0.06256172 0.06256172
0.66328195 0.06256172 0.06256172
0.69414896 0.06256172 0.06256172
0.72416096 0.06256172 0.06256172
0.75342510 0.06256172 0.06256172
0.78202372 0.06256172 0.06256172
0.81002194 0.06256172 0.06256172
0.83747256 0.06256172 0.06256172
0.86441929 0.06256172 0.06256172
0.89089896 0.06256172 0.06256172
0.91694312 0.06256172 0.06256172
0.91886608 0.06256172 0.06256172
0.91886608 0.06256172 0.06256172
0.91886608 0.06256172 0.06256172
0.91886608 0.06256172 0.06256172
0.91886608 0.06256172 0.06256172
0.91886608 0.06256172 0.06256172
0.91886608 0.06256172 0.06256172
0.91886608 0.06256172 0.06256172
0.91886608 0.06256172 0.06256172
0.06256172 0.43405842 0.06256172
0.06256172 0.43402126 0.06256172
0.06256172 0.43388461 0.06256172
0.06256172 0.43358387 0.06256172
0.06256172 0.43302759 0.06256172
0.06256172 0.43208731 0.06256172
0.22430537 0.43058075 0.06256172
0.36484135 0.42824452 0.06256172
0.42966319 0.42468640 0.06256172
0.47908882 0.41929516 0.06256172
0.52153265 0.41105092 0.06256172
0.55994599 0.39806328 0.06256172
0.59570548 0.37615828 0.06256172
0.62956031 0.33222262 0.06256172
0.66196094 0.06256172 0.06256172
0.69319840 0.06256172 0.06256172
0.72347135 0.06256172 0.06256172
0.75292161 0.06256172 0.06256172
0.78165432 0.06256172 0.06256172
0.80974991 0.06256172 0.06256172
0.83727168 0.06256172 0.06256172
0.86427066 0.06256172 0.06256172
0.89078886 0.06256172 0.06256172
0.91686152 0.06256172 0.06256172
0.91886608 0.06256172 0.06256172
0.91886608 0.06256172 0.06256172
0.91886608 0.06256172 0.06256172
0.91886608 0.06256172 0.06256172
0.91886608 0.06256172 0.06256172
0.91886608 0.06256172 0.06256172
0.91886608 0.06256172 0.06256172
0.91886608 0.06256172 0.06256172
0.91886608 0.06256172 0.06256172
0.06256172 0.46905601 0.06256172
0.06256172 0.46903082 0.06256172
0.06256172 0.46893822 0.06256172
0.06256172 0.46873459 0.06256172
0.06256172 0.46835856 0.06256172
0.06256172 0.46772477 0.06256172
0.06256172 0.46671404 0.06256172
0.28877571 0.46515841 0.06256172
0.40256811 0.46281684 0.06256172
0.46449840 0.45933369 0.06256172
0.51260627 0.45416196 0.06256172
0.55412550 0.44640722 0.06256172
0.59176288 0.43446534 0.06256172
0.62682177 0.41499845 0.06256172
0.66002493 0.37884917 0.06256172
0.69181201 0.26804182 0.06256172
0.72246893 0.06256172 0.06256172
0.75219150 0.06256172 0.06256172
0.78111958 0.06256172 0.06256172
0.80935661 0.06256172 0.06256172
0.83698152 0.06256172 0.06256172
0.86405613 0.06256172 0.06256172
0.89063002 0.06256172 0.06256172
0.91674384 0.06256172 0.06256172
0.91886608 0.06256172 0.06256172
0.91886608 0.06256172 0.06256172
0.91886608 0.06256172 0.06256172
0.91886608 0.06256172 0.06256172
0.91886608 0.06256172 0.06256172
0.91886608 0.06256172 0.06256172
0.91886608 0.06256172 0.06256172
0.91886608 0.06256172 0.06256172
0.91886608 0.06256172 0.06256172
0.06256172 0.50298267 0.06256172
0.06256172 0.50296527 0.06256172
0.06256172 0.50290133 0.06256172
0.06256172 0.50276078 0.06256172
0.06256172 0.50250151 0.06256172
0.06256172 0.50206529 0.06256172
0.06256172 0.50137167 0.06256172
0.06256172 0.50030903 0.06256172
0.33869228 0.49872082 0.06256172
0.43875120 0.49638378 0.06256172
0.49829114 0.49297090 0.06256172
0.54521549 0.48798447 0.06256172
0.58588461 0.48062327 0.06256172
0.62280460 0.46948577 0.06256172
0.65721486 0.45177874 0.06256172
0.68981399 0.42049452 0.06256172
0.72103140 0.34493130 0.06256172
0.75114812 0.06256172 0.06256172
0.78035730 0.06256172 0.06256172
0.80879698 0.06256172 0.06256172
0.83656918 0.06256172 0.06256172
0.86375156 0.06256172 0.06256172
0.89040469 0.06256172 0.06256172
0.91657699 0.06256172 0.06256172
0.91886608 0.06256172 0.06256172
0.91886608 0.06256172 0.06256172
0.91886608 0.06256172 0.06256172
0.91886608 0.06256172 0.06256172
0.91886608 0.06256172 0.06256172
0.91886608 0.06256172 0.06256172
0.91886608 0.06256172 0.06256172
0.91886608 0.06256172 0.06256172
0.91886608 0.06256172 0.06256172
0.06256172 0.53596316 0.06256172
0.06256172 0.53595096 0.06256172
0.06256172 0.53590612 0.06256172
0.06256172 0.53580762 0.06256172
0.06256172 0.53562603 0.06256172
0.06256172 0.53532085 0.06256172
0.06256172 0.53483652 0.06256172
0.06256172 0.53409670 0.06256172
0.06256172 0.53299594 0.06256172
0.38242450 0.53138709 0.06256172
0.47364880 0.52906123 0.06256172
0.53116214 0.52571424 0.06256172
0.57701346 0.52088704 0.06256172
0.61689529 0.51384968 0.06256172
0.65314701 0.50334948 0.06256172
0.68695208 0.48696935 0.06256172
0.71898708 0.45901563 0.06256172
0.74967177 0.39884071 0.06256172
0.77928255 0.06256172 0.06256172
0.80800997 0.06256172 0.06256172
0.83599041 0.06256172 0.06256172
0.86332465 0.06256172 0.06256172
0.89008917 0.06256172 0.06256172
0.91634354 0.06256172 0.06256172
0.91886608 0.06256172 0.06256172
0.91886608 0.06256172 0.06256172
0.91886608 0.06256172 0.06256172
0.91886608 0.06256172 0.06256172
0.91886608 0.06256172 0.06256172
0.91886608 0.06256172 0.06256172
0.91886608 0.06256172 0.06256172
0.91886608 0.06256172 0.06256172
0.91886608 0.06256172 0.06256172
0.06256172 0.56809809 0.06256172
0.06256172 0.56808943 0.06256172
0.06256172 0.56805761 0.06256172
0.06256172 0.56798771 0.06256172
0.06256172 0.56785890 0.06256172
0.06256172 0.56764261 0.06256172
0.06256172 0.56729977 0.06256172
0.06256172 0.56677709 0.06256172
0.06256172 0.56600172 0.06256172
0.06256172 0.56487341 0.06256172
0.42253451 0.56325277 0.06256172
0.50744670 0.56094268 0.06256172
0.56320886 0.55765756 0.06256172
0.60807954 0.55296918 0.06256172
0.64722780 0.54620313 0.06256172
0.68285309 0.53621922 0.06256172
0.71608982 0.52087099 0.06256172
0.74759457 0.49533050 0.06256172
0.77777809 0.44405378 0.06256172
0.80691232 0.06256172 0.06256172
0.83518533 0.06256172 0.06256172
0.86273195 0.06256172 0.06256172
0.88965176 0.06256172 0.06256172
0.91602025 0.06256172 0.06256172
0.91886608 0.06256172 0.06256172
0.91886608 0.06256172 0.06256172
0.91886608 0.06256172 0.06256172
0.91886608 0.06256172 0.06256172
0.91886608 0.06256172 0.06256172
0.91886608 0.06256172 0.06256172
0.91886608 0.06256172 0.06256172
0.91886608 0.06256172 0.06256172
0.91886608 0.06256172 0.06256172
0.06256172 0.59947021 0.06256172
0.06256172 0.59946400 0.06256172
0.06256172 0.59944119 0.06256172
0.06256172 0.59939108 0.06256172
0.06256172 0.59929877 0.06256172
0.06256172 0.59914385 0.06256172
0.06256172 0.59889850 0.06256172
0.06256172 0.59852494 0.06256172
0.06256172 0.59797189 0.06256172
0.06256172 0.59716946 0.06256172
0.06256172 0.59602184 0.06256172
0.46017266 0.59439613 0.06256172
0.54028512 0.59210503 0.06256172
0.59451147 0.58887817 0.06256172
0.63847985 0.58431221 0.06256172
0.67694097 0.57777673 0.06256172
0.71197592 0.56821820 0.06256172
0.74467597 0.55369064 0.06256172
0.77567960 0.52996595 0.06256172
0.80538915 0.48449706 0.06256172
0.83407230 0.29569330 0.06256172
0.86191477 0.06256172 0.06256172
0.88904986 0.06256172 0.06256172
0.91557604 0.06256172 0.06256172
0.91886608 0.06256172 0.06256172
0.91886608 0.06256172 0.06256172
0.91886608 0.06256172 0.06256172
0.91886608 0.06256172 0.06256172
0.91886608 0.06256172 0.06256172
0.91886608 0.06256172 0.06256172
0.91886608 0.06256172 0.06256172
0.91886608 0.06256172 0.06256172
0.91886608 0.06256172 0.06256172
0.06256172 0.63014865 0.06256172
0.06256172 0.63014417 0.06256172
0.06256172 0.63012767 0.06256172
0.06256172 0.63009145 0.06256172
0.06256172 0.63002475 0.06256172
0.06256172 0.62991283 0.06256172
0.06256172 0.62973568 0.06256172
0.06256172 0.62946623 0.06256172
0.06256172 0.62906784 0.06256172
0.06256172 0.62849099 0.06256172
0.06256172 0.62766839 0.06256172
0.06256172 0.62650798 0.06256172
0.49596523 0.62488243 0.06256172
0.57227366 0.62261261 0.06256172
0.62513703 0.61944074 0.06256172
0.66827028 0.61498378 0.06256172
0.70608478 0.60864646 0.06256172
0.74056079 0.59944293 0.06256172
0.77275166 0.58557865 0.06256172
0.80327944 0.56325553 0.06256172
0.83253868 0.52184099 0.06256172
0.86079304 0.39267013 0.06256172
0.88822593 0.06256172 0.06256172
0.91496921 0.06256172 0.06256172
0.91886608 0.06256172 0.06256172
0.91886608 0.06256172 0.06256172
0.91886608 0.06256172 0.06256172
0.91886608 0.06256172 0.06256172
0.91886608 0.06256172 0.06256172
0.91886608 0.06256172 0.06256172
0.91886608 0.06256172 0.06256172
0.91886608 0.06256172 0.06256172
0.91886608 0.06256172 0.06256172
0.06256172 0.66019200 0.06256172
0.06256172 0.66018873 0.06256172
0.06256172 0.66017672 0.06256172
0.06256172 0.66015036 0.06256172
0.06256172 0.66010182 0.06256172
0.06256172 0.66002040 0.06256172
0.06256172 0.65989159 0.06256172
0.06256172 0.65969577 0.06256172
0.06256172 0.65940653 0.06256172
0.06256172 0.65898832 0.06256172
0.06256172 0.65839315 0.06256172
0.06256172 0.65755601 0.06256172
0.32200331 0.65638812 0.06256172
0.53029663 0.65476683 0.06256172
0.60350037 0.65251994 0.06256172
0.65514236 0.64940014 0.06256172
0.69749867 0.64504098 0.06256172
0.73470214 0.63887550 0.06256172
0.76864680 0.62997106 0.06256172
0.80035255 0.61664887 0.06256172
0.83042661 0.59542567 0.06256172
0.85925631 0.55695693 0.06256172
0.88710149 0.45157124 0.06256172
0.91414337 0.06256172 0.06256172
0.91886608 0.06256172 0.06256172
0.91886608 0.06256172 0.06256172
0.91886608 0.06256172 0.06256172
0.91886608 0.06256172 0.06256172
0.91886608 0.06256172 0.06256172
0.91886608 0.06256172 0.06256172
0.91886608 0.06256172 0.06256172
0.91886608 0.06256172 0.06256172
0.91886608 0.06256172 0.06256172
0.06256172 0.68965043 0.06256172
0.06256172 0.68964804 0.06256172
0.06256172 0.68963925 0.06256172
0.06256172 0.68961996 0.06256172
0.06256172 0.68958444 0.06256172
0.06256172 0.68952487 0.06256172
0.06256172 0.68943065 0.06256172
0.06256172 0.68928749 0.06256172
0.06256172 0.68907618 0.06256172
0.06256172 0.68877095 0.06256172
0.06256172 0.68833718 0.06256172
0.06256172 0.68772832 0.06256172
0.06256172 0.68688133 0.06256172
0.39322992 0.68571028 0.06256172
0.56342316 0.68409655 0.06256172
0.63403747 0.68187379 0.06256172
0.68457619 0.67880342 0.06256172
0.72620637 0.67453261 0.06256172
0.76283030 0.66851718 0.06256172
0.79626799 0.65986640 0.06256172
0.82750984 0.64699026 0.06256172
0.85714969 0.62663831 0.06256172
0.88556819 0.59035856 0.06256172
0.91302158 0.49825151 0.06256172
0.91886608 0.06256172 0.06256172
0.91886608 0.06256172 0.06256172
0.91886608 0.06256172 0.06256172
0.91886608 0.06256172 0.06256172
0.91886608 0.06256172 0.06256172
0.91886608 0.06256172 0.06256172
0.91886608 0.06256172 0.06256172
0.91886608 0.06256172 0.06256172
0.91886608 0.06256172 0.06256172
0.06256172 0.71856741 0.06256172
0.06256172 0.71856566 0.06256172
0.06256172 0.71855920 0.06256172
0.06256172 0.71854501 0.06256172
0.06256172 0.71851890 0.06256172
0.06256172 0.71847512 0.06256172
0.06256172 0.71840588 0.06256172
0.06256172 0.71830072 0.06256172
0.06256172 0.71814556 0.06256172
0.06256172 0.71792161 0.06256172
0.06256172 0.71760368 0.06256172
0.06256172 0.71715806 0.06256172
0.06256172 0.71653943 0.06256172
0.06256172 0.71568654 0.06256172
0.44561398 0.71451592 0.06256172
0.59552628 0.71291244 0.06256172
0.66394532 0.71071470 0.06256172
0.71348075 0.70769138 0.06256172
0.75442948 0.70350083 0.06256172
0.79050188 0.69761709 0.06256172
0.82345427 0.68918231 0.06256172
0.85425104 0.67667415 0.06256172
0.88347396 0.65701390 0.06256172
0.91149756 0.62237448 0.06256172
0.91886608 0.53856480 0.06256172
0.91886608 0.06256172 0.06256172
0.91886608 0.06256172 0.06256172
0.91886608 0.06256172 0.06256172
0.91886608 0.06256172 0.06256172
0.91886608 0.06256172 0.06256172
0.91886608 0.06256172 0.06256172
0.91886608 0.06256172 0.06256172
0.91886608 0.06256172 0.06256172
0.06256172 0.74698091 0.06256172
0.06256172 0.74697961 0.06256172
0.06256172 0.74697485 0.06256172
0.06256172 0.74696438 0.06256172
0.06256172 0.74694512 0.06256172
0.06256172 0.74691282 0.06256172
0.06256172 0.74686176 0.06256172
0.06256172 0.74678421 0.06256172
0.06256172 0.74666984 0.06256172
0.06256172 0.74650484 0.06256172
0.06256172 0.74627078 0.06256172
0.06256172 0.74594306 0.06256172
0.06256172 0.74548878 0.06256172
0.06256172 0.74486375 0.06256172
0.06256172 0.74400832 0.06256172
0.48992536 0.74284116 0.06256172
0.62674046 0.74125015 0.06256172
0.69327505 0.73907809 0.06256172
0.74189290 0.73609969 0.06256172
0.78219979 0.73198237 0.06256172
0.81774566 0.72621466 0.06256172
0.85023207 0.71796404 0.06256172
0.88060053 0.70575889 0.06256172
0.90942195 0.68664482 0.06256172
0.91886608 0.65322716 0.06256172
0.91886608 0.57481484 0.06256172
0.91886608 0.06256172 0.06256172
0.91886608 0.06256172 0.06256172
0.91886608 0.06256172 0.06256172
0.91886608 0.06256172 0.06256172
0.91886608 0.06256172 0.06256172
0.91886608 0.06256172 0.06256172
0.91886608 0.06256172 0.06256172
0.06256172 0.77492434 0.06256172
0.06256172 0.77492338 0.06256172
0.06256172 0.77491985 0.06256172
0.06256172 0.77491211 0.06256172
0.06256172 0.77489786 0.06256172
0.06256172 0.77487396 0.06256172
0.06256172 0.77483619 0.06256172
0.06256172 0.77477884 0.06256172
0.06256172 0.77469428 0.06256172
0.06256172 0.77457233 0.06256172
0.06256172 0.77439944 0.06256172
0.06256172 0.77415755 0.06256172
0.06256172 0.77382260 0.06256172
0.06256172 0.77336245 0.06256172
0.06256172 0.77273395 0.06256172
0.06256172 0.77187885 0.06256172
0.52959352 0.77071774 0.06256172
0.65716891 0.76914107 0.06256172
0.72207051 0.76699518 0.06256172
0.76984514 0.76405978 0.06256172
0.80954542 0.76000955 0.06256172
0.84458719 0.75434428 0.06256172
0.87662495 0.74625045 0.06256172
0.90658010 0.73429301 0.06256172
0.91886608 0.71560360 0.06256172
0.91886608 0.68307329 0.06256172
0.91886608 0.60813153 0.06256172
0.91886608 0.06256172 0.06256172
0.91886608 0.06256172 0.06256172
0.91886608 0.06256172 0.06256172
0.91886608 0.06256172 0.06256172
0.91886608 0.06256172 0.06256172
0.91886608 0.06256172 0.06256172
0.06256172 0.80242731 0.06256172
0.06256172 0.80242660 0.06256172
0.06256172 0.80242398 0.06256172
0.06256172 0.80241825 0.06256172
0.06256172 0.80240768 0.06256172
0.06256172 0.80238997 0.06256172
0.06256172 0.80236197 0.06256172
0.06256172 0.80231946 0.06256172
0.06256172 0.80225680 0.06256172
0.06256172 0.80216647 0.06256172
0.06256172 0.80203844 0.06256172
0.06256172 0.80185942 0.06256172
0.06256172 0.80161173 0.06256172
0.06256172 0.80127182 0.06256172
0.06256172 0.80080825 0.06256172
0.06256172 0.80017884 0.06256172
0.06256172 0.79932658 0.06256172
0.56616480 0.79817374 0.06256172
0.68689310 0.79661299 0.06256172
0.75036972 0.79449366 0.06256172
0.79736628 0.79159952 0.06256172
0.83649149 0.78761095 0.06256172
0.87104932 0.78203618 0.06256172
0.90265398 0.77407521 0.06256172
0.91886608 0.76231739 0.06256172
0.91886608 0.74394820 0.06256172
0.91886608 0.71202603 0.06256172
0.91886608 0.63913257 0.06256172
0.91886608 0.06256172 0.06256172
0.91886608 0.06256172 0.06256172
0.91886608 0.06256172 0.06256172
0.91886608 0.06256172 0.06256172
0.91886608 0.06256172 0.06256172
0.06256172 0.82951626 0.06256172
0.06256172 0.82951573 0.06256172
0.06256172 0.82951379 0.06256172
0.06256172 0.82950953 0.06256172
0.06256172 0.82950168 0.06256172
0.06256172 0.82948854 0.06256172
0.06256172 0.82946775 0.06256172
0.06256172 0.82943620 0.06256172
0.06256172 0.82938970 0.06256172
0.06256172 0.82932267 0.06256172
0.06256172 0.82922771 0.06256172
0.06256172 0.82909498 0.06256172
0.06256172 0.82891143 0.06256172
0.06256172 0.82865976 0.06256172
0.06256172 0.82831691 0.06256172
0.06256172 0.82785210 0.06256172
0.06256172 0.82722402 0.06256172
0.06256172 0.82637679 0.06256172
0.60047051 0.82523417 0.06256172
0.71597877 0.82369073 0.06256172
0.77820592 0.82159827 0.06256172
0.82448202 0.81874382 0.06256172
0.86306051 0.81481206 0.06256172
0.89715256 0.80931717 0.06256172
0.91886608 0.80146775 0.06256172
0.91886608 0.78986684 0.06256172
0.91886608 0.77172545 0.06256172
