src/ffmpeg_scripts/luts/rec2020-sRGB_-3p33.cube
TITLE "rec2020-srgb_-3p33"
LUT_3D_SIZE 9
# PQ (EOTF Only)/Rec2020 -> PQ (EOTF Only)/Rec709, CineEI Shift -3.33, Black Level 0.00% IRE, Input 100% -> Output 109% - Created with LUTCalc v4.01 by Ben Turley October 2020
0.06256172 0.06256172 0.06256172
0.11544928 0.06256172 0.06256172
0.18395752 0.06256172 0.06256172
0.26222984 0.06256172 0.06256172
0.34829086 0.06256172 0.06256172
0.44103414 0.06256172 0.06256172
0.53972901 0.06256172 0.06256172
0.64384776 0.06256172 0.06256172
0.75298680 0.06256172 0.06256172
0.06256172 0.10742743 0.06256172
0.10636986 0.10519071 0.06256172
0.18221888 0.07252617 0.06256172
0.26172903 0.06256172 0.06256172
0.34812779 0.06256172 0.06256172
0.44097866 0.06256172 0.06256172
0.53971009 0.06256172 0.06256172
0.64384149 0.06256172 0.06256172
0.75298484 0.06256172 0.06256172
0.06256172 0.16864908 0.06256172
0.06256172 0.16816385 0.06256172
0.16658741 0.16427582 0.06256172
0.25776069 0.14300693 0.06256172
0.34686474 0.06256172 0.06256172
0.44055153 0.06256172 0.06256172
0.53956473 0.06256172 0.06256172
0.64379334 0.06256172 0.06256172
0.75296976 0.06256172 0.06256172
0.06256172 0.24069396 0.06256172
0.06256172 0.24054945 0.06256172
0.06256172 0.23942936 0.06256172
0.23775148 0.23443966 0.06256172
0.34125852 0.21327299 0.06256172
0.43871004 0.06256172 0.06256172
0.53894336 0.06256172 0.06256172
0.64358809 0.06256172 0.06256172
0.75290557 0.06256172 0.06256172
0.06256172 0.32164273 0.06256172
0.06256172 0.32159468 0.06256172
0.06256172 0.32122473 0.06256172
0.06256172 0.31963020 0.06256172
0.31796092 0.31380459 0.06256172
0.43197557 0.29151493 0.06256172
0.53674423 0.06256172 0.06256172
0.64286903 0.06256172 0.06256172
0.75268141 0.06256172 0.06256172
0.06256172 0.41040747 0.06256172
0.06256172 0.41039085 0.06256172
0.06256172 0.41026315 0.06256172
0.06256172 0.40971742 0.06256172
0.06256172 0.40778777 0.06256172
0.40613686 0.40130393 0.06256172
0.52933136 0.37730692 0.06256172
0.64052878 0.06256172 0.06256172
0.75195991 0.06256172 0.06256172
0.06256172 0.50626386 0.06256172
0.06256172 0.50625811 0.06256172
0.06256172 0.50621399 0.06256172
0.06256172 0.50602594 0.06256172
0.06256172 0.50536733 0.06256172
0.06256172 0.50322600 0.06256172
0.50156054 0.49622659 0.06256172
0.63285306 0.47000084 0.06256172
0.74967844 0.06256172 0.06256172
0.06256172 0.60868551 0.06256172
0.06256172 0.60868358 0.06256172
0.06256172 0.60866878 0.06256172
0.06256172 0.60860577 0.06256172
0.06256172 0.60838575 0.06256172
0.06256172 0.60767767 0.06256172
0.06256172 0.60543993 0.06256172
0.60370934 0.59805537 0.06256172
0.74213577 0.56893540 0.06256172
0.06256172 0.71726783 0.06256172
0.06256172 0.71726723 0.06256172
0.06256172 0.71726254 0.06256172
0.06256172 0.71724260 0.06256172
0.06256172 0.71717306 0.06256172
0.06256172 0.71695001 0.06256172
0.06256172 0.71625255 0.06256172
0.06256172 0.71403041 0.06256172
0.71218148 0.70639259 0.06256172
0.06256172 0.06256172 0.10718118
0.11445222 0.06256172 0.10686281
0.18374492 0.06256172 0.10429802
0.26216794 0.06256172 0.08940740
0.34827066 0.06256172 0.06256172
0.44102726 0.06256172 0.06256172
0.53972666 0.06256172 0.06256172
0.64384698 0.06256172 0.06256172
0.75298656 0.06256172 0.06256172
0.06256172 0.10728258 0.10537294
0.10503458 0.10503458 0.10503458
0.18199947 0.07163193 0.10229588
0.26166670 0.06256172 0.08558414
0.34810755 0.06256172 0.06256172
0.44097178 0.06256172 0.06256172
0.53970775 0.06256172 0.06256172
0.64384071 0.06256172 0.06256172
0.75298459 0.06256172 0.06256172
0.06256172 0.16861670 0.08466273
0.06256172 0.16813116 0.08384715
0.16629247 0.16424053 0.07574217
0.25769475 0.14295148 0.06256172
0.34684418 0.06256172 0.06256172
0.44054461 0.06256172 0.06256172
0.53956238 0.06256172 0.06256172
0.64379256 0.06256172 0.06256172
0.75296952 0.06256172 0.06256172
0.06256172 0.24068428 0.06256172
0.06256172 0.24053975 0.06256172
0.06256172 0.23941950 0.06256172
0.23766321 0.23442903 0.06256172
0.34123651 0.21325821 0.06256172
0.43870298 0.06256172 0.06256172
0.53894099 0.06256172 0.06256172
0.64358731 0.06256172 0.06256172
0.75290532 0.06256172 0.06256172
0.06256172 0.32163951 0.06256172
0.06256172 0.32159146 0.06256172
0.06256172 0.32122149 0.06256172
0.06256172 0.31962690 0.06256172
0.31793147 0.31380103 0.06256172
0.43196796 0.29151018 0.06256172
0.53674181 0.06256172 0.06256172
0.64286825 0.06256172 0.06256172
0.75268117 0.06256172 0.06256172
0.06256172 0.41040635 0.06256172
0.06256172 0.41038974 0.06256172
0.06256172 0.41026203 0.06256172
0.06256172 0.40971630 0.06256172
0.06256172 0.40778663 0.06256172
0.40612666 0.40130269 0.06256172
0.52932874 0.37730528 0.06256172
0.64052797 0.06256172 0.06256172
0.75195966 0.06256172 0.06256172
0.06256172 0.50626347 0.06256172
0.06256172 0.50625773 0.06256172
0.06256172 0.50621361 0.06256172
0.06256172 0.50602555 0.06256172
0.06256172 0.50536694 0.06256172
0.06256172 0.50322560 0.06256172
0.50155701 0.49622616 0.06256172
0.63285218 0.47000027 0.06256172
0.74967819 0.06256172 0.06256172
0.06256172 0.60868538 0.06256172
0.06256172 0.60868345 0.06256172
0.06256172 0.60866865 0.06256172
0.06256172 0.60860564 0.06256172
0.06256172 0.60838562 0.06256172
0.06256172 0.60767754 0.06256172
0.06256172 0.60543979 0.06256172
0.60370816 0.59805523 0.06256172
0.74213549 0.56893520 0.06256172
0.06256172 0.71726779 0.06256172
0.06256172 0.71726718 0.06256172
0.06256172 0.71726250 0.06256172
0.06256172 0.71724256 0.06256172
0.06256172 0.71717302 0.06256172
0.06256172 0.71694997 0.06256172
0.06256172 0.71625251 0.06256172
0.06256172 0.71403037 0.06256172
0.71218111 0.70639254 0.06256172
0.06256172 0.06256172 0.16817000
0.10555956 0.06256172 0.16809891
0.18208466 0.06256172 0.16754974
0.26169088 0.06256172 0.16514347
0.34811540 0.06256172 0.15571106
0.44097445 0.06256172 0.08551728
0.53970866 0.06256172 0.06256172
0.64384101 0.06256172 0.06256172
0.75298469 0.06256172 0.06256172
0.06256172 0.10614655 0.16777483
0.09179699 0.10380706 0.16770319
0.18028483 0.06256172 0.16714974
0.26118624 0.06256172 0.16472400
0.34795199 0.06256172 0.15520233
0.44091893 0.06256172 0.08070970
0.53968974 0.06256172 0.06256172
0.64383474 0.06256172 0.06256172
0.75298273 0.06256172 0.06256172
0.06256172 0.16836734 0.16463397
0.06256172 0.16787942 0.16455776
0.16396870 0.16396870 0.16396870
0.25718639 0.14252338 0.16138049
0.34668620 0.06256172 0.15110241
0.44049151 0.06256172 0.06256172
0.53954434 0.06256172 0.06256172
0.64378659 0.06256172 0.06256172
0.75296765 0.06256172 0.06256172
0.06256172 0.24060993 0.14842758
0.06256172 0.24046524 0.14832074
0.06256172 0.23934373 0.14749185
0.23698147 0.23434737 0.14378190
0.34106728 0.21314462 0.12754527
0.43864878 0.06256172 0.06256172
0.53892283 0.06256172 0.06256172
0.64358132 0.06256172 0.06256172
0.75290345 0.06256172 0.06256172
0.06256172 0.32161478 0.06256172
0.06256172 0.32156671 0.06256172
0.06256172 0.32119662 0.06256172
0.06256172 0.31960153 0.06256172
0.31770502 0.31377371 0.06256172
0.43190949 0.29147366 0.06256172
0.53672322 0.06256172 0.06256172
0.64286222 0.06256172 0.06256172
0.75267930 0.06256172 0.06256172
0.06256172 0.41039780 0.06256172
0.06256172 0.41038118 0.06256172
0.06256172 0.41025346 0.06256172
0.06256172 0.40970768 0.06256172
0.06256172 0.40777781 0.06256172
0.40604825 0.40129320 0.06256172
0.52930861 0.37729272 0.06256172
0.64052179 0.06256172 0.06256172
0.75195778 0.06256172 0.06256172
0.06256172 0.50626052 0.06256172
0.06256172 0.50625477 0.06256172
0.06256172 0.50621065 0.06256172
0.06256172 0.50602259 0.06256172
0.06256172 0.50536396 0.06256172
0.06256172 0.50322255 0.06256172
0.50152986 0.49622287 0.06256172
0.63284548 0.46999588 0.06256172
0.74967626 0.06256172 0.06256172
0.06256172 0.60868438 0.06256172
0.06256172 0.60868246 0.06256172
0.06256172 0.60866766 0.06256172
0.06256172 0.60860464 0.06256172
0.06256172 0.60838462 0.06256172
0.06256172 0.60767654 0.06256172
0.06256172 0.60543877 0.06256172
0.60369903 0.59805412 0.06256172
0.74213339 0.56893369 0.06256172
0.06256172 0.71726748 0.06256172
0.06256172 0.71726687 0.06256172
0.06256172 0.71726219 0.06256172
0.06256172 0.71724225 0.06256172
0.06256172 0.71717271 0.06256172
0.06256172 0.71694965 0.06256172
0.06256172 0.71625219 0.06256172
0.06256172 0.71403005 0.06256172
0.71217822 0.70639219 0.06256172
0.06256172 0.06256172 0.24001114
0.06256172 0.06256172 0.23998988
0.17438975 0.06256172 0.23982645
0.25962331 0.06256172 0.23912626
0.34745116 0.06256172 0.23662635
0.44074928 0.06256172 0.22792016
0.53963197 0.06256172 0.18900238
0.64381561 0.06256172 0.06256172
0.75297673 0.06256172 0.06256172
0.06256172 0.10074563 0.23989328
0.06256172 0.09788203 0.23987198
0.17230763 0.06256172 0.23970827
0.25910366 0.06256172 0.23900683
0.34728642 0.06256172 0.23650238
0.44069362 0.06256172 0.22777864
0.53961303 0.06256172 0.18873399
0.64380933 0.06256172 0.06256172
0.75297477 0.06256172 0.06256172
0.06256172 0.16729206 0.23898130
0.06256172 0.16679374 0.23895972
0.15263276 0.16279478 0.23879376
0.25498011 0.14065237 0.23808265
0.34601023 0.06256172 0.23554263
0.44026512 0.06256172 0.22668155
0.53946752 0.06256172 0.18662950
0.64376117 0.06256172 0.06256172
0.75295969 0.06256172 0.06256172
0.06256172 0.24029246 0.23495366
0.06256172 0.24014709 0.23493074
0.06256172 0.23902022 0.23475444
0.23399863 0.23399863 0.23399863
0.34034294 0.21265876 0.23129395
0.43841767 0.06256172 0.22179073
0.53884550 0.06256172 0.17665332
0.64355585 0.06256172 0.06256172
0.75289549 0.06256172 0.06256172
0.06256172 0.32150941 0.21859165
0.06256172 0.32146127 0.21856214
0.06256172 0.32109070 0.21833506
0.06256172 0.31949344 0.21735914
0.31673366 0.31365730 0.21383308
0.43166020 0.29131801 0.20095394
0.53664404 0.06256172 0.09633401
0.64283654 0.06256172 0.06256172
0.75267131 0.06256172 0.06256172
0.06256172 0.41036138 0.06256172
0.06256172 0.41034475 0.06256172
0.06256172 0.41021698 0.06256172
0.06256172 0.40967097 0.06256172
0.06256172 0.40774028 0.06256172
0.40571366 0.40125276 0.06256172
0.52922289 0.37723924 0.06256172
0.64049548 0.06256172 0.06256172
0.75194973 0.06256172 0.06256172
0.06256172 0.50624793 0.06256172
0.06256172 0.50624218 0.06256172
0.06256172 0.50619806 0.06256172
0.06256172 0.50600997 0.06256172
0.06256172 0.50535124 0.06256172
0.06256172 0.50320954 0.06256172
0.50141419 0.49620883 0.06256172
0.63281694 0.46997719 0.06256172
0.74966801 0.06256172 0.06256172
0.06256172 0.60868016 0.06256172
0.06256172 0.60867823 0.06256172
0.06256172 0.60866344 0.06256172
0.06256172 0.60860042 0.06256172
0.06256172 0.60838039 0.06256172
0.06256172 0.60767227 0.06256172
0.06256172 0.60543440 0.06256172
0.60366019 0.59804940 0.06256172
0.74212446 0.56892726 0.06256172
0.06256172 0.71726614 0.06256172
0.06256172 0.71726553 0.06256172
0.06256172 0.71726085 0.06256172
0.06256172 0.71724091 0.06256172
0.06256172 0.71717137 0.06256172
0.06256172 0.71694831 0.06256172
0.06256172 0.71625084 0.06256172
0.06256172 0.71402866 0.06256172
0.71216591 0.70639069 0.06256172
0.06256172 0.06256172 0.32078925
0.06256172 0.06256172 0.32078217
0.13093055 0.06256172 0.32072781
0.25189922 0.06256172 0.32049598
0.34509245 0.06256172 0.31968240
0.43995981 0.06256172 0.31701899
0.53936412 0.06256172 0.30810095
0.64372697 0.06256172 0.27053271
0.75294900 0.06256172 0.06256172
0.06256172 0.06256172 0.32075003
0.06256172 0.06256172 0.32074295
0.12534549 0.06256172 0.32068856
0.25131865 0.06256172 0.32045661
0.34492289 0.06256172 0.31964262
0.43990367 0.06256172 0.31697785
0.53934513 0.06256172 0.30805483
0.64372070 0.06256172 0.27045660
0.75294703 0.06256172 0.06256172
0.06256172 0.16335501 0.32044820
0.06256172 0.16281609 0.32044110
0.06256172 0.15847014 0.32038650
0.24669006 0.13339925 0.32015366
0.34360901 0.06256172 0.31933653
0.43947135 0.06256172 0.31666120
0.53919919 0.06256172 0.30769977
0.64367248 0.06256172 0.26986944
0.75293195 0.06256172 0.06256172
0.06256172 0.23917386 0.31915029
0.06256172 0.23902604 0.31914306
0.06256172 0.23788003 0.31908756
0.22239182 0.23276823 0.31885086
0.33776597 0.21093446 0.31802005
0.43760723 0.06256172 0.31529881
0.53857538 0.06256172 0.30616984
0.64346697 0.06256172 0.26731506
0.75286773 0.06256172 0.06256172
0.06256172 0.32114096 0.31445053
0.06256172 0.32109260 0.31444286
0.06256172 0.32072029 0.31438394
0.06256172 0.31911545 0.31413262
0.31325009 0.31325009 0.31325009
0.43078557 0.29077285 0.31035479
0.53636747 0.06256172 0.30058560
0.64274699 0.06256172 0.25762015
0.75264349 0.06256172 0.06256172
0.06256172 0.41023429 0.29714808
0.06256172 0.41021764 0.29713849
0.06256172 0.41008968 0.29706477
0.06256172 0.40954286 0.29675015
0.06256172 0.40760932 0.29564302
0.40453707 0.40111165 0.29198460
0.52892339 0.37705253 0.27930621
0.64040368 0.06256172 0.21185728
0.75192169 0.06256172 0.06256172
0.06256172 0.50620403 0.15736918
0.06256172 0.50619828 0.15728087
0.06256172 0.50615413 0.15659738
0.06256172 0.50596596 0.15357336
0.06256172 0.50530692 0.14114997
0.06256172 0.50316417 0.06256172
0.50100981 0.49615989 0.06256172
0.63271737 0.46991201 0.06256172
0.74963927 0.06256172 0.06256172
0.06256172 0.60866544 0.06256172
0.06256172 0.60866351 0.06256172
0.06256172 0.60864871 0.06256172
0.06256172 0.60858568 0.06256172
0.06256172 0.60836562 0.06256172
0.06256172 0.60765739 0.06256172
0.06256172 0.60541916 0.06256172
0.60352465 0.59803292 0.06256172
0.74209329 0.56890482 0.06256172
0.06256172 0.71726148 0.06256172
0.06256172 0.71726087 0.06256172
0.06256172 0.71725619 0.06256172
0.06256172 0.71723625 0.06256172
0.06256172 0.71716671 0.06256172
0.06256172 0.71694364 0.06256172
0.06256172 0.71624613 0.06256172
0.06256172 0.71402384 0.06256172
0.71212297 0.70638546 0.06256172
0.06256172 0.06256172 0.40941838
0.06256172 0.06256172 0.40941593
0.06256172 0.06256172 0.40939712
0.21880472 0.06256172 0.40931701
0.33704435 0.06256172 0.40903716
0.43738358 0.06256172 0.40813487
0.53850113 0.06256172 0.40526613
0.64344257 0.06256172 0.39559878
0.75286011 0.06256172 0.35326740
0.06256172 0.06256172 0.40940481
0.06256172 0.06256172 0.40940236
0.06256172 0.06256172 0.40938355
0.21784542 0.06256172 0.40930343
0.33685714 0.06256172 0.40902353
0.43732579 0.06256172 0.40812110
0.53848197 0.06256172 0.40525190
0.64343628 0.06256172 0.39558287
0.75285815 0.06256172 0.35324115
0.06256172 0.14807102 0.40930053
0.06256172 0.14732690 0.40929807
0.06256172 0.14115862 0.40927924
0.20994411 0.08826506 0.40919903
0.33540497 0.06256172 0.40891880
0.43688078 0.06256172 0.40801527
0.53833468 0.06256172 0.40514253
0.64338792 0.06256172 0.39546059
0.75284305 0.06256172 0.35303929
0.06256172 0.23546039 0.40885521
0.06256172 0.23530411 0.40885274
0.06256172 0.23409169 0.40883381
0.15359377 0.22866549 0.40875319
0.32891244 0.20506168 0.40847152
0.43496115 0.06256172 0.40756333
0.53770505 0.06256172 0.40467541
0.64318179 0.06256172 0.39493812
0.75277877 0.06256172 0.35217442
0.06256172 0.31994932 0.40728471
0.06256172 0.31990023 0.40728220
0.06256172 0.31952224 0.40726293
0.06256172 0.31789261 0.40718084
0.30091273 0.31193157 0.40689405
0.42792517 0.28899992 0.40596920
0.53547623 0.06256172 0.40302702
0.64245962 0.06256172 0.39309149
0.75255431 0.06256172 0.34908625
0.06256172 0.40982603 0.40205587
0.06256172 0.40980930 0.40205320
0.06256172 0.40968074 0.40203274
0.06256172 0.40913136 0.40194556
0.06256172 0.40718857 0.40164095
0.40065820 0.40065820 0.40065820
0.52795775 0.37645181 0.39752707
0.64010909 0.06256172 0.38689600
0.75183181 0.06256172 0.33833201
0.06256172 0.50606330 0.38341264
0.06256172 0.50605755 0.38340933
0.06256172 0.50601333 0.38338392
0.06256172 0.50582487 0.38327565
0.06256172 0.50516482 0.38289713
0.06256172 0.50301874 0.38167348
0.49970273 0.49600297 0.37774955
0.63239781 0.46970295 0.36410765
0.74954716 0.06256172 0.29077832
0.06256172 0.60861828 0.25175544
0.06256172 0.60861635 0.25173754
0.06256172 0.60860154 0.25159996
0.06256172 0.60853848 0.25101122
0.06256172 0.60831831 0.24891858
0.06256172 0.60760972 0.24175176
0.06256172 0.60537035 0.21265856
0.60308927 0.59798014 0.06256172
0.74199341 0.56883293 0.06256172
0.06256172 0.71724656 0.06256172
0.06256172 0.71724595 0.06256172
0.06256172 0.71724127 0.06256172
0.06256172 0.71722133 0.06256172
0.06256172 0.71715177 0.06256172
0.06256172 0.71692866 0.06256172
0.06256172 0.71623105 0.06256172
0.06256172 0.71400839 0.06256172
0.71198536 0.70636870 0.06256172
0.06256172 0.06256172 0.50517538
0.06256172 0.06256172 0.50517453
0.06256172 0.06256172 0.50516803
0.06256172 0.06256172 0.50514034
0.30509905 0.06256172 0.50504373
0.42885518 0.06256172 0.50473366
0.53576378 0.06256172 0.50376215
0.64255214 0.06256172 0.50064658
0.75258300 0.06256172 0.48968272
0.06256172 0.06256172 0.50517069
0.06256172 0.06256172 0.50516984
0.06256172 0.06256172 0.50516333
0.06256172 0.06256172 0.50513564
0.30481850 0.06256172 0.50503903
0.42879158 0.06256172 0.50472894
0.53574405 0.06256172 0.50375739
0.64254578 0.06256172 0.50064165
0.75258103 0.06256172 0.48967717
0.06256172 0.06256172 0.50513464
0.06256172 0.06256172 0.50513379
0.06256172 0.06256172 0.50512728
0.06256172 0.06256172 0.50509958
0.30262960 0.06256172 0.50500293
0.42830164 0.06256172 0.50469272
0.53559237 0.06256172 0.50372078
0.64249697 0.06256172 0.50060379
0.75256589 0.06256172 0.48963452
0.06256172 0.22235238 0.50498102
0.06256172 0.22216126 0.50498017
0.06256172 0.22067427 0.50497366
0.06256172 0.21392142 0.50494591
0.29254020 0.18182668 0.50484909
0.42618515 0.06256172 0.50453837
0.53494393 0.06256172 0.50356480
0.64228888 0.06256172 0.50044245
0.75250141 0.06256172 0.48945275
0.06256172 0.31612203 0.50444348
0.06256172 0.31607050 0.50444263
0.06256172 0.31567363 0.50443607
0.06256172 0.31396137 0.50440816
0.23970059 0.30768016 0.50431078
0.41838318 0.28319843 0.50399824
0.53264739 0.06256172 0.50301893
0.64155984 0.06256172 0.49987775
0.75227628 0.06256172 0.48881620
0.06256172 0.40854338 0.50270066
0.06256172 0.40852641 0.50269979
0.06256172 0.40839595 0.50269311
0.06256172 0.40783839 0.50266466
0.06256172 0.40586628 0.50256543
0.38733979 0.39923191 0.50224691
0.52488744 0.37455492 0.50124876
0.63918656 0.06256172 0.49804568
0.75155161 0.06256172 0.48674745
0.06256172 0.50562405 0.49705728
0.06256172 0.50561827 0.49705635
0.06256172 0.50557384 0.49704925
0.06256172 0.50538448 0.49701901
0.06256172 0.50472127 0.49691351
0.06256172 0.50256474 0.49657484
0.49551300 0.49551300 0.49551300
0.63139653 0.46904935 0.49210035
0.74925999 0.06256172 0.47999457
0.06256172 0.60847138 0.47670533
0.06256172 0.60846945 0.47670417
0.06256172 0.60845462 0.47669530
0.06256172 0.60839146 0.47665755
0.06256172 0.60817094 0.47652582
0.06256172 0.60746125 0.47610265
0.06256172 0.60521832 0.47477327
0.60172159 0.59781573 0.47047267
0.74168193 0.56860890 0.45483403
0.06256172 0.71720012 0.31475231
0.06256172 0.71719951 0.31474467
0.06256172 0.71719482 0.31468597
0.06256172 0.71717487 0.31443562
0.06256172 0.71710528 0.31355652
0.06256172 0.71688206 0.31067278
0.06256172 0.71618410 0.30094635
0.06256172 0.71396032 0.25826580
0.71155586 0.70631655 0.06256172
0.06256172 0.06256172 0.60753466
0.06256172 0.06256172 0.60753437
0.06256172 0.06256172 0.60753219
0.06256172 0.06256172 0.60752290
0.06256172 0.06256172 0.60749050
0.39503469 0.06256172 0.60738666
0.52661579 0.06256172 0.60706283
0.63970324 0.06256172 0.60603976
0.75170831 0.06256172 0.60262322
0.06256172 0.06256172 0.60753308
0.06256172 0.06256172 0.60753280
0.06256172 0.06256172 0.60753061
0.06256172 0.06256172 0.60752132
0.06256172 0.06256172 0.60748892
0.39494108 0.06256172 0.60738508
0.52659402 0.06256172 0.60706125
0.63969669 0.06256172 0.60603816
0.75170632 0.06256172 0.60262156
0.06256172 0.06256172 0.60752099
0.06256172 0.06256172 0.60752070
0.06256172 0.06256172 0.60751852
0.06256172 0.06256172 0.60750923
0.06256172 0.06256172 0.60747682
0.39421883 0.06256172 0.60737297
0.52642669 0.06256172 0.60704909
0.63964638 0.06256172 0.60602587
0.75169104 0.06256172 0.60260882
0.06256172 0.13267713 0.60746948
0.06256172 0.13160693 0.60746919
0.06256172 0.12223540 0.60746701
0.06256172 0.06256172 0.60745771
0.06256172 0.06256172 0.60742529
0.39107466 0.06256172 0.60732138
0.52571102 0.06256172 0.60699733
0.63943192 0.06256172 0.60597354
0.75162595 0.06256172 0.60255457
0.06256172 0.30273366 0.60728970
0.06256172 0.30267243 0.60728941
0.06256172 0.30220065 0.60728722
0.06256172 0.30015919 0.60727791
0.06256172 0.29258209 0.60724542
0.37911331 0.26129898 0.60714131
0.52317210 0.06256172 0.60681665
0.63868044 0.06256172 0.60579089
0.75139869 0.06256172 0.60236518
0.06256172 0.40439294 0.60671163
0.06256172 0.40437513 0.60671134
0.06256172 0.40423831 0.60670914
0.06256172 0.40365342 0.60669977
0.06256172 0.40158301 0.60666708
0.32244075 0.39459886 0.60656234
0.51454073 0.36831217 0.60623567
0.63623286 0.06256172 0.60520355
0.75066713 0.06256172 0.60175610
0.06256172 0.50423246 0.60489001
0.06256172 0.50422659 0.60488972
0.06256172 0.50418149 0.60488747
0.06256172 0.50398925 0.60487792
0.06256172 0.50331591 0.60484460
0.06256172 0.50112593 0.60473781
0.48097526 0.49395887 0.60440477
0.62818499 0.46696803 0.60335235
0.74835334 0.06256172 0.59983541
0.06256172 0.60800910 0.59893664
0.06256172 0.60800715 0.59893633
0.06256172 0.60799225 0.59893394
0.06256172 0.60792878 0.59892376
0.06256172 0.60770718 0.59888828
0.06256172 0.60699399 0.59877454
0.06256172 0.60473980 0.59841976
0.59729811 0.59729811 0.59729811
0.74069806 0.56790266 0.59354372
0.06256172 0.71705427 0.57640379
0.06256172 0.71705366 0.57640340
0.06256172 0.71704896 0.57640036
0.06256172 0.71702898 0.57638744
0.06256172 0.71695928 0.57634238
0.06256172 0.71673572 0.57619792
0.06256172 0.71603666 0.57574700
0.06256172 0.71380934 0.57431833
0.71019567 0.70615276 0.56950119
0.06256172 0.06256172 0.71609221
0.06256172 0.06256172 0.71609212
0.06256172 0.06256172 0.71609143
0.06256172 0.06256172 0.71608849
0.06256172 0.06256172 0.71607823
0.06256172 0.06256172 0.71604538
0.48834987 0.06256172 0.71594308
0.62976419 0.06256172 0.71562144
0.74879642 0.06256172 0.71456449
0.06256172 0.06256172 0.71609171
0.06256172 0.06256172 0.71609162
0.06256172 0.06256172 0.71609093
0.06256172 0.06256172 0.71608799
0.06256172 0.06256172 0.71607773
0.06256172 0.06256172 0.71604488
0.48831695 0.06256172 0.71594258
0.62975692 0.06256172 0.71562094
0.74879437 0.06256172 0.71456399
0.06256172 0.06256172 0.71608788
0.06256172 0.06256172 0.71608779
0.06256172 0.06256172 0.71608710
0.06256172 0.06256172 0.71608416
0.06256172 0.06256172 0.71607390
0.06256172 0.06256172 0.71604105
0.48806376 0.06256172 0.71593874
0.62970103 0.06256172 0.71561709
0.74877860 0.06256172 0.71456009
0.06256172 0.06256172 0.71607158
0.06256172 0.06256172 0.71607149
0.06256172 0.06256172 0.71607080
0.06256172 0.06256172 0.71606785
0.06256172 0.06256172 0.71605760
0.06256172 0.06256172 0.71602473
0.48697806 0.06256172 0.71592241
0.62946277 0.06256172 0.71560070
0.74871144 0.06256172 0.71454352
0.06256172 0.22584060 0.71601472
0.06256172 0.22565958 0.71601463
0.06256172 0.22425242 0.71601394
0.06256172 0.21788987 0.71601099
0.06256172 0.18849233 0.71600073
0.06256172 0.06256172 0.71596785
0.48308926 0.06256172 0.71586546
0.62862742 0.06256172 0.71554356
0.74847694 0.06256172 0.71448573
0.06256172 0.38928180 0.71583240
0.06256172 0.38926059 0.71583231
0.06256172 0.38909760 0.71583161
0.06256172 0.38840025 0.71582866
0.06256172 0.38592379 0.71581838
0.06256172 0.37747221 0.71578543
0.46939013 0.34393001 0.71568285
0.62590145 0.06256172 0.71536032
0.74772195 0.06256172 0.71430041
0.06256172 0.49954145 0.71526281
0.06256172 0.49953527 0.71526272
0.06256172 0.49948782 0.71526203
0.06256172 0.49928554 0.71525906
0.06256172 0.49857688 0.71524871
0.06256172 0.49627001 0.71521556
0.40495493 0.48869844 0.71511235
0.61687928 0.45982633 0.71478785
0.74533284 0.06256172 0.71372142
0.06256172 0.60648515 0.71345330
0.06256172 0.60648317 0.71345321
0.06256172 0.60646803 0.71345249
0.06256172 0.60640353 0.71344947
0.06256172 0.60617832 0.71343892
0.06256172 0.60545345 0.71340513
0.06256172 0.60316177 0.71329991
0.58123244 0.59558959 0.71296907
0.73741444 0.56556123 0.71188164
0.06256172 0.71657691 0.70729557
0.06256172 0.71657630 0.70729547
0.06256172 0.71657158 0.70729471
0.06256172 0.71655150 0.70729148
0.06256172 0.71648144 0.70728022
0.06256172 0.71625673 0.70724414
0.06256172 0.71555408 0.70713178
0.06256172 0.71331514 0.70677843
0.70561646 0.70561646 0.70561646
