src/ffmpeg_scripts/luts/rec2020-sRGB_-1p67.cube
TITLE "rec2020-srgb_-1p67"
LUT_3D_SIZE 5
# PQ (EOTF Only)/Rec2020 -> PQ (EOTF Only)/Rec709, CineEI Shift -1.67, Black Level 0.00% IRE, Input 100% -> Output 109% - Created with LUTCalc v4.01 by Ben Turley October 2020
0.06256172 0.06256172 0.06256172
0.23939205 0.06256172 0.06256172
0.43667503 0.06256172 0.06256172
0.64453504 0.06256172 0.06256172
0.86009464 0.06256172 0.06256172
0.06256172 0.21949435 0.06256172
0.21678555 0.21373970 0.06256172
0.43505593 0.06256172 0.06256172
0.64436341 0.06256172 0.06256172
0.86007793 0.06256172 0.06256172
0.06256172 0.40620485 0.06256172
0.06256172 0.40572314 0.06256172
0.40195771 0.39715183 0.06256172
0.64141529 0.06256172 0.06256172
0.85979503 0.06256172 0.06256172
0.06256172 0.60936555 0.06256172
0.06256172 0.60931283 0.06256172
0.06256172 0.60841745 0.06256172
0.60438816 0.59873272 0.06256172
0.85684765 0.06256172 0.06256172
0.06256172 0.82489243 0.06256172
0.06256172 0.82488719 0.06256172
0.06256172 0.82479859 0.06256172
0.06256172 0.82388705 0.06256172
0.81985300 0.81410922 0.06256172
0.06256172 0.06256172 0.21886554
0.23697724 0.06256172 0.21805085
0.43647590 0.06256172 0.20237074
0.64451378 0.06256172 0.06256172
0.86009257 0.06256172 0.06256172
0.06256172 0.21912459 0.21421222
0.21333433 0.21333433 0.21333433
0.43485315 0.06256172 0.19619571
0.64434211 0.06256172 0.06256172
0.86007585 0.06256172 0.06256172
0.06256172 0.40617264 0.06256172
0.06256172 0.40569075 0.06256172
0.40166217 0.39711608 0.06256172
0.64139331 0.06256172 0.06256172
0.85979295 0.06256172 0.06256172
0.06256172 0.60936202 0.06256172
0.06256172 0.60930929 0.06256172
0.06256172 0.60841389 0.06256172
0.60435566 0.59872877 0.06256172
0.85684550 0.06256172 0.06256172
0.06256172 0.82489207 0.06256172
0.06256172 0.82488683 0.06256172
0.06256172 0.82479824 0.06256172
0.06256172 0.82388670 0.06256172
0.81984976 0.81410882 0.06256172
0.06256172 0.06256172 0.40522116
0.16863154 0.06256172 0.40515033
0.43304207 0.06256172 0.40394469
0.64415382 0.06256172 0.39053685
0.86005755 0.06256172 0.06256172
0.06256172 0.21252379 0.40482794
0.06256172 0.20604796 0.40475679
0.43135489 0.06256172 0.40354565
0.64398150 0.06256172 0.39007069
0.86004083 0.06256172 0.06256172
0.06256172 0.40562658 0.39789953
0.06256172 0.40514165 0.39782246
0.39650976 0.39650976 0.39650976
0.64102126 0.06256172 0.38178452
0.85975782 0.06256172 0.06256172
0.06256172 0.60930229 0.20458235
0.06256172 0.60924953 0.20355357
0.06256172 0.60835356 0.18271156
0.60380476 0.59866193 0.06256172
0.85680919 0.06256172 0.06256172
0.06256172 0.82488614 0.06256172
0.06256172 0.82488090 0.06256172
0.06256172 0.82479230 0.06256172
0.06256172 0.82388069 0.06256172
0.81979499 0.81410214 0.06256172
0.06256172 0.06256172 0.60821442
0.06256172 0.06256172 0.60820665
0.38704584 0.06256172 0.60807516
0.64038980 0.06256172 0.60671915
0.85969847 0.06256172 0.59177877
0.06256172 0.06256172 0.60817133
0.06256172 0.06256172 0.60816355
0.38416908 0.06256172 0.60803200
0.64021048 0.06256172 0.60667537
0.85968168 0.06256172 0.59172749
0.06256172 0.39983295 0.60744013
0.06256172 0.39931448 0.60743229
0.30918051 0.39004789 0.60729972
0.63712787 0.06256172 0.60593247
0.85939753 0.06256172 0.59085664
0.06256172 0.60868898 0.59961422
0.06256172 0.60863587 0.59960571
0.06256172 0.60773404 0.59946168
0.59797526 0.59797526 0.59797526
0.85643676 0.06256172 0.58145122
0.06256172 0.82482538 0.39824873
0.06256172 0.82482013 0.39817198
0.06256172 0.82473147 0.39686461
0.06256172 0.82381925 0.38220560
0.81923268 0.81403371 0.06256172
0.06256172 0.06256172 0.82372825
0.06256172 0.06256172 0.82372748
0.06256172 0.06256172 0.82371440
0.59036025 0.06256172 0.82358054
0.85598153 0.06256172 0.82221487
0.06256172 0.06256172 0.82372396
0.06256172 0.06256172 0.82372319
0.06256172 0.06256172 0.82371012
0.59005566 0.06256172 0.82357625
0.85596403 0.06256172 0.82221051
0.06256172 0.29216851 0.82365150
0.06256172 0.29020601 0.82365073
0.06256172 0.24521780 0.82363764
0.58475439 0.06256172 0.82350367
0.85566776 0.06256172 0.82213683
0.06256172 0.60224871 0.82290671
0.06256172 0.60219186 0.82290593
0.06256172 0.60122607 0.82289274
0.50004585 0.59073130 0.82275766
0.85257852 0.06256172 0.82137945
0.06256172 0.82420828 0.81500575
0.06256172 0.82420300 0.81500490
0.06256172 0.82411373 0.81499051
0.06256172 0.82319524 0.81484314
0.81333847 0.81333847 0.81333847
