src/ffmpeg_scripts/luts/rec2020-sRGB_-4p00.cube
TITLE "rec2020-srgb_-4p00"
LUT_3D_SIZE 5
# PQ (EOTF Only)/Rec2020 -> PQ (EOTF Only)/Rec709, CineEI Shift -4.00, Black Level 0.00% IRE, Input 100% -> Output 109% - Created with LUTCalc v4.01 by Ben Turley October 2020
0.06256172 0.06256172 0.06256172
0.16563950 0.06256172 0.06256172
0.31626019 0.06256172 0.06256172
0.49938111 0.06256172 0.06256172
0.70981882 0.06256172 0.06256172
0.06256172 0.15207348 0.06256172
0.15025461 0.14821767 0.06256172
0.31492225 0.06256172 0.06256172
0.49922134 0.06256172 0.06256172
0.70980179 0.06256172 0.06256172
0.06256172 0.29133565 0.06256172
0.06256172 0.29094599 0.06256172
0.28790494 0.28403599 0.06256172
0.49647898 0.06256172 0.06256172
0.70951352 0.06256172 0.06256172
0.06256172 0.46691969 0.06256172
0.06256172 0.46687145 0.06256172
0.06256172 0.46605242 0.06256172
0.46237127 0.45721721 0.06256172
0.70651199 0.06256172 0.06256172
0.06256172 0.67418155 0.06256172
0.06256172 0.67417628 0.06256172
0.06256172 0.67408719 0.06256172
0.06256172 0.67317072 0.06256172
0.66911870 0.66336022 0.06256172
0.06256172 0.06256172 0.15165064
0.16397428 0.06256172 0.15110336
0.31609556 0.06256172 0.14069341
0.49936132 0.06256172 0.06256172
0.70981671 0.06256172 0.06256172
0.06256172 0.15182480 0.14853310
0.14794724 0.14794724 0.14794724
0.31475478 0.06256172 0.13666019
0.49920152 0.06256172 0.06256172
0.70979967 0.06256172 0.06256172
0.06256172 0.29130959 0.06256172
0.06256172 0.29091980 0.06256172
0.28766662 0.28400726 0.06256172
0.49645856 0.06256172 0.06256172
0.70951140 0.06256172 0.06256172
0.06256172 0.46691645 0.06256172
0.06256172 0.46686821 0.06256172
0.06256172 0.46604915 0.06256172
0.46234160 0.45721361 0.06256172
0.70650980 0.06256172 0.06256172
0.06256172 0.67418120 0.06256172
0.06256172 0.67417593 0.06256172
0.06256172 0.67408684 0.06256172
0.06256172 0.67317036 0.06256172
0.66911545 0.66335982 0.06256172
0.06256172 0.06256172 0.29054009
0.11914775 0.06256172 0.29048283
0.31326017 0.06256172 0.28950861
0.49902625 0.06256172 0.27873355
0.70978102 0.06256172 0.06256172
0.06256172 0.14740698 0.29022224
0.06256172 0.14311329 0.29016474
0.31186951 0.06256172 0.28918636
0.49886587 0.06256172 0.27836089
0.70976399 0.06256172 0.06256172
0.06256172 0.29086791 0.28463700
0.06256172 0.29047582 0.28457503
0.28352015 0.28352015 0.28352015
0.49611275 0.06256172 0.27175915
0.70947561 0.06256172 0.06256172
0.06256172 0.46686181 0.14214721
0.06256172 0.46681354 0.14147034
0.06256172 0.46599398 0.12798993
0.46183890 0.45715278 0.06256172
0.70647284 0.06256172 0.06256172
0.06256172 0.67417523 0.06256172
0.06256172 0.67416996 0.06256172
0.06256172 0.67408086 0.06256172
0.06256172 0.67316433 0.06256172
0.66906048 0.66335313 0.06256172
0.06256172 0.06256172 0.46586675
0.06256172 0.06256172 0.46585964
0.27594603 0.06256172 0.46573940
0.49552598 0.06256172 0.46449994
0.70941514 0.06256172 0.45090024
0.06256172 0.06256172 0.46582734
0.06256172 0.06256172 0.46582023
0.27365462 0.06256172 0.46569994
0.49535938 0.06256172 0.46445993
0.70939803 0.06256172 0.45085373
0.06256172 0.28619269 0.46515885
0.06256172 0.28577529 0.46515168
0.21581839 0.27834267 0.46503051
0.49249775 0.06256172 0.46378125
0.70910852 0.06256172 0.45006427
0.06256172 0.46630075 0.45801958
0.06256172 0.46625218 0.45801183
0.06256172 0.46542752 0.45788071
0.45652803 0.45652803 0.45652803
0.70609381 0.06256172 0.44156072
0.06256172 0.67411413 0.28491781
0.06256172 0.67410885 0.28485608
0.06256172 0.67401970 0.28380520
0.06256172 0.67310257 0.27209360
0.66849618 0.66328461 0.06256172
0.06256172 0.06256172 0.67301109
0.06256172 0.06256172 0.67301032
0.06256172 0.06256172 0.67299718
0.44961444 0.06256172 0.67286263
0.70563058 0.06256172 0.67149033
0.06256172 0.06256172 0.67300678
0.06256172 0.06256172 0.67300601
0.06256172 0.06256172 0.67299287
0.44933847 0.06256172 0.67285831
0.70561277 0.06256172 0.67148595
0.06256172 0.20323884 0.67293395
0.06256172 0.20180146 0.67293317
0.06256172 0.16967766 0.67292002
0.44454238 0.06256172 0.67278536
0.70531134 0.06256172 0.67141193
0.06256172 0.46041974 0.67218544
0.06256172 0.46036791 0.67218465
0.06256172 0.45948767 0.67217140
0.36976633 0.44995068 0.67203566
0.70217024 0.06256172 0.67065121
0.06256172 0.67349365 0.66425820
0.06256172 0.67348834 0.66425735
0.06256172 0.67339860 0.66424293
0.06256172 0.67247538 0.66409531
0.66258847 0.66258847 0.66258847
