src/ffmpeg_scripts/luts/rec2020-sRGB_0p33.cube
TITLE "rec2020-srgb_0p33"
LUT_3D_SIZE 9
# PQ (EOTF Only)/Rec2020 -> PQ (EOTF Only)/Rec709, CineEI Shift 0.33, Black Level 0.00% IRE, Input 100% -> Output 109% - Created with LUTCalc v4.01 by Ben Turley October 2020
0.06256172 0.06256172 0.06256172
0.20068179 0.06256172 0.06256172
0.32431226 0.06256172 0.06256172
0.44182180 0.06256172 0.06256172
0.55528560 0.06256172 0.06256172
0.66571751 0.06256172 0.06256172
0.77372388 0.06256172 0.06256172
0.87970932 0.06256172 0.06256172
0.91886608 0.06256172 0.06256172
0.06256172 0.18388780 0.06256172
0.18161785 0.17907030 0.06256172
0.32147929 0.09780862 0.06256172
0.44112095 0.06256172 0.06256172
0.55508195 0.06256172 0.06256172
0.66565432 0.06256172 0.06256172
0.77370395 0.06256172 0.06256172
0.87970315 0.06256172 0.06256172
0.91886608 0.06256172 0.06256172
0.06256172 0.29893574 0.06256172
0.06256172 0.29811462 0.06256172
0.29543937 0.29149534 0.06256172
0.43554797 0.25389405 0.06256172
0.55350327 0.06256172 0.06256172
0.66516770 0.06256172 0.06256172
0.77355076 0.06256172 0.06256172
0.87965572 0.06256172 0.06256172
0.91886608 0.06256172 0.06256172
0.06256172 0.41116716 0.06256172
0.06256172 0.41095772 0.06256172
0.06256172 0.40933263 0.06256172
0.40689235 0.40205458 0.06256172
0.54646863 0.37043011 0.06256172
0.66306767 0.06256172 0.06256172
0.77289575 0.06256172 0.06256172
0.87945355 0.06256172 0.06256172
0.91886608 0.06256172 0.06256172
0.06256172 0.52148753 0.06256172
0.06256172 0.52142560 0.06256172
0.06256172 0.52094873 0.06256172
0.06256172 0.51889086 0.06256172
0.51673214 0.51133751 0.06256172
0.65535846 0.48190590 0.06256172
0.77057524 0.06256172 0.06256172
0.87874508 0.06256172 0.06256172
0.91886608 0.06256172 0.06256172
0.06256172 0.63034914 0.06256172
0.06256172 0.63032968 0.06256172
0.06256172 0.63018010 0.06256172
0.06256172 0.62954069 0.06256172
0.06256172 0.62727712 0.06256172
0.62533721 0.61964057 0.06256172
0.76272622 0.59094934 0.06256172
0.87643719 0.06256172 0.06256172
0.91886608 0.06256172 0.06256172
0.06256172 0.73802682 0.06256172
0.06256172 0.73802061 0.06256172
0.06256172 0.73797296 0.06256172
0.06256172 0.73776984 0.06256172
0.06256172 0.73705823 0.06256172
0.06256172 0.73474211 0.06256172
0.73293809 0.72714479 0.06256172
0.86884485 0.69830408 0.06256172
0.91886608 0.06256172 0.06256172
0.06256172 0.84470624 0.06256172
0.06256172 0.84470430 0.06256172
0.06256172 0.84468941 0.06256172
0.06256172 0.84462599 0.06256172
0.06256172 0.84440456 0.06256172
0.06256172 0.84369172 0.06256172
0.06256172 0.84143682 0.06256172
0.83969079 0.83397292 0.06256172
0.91886608 0.80418916 0.06256172
0.06256172 0.91886608 0.06256172
0.06256172 0.91886608 0.06256172
0.06256172 0.91886608 0.06256172
0.06256172 0.91886608 0.06256172
0.06256172 0.91886608 0.06256172
0.06256172 0.91886608 0.06256172
0.06256172 0.91886608 0.06256172
0.06256172 0.91886608 0.06256172
0.91886608 0.91886608 0.06256172
0.06256172 0.06256172 0.18336050
0.19863272 0.06256172 0.18267765
0.32396650 0.06256172 0.17712963
0.44173521 0.06256172 0.14295473
0.55526038 0.06256172 0.06256172
0.66570968 0.06256172 0.06256172
0.77372141 0.06256172 0.06256172
0.87970856 0.06256172 0.06256172
0.91886608 0.06256172 0.06256172
0.06256172 0.18357771 0.17946518
0.17873164 0.17873164 0.17873164
0.32112093 0.09508611 0.17273812
0.44103368 0.06256172 0.13349690
0.55505667 0.06256172 0.06256172
0.66564648 0.06256172 0.06256172
0.77370148 0.06256172 0.06256172
0.87970238 0.06256172 0.06256172
0.91886608 0.06256172 0.06256172
0.06256172 0.29888097 0.13116434
0.06256172 0.29805925 0.12908094
0.29493757 0.29143493 0.10722980
0.43545508 0.25379261 0.06256172
0.55347757 0.06256172 0.06256172
0.66515983 0.06256172 0.06256172
0.77354828 0.06256172 0.06256172
0.87965496 0.06256172 0.06256172
0.91886608 0.06256172 0.06256172
0.06256172 0.41115313 0.06256172
0.06256172 0.41094367 0.06256172
0.06256172 0.40931831 0.06256172
0.40676377 0.40203901 0.06256172
0.54644092 0.37040758 0.06256172
0.66305962 0.06256172 0.06256172
0.77289326 0.06256172 0.06256172
0.87945278 0.06256172 0.06256172
0.91886608 0.06256172 0.06256172
0.06256172 0.52148338 0.06256172
0.06256172 0.52142145 0.06256172
0.06256172 0.52094455 0.06256172
0.06256172 0.51888660 0.06256172
0.51669402 0.51133288 0.06256172
0.65534972 0.48189953 0.06256172
0.77057269 0.06256172 0.06256172
0.87874431 0.06256172 0.06256172
0.91886608 0.06256172 0.06256172
0.06256172 0.63034784 0.06256172
0.06256172 0.63032837 0.06256172
0.06256172 0.63017879 0.06256172
0.06256172 0.62953937 0.06256172
0.06256172 0.62727577 0.06256172
0.62532521 0.61963911 0.06256172
0.76272344 0.59094736 0.06256172
0.87643639 0.06256172 0.06256172
0.91886608 0.06256172 0.06256172
0.06256172 0.73802640 0.06256172
0.06256172 0.73802020 0.06256172
0.06256172 0.73797254 0.06256172
0.06256172 0.73776942 0.06256172
0.06256172 0.73705781 0.06256172
0.06256172 0.73474168 0.06256172
0.73293426 0.72714432 0.06256172
0.86884398 0.69830345 0.06256172
0.91886608 0.06256172 0.06256172
0.06256172 0.84470611 0.06256172
0.06256172 0.84470417 0.06256172
0.06256172 0.84468928 0.06256172
0.06256172 0.84462586 0.06256172
0.06256172 0.84440443 0.06256172
0.06256172 0.84369159 0.06256172
0.06256172 0.84143669 0.06256172
0.83968959 0.83397278 0.06256172
0.91886608 0.80418896 0.06256172
0.06256172 0.91886608 0.06256172
0.06256172 0.91886608 0.06256172
0.06256172 0.91886608 0.06256172
0.06256172 0.91886608 0.06256172
0.06256172 0.91886608 0.06256172
0.06256172 0.91886608 0.06256172
0.06256172 0.91886608 0.06256172
0.06256172 0.91886608 0.06256172
0.91886608 0.91886608 0.06256172
0.06256172 0.06256172 0.29812503
0.17986912 0.06256172 0.29800465
0.32126010 0.06256172 0.29707384
0.44106753 0.06256172 0.29297872
0.55506648 0.06256172 0.27665113
0.66564952 0.06256172 0.13332837
0.77370244 0.06256172 0.06256172
0.87970268 0.06256172 0.06256172
0.91886608 0.06256172 0.06256172
0.06256172 0.18113676 0.29745553
0.14870256 0.17605782 0.29733408
0.31831370 0.06256172 0.29639499
0.44036073 0.06256172 0.29226202
0.55486235 0.06256172 0.27575746
0.66558629 0.06256172 0.12088813
0.77368250 0.06256172 0.06256172
0.87969650 0.06256172 0.06256172
0.91886608 0.06256172 0.06256172
0.06256172 0.29845909 0.29210809
0.06256172 0.29763280 0.29197775
0.29096941 0.29096941 0.29096941
0.43473855 0.25300871 0.28651877
0.55327994 0.06256172 0.26850336
0.66509932 0.06256172 0.06256172
0.77352927 0.06256172 0.06256172
0.87964908 0.06256172 0.06256172
0.91886608 0.06256172 0.06256172
0.06256172 0.41104537 0.26371953
0.06256172 0.41083565 0.26352758
0.06256172 0.40920827 0.26203614
0.40577007 0.40191937 0.25530986
0.54622787 0.37023438 0.22478790
0.66299775 0.06256172 0.06256172
0.77287411 0.06256172 0.06256172
0.87944689 0.06256172 0.06256172
0.91886608 0.06256172 0.06256172
0.06256172 0.52145151 0.06256172
0.06256172 0.52138956 0.06256172
0.06256172 0.52091250 0.06256172
0.06256172 0.51885382 0.06256172
0.51640081 0.51129732 0.06256172
0.65528259 0.48185059 0.06256172
0.77055306 0.06256172 0.06256172
0.87873837 0.06256172 0.06256172
0.91886608 0.06256172 0.06256172
0.06256172 0.63033782 0.06256172
0.06256172 0.63031835 0.06256172
0.06256172 0.63016876 0.06256172
0.06256172 0.62952927 0.06256172
0.06256172 0.62726542 0.06256172
0.62523300 0.61962789 0.06256172
0.76270207 0.59093216 0.06256172
0.87643029 0.06256172 0.06256172
0.91886608 0.06256172 0.06256172
0.06256172 0.73802321 0.06256172
0.06256172 0.73801700 0.06256172
0.06256172 0.73796935 0.06256172
0.06256172 0.73776622 0.06256172
0.06256172 0.73705458 0.06256172
0.06256172 0.73473838 0.06256172
0.73290483 0.72714073 0.06256172
0.86883734 0.69829857 0.06256172
0.91886608 0.06256172 0.06256172
0.06256172 0.84470511 0.06256172
0.06256172 0.84470317 0.06256172
0.06256172 0.84468828 0.06256172
0.06256172 0.84462486 0.06256172
0.06256172 0.84440342 0.06256172
0.06256172 0.84369058 0.06256172
0.06256172 0.84143565 0.06256172
0.83968038 0.83397165 0.06256172
0.91886608 0.80418740 0.06256172
0.06256172 0.91886608 0.06256172
0.06256172 0.91886608 0.06256172
0.06256172 0.91886608 0.06256172
0.06256172 0.91886608 0.06256172
0.06256172 0.91886608 0.06256172
0.06256172 0.91886608 0.06256172
0.06256172 0.91886608 0.06256172
0.06256172 0.91886608 0.06256172
0.91886608 0.91886608 0.06256172
0.06256172 0.06256172 0.41017710
0.06256172 0.06256172 0.41014626
0.30856944 0.06256172 0.40990912
0.43816810 0.06256172 0.40889233
0.55423652 0.06256172 0.40525198
0.66539302 0.06256172 0.39244700
0.77362162 0.06256172 0.33246583
0.87967765 0.06256172 0.06256172
0.91886608 0.06256172 0.06256172
0.06256172 0.16929923 0.41000609
0.06256172 0.16285288 0.40997519
0.30509228 0.06256172 0.40973758
0.43743788 0.06256172 0.40871879
0.55403058 0.06256172 0.40507103
0.66532961 0.06256172 0.39223718
0.77360167 0.06256172 0.33203450
0.87967148 0.06256172 0.06256172
0.91886608 0.06256172 0.06256172
0.06256172 0.29663661 0.40868168
0.06256172 0.29579019 0.40865031
0.27122195 0.28895483 0.40840907
0.43162210 0.24956890 0.40737456
0.55243396 0.06256172 0.40366889
0.66484131 0.06256172 0.39060876
0.77344830 0.06256172 0.32864291
0.87962404 0.06256172 0.06256172
0.91886608 0.06256172 0.06256172
0.06256172 0.41058515 0.40280727
0.06256172 0.41037432 0.40277372
0.06256172 0.40873824 0.40251561
0.40140820 0.40140820 0.40140820
0.54531546 0.36949306 0.39743300
0.66273394 0.06256172 0.38330854
0.77279257 0.06256172 0.31232830
0.87942179 0.06256172 0.06256172
0.91886608 0.06256172 0.06256172
0.06256172 0.52131571 0.37849671
0.06256172 0.52125367 0.37845218
0.06256172 0.52077591 0.37810947
0.06256172 0.51871417 0.37663490
0.51514217 0.51114581 0.37128359
0.65499631 0.48164195 0.35140885
0.77046944 0.06256172 0.15931413
0.87871307 0.06256172 0.06256172
0.91886608 0.06256172 0.06256172
0.06256172 0.63029516 0.06256172
0.06256172 0.63027569 0.06256172
0.06256172 0.63012602 0.06256172
0.06256172 0.62948624 0.06256172
0.06256172 0.62722136 0.06256172
0.62483944 0.61958012 0.06256172
0.76261105 0.59086744 0.06256172
0.87640432 0.06256172 0.06256172
0.91886608 0.06256172 0.06256172
0.06256172 0.73800961 0.06256172
0.06256172 0.73800341 0.06256172
0.06256172 0.73795575 0.06256172
0.06256172 0.73775259 0.06256172
0.06256172 0.73704085 0.06256172
0.06256172 0.73472429 0.06256172
0.73277945 0.72712546 0.06256172
0.86880904 0.69827780 0.06256172
0.91886608 0.06256172 0.06256172
0.06256172 0.84470086 0.06256172
0.06256172 0.84469892 0.06256172
0.06256172 0.84468403 0.06256172
0.06256172 0.84462061 0.06256172
0.06256172 0.84439916 0.06256172
0.06256172 0.84368628 0.06256172
0.06256172 0.84143124 0.06256172
0.83964117 0.83396686 0.06256172
0.91886608 0.80418075 0.06256172
0.06256172 0.91886608 0.06256172
0.06256172 0.91886608 0.06256172
0.06256172 0.91886608 0.06256172
0.06256172 0.91886608 0.06256172
0.06256172 0.91886608 0.06256172
0.06256172 0.91886608 0.06256172
0.06256172 0.91886608 0.06256172
0.06256172 0.91886608 0.06256172
0.91886608 0.91886608 0.06256172
0.06256172 0.06256172 0.52038712
0.06256172 0.06256172 0.52037799
0.23131006 0.06256172 0.52030786
0.42725165 0.06256172 0.52000873
0.55128430 0.06256172 0.51895829
0.66449328 0.06256172 0.51551205
0.77333932 0.06256172 0.50388807
0.87959036 0.06256172 0.45336286
0.91886608 0.06256172 0.06256172
0.06256172 0.06256172 0.52033652
0.06256172 0.06256172 0.52032738
0.22050033 0.06256172 0.52025722
0.42642561 0.06256172 0.51995792
0.55107176 0.06256172 0.51890691
0.66442927 0.06256172 0.51545872
0.77331931 0.06256172 0.50382761
0.87958417 0.06256172 0.45325772
0.91886608 0.06256172 0.06256172
0.06256172 0.28991708 0.51994707
0.06256172 0.28899147 0.51993790
0.06256172 0.28147411 0.51986744
0.41981175 0.23601074 0.51956688
0.54942351 0.06256172 0.51851141
0.66393628 0.06256172 0.51504823
0.77316547 0.06256172 0.50336204
0.87953668 0.06256172 0.45244626
0.91886608 0.06256172 0.06256172
0.06256172 0.40896149 0.51827070
0.06256172 0.40874670 0.51826136
0.06256172 0.40707956 0.51818961
0.38420939 0.39960221 0.51788357
0.54206317 0.36685630 0.51680869
0.66180840 0.06256172 0.51328016
0.77250772 0.06256172 0.50135345
0.87933424 0.06256172 0.44890764
0.91886608 0.06256172 0.06256172
0.06256172 0.52084072 0.51217775
0.06256172 0.52077836 0.51216778
0.06256172 0.52029815 0.51209116
0.06256172 0.51822566 0.51176430
0.51061567 0.51061567 0.51061567
0.65399140 0.48091084 0.50683829
0.77017733 0.06256172 0.49398786
0.87862481 0.06256172 0.43534997
0.91886608 0.06256172 0.06256172
0.06256172 0.63014629 0.48942658
0.06256172 0.63012679 0.48941382
0.06256172 0.62997689 0.48931577
0.06256172 0.62933610 0.48889719
0.06256172 0.62706757 0.48742284
0.62345444 0.61941339 0.48253516
0.76229302 0.59064144 0.46540286
0.87631373 0.06256172 0.36826859
0.91886608 0.06256172 0.06256172
0.06256172 0.73796220 0.27955438
0.06256172 0.73795599 0.27940014
0.06256172 0.73790831 0.27820483
0.06256172 0.73770504 0.27288639
0.06256172 0.73699294 0.25048595
0.06256172 0.73467518 0.06256172
0.73234103 0.72707219 0.06256172
0.86871032 0.69820535 0.06256172
0.91886608 0.06256172 0.06256172
0.06256172 0.84468604 0.06256172
0.06256172 0.84468410 0.06256172
0.06256172 0.84466921 0.06256172
0.06256172 0.84460578 0.06256172
0.06256172 0.84438430 0.06256172
0.06256172 0.84367130 0.06256172
0.06256172 0.84141588 0.06256172
0.83950433 0.83395017 0.06256172
0.91886608 0.80415758 0.06256172
0.06256172 0.91886608 0.06256172
0.06256172 0.91886608 0.06256172
0.06256172 0.91886608 0.06256172
0.06256172 0.91886608 0.06256172
0.06256172 0.91886608 0.06256172
0.06256172 0.91886608 0.06256172
0.06256172 0.91886608 0.06256172
0.06256172 0.91886608 0.06256172
0.91886608 0.91886608 0.06256172
0.06256172 0.06256172 0.62919017
0.06256172 0.06256172 0.62918730
0.06256172 0.06256172 0.62916525
0.37881812 0.06256172 0.62907133
0.54115070 0.06256172 0.62874319
0.66155286 0.06256172 0.62768458
0.77242941 0.06256172 0.62431283
0.87931020 0.06256172 0.61288138
0.91886608 0.06256172 0.56148279
0.06256172 0.06256172 0.62917426
0.06256172 0.06256172 0.62917139
0.06256172 0.06256172 0.62914934
0.37737000 0.06256172 0.62905540
0.54091385 0.06256172 0.62872720
0.66148682 0.06256172 0.62766842
0.77240920 0.06256172 0.62429608
0.87930400 0.06256172 0.61286248
0.91886608 0.06256172 0.56145019
0.06256172 0.26307869 0.62905200
0.06256172 0.26173886 0.62904913
0.06256172 0.25050187 0.62902705
0.36533772 0.14016422 0.62893299
0.53907485 0.06256172 0.62860437
0.66097820 0.06256172 0.62754420
0.77225384 0.06256172 0.62416735
0.87925636 0.06256172 0.61271720
0.91886608 0.06256172 0.56119948
0.06256172 0.40354863 0.62852978
0.06256172 0.40332007 0.62852689
0.06256172 0.40154463 0.62850469
0.27292245 0.39355115 0.62841011
0.53081410 0.35780575 0.62807966
0.65878187 0.06256172 0.62701357
0.77158955 0.06256172 0.62361738
0.87905327 0.06256172 0.61209622
0.91886608 0.06256172 0.56012467
0.06256172 0.51930303 0.62668632
0.06256172 0.51923964 0.62668337
0.06256172 0.51875138 0.62666073
0.06256172 0.51664371 0.62656429
0.49442085 0.50889718 0.62622732
0.65069940 0.47852936 0.62514002
0.76923560 0.06256172 0.62167465
0.87834157 0.06256172 0.60989887
0.91886608 0.06256172 0.55627842
0.06256172 0.62966797 0.62052864
0.06256172 0.62964836 0.62052549
0.06256172 0.62949770 0.62050133
0.06256172 0.62885365 0.62039840
0.06256172 0.62657338 0.62003869
0.61887743 0.61887743 0.61887743
0.76126716 0.58991402 0.61517015
0.87602296 0.06256172 0.60249717
0.91886608 0.06256172 0.54277838
0.06256172 0.73781020 0.59831532
0.06256172 0.73780398 0.59831134
0.06256172 0.73775622 0.59828078
0.06256172 0.73755262 0.59815056
0.06256172 0.73683935 0.59769518
0.06256172 0.73451773 0.59622189
0.73092299 0.72690139 0.59148489
0.86839345 0.69797297 0.57486449
0.91886608 0.06256172 0.48091818
0.06256172 0.84463858 0.42704714
0.06256172 0.84463664 0.42702168
0.06256172 0.84462174 0.42682596
0.06256172 0.84455828 0.42598788
0.06256172 0.84433668 0.42300244
0.06256172 0.84362330 0.41269861
0.06256172 0.84136666 0.36949276
0.83906471 0.83389670 0.06256172
0.91886608 0.80408334 0.06256172
0.06256172 0.91886608 0.06256172
0.06256172 0.91886608 0.06256172
0.06256172 0.91886608 0.06256172
0.06256172 0.91886608 0.06256172
0.06256172 0.91886608 0.06256172
0.06256172 0.91886608 0.06256172
0.06256172 0.91886608 0.06256172
0.06256172 0.91886608 0.06256172
0.91886608 0.91886608 0.06256172
0.06256172 0.06256172 0.73685077
0.06256172 0.06256172 0.73684985
0.06256172 0.06256172 0.73684282
0.06256172 0.06256172 0.73681289
0.49994526 0.06256172 0.73670845
0.65177068 0.06256172 0.73637323
0.76953951 0.06256172 0.73532239
0.87843276 0.06256172 0.73194711
0.91886608 0.06256172 0.72000454
0.06256172 0.06256172 0.73684569
0.06256172 0.06256172 0.73684478
0.06256172 0.06256172 0.73683775
0.06256172 0.06256172 0.73680781
0.49957600 0.06256172 0.73670337
0.65169744 0.06256172 0.73636813
0.76951866 0.06256172 0.73531723
0.87842649 0.06256172 0.73194176
0.91886608 0.06256172 0.71999846
0.06256172 0.06256172 0.73680673
0.06256172 0.06256172 0.73680581
0.06256172 0.06256172 0.73679878
0.06256172 0.06256172 0.73676883
0.49669017 0.06256172 0.73666435
0.65113316 0.06256172 0.73632896
0.76935836 0.06256172 0.73527762
0.87837838 0.06256172 0.73190070
0.91886608 0.06256172 0.71995181
0.06256172 0.38415032 0.73664067
0.06256172 0.38386397 0.73663975
0.06256172 0.38163260 0.73663271
0.06256172 0.37141811 0.73660270
0.48327902 0.32083858 0.73649804
0.64869266 0.06256172 0.73616205
0.76867286 0.06256172 0.73510882
0.87817325 0.06256172 0.73172568
0.91886608 0.06256172 0.71975294
0.06256172 0.51434887 0.73605943
0.06256172 0.51428200 0.73605851
0.06256172 0.51376689 0.73605142
0.06256172 0.51154151 0.73602123
0.40972644 0.50333631 0.73591591
0.63965545 0.47069514 0.73557782
0.76624254 0.06256172 0.73451794
0.87745439 0.06256172 0.73111295
0.91886608 0.06256172 0.71905630
0.06256172 0.62816398 0.73417331
0.06256172 0.62814406 0.73417237
0.06256172 0.62799098 0.73416513
0.06256172 0.62733655 0.73413433
0.06256172 0.62501897 0.73402686
0.60302889 0.61719010 0.73368185
0.75800058 0.58761411 0.73260011
0.87511208 0.06256172 0.72912321
0.91886608 0.06256172 0.71678983
0.06256172 0.73733565 0.72804858
0.06256172 0.73732940 0.72804757
0.06256172 0.73728140 0.72803985
0.06256172 0.73707677 0.72800696
0.06256172 0.73635983 0.72789220
0.06256172 0.73402611 0.72752375
0.72636793 0.72636793 0.72636793
0.86740017 0.69724622 0.72264675
0.91886608 0.06256172 0.70936562
0.06256172 0.84449075 0.70573481
0.06256172 0.84448880 0.70573353
0.06256172 0.84447388 0.70572373
0.06256172 0.84441031 0.70568201
0.06256172 0.84418834 0.70553638
0.06256172 0.84347378 0.70506851
0.06256172 0.84121334 0.70359762
0.83768291 0.83373011 0.69882835
0.91886608 0.80385196 0.68134182
0.06256172 0.91886608 0.51257007
0.06256172 0.91886608 0.51256014
0.06256172 0.91886608 0.51248385
0.06256172 0.91886608 0.51215836
0.06256172 0.91886608 0.51101464
0.06256172 0.91886608 0.50725384
0.06256172 0.91886608 0.49446533
0.06256172 0.91886608 0.43625926
0.91886608 0.91886608 0.06256172
0.06256172 0.06256172 0.84354770
0.06256172 0.06256172 0.84354741
0.06256172 0.06256172 0.84354522
0.06256172 0.06256172 0.84353586
0.06256172 0.06256172 0.84350323
0.61221102 0.06256172 0.84339865
0.75984031 0.06256172 0.84307248
0.87562230 0.06256172 0.84204156
0.91886608 0.06256172 0.83859399
0.06256172 0.06256172 0.84354611
0.06256172 0.06256172 0.84354583
0.06256172 0.06256172 0.84354363
0.06256172 0.06256172 0.84353427
0.06256172 0.06256172 0.84350164
0.61209974 0.06256172 0.84339707
0.75981715 0.06256172 0.84307089
0.87561583 0.06256172 0.84203995
0.91886608 0.06256172 0.83859231
0.06256172 0.06256172 0.84353393
0.06256172 0.06256172 0.84353365
0.06256172 0.06256172 0.84353145
0.06256172 0.06256172 0.84352209
0.06256172 0.06256172 0.84348946
0.61124080 0.06256172 0.84338486
0.75963915 0.06256172 0.84305864
0.87556616 0.06256172 0.84202756
0.91886608 0.06256172 0.83857944
0.06256172 0.23464046 0.84348206
0.06256172 0.23260251 0.84348178
0.06256172 0.21436850 0.84347958
0.06256172 0.06256172 0.84347021
0.06256172 0.06256172 0.84343756
0.60749441 0.06256172 0.84333291
0.75887753 0.06256172 0.84300650
0.87535439 0.06256172 0.84197481
0.91886608 0.06256172 0.83852463
0.06256172 0.49682755 0.84330100
0.06256172 0.49674672 0.84330071
0.06256172 0.49612368 0.84329850
0.06256172 0.49342319 0.84328912
0.06256172 0.48333508 0.84325640
0.59313340 0.44051869 0.84315154
0.75617240 0.06256172 0.84282447
0.87461213 0.06256172 0.84179068
0.91886608 0.06256172 0.83833330
0.06256172 0.62328468 0.84271866
0.06256172 0.62326371 0.84271837
0.06256172 0.62310252 0.84271615
0.06256172 0.62241326 0.84270671
0.06256172 0.61997026 0.84267378
0.52251539 0.61169283 0.84256823
0.74693801 0.58001258 0.84223903
0.87219226 0.06256172 0.84119845
0.91886608 0.06256172 0.83771779
0.06256172 0.73583120 0.84088220
0.06256172 0.73582484 0.84088191
0.06256172 0.73577606 0.84087964
0.06256172 0.73556810 0.84087000
0.06256172 0.73483944 0.84083639
0.06256172 0.73246694 0.84072867
0.71044629 0.72467452 0.84039265
0.86421025 0.69492933 0.83933036
0.91886608 0.06256172 0.83577529
0.06256172 0.84402541 0.83486551
0.06256172 0.84402346 0.83486519
0.06256172 0.84400845 0.83486277
0.06256172 0.84394455 0.83485247
0.06256172 0.84372143 0.83481653
0.06256172 0.84300313 0.83470136
0.06256172 0.84073067 0.83434205
0.83320553 0.83320553 0.83320553
0.91886608 0.80312229 0.82939542
0.06256172 0.91886608 0.81188241
0.06256172 0.91886608 0.81188201
0.06256172 0.91886608 0.81187889
0.06256172 0.91886608 0.81186561
0.06256172 0.91886608 0.81181930
0.06256172 0.91886608 0.81167085
0.06256172 0.91886608 0.81120738
0.06256172 0.91886608 0.80973803
0.91886608 0.91886608 0.80477333
0.06256172 0.06256172 0.91886608
0.06256172 0.06256172 0.91886608
0.06256172 0.06256172 0.91886608
0.06256172 0.06256172 0.91886608
0.06256172 0.06256172 0.91886608
0.06256172 0.06256172 0.91886608
0.71854572 0.06256172 0.91886608
0.86577960 0.06256172 0.91886608
0.91886608 0.06256172 0.91886608
0.06256172 0.06256172 0.91886608
0.06256172 0.06256172 0.91886608
0.06256172 0.06256172 0.91886608
0.06256172 0.06256172 0.91886608
0.06256172 0.06256172 0.91886608
0.06256172 0.06256172 0.91886608
0.71850967 0.06256172 0.91886608
0.86577237 0.06256172 0.91886608
0.91886608 0.06256172 0.91886608
0.06256172 0.06256172 0.91886608
0.06256172 0.06256172 0.91886608
0.06256172 0.06256172 0.91886608
0.06256172 0.06256172 0.91886608
0.06256172 0.06256172 0.91886608
0.06256172 0.06256172 0.91886608
0.71823237 0.06256172 0.91886608
0.86571687 0.06256172 0.91886608
0.91886608 0.06256172 0.91886608
0.06256172 0.06256172 0.91886608
0.06256172 0.06256172 0.91886608
0.06256172 0.06256172 0.91886608
0.06256172 0.06256172 0.91886608
0.06256172 0.06256172 0.91886608
0.06256172 0.06256172 0.91886608
0.71704267 0.06256172 0.91886608
0.86548018 0.06256172 0.91886608
0.91886608 0.06256172 0.91886608
0.06256172 0.38935828 0.91886608
0.06256172 0.38908886 0.91886608
0.06256172 0.38699134 0.91886608
0.06256172 0.37743716 0.91886608
0.06256172 0.33164589 0.91886608
0.06256172 0.06256172 0.91886608
0.71277293 0.06256172 0.91886608
0.86465007 0.06256172 0.91886608
0.91886608 0.06256172 0.91886608
0.06256172 0.60535289 0.91886608
0.06256172 0.60532754 0.91886608
0.06256172 0.60513265 0.91886608
0.06256172 0.60429850 0.91886608
0.06256172 0.60133149 0.91886608
0.06256172 0.59114936 0.91886608
0.69762519 0.54982643 0.91886608
0.86193829 0.06256172 0.91886608
0.91886608 0.06256172 0.91886608
0.06256172 0.73074791 0.91886608
0.06256172 0.73074121 0.91886608
0.06256172 0.73068969 0.91886608
0.06256172 0.73047009 0.91886608
0.06256172 0.72970041 0.91886608
0.06256172 0.72719205 0.91886608
0.62394651 0.71892738 0.91886608
0.85293063 0.68694887 0.91886608
0.91886608 0.06256172 0.91886608
0.06256172 0.84249045 0.91886608
0.06256172 0.84248846 0.91886608
0.06256172 0.84247320 0.91886608
0.06256172 0.84240820 0.91886608
0.06256172 0.84218122 0.91886608
0.06256172 0.84145046 0.91886608
0.06256172 0.83913792 0.91886608
0.81683612 0.83147280 0.91886608
0.91886608 0.80070071 0.91886608
0.06256172 0.91886608 0.91886608
0.06256172 0.91886608 0.91886608
0.06256172 0.91886608 0.91886608
0.06256172 0.91886608 0.91886608
0.06256172 0.91886608 0.91886608
0.06256172 0.91886608 0.91886608
0.06256172 0.91886608 0.91886608
0.06256172 0.91886608 0.91886608
0.91886608 0.91886608 0.91886608
