src/ffmpeg_scripts/luts/rec2020-sRGB_2p67.cube
TITLE "rec2020-srgb_2p67"
LUT_3D_SIZE 9
# PQ (EOTF Only)/Rec2020 -> PQ (EOTF Only)/Rec709, CineEI Shift 2.67, Black Level 0.00% IRE, Input 100% -> Output 109% - Created with LUTCalc v4.01 by Ben Turley October 2020
0.06256172 0.06256172 0.06256172
0.28867454 0.06256172 0.06256172
0.44638141 0.06256172 0.06256172
0.58174069 0.06256172 0.06256172
0.70376022 0.06256172 0.06256172
0.81646204 0.06256172 0.06256172
0.91886608 0.06256172 0.06256172
0.91886608 0.06256172 0.06256172
0.91886608 0.06256172 0.06256172
0.06256172 0.26539965 0.06256172
0.26220746 0.25861095 0.06256172
0.44297372 0.13292110 0.06256172
0.58096355 0.06256172 0.06256172
0.70354734 0.06256172 0.06256172
0.81639899 0.06256172 0.06256172
0.91886608 0.06256172 0.06256172
0.91886608 0.06256172 0.06256172
0.91886608 0.06256172 0.06256172
0.06256172 0.41556659 0.06256172
0.06256172 0.41455821 0.06256172
0.41126774 0.40640222 0.06256172
0.57477257 0.35908394 0.06256172
0.70189644 0.06256172 0.06256172
0.81591346 0.06256172 0.06256172
0.91886608 0.06256172 0.06256172
0.91886608 0.06256172 0.06256172
0.91886608 0.06256172 0.06256172
0.06256172 0.54744250 0.06256172
0.06256172 0.54720595 0.06256172
0.06256172 0.54536936 0.06256172
0.54260793 0.53712078 0.06256172
0.69452521 0.50081630 0.06256172
0.81381708 0.06256172 0.06256172
0.91886608 0.06256172 0.06256172
0.91886608 0.06256172 0.06256172
0.91886608 0.06256172 0.06256172
0.06256172 0.66814857 0.06256172
0.06256172 0.66808278 0.06256172
0.06256172 0.66757614 0.06256172
0.06256172 0.66538842 0.06256172
0.66309107 0.65733921 0.06256172
0.80610654 0.62567769 0.06256172
0.91886608 0.06256172 0.06256172
0.91886608 0.06256172 0.06256172
0.91886608 0.06256172 0.06256172
0.06256172 0.78093031 0.06256172
0.06256172 0.78091062 0.06256172
0.06256172 0.78075928 0.06256172
0.06256172 0.78011222 0.06256172
0.06256172 0.77782024 0.06256172
0.77585429 0.77007208 0.06256172
0.91152998 0.74073861 0.06256172
0.91886608 0.06256172 0.06256172
0.91886608 0.06256172 0.06256172
0.06256172 0.88763622 0.06256172
0.06256172 0.88763019 0.06256172
0.06256172 0.88758389 0.06256172
0.06256172 0.88738655 0.06256172
0.06256172 0.88669506 0.06256172
0.06256172 0.88444325 0.06256172
0.88268804 0.87704397 0.06256172
0.91886608 0.84877131 0.06256172
0.91886608 0.06256172 0.06256172
0.06256172 0.91886608 0.06256172
0.06256172 0.91886608 0.06256172
0.06256172 0.91886608 0.06256172
0.06256172 0.91886608 0.06256172
0.06256172 0.91886608 0.06256172
0.06256172 0.91886608 0.06256172
0.06256172 0.91886608 0.06256172
0.91886608 0.91886608 0.06256172
0.91886608 0.91886608 0.06256172
0.06256172 0.91886608 0.06256172
0.06256172 0.91886608 0.06256172
0.06256172 0.91886608 0.06256172
0.06256172 0.91886608 0.06256172
0.06256172 0.91886608 0.06256172
0.06256172 0.91886608 0.06256172
0.06256172 0.91886608 0.06256172
0.06256172 0.91886608 0.06256172
0.91886608 0.91886608 0.06256172
0.06256172 0.06256172 0.26465915
0.28586554 0.06256172 0.26369928
0.44596592 0.06256172 0.25586109
0.58164469 0.06256172 0.20580763
0.70373386 0.06256172 0.06256172
0.81645422 0.06256172 0.06256172
0.91886608 0.06256172 0.06256172
0.91886608 0.06256172 0.06256172
0.91886608 0.06256172 0.06256172
0.06256172 0.26496426 0.25916939
0.25813171 0.25813171 0.25813171
0.44254209 0.12814239 0.24960540
0.58086676 0.06256172 0.19131040
0.70352092 0.06256172 0.06256172
0.81639118 0.06256172 0.06256172
0.91886608 0.06256172 0.06256172
0.91886608 0.06256172 0.06256172
0.91886608 0.06256172 0.06256172
0.06256172 0.41549936 0.18768320
0.06256172 0.41449020 0.18442496
0.41064966 0.40632755 0.14903274
0.57466920 0.35895383 0.06256172
0.70186955 0.06256172 0.06256172
0.81590560 0.06256172 0.06256172
0.91886608 0.06256172 0.06256172
0.91886608 0.06256172 0.06256172
0.91886608 0.06256172 0.06256172
0.06256172 0.54742666 0.06256172
0.06256172 0.54719007 0.06256172
0.06256172 0.54535316 0.06256172
0.54246231 0.53710309 0.06256172
0.69449613 0.50079016 0.06256172
0.81380904 0.06256172 0.06256172
0.91886608 0.06256172 0.06256172
0.91886608 0.06256172 0.06256172
0.91886608 0.06256172 0.06256172
0.06256172 0.66814416 0.06256172
0.06256172 0.66807837 0.06256172
0.06256172 0.66757170 0.06256172
0.06256172 0.66538388 0.06256172
0.66305048 0.65733427 0.06256172
0.80609779 0.62567078 0.06256172
0.91886608 0.06256172 0.06256172
0.91886608 0.06256172 0.06256172
0.91886608 0.06256172 0.06256172
0.06256172 0.78092899 0.06256172
0.06256172 0.78090930 0.06256172
0.06256172 0.78075796 0.06256172
0.06256172 0.78011089 0.06256172
0.06256172 0.77781887 0.06256172
0.77584212 0.77007060 0.06256172
0.91152730 0.74073657 0.06256172
0.91886608 0.06256172 0.06256172
0.91886608 0.06256172 0.06256172
0.06256172 0.88763581 0.06256172
0.06256172 0.88762978 0.06256172
0.06256172 0.88758349 0.06256172
0.06256172 0.88738614 0.06256172
0.06256172 0.88669465 0.06256172
0.06256172 0.88444283 0.06256172
0.88268431 0.87704351 0.06256172
0.91886608 0.84877068 0.06256172
0.91886608 0.06256172 0.06256172
0.06256172 0.91886608 0.06256172
0.06256172 0.91886608 0.06256172
0.06256172 0.91886608 0.06256172
0.06256172 0.91886608 0.06256172
0.06256172 0.91886608 0.06256172
0.06256172 0.91886608 0.06256172
0.06256172 0.91886608 0.06256172
0.91886608 0.91886608 0.06256172
0.91886608 0.91886608 0.06256172
0.06256172 0.91886608 0.06256172
0.06256172 0.91886608 0.06256172
0.06256172 0.91886608 0.06256172
0.06256172 0.91886608 0.06256172
0.06256172 0.91886608 0.06256172
0.06256172 0.91886608 0.06256172
0.06256172 0.91886608 0.06256172
0.06256172 0.91886608 0.06256172
0.91886608 0.91886608 0.06256172
0.06256172 0.06256172 0.41457101
0.25974029 0.06256172 0.41442310
0.44270972 0.06256172 0.41327903
0.58090431 0.06256172 0.40823422
0.70353116 0.06256172 0.38792978
0.81639421 0.06256172 0.19104906
0.91886608 0.06256172 0.06256172
0.91886608 0.06256172 0.06256172
0.91886608 0.06256172 0.06256172
0.06256172 0.26152942 0.41374828
0.21446596 0.25433858 0.41359898
0.43915655 0.06256172 0.41244403
0.58012022 0.06256172 0.40734939
0.70331776 0.06256172 0.38680934
0.81633112 0.06256172 0.17143137
0.91886608 0.06256172 0.06256172
0.91886608 0.06256172 0.06256172
0.91886608 0.06256172 0.06256172
0.06256172 0.41498134 0.40715927
0.06256172 0.41396617 0.40699828
0.40575209 0.40575209 0.40575209
0.57387169 0.35794795 0.40023785
0.70166280 0.06256172 0.37767819
0.81584523 0.06256172 0.06256172
0.91886608 0.06256172 0.06256172
0.91886608 0.06256172 0.06256172
0.91886608 0.06256172 0.06256172
0.06256172 0.54730495 0.37162025
0.06256172 0.54706805 0.37137656
0.06256172 0.54522873 0.36948149
0.54133652 0.53696717 0.36089835
0.69427250 0.50058915 0.32114106
0.81374725 0.06256172 0.06256172
0.91886608 0.06256172 0.06256172
0.91886608 0.06256172 0.06256172
0.91886608 0.06256172 0.06256172
0.06256172 0.66811030 0.06256172
0.06256172 0.66804449 0.06256172
0.06256172 0.66753764 0.06256172
0.06256172 0.66534902 0.06256172
0.66273825 0.65729630 0.06256172
0.80603055 0.62561772 0.06256172
0.91886608 0.06256172 0.06256172
0.91886608 0.06256172 0.06256172
0.91886608 0.06256172 0.06256172
0.06256172 0.78091886 0.06256172
0.06256172 0.78089916 0.06256172
0.06256172 0.78074780 0.06256172
0.06256172 0.78010066 0.06256172
0.06256172 0.77780839 0.06256172
0.77574863 0.77005920 0.06256172
0.91150672 0.74072094 0.06256172
0.91886608 0.06256172 0.06256172
0.91886608 0.06256172 0.06256172
0.06256172 0.88763271 0.06256172
0.06256172 0.88762668 0.06256172
0.06256172 0.88758039 0.06256172
0.06256172 0.88738303 0.06256172
0.06256172 0.88669152 0.06256172
0.06256172 0.88443961 0.06256172
0.88265567 0.87704001 0.06256172
0.91886608 0.84876588 0.06256172
0.91886608 0.06256172 0.06256172
0.06256172 0.91886608 0.06256172
0.06256172 0.91886608 0.06256172
0.06256172 0.91886608 0.06256172
0.06256172 0.91886608 0.06256172
0.06256172 0.91886608 0.06256172
0.06256172 0.91886608 0.06256172
0.06256172 0.91886608 0.06256172
0.91886608 0.91886608 0.06256172
0.91886608 0.91886608 0.06256172
0.06256172 0.91886608 0.06256172
0.06256172 0.91886608 0.06256172
0.06256172 0.91886608 0.06256172
0.06256172 0.91886608 0.06256172
0.06256172 0.91886608 0.06256172
0.06256172 0.91886608 0.06256172
0.06256172 0.91886608 0.06256172
0.06256172 0.91886608 0.06256172
0.91886608 0.91886608 0.06256172
0.06256172 0.06256172 0.54632396
0.06256172 0.06256172 0.54628911
0.42734321 0.06256172 0.54602108
0.57768578 0.06256172 0.54487143
0.70266339 0.06256172 0.54074927
0.81613829 0.06256172 0.52617249
0.91886608 0.06256172 0.45614576
0.91886608 0.06256172 0.06256172
0.91886608 0.06256172 0.06256172
0.06256172 0.24467364 0.54613069
0.06256172 0.23534685 0.54609577
0.42310397 0.06256172 0.54582718
0.57687433 0.06256172 0.54467513
0.70244801 0.06256172 0.54054412
0.81607502 0.06256172 0.52593262
0.91886608 0.06256172 0.45563080
0.91886608 0.06256172 0.06256172
0.91886608 0.06256172 0.06256172
0.06256172 0.41274128 0.54463316
0.06256172 0.41169968 0.54459767
0.38110790 0.40325888 0.54432475
0.57039905 0.35352402 0.54315394
0.70077753 0.06256172 0.53895367
0.81558775 0.06256172 0.52406985
0.91886608 0.06256172 0.45157553
0.91886608 0.06256172 0.06256172
0.91886608 0.06256172 0.06256172
0.06256172 0.54678505 0.53797563
0.06256172 0.54654683 0.53793752
0.06256172 0.54469714 0.53764443
0.53638634 0.53638634 0.53638634
0.69331455 0.49972857 0.53186284
0.81348376 0.06256172 0.51569407
0.91886608 0.06256172 0.43191173
0.91886608 0.06256172 0.06256172
0.91886608 0.06256172 0.06256172
0.06256172 0.66796604 0.51015065
0.06256172 0.66790013 0.51009927
0.06256172 0.66739250 0.50970375
0.06256172 0.66520047 0.50800087
0.66139743 0.65713453 0.50180639
0.80574376 0.62539152 0.47859268
0.91886608 0.06256172 0.23017932
0.91886608 0.06256172 0.06256172
0.91886608 0.06256172 0.06256172
0.06256172 0.78087570 0.06256172
0.06256172 0.78085599 0.06256172
0.06256172 0.78070456 0.06256172
0.06256172 0.78005712 0.06256172
0.06256172 0.77776375 0.06256172
0.77534958 0.77001065 0.06256172
0.91141903 0.74065435 0.06256172
0.91886608 0.06256172 0.06256172
0.91886608 0.06256172 0.06256172
0.06256172 0.88761950 0.06256172
0.06256172 0.88761347 0.06256172
0.06256172 0.88756717 0.06256172
0.06256172 0.88736979 0.06256172
0.06256172 0.88667817 0.06256172
0.06256172 0.88442592 0.06256172
0.88253364 0.87702512 0.06256172
0.91886608 0.84874541 0.06256172
0.91886608 0.06256172 0.06256172
0.06256172 0.91886608 0.06256172
0.06256172 0.91886608 0.06256172
0.06256172 0.91886608 0.06256172
0.06256172 0.91886608 0.06256172
0.06256172 0.91886608 0.06256172
0.06256172 0.91886608 0.06256172
0.06256172 0.91886608 0.06256172
0.91886608 0.91886608 0.06256172
0.91886608 0.91886608 0.06256172
0.06256172 0.91886608 0.06256172
0.06256172 0.91886608 0.06256172
0.06256172 0.91886608 0.06256172
0.06256172 0.91886608 0.06256172
0.06256172 0.91886608 0.06256172
0.06256172 0.91886608 0.06256172
0.06256172 0.91886608 0.06256172
0.06256172 0.91886608 0.06256172
0.91886608 0.91886608 0.06256172
0.06256172 0.06256172 0.66697931
0.06256172 0.06256172 0.66696960
0.32975511 0.06256172 0.66689506
0.56551817 0.06256172 0.66657710
0.69957391 0.06256172 0.66546013
0.81524040 0.06256172 0.66179154
0.91886608 0.06256172 0.64937073
0.91886608 0.06256172 0.59449269
0.91886608 0.06256172 0.06256172
0.06256172 0.06256172 0.66692553
0.06256172 0.06256172 0.66691582
0.31544062 0.06256172 0.66684124
0.56459421 0.06256172 0.66652309
0.69935133 0.06256172 0.66540548
0.81517651 0.06256172 0.66173473
0.91886608 0.06256172 0.64930593
0.91886608 0.06256172 0.59437690
0.91886608 0.06256172 0.06256172
0.06256172 0.40445032 0.66651155
0.06256172 0.40330426 0.66650180
0.06256172 0.39395995 0.66642689
0.55717954 0.33592196 0.66610734
0.69762443 0.06256172 0.66498478
0.81468439 0.06256172 0.66129732
0.91886608 0.06256172 0.64880691
0.91886608 0.06256172 0.59348300
0.91886608 0.06256172 0.06256172
0.06256172 0.54494965 0.66472868
0.06256172 0.54470671 0.66471874
0.06256172 0.54281993 0.66464241
0.51672987 0.53433269 0.66431675
0.68989655 0.49666395 0.66317258
0.81255917 0.06256172 0.65941229
0.91886608 0.06256172 0.64665262
0.91886608 0.06256172 0.58958005
0.91886608 0.06256172 0.06256172
0.06256172 0.66746136 0.65823612
0.06256172 0.66739510 0.65822548
0.06256172 0.66688474 0.65814371
0.06256172 0.66468076 0.65779483
0.65656839 0.65656839 0.65656839
0.80473682 0.62459868 0.65253011
0.91869868 0.06256172 0.63873362
0.91886608 0.06256172 0.57455223
0.91886608 0.06256172 0.06256172
0.06256172 0.78072507 0.63381440
0.06256172 0.78070534 0.63380062
0.06256172 0.78055366 0.63369475
0.06256172 0.77990515 0.63324271
0.06256172 0.77760795 0.63164970
0.77394475 0.76984120 0.62635974
0.91111265 0.74042186 0.60770706
0.91886608 0.06256172 0.49830611
0.91886608 0.06256172 0.06256172
0.06256172 0.88757344 0.39156306
0.06256172 0.88756741 0.39137028
0.06256172 0.88752108 0.38987542
0.06256172 0.88732359 0.38320315
0.06256172 0.88663161 0.35470504
0.06256172 0.88437815 0.06256172
0.88210689 0.87697317 0.06256172
0.91886608 0.84867401 0.06256172
0.91886608 0.06256172 0.06256172
0.06256172 0.91886608 0.06256172
0.06256172 0.91886608 0.06256172
0.06256172 0.91886608 0.06256172
0.06256172 0.91886608 0.06256172
0.06256172 0.91886608 0.06256172
0.06256172 0.91886608 0.06256172
0.06256172 0.91886608 0.06256172
0.91886608 0.91886608 0.06256172
0.91886608 0.91886608 0.06256172
0.06256172 0.91886608 0.06256172
0.06256172 0.91886608 0.06256172
0.06256172 0.91886608 0.06256172
0.06256172 0.91886608 0.06256172
0.06256172 0.91886608 0.06256172
0.06256172 0.91886608 0.06256172
0.06256172 0.91886608 0.06256172
0.06256172 0.91886608 0.06256172
0.91886608 0.91886608 0.06256172
0.06256172 0.06256172 0.77975744
0.06256172 0.06256172 0.77975454
0.06256172 0.06256172 0.77973222
0.51052150 0.06256172 0.77963715
0.68893664 0.06256172 0.77930496
0.81230384 0.06256172 0.77823298
0.91886608 0.06256172 0.77481552
0.91886608 0.06256172 0.76319361
0.91886608 0.06256172 0.71022868
0.06256172 0.06256172 0.77974134
0.06256172 0.06256172 0.77973843
0.06256172 0.06256172 0.77971611
0.50885000 0.06256172 0.77962103
0.68868740 0.06256172 0.77928877
0.81223785 0.06256172 0.77821660
0.91886608 0.06256172 0.77479853
0.91886608 0.06256172 0.76317434
0.91886608 0.06256172 0.71019470
0.06256172 0.37080650 0.77961758
0.06256172 0.36910341 0.77961467
0.06256172 0.35472554 0.77959232
0.49489634 0.20156386 0.77949711
0.68675131 0.06256172 0.77916441
0.81172954 0.06256172 0.77809078
0.91886608 0.06256172 0.77466796
0.91886608 0.06256172 0.76302628
0.91886608 0.06256172 0.70993337
0.06256172 0.53881720 0.77908889
0.06256172 0.53855778 0.77908596
0.06256172 0.53654139 0.77906348
0.38324852 0.52743422 0.77896772
0.67803336 0.48610076 0.77863310
0.80953341 0.06256172 0.77755324
0.91886608 0.06256172 0.77411005
0.91886608 0.06256172 0.76239332
0.91886608 0.06256172 0.70881269
0.06256172 0.66582677 0.77722167
0.06256172 0.66575935 0.77721869
0.06256172 0.66524006 0.77719575
0.06256172 0.66299691 0.77709803
0.63919998 0.65473216 0.77675654
0.80143538 0.62201394 0.77565437
0.91779364 0.06256172 0.77213827
0.91886608 0.06256172 0.76015227
0.91886608 0.06256172 0.70479774
0.06256172 0.78024104 0.77097438
0.06256172 0.78022120 0.77097119
0.06256172 0.78006872 0.77094664
0.06256172 0.77941678 0.77084208
0.06256172 0.77710723 0.77047662
0.76929644 0.76929644 0.76929644
0.91012411 0.73967336 0.76552494
0.91886608 0.06256172 0.75258799
0.91886608 0.06256172 0.69064865
0.06256172 0.88742576 0.74830374
0.06256172 0.88741972 0.74829966
0.06256172 0.88737331 0.74826832
0.06256172 0.88717549 0.74813479
0.06256172 0.88648234 0.74766776
0.06256172 0.88422500 0.74615615
0.88072615 0.87680659 0.74128945
0.91886608 0.84844500 0.72413397
0.91886608 0.06256172 0.62460664
0.06256172 0.91886608 0.56528946
0.06256172 0.91886608 0.56526099
0.06256172 0.91886608 0.56504207
0.06256172 0.91886608 0.56410440
0.06256172 0.91886608 0.56076030
0.06256172 0.91886608 0.54917132
0.06256172 0.91886608 0.49972822
0.91886608 0.91886608 0.06256172
0.91886608 0.91886608 0.06256172
0.06256172 0.91886608 0.06256172
0.06256172 0.91886608 0.06256172
0.06256172 0.91886608 0.06256172
0.06256172 0.91886608 0.06256172
0.06256172 0.91886608 0.06256172
0.06256172 0.91886608 0.06256172
0.06256172 0.91886608 0.06256172
0.06256172 0.91886608 0.06256172
0.91886608 0.91886608 0.06256172
0.06256172 0.06256172 0.88649343
0.06256172 0.06256172 0.88649254
0.06256172 0.06256172 0.88648571
0.06256172 0.06256172 0.88645662
0.64514095 0.06256172 0.88635511
0.80251020 0.06256172 0.88602927
0.91808574 0.06256172 0.88500758
0.91886608 0.06256172 0.88172341
0.91886608 0.06256172 0.87007168
0.06256172 0.06256172 0.88648850
0.06256172 0.06256172 0.88648761
0.06256172 0.06256172 0.88648078
0.06256172 0.06256172 0.88645168
0.64474437 0.06256172 0.88635018
0.80243673 0.06256172 0.88602431
0.91806570 0.06256172 0.88500257
0.91886608 0.06256172 0.88171820
0.91886608 0.06256172 0.87006574
0.06256172 0.06256172 0.88645063
0.06256172 0.06256172 0.88644974
0.06256172 0.06256172 0.88644290
0.06256172 0.06256172 0.88641380
0.64164247 0.06256172 0.88631224
0.80187063 0.06256172 0.88598624
0.91791163 0.06256172 0.88496405
0.91886608 0.06256172 0.88167822
0.91886608 0.06256172 0.87002012
0.06256172 0.51666197 0.88628923
0.06256172 0.51633278 0.88628834
0.06256172 0.51376539 0.88628149
0.06256172 0.50196239 0.88625233
0.62716571 0.44220193 0.88615059
0.79942079 0.06256172 0.88582398
0.91725268 0.06256172 0.88479989
0.91886608 0.06256172 0.88150782
0.91886608 0.06256172 0.86982567
0.06256172 0.66055190 0.88572422
0.06256172 0.66048061 0.88572332
0.06256172 0.65993139 0.88571643
0.06256172 0.65755700 0.88568708
0.54581459 0.64877932 0.88558468
0.79032822 0.61348759 0.88525596
0.91491527 0.06256172 0.88422520
0.91886608 0.06256172 0.88091116
0.91886608 0.06256172 0.86914440
0.06256172 0.77871849 0.88388996
0.06256172 0.77869832 0.88388904
0.06256172 0.77854330 0.88388200
0.06256172 0.77788045 0.88385204
0.06256172 0.77553163 0.88374748
0.75313218 0.76758060 0.88341181
0.90697410 0.73730524 0.88235909
0.91886608 0.06256172 0.87897273
0.91886608 0.06256172 0.86692678
0.06256172 0.88696466 0.87792524
0.06256172 0.88695859 0.87792426
0.06256172 0.88691194 0.87791673
0.06256172 0.88671308 0.87788466
0.06256172 0.88601625 0.87777278
0.06256172 0.88374676 0.87741352
0.87628625 0.87628625 0.87628625
0.91886608 0.84772863 0.87265380
0.91886608 0.06256172 0.85964987
0.06256172 0.91886608 0.85608397
0.06256172 0.91886608 0.85608271
0.06256172 0.91886608 0.85607308
0.06256172 0.91886608 0.85603207
0.06256172 0.91886608 0.85588895
0.06256172 0.91886608 0.85542907
0.06256172 0.91886608 0.85398278
0.91886608 0.91886608 0.84928790
0.91886608 0.91886608 0.83200298
0.06256172 0.91886608 0.65865476
0.06256172 0.91886608 0.65864417
0.06256172 0.91886608 0.65856276
0.06256172 0.91886608 0.65821543
0.06256172 0.91886608 0.65699446
0.06256172 0.91886608 0.65297473
0.06256172 0.91886608 0.63924788
0.06256172 0.91886608 0.57556387
0.91886608 0.91886608 0.06256172
0.06256172 0.06256172 0.91886608
0.06256172 0.06256172 0.91886608
0.06256172 0.06256172 0.91886608
0.06256172 0.06256172 0.91886608
0.06256172 0.06256172 0.91886608
0.76251036 0.06256172 0.91886608
0.90874861 0.06256172 0.91886608
0.91886608 0.06256172 0.91886608
0.91886608 0.06256172 0.91886608
0.06256172 0.06256172 0.91886608
0.06256172 0.06256172 0.91886608
0.06256172 0.06256172 0.91886608
0.06256172 0.06256172 0.91886608
0.06256172 0.06256172 0.91886608
0.76239691 0.06256172 0.91886608
0.90872628 0.06256172 0.91886608
0.91886608 0.06256172 0.91886608
0.91886608 0.06256172 0.91886608
0.06256172 0.06256172 0.91886608
0.06256172 0.06256172 0.91886608
0.06256172 0.06256172 0.91886608
0.06256172 0.06256172 0.91886608
0.06256172 0.06256172 0.91886608
0.76152113 0.06256172 0.91886608
0.90855463 0.06256172 0.91886608
0.91886608 0.06256172 0.91886608
0.91886608 0.06256172 0.91886608
0.06256172 0.33412780 0.91886608
0.06256172 0.33145408 0.91886608
0.06256172 0.30723423 0.91886608
0.06256172 0.06256172 0.91886608
0.06256172 0.06256172 0.91886608
0.75769759 0.06256172 0.91886608
0.90782010 0.06256172 0.91886608
0.91886608 0.06256172 0.91886608
0.91886608 0.06256172 0.91886608
0.06256172 0.64179024 0.91886608
0.06256172 0.64170330 0.91886608
0.06256172 0.64103302 0.91886608
0.06256172 0.63812528 0.91886608
0.06256172 0.62722644 0.91886608
0.74298423 0.58029548 0.91886608
0.90520963 0.06256172 0.91886608
0.91886608 0.06256172 0.91886608
0.91886608 0.06256172 0.91886608
0.06256172 0.77377249 0.91886608
0.06256172 0.77375121 0.91886608
0.06256172 0.77358765 0.91886608
0.06256172 0.77288811 0.91886608
0.06256172 0.77040709 0.91886608
0.66924017 0.76198206 0.91886608
0.89628017 0.72946126 0.91886608
0.91886608 0.06256172 0.91886608
0.91886608 0.06256172 0.91886608
0.06256172 0.88550232 0.91886608
0.06256172 0.88549615 0.91886608
0.06256172 0.88544871 0.91886608
0.06256172 0.88524651 0.91886608
0.06256172 0.88453791 0.91886608
0.06256172 0.88222946 0.91886608
0.86071032 0.87463381 0.91886608
0.91886608 0.84544357 0.91886608
0.91886608 0.06256172 0.91886608
0.06256172 0.91886608 0.91886608
0.06256172 0.91886608 0.91886608
0.06256172 0.91886608 0.91886608
0.06256172 0.91886608 0.91886608
0.06256172 0.91886608 0.91886608
0.06256172 0.91886608 0.91886608
0.06256172 0.91886608 0.91886608
0.91886608 0.91886608 0.91886608
0.91886608 0.91886608 0.91886608
0.06256172 0.91886608 0.91886608
0.06256172 0.91886608 0.91886608
0.06256172 0.91886608 0.91886608
0.06256172 0.91886608 0.91886608
0.06256172 0.91886608 0.91886608
0.06256172 0.91886608 0.91886608
0.06256172 0.91886608 0.91886608
0.06256172 0.91886608 0.91886608
0.91886608 0.91886608 0.91886608
0.06256172 0.06256172 0.91886608
0.06256172 0.06256172 0.91886608
0.06256172 0.06256172 0.91886608
0.06256172 0.06256172 0.91886608
0.06256172 0.06256172 0.91886608
0.06256172 0.06256172 0.91886608
0.86864499 0.06256172 0.91886608
0.91886608 0.06256172 0.91886608
0.91886608 0.06256172 0.91886608
0.06256172 0.06256172 0.91886608
0.06256172 0.06256172 0.91886608
0.06256172 0.06256172 0.91886608
0.06256172 0.06256172 0.91886608
0.06256172 0.06256172 0.91886608
0.06256172 0.06256172 0.91886608
0.86860972 0.06256172 0.91886608
0.91886608 0.06256172 0.91886608
0.91886608 0.06256172 0.91886608
0.06256172 0.06256172 0.91886608
0.06256172 0.06256172 0.91886608
0.06256172 0.06256172 0.91886608
0.06256172 0.06256172 0.91886608
0.06256172 0.06256172 0.91886608
0.06256172 0.06256172 0.91886608
0.86833844 0.06256172 0.91886608
0.91886608 0.06256172 0.91886608
0.91886608 0.06256172 0.91886608
0.06256172 0.06256172 0.91886608
0.06256172 0.06256172 0.91886608
0.06256172 0.06256172 0.91886608
0.06256172 0.06256172 0.91886608
0.06256172 0.06256172 0.91886608
0.06256172 0.06256172 0.91886608
0.86717426 0.06256172 0.91886608
0.91886608 0.06256172 0.91886608
0.91886608 0.06256172 0.91886608
0.06256172 0.52263803 0.91886608
0.06256172 0.52232938 0.91886608
0.06256172 0.51992459 0.91886608
0.06256172 0.50892755 0.91886608
0.06256172 0.45516671 0.91886608
0.06256172 0.06256172 0.91886608
0.86299200 0.06256172 0.91886608
0.91886608 0.06256172 0.91886608
0.91886608 0.06256172 0.91886608
0.06256172 0.75550925 0.91886608
0.06256172 0.75548333 0.91886608
0.06256172 0.75528409 0.91886608
0.06256172 0.75443108 0.91886608
0.06256172 0.75139453 0.91886608
0.06256172 0.74094435 0.91886608
0.84810221 0.69804670 0.91886608
0.91886608 0.06256172 0.91886608
0.91886608 0.06256172 0.91886608
0.06256172 0.88055564 0.91886608
0.06256172 0.88054911 0.91886608
0.06256172 0.88049893 0.91886608
0.06256172 0.88028502 0.91886608
0.06256172 0.87953519 0.91886608
0.06256172 0.87709006 0.91886608
0.77444395 0.86901832 0.91886608
0.91886608 0.83755768 0.91886608
0.91886608 0.06256172 0.91886608
0.06256172 0.91886608 0.91886608
0.06256172 0.91886608 0.91886608
0.06256172 0.91886608 0.91886608
0.06256172 0.91886608 0.91886608
0.06256172 0.91886608 0.91886608
0.06256172 0.91886608 0.91886608
0.06256172 0.91886608 0.91886608
0.91886608 0.91886608 0.91886608
0.91886608 0.91886608 0.91886608
0.06256172 0.91886608 0.91886608
0.06256172 0.91886608 0.91886608
0.06256172 0.91886608 0.91886608
0.06256172 0.91886608 0.91886608
0.06256172 0.91886608 0.91886608
0.06256172 0.91886608 0.91886608
0.06256172 0.91886608 0.91886608
0.06256172 0.91886608 0.91886608
0.91886608 0.91886608 0.91886608
