src/ffmpeg_scripts/luts/rec2020-sRGB_0p33.cube
TITLE "rec2020-srgb_0p33"
LUT_3D_SIZE 33
# PQ (EOTF Only)/Rec2020 -> PQ (EOTF Only)/Rec709, CineEI Shift 0.33, Black Level 0.00% IRE, Input 100% -> Output 109% - Created with LUTCalc v4.01 by Ben Turley October 2020
0.06256172 0.06256172 0.06256172
0.10023797 0.06256172 0.06256172
0.13494959 0.06256172 0.06256172
0.16828314 0.06256172 0.06256172
0.20068179 0.06256172 0.06256172
0.23236842 0.06256172 0.06256172
0.26347877 0.06256172 0.06256172
0.29410461 0.06256172 0.06256172
0.32431226 0.06256172 0.06256172
0.35415200 0.06256172 0.06256172
0.38366326 0.06256172 0.06256172
0.41287780 0.06256172 0.06256172
0.44182180 0.06256172 0.06256172
0.47051718 0.06256172 0.06256172
0.49898259 0.06256172 0.06256172
0.52723408 0.06256172 0.06256172
0.55528560 0.06256172 0.06256172
0.58314943 0.06256172 0.06256172
0.61083640 0.06256172 0.06256172
0.63835621 0.06256172 0.06256172
0.66571751 0.06256172 0.06256172
0.69292814 0.06256172 0.06256172
0.71999520 0.06256172 0.06256172
0.74692514 0.06256172 0.06256172
0.77372388 0.06256172 0.06256172
0.80039686 0.06256172 0.06256172
0.82694906 0.06256172 0.06256172
0.85338512 0.06256172 0.06256172
0.87970932 0.06256172 0.06256172
0.90592565 0.06256172 0.06256172
0.91886608 0.06256172 0.06256172
0.91886608 0.06256172 0.06256172
0.91886608 0.06256172 0.06256172
0.06256172 0.09419235 0.06256172
0.09340144 0.09252137 0.06256172
0.13272026 0.08500006 0.06256172
0.16721560 0.06256172 0.06256172
0.20008988 0.06256172 0.06256172
0.23201219 0.06256172 0.06256172
0.26325266 0.06256172 0.06256172
0.29395561 0.06256172 0.06256172
0.32421131 0.06256172 0.06256172
0.35408213 0.06256172 0.06256172
0.38361407 0.06256172 0.06256172
0.41284271 0.06256172 0.06256172
0.44179649 0.06256172 0.06256172
0.47049876 0.06256172 0.06256172
0.49896909 0.06256172 0.06256172
0.52722412 0.06256172 0.06256172
0.55527823 0.06256172 0.06256172
0.58314394 0.06256172 0.06256172
0.61083231 0.06256172 0.06256172
0.63835315 0.06256172 0.06256172
0.66571522 0.06256172 0.06256172
0.69292642 0.06256172 0.06256172
0.71999391 0.06256172 0.06256172
0.74692417 0.06256172 0.06256172
0.77372316 0.06256172 0.06256172
0.80039632 0.06256172 0.06256172
0.82694866 0.06256172 0.06256172
0.85338482 0.06256172 0.06256172
0.87970910 0.06256172 0.06256172
0.90592548 0.06256172 0.06256172
0.91886608 0.06256172 0.06256172
0.91886608 0.06256172 0.06256172
0.91886608 0.06256172 0.06256172
0.06256172 0.12461922 0.06256172
0.06256172 0.12401640 0.06256172
0.12324685 0.12171366 0.06256172
0.16308952 0.11607197 0.06256172
0.19786321 0.10219678 0.06256172
0.23068676 0.06256172 0.06256172
0.26241582 0.06256172 0.06256172
0.29340572 0.06256172 0.06256172
0.32383934 0.06256172 0.06256172
0.35382491 0.06256172 0.06256172
0.38343313 0.06256172 0.06256172
0.41271367 0.06256172 0.06256172
0.44170344 0.06256172 0.06256172
0.47043107 0.06256172 0.06256172
0.49891948 0.06256172 0.06256172
0.52718754 0.06256172 0.06256172
0.55525113 0.06256172 0.06256172
0.58312379 0.06256172 0.06256172
0.61081728 0.06256172 0.06256172
0.63834191 0.06256172 0.06256172
0.66570681 0.06256172 0.06256172
0.69292012 0.06256172 0.06256172
0.71998918 0.06256172 0.06256172
0.74692063 0.06256172 0.06256172
0.77372051 0.06256172 0.06256172
0.80039433 0.06256172 0.06256172
0.82694717 0.06256172 0.06256172
0.85338371 0.06256172 0.06256172
0.87970828 0.06256172 0.06256172
0.90592487 0.06256172 0.06256172
0.91886608 0.06256172 0.06256172
0.91886608 0.06256172 0.06256172
0.91886608 0.06256172 0.06256172
0.06256172 0.15445767 0.06256172
0.06256172 0.15416057 0.06256172
0.07841660 0.15305286 0.06256172
0.15260275 0.15052506 0.06256172
0.19265555 0.14547454 0.06256172
0.22767911 0.13544952 0.06256172
0.26054325 0.11144071 0.06256172
0.29218425 0.06256172 0.06256172
0.32301654 0.06256172 0.06256172
0.35325739 0.06256172 0.06256172
0.38303453 0.06256172 0.06256172
0.41242970 0.06256172 0.06256172
0.44149883 0.06256172 0.06256172
0.47028227 0.06256172 0.06256172
0.49881046 0.06256172 0.06256172
0.52710719 0.06256172 0.06256172
0.55519161 0.06256172 0.06256172
0.58307953 0.06256172 0.06256172
0.61078428 0.06256172 0.06256172
0.63831724 0.06256172 0.06256172
0.66568833 0.06256172 0.06256172
0.69290628 0.06256172 0.06256172
0.71997880 0.06256172 0.06256172
0.74691285 0.06256172 0.06256172
0.77371468 0.06256172 0.06256172
0.80038997 0.06256172 0.06256172
0.82694392 0.06256172 0.06256172
0.85338129 0.06256172 0.06256172
0.87970647 0.06256172 0.06256172
0.90592353 0.06256172 0.06256172
0.91886608 0.06256172 0.06256172
0.91886608 0.06256172 0.06256172
0.91886608 0.06256172 0.06256172
0.06256172 0.18388780 0.06256172
0.06256172 0.18372032 0.06256172
0.06256172 0.18310071 0.06256172
0.12288944 0.18171548 0.06256172
0.18161785 0.17907030 0.06256172
0.22174912 0.17432394 0.06256172
0.25696098 0.16582488 0.06256172
0.28988278 0.14931817 0.06256172
0.32147929 0.09780862 0.06256172
0.35220242 0.06256172 0.06256172
0.38229590 0.06256172 0.06256172
0.41190457 0.06256172 0.06256172
0.44112095 0.06256172 0.06256172
0.47000773 0.06256172 0.06256172
0.49860945 0.06256172 0.06256172
0.52695909 0.06256172 0.06256172
0.55508195 0.06256172 0.06256172
0.58299801 0.06256172 0.06256172
0.61072349 0.06256172 0.06256172
0.63827180 0.06256172 0.06256172
0.66565432 0.06256172 0.06256172
0.69288079 0.06256172 0.06256172
0.71995970 0.06256172 0.06256172
0.74689853 0.06256172 0.06256172
0.77370395 0.06256172 0.06256172
0.80038194 0.06256172 0.06256172
0.82693792 0.06256172 0.06256172
0.85337682 0.06256172 0.06256172
0.87970315 0.06256172 0.06256172
0.90592107 0.06256172 0.06256172
0.91886608 0.06256172 0.06256172
0.91886608 0.06256172 0.06256172
0.91886608 0.06256172 0.06256172
0.06256172 0.21300193 0.06256172
0.06256172 0.21289993 0.06256172
0.06256172 0.21252380 0.06256172
0.06256172 0.21168991 0.06256172
0.15572336 0.21012484 0.06256172
0.21036860 0.20740855 0.06256172
0.25051235 0.20285170 0.06256172
0.28585949 0.19519450 0.06256172
0.31883369 0.18166100 0.06256172
0.35040327 0.15305361 0.06256172
0.38104330 0.06256172 0.06256172
0.41101722 0.06256172 0.06256172
0.44048396 0.06256172 0.06256172
0.46954568 0.06256172 0.06256172
0.49827153 0.06256172 0.06256172
0.52671032 0.06256172 0.06256172
0.55489785 0.06256172 0.06256172
0.58286121 0.06256172 0.06256172
0.61062150 0.06256172 0.06256172
0.63819560 0.06256172 0.06256172
0.66559728 0.06256172 0.06256172
0.69283805 0.06256172 0.06256172
0.71992766 0.06256172 0.06256172
0.74687452 0.06256172 0.06256172
0.77368597 0.06256172 0.06256172
0.80036849 0.06256172 0.06256172
0.82692787 0.06256172 0.06256172
0.85336932 0.06256172 0.06256172
0.87969758 0.06256172 0.06256172
0.90591694 0.06256172 0.06256172
0.91886608 0.06256172 0.06256172
0.91886608 0.06256172 0.06256172
0.91886608 0.06256172 0.06256172
0.06256172 0.24185707 0.06256172
0.06256172 0.24179172 0.06256172
0.06256172 0.24155110 0.06256172
0.06256172 0.24101980 0.06256172
0.06256172 0.24003072 0.06256172
0.18642186 0.23833952 0.06256172
0.23890231 0.23557649 0.06256172
0.27902189 0.23115069 0.06256172
0.31446274 0.22403165 0.06256172
0.34747726 0.21214541 0.06256172
0.37902539 0.19001394 0.06256172
0.40959630 0.12268106 0.06256172
0.43946794 0.06256172 0.06256172
0.46881067 0.06256172 0.06256172
0.49773496 0.06256172 0.06256172
0.52631582 0.06256172 0.06256172
0.55460618 0.06256172 0.06256172
0.58264461 0.06256172 0.06256172
0.61046011 0.06256172 0.06256172
0.63807504 0.06256172 0.06256172
0.66550707 0.06256172 0.06256172
0.69277047 0.06256172 0.06256172
0.71987701 0.06256172 0.06256172
0.74683656 0.06256172 0.06256172
0.77365754 0.06256172 0.06256172
0.80034722 0.06256172 0.06256172
0.82691198 0.06256172 0.06256172
0.85335748 0.06256172 0.06256172
0.87968877 0.06256172 0.06256172
0.90591042 0.06256172 0.06256172
0.91886608 0.06256172 0.06256172
0.91886608 0.06256172 0.06256172
0.91886608 0.06256172 0.06256172
0.06256172 0.27049220 0.06256172
0.06256172 0.27044879 0.06256172
0.06256172 0.27028911 0.06256172
0.06256172 0.26993728 0.06256172
0.06256172 0.26928515 0.06256172
0.06256172 0.26817865 0.06256172
0.21616879 0.26639455 0.06256172
0.26725135 0.26359929 0.06256172
0.30732502 0.25927022 0.06256172
0.34282734 0.25252568 0.06256172
0.37586856 0.24169343 0.06256172
0.40739485 0.22287661 0.06256172
0.43790368 0.18146255 0.06256172
0.46768378 0.06256172 0.06256172
0.49691468 0.06256172 0.06256172
0.52571394 0.06256172 0.06256172
0.55416181 0.06256172 0.06256172
0.58231496 0.06256172 0.06256172
0.61021467 0.06256172 0.06256172
0.63789180 0.06256172 0.06256172
0.66537000 0.06256172 0.06256172
0.69266782 0.06256172 0.06256172
0.71980010 0.06256172 0.06256172
0.74677893 0.06256172 0.06256172
0.77361438 0.06256172 0.06256172
0.80031493 0.06256172 0.06256172
0.82688787 0.06256172 0.06256172
0.85333951 0.06256172 0.06256172
0.87967541 0.06256172 0.06256172
0.90590051 0.06256172 0.06256172
0.91886608 0.06256172 0.06256172
0.91886608 0.06256172 0.06256172
0.91886608 0.06256172 0.06256172
0.06256172 0.29893574 0.06256172
0.06256172 0.29890612 0.06256172
0.06256172 0.29879724 0.06256172
0.06256172 0.29855764 0.06256172
0.06256172 0.29811462 0.06256172
0.06256172 0.29736621 0.06256172
0.14758880 0.29616826 0.06256172
0.24535624 0.29431347 0.06256172
0.29543937 0.29149534 0.06256172
0.33545364 0.28724092 0.06256172
0.37099217 0.28077171 0.06256172
0.40404682 0.27067140 0.06256172
0.43554797 0.25389405 0.06256172
0.46599768 0.22126204 0.06256172
0.49569272 0.06256172 0.06256172
0.52482006 0.06256172 0.06256172
0.55350327 0.06256172 0.06256172
0.58182718 0.06256172 0.06256172
0.60985189 0.06256172 0.06256172
0.63762118 0.06256172 0.06256172
0.66516770 0.06256172 0.06256172
0.69251639 0.06256172 0.06256172
0.71968666 0.06256172 0.06256172
0.74669396 0.06256172 0.06256172
0.77355076 0.06256172 0.06256172
0.80026735 0.06256172 0.06256172
0.82685233 0.06256172 0.06256172
0.85331303 0.06256172 0.06256172
0.87965572 0.06256172 0.06256172
0.90588592 0.06256172 0.06256172
0.91886608 0.06256172 0.06256172
0.91886608 0.06256172 0.06256172
0.91886608 0.06256172 0.06256172
0.06256172 0.32720939 0.06256172
0.06256172 0.32718877 0.06256172
0.06256172 0.32711296 0.06256172
0.06256172 0.32694628 0.06256172
0.06256172 0.32663855 0.06256172
0.06256172 0.32612006 0.06256172
0.06256172 0.32529372 0.06256172
0.19042255 0.32402311 0.06256172
0.27416202 0.32211334 0.06256172
0.32348446 0.31927873 0.06256172
0.36343072 0.31508376 0.06256172
0.39898534 0.30882474 0.06256172
0.43204113 0.29926006 0.06256172
0.46351240 0.28386376 0.06256172
0.49390345 0.25593731 0.06256172
0.52351712 0.17624506 0.06256172
0.55254643 0.06256172 0.06256172
0.58112006 0.06256172 0.06256172
0.60932685 0.06256172 0.06256172
0.63722998 0.06256172 0.06256172
0.66487552 0.06256172 0.06256172
0.69229782 0.06256172 0.06256172
0.71952302 0.06256172 0.06256172
0.74657141 0.06256172 0.06256172
0.77345903 0.06256172 0.06256172
0.80019875 0.06256172 0.06256172
0.82680112 0.06256172 0.06256172
0.85327486 0.06256172 0.06256172
0.87962735 0.06256172 0.06256172
0.90586489 0.06256172 0.06256172
0.91886608 0.06256172 0.06256172
0.91886608 0.06256172 0.06256172
0.91886608 0.06256172 0.06256172
0.06256172 0.35533031 0.06256172
0.06256172 0.35531571 0.06256172
0.06256172 0.35526206 0.06256172
0.06256172 0.35514417 0.06256172
0.06256172 0.35492672 0.06256172
0.06256172 0.35456094 0.06256172
0.06256172 0.35397956 0.06256172
0.06256172 0.35308942 0.06256172
0.22597884 0.35176027 0.06256172
0.30268239 0.34980711 0.06256172
0.35140092 0.34696062 0.06256172
0.39127355 0.34281411 0.06256172
0.42682796 0.33671990 0.06256172
0.45987374 0.32756129 0.06256172
0.49130973 0.31315622 0.06256172
0.52164103 0.28818575 0.06256172
0.55117510 0.23055696 0.06256172
0.58010996 0.06256172 0.06256172
0.60857862 0.06256172 0.06256172
0.63667346 0.06256172 0.06256172
0.66446038 0.06256172 0.06256172
0.69198755 0.06256172 0.06256172
0.71929089 0.06256172 0.06256172
0.74639767 0.06256172 0.06256172
0.77332903 0.06256172 0.06256172
0.80010157 0.06256172 0.06256172
0.82672857 0.06256172 0.06256172
0.85322080 0.06256172 0.06256172
0.87958718 0.06256172 0.06256172
0.90583512 0.06256172 0.06256172
0.91886608 0.06256172 0.06256172
0.91886608 0.06256172 0.06256172
0.91886608 0.06256172 0.06256172
0.06256172 0.38331239 0.06256172
0.06256172 0.38330192 0.06256172
0.06256172 0.38326346 0.06256172
0.06256172 0.38317897 0.06256172
0.06256172 0.38302321 0.06256172
0.06256172 0.38276150 0.06256172
0.06256172 0.38234626 0.06256172
0.06256172 0.38171223 0.06256172
0.06256172 0.38076945 0.06256172
0.25865988 0.37939272 0.06256172
0.33097586 0.37740503 0.06256172
0.37920034 0.37455006 0.06256172
0.41899564 0.37044374 0.06256172
0.45453643 0.36448125 0.06256172
0.48756209 0.35563807 0.06256172
0.51895715 0.34197179 0.06256172
0.54922663 0.31902027 0.06256172
0.57868157 0.27127284 0.06256172
0.60752414 0.06256172 0.06256172
0.63589106 0.06256172 0.06256172
0.66387780 0.06256172 0.06256172
0.69155273 0.06256172 0.06256172
0.71896588 0.06256172 0.06256172
0.74615460 0.06256172 0.06256172
0.77314726 0.06256172 0.06256172
0.79996574 0.06256172 0.06256172
0.82662720 0.06256172 0.06256172
0.85314529 0.06256172 0.06256172
0.87953106 0.06256172 0.06256172
0.90579355 0.06256172 0.06256172
0.91886608 0.06256172 0.06256172
0.91886608 0.06256172 0.06256172
0.91886608 0.06256172 0.06256172
0.06256172 0.41116716 0.06256172
0.06256172 0.41115957 0.06256172
0.06256172 0.41113171 0.06256172
0.06256172 0.41107050 0.06256172
0.06256172 0.41095772 0.06256172
0.06256172 0.41076836 0.06256172
0.06256172 0.41046826 0.06256172
0.06256172 0.41001088 0.06256172
0.06256172 0.40933263 0.06256172
0.06256172 0.40834625 0.06256172
0.28979494 0.40693069 0.06256172
0.35908109 0.40491541 0.06256172
0.40689235 0.40205458 0.06256172
0.44660785 0.39798203 0.06256172
0.48212377 0.39212620 0.06256172
0.51512018 0.38353207 0.06256172
0.54646863 0.37043011 0.06256172
0.57667358 0.34892789 0.06256172
0.60604893 0.30693267 0.06256172
0.63480031 0.06256172 0.06256172
0.66306767 0.06256172 0.06256172
0.69094918 0.06256172 0.06256172
0.71851538 0.06256172 0.06256172
0.74581803 0.06256172 0.06256172
0.77289575 0.06256172 0.06256172
0.79977790 0.06256172 0.06256172
0.82648708 0.06256172 0.06256172
0.85304096 0.06256172 0.06256172
0.87945355 0.06256172 0.06256172
0.90573613 0.06256172 0.06256172
0.91886608 0.06256172 0.06256172
0.91886608 0.06256172 0.06256172
0.91886608 0.06256172 0.06256172
0.06256172 0.43890431 0.06256172
0.06256172 0.43889876 0.06256172
0.06256172 0.43887840 0.06256172
0.06256172 0.43883368 0.06256172
0.06256172 0.43875130 0.06256172
0.06256172 0.43861305 0.06256172
0.06256172 0.43839413 0.06256172
0.06256172 0.43806087 0.06256172
0.06256172 0.43756762 0.06256172
0.06256172 0.43685225 0.06256172
0.06256172 0.43582972 0.06256172
0.31996081 0.43438242 0.06256172
0.38702524 0.43234514 0.06256172
0.43448506 0.42948050 0.06256172
0.47411909 0.42543661 0.06256172
0.50960057 0.41966787 0.06256172
0.54255941 0.41127233 0.06256172
0.57385565 0.39860793 0.06256172
0.60399298 0.37817784 0.06256172
0.63328761 0.33992291 0.06256172
0.66194813 0.19523241 0.06256172
0.69011728 0.06256172 0.06256172
0.71789563 0.06256172 0.06256172
0.74535564 0.06256172 0.06256172
0.77255060 0.06256172 0.06256172
0.79952033 0.06256172 0.06256172
0.82629506 0.06256172 0.06256172
0.85289803 0.06256172 0.06256172
0.87934741 0.06256172 0.06256172
0.90565752 0.06256172 0.06256172
0.91886608 0.06256172 0.06256172
0.91886608 0.06256172 0.06256172
0.91886608 0.06256172 0.06256172
0.06256172 0.46653213 0.06256172
0.06256172 0.46652805 0.06256172
0.06256172 0.46651306 0.06256172
0.06256172 0.46648016 0.06256172
0.06256172 0.46641955 0.06256172
0.06256172 0.46631788 0.06256172
0.06256172 0.46615697 0.06256172
0.06256172 0.46591224 0.06256172
0.06256172 0.46555047 0.06256172
0.06256172 0.46502679 0.06256172
0.06256172 0.46428031 0.06256172
0.06256172 0.46322788 0.06256172
0.34945765 0.46175475 0.06256172
0.41482831 0.45970005 0.06256172
0.46198538 0.45683327 0.06256172
0.50153684 0.45281384 0.06256172
0.53697558 0.44711650 0.06256172
0.56988923 0.43887996 0.06256172
0.60112779 0.42655713 0.06256172
0.63119414 0.40693310 0.06256172
0.66040644 0.37125418 0.06256172
0.68897582 0.26651039 0.06256172
0.71704750 0.06256172 0.06256172
0.74472411 0.06256172 0.06256172
0.77207988 0.06256172 0.06256172
0.79916944 0.06256172 0.06256172
0.82603367 0.06256172 0.06256172
0.85270360 0.06256172 0.06256172
0.87920308 0.06256172 0.06256172
0.90555067 0.06256172 0.06256172
0.91886608 0.06256172 0.06256172
0.91886608 0.06256172 0.06256172
0.91886608 0.06256172 0.06256172
0.06256172 0.49405778 0.06256172
0.06256172 0.49405476 0.06256172
0.06256172 0.49404367 0.06256172
0.06256172 0.49401932 0.06256172
0.06256172 0.49397448 0.06256172
0.06256172 0.49389927 0.06256172
0.06256172 0.49378029 0.06256172
0.06256172 0.49359943 0.06256172
0.06256172 0.49333232 0.06256172
0.06256172 0.49294619 0.06256172
0.06256172 0.49239682 0.06256172
0.06256172 0.49162440 0.06256172
0.21387577 0.49054739 0.06256172
0.37846042 0.48905340 0.06256172
0.44250559 0.48698513 0.06256172
0.48939933 0.48411756 0.06256172
0.52886745 0.48011911 0.06256172
0.56425614 0.47448029 0.06256172
0.59711756 0.46637078 0.06256172
0.62829311 0.45431426 0.06256172
0.65828496 0.43529882 0.06256172
0.68741296 0.40144520 0.06256172
0.71589049 0.31298856 0.06256172
0.74386490 0.06256172 0.06256172
0.77144073 0.06256172 0.06256172
0.79869370 0.06256172 0.06256172
0.82567969 0.06256172 0.06256172
0.85244051 0.06256172 0.06256172
0.87900791 0.06256172 0.06256172
0.90540624 0.06256172 0.06256172
0.91886608 0.06256172 0.06256172
0.91886608 0.06256172 0.06256172
0.91886608 0.06256172 0.06256172
0.06256172 0.52148753 0.06256172
0.06256172 0.52148528 0.06256172
0.06256172 0.52147704 0.06256172
0.06256172 0.52145894 0.06256172
0.06256172 0.52142560 0.06256172
0.06256172 0.52136971 0.06256172
0.06256172 0.52128130 0.06256172
0.06256172 0.52114698 0.06256172
0.06256172 0.52094873 0.06256172
0.06256172 0.52066240 0.06256172
0.06256172 0.52025559 0.06256172
0.06256172 0.51968471 0.06256172
0.06256172 0.51889086 0.06256172
0.26694137 0.51779386 0.06256172
0.40707945 0.51628328 0.06256172
0.47006912 0.51420471 0.06256172
0.51673214 0.51133751 0.06256172
0.55611637 0.50735706 0.06256172
0.59144850 0.50176594 0.06256172
0.62425112 0.49375702 0.06256172
0.65535846 0.48190590 0.06256172
0.68527219 0.46334605 0.06256172
0.71431367 0.43079403 0.06256172
0.74269826 0.35136778 0.06256172
0.77057524 0.06256172 0.06256172
0.79805081 0.06256172 0.06256172
0.82520206 0.06256172 0.06256172
0.85208593 0.06256172 0.06256172
0.87874508 0.06256172 0.06256172
0.90521188 0.06256172 0.06256172
0.91886608 0.06256172 0.06256172
0.91886608 0.06256172 0.06256172
0.91886608 0.06256172 0.06256172
0.06256172 0.54882689 0.06256172
0.06256172 0.54882521 0.06256172
0.06256172 0.54881906 0.06256172
0.06256172 0.54880555 0.06256172
0.06256172 0.54878069 0.06256172
0.06256172 0.54873899 0.06256172
0.06256172 0.54867305 0.06256172
0.06256172 0.54857290 0.06256172
0.06256172 0.54842515 0.06256172
0.06256172 0.54821191 0.06256172
0.06256172 0.54790923 0.06256172
0.06256172 0.54748506 0.06256172
0.06256172 0.54689637 0.06256172
0.06256172 0.54608506 0.06256172
0.30818662 0.54497208 0.06256172
0.43538840 0.54344862 0.06256172
0.49752864 0.54136257 0.06256172
0.54398843 0.53849672 0.06256172
0.58328837 0.53453171 0.06256172
0.61855799 0.52897904 0.06256172
0.65129564 0.52104829 0.06256172
0.68232972 0.50935187 0.06256172
0.71216163 0.49112439 0.06256172
0.74111415 0.45948464 0.06256172
0.76940445 0.38554611 0.06256172
0.79718352 0.06256172 0.06256172
0.82455903 0.06256172 0.06256172
0.85160929 0.06256172 0.06256172
0.87839220 0.06256172 0.06256172
0.90495115 0.06256172 0.06256172
0.91886608 0.06256172 0.06256172
0.91886608 0.06256172 0.06256172
0.91886608 0.06256172 0.06256172
0.06256172 0.57608076 0.06256172
0.06256172 0.57607951 0.06256172
0.06256172 0.57607490 0.06256172
0.06256172 0.57606480 0.06256172
0.06256172 0.57604619 0.06256172
0.06256172 0.57601499 0.06256172
0.06256172 0.57596567 0.06256172
0.06256172 0.57589077 0.06256172
0.06256172 0.57578032 0.06256172
0.06256172 0.57562097 0.06256172
0.06256172 0.57539496 0.06256172
0.06256172 0.57507855 0.06256172
0.06256172 0.57464003 0.06256172
0.06256172 0.57403684 0.06256172
0.06256172 0.57321160 0.06256172
0.34442632 0.57208619 0.06256172
0.46343867 0.57055312 0.06256172
0.52489212 0.56846208 0.06256172
0.57117232 0.56559842 0.06256172
0.61038760 0.56164662 0.06256172
0.64558926 0.55612431 0.06256172
0.67825607 0.54825231 0.06256172
0.70921194 0.53666718 0.06256172
0.73895828 0.51866925 0.06256172
0.76781926 0.48763585 0.06256172
0.79601370 0.41706106 0.06256172
0.82369412 0.06256172 0.06256172
0.85096952 0.06256172 0.06256172
0.87791928 0.06256172 0.06256172
0.90460214 0.06256172 0.06256172
0.91886608 0.06256172 0.06256172
0.91886608 0.06256172 0.06256172
0.91886608 0.06256172 0.06256172
0.06256172 0.60325353 0.06256172
0.06256172 0.60325259 0.06256172
0.06256172 0.60324914 0.06256172
0.06256172 0.60324156 0.06256172
0.06256172 0.60322761 0.06256172
0.06256172 0.60320422 0.06256172
0.06256172 0.60316725 0.06256172
0.06256172 0.60311111 0.06256172
0.06256172 0.60302834 0.06256172
0.06256172 0.60290898 0.06256172
0.06256172 0.60273977 0.06256172
0.06256172 0.60250306 0.06256172
0.06256172 0.60217532 0.06256172
0.06256172 0.60172517 0.06256172
0.06256172 0.60111048 0.06256172
0.06256172 0.60027446 0.06256172
0.37785965 0.59913979 0.06256172
0.49126734 0.59760002 0.06256172
0.55216626 0.59550621 0.06256172
0.59828747 0.59264551 0.06256172
0.63741777 0.58870490 0.06256172
0.67254636 0.58320577 0.06256172
0.70513671 0.57537533 0.06256172
0.73600950 0.56386337 0.06256172
0.76566650 0.54600619 0.06256172
0.79443323 0.51532610 0.06256172
0.82253005 0.44665449 0.06256172
0.85011088 0.06256172 0.06256172
0.87728591 0.06256172 0.06256172
0.90413544 0.06256172 0.06256172
0.91886608 0.06256172 0.06256172
0.91886608 0.06256172 0.06256172
0.91886608 0.06256172 0.06256172
0.06256172 0.63034914 0.06256172
0.06256172 0.63034844 0.06256172
0.06256172 0.63034584 0.06256172
0.06256172 0.63034015 0.06256172
0.06256172 0.63032968 0.06256172
0.06256172 0.63031212 0.06256172
0.06256172 0.63028436 0.06256172
0.06256172 0.63024222 0.06256172
0.06256172 0.63018010 0.06256172
0.06256172 0.63009054 0.06256172
0.06256172 0.62996363 0.06256172
0.06256172 0.62978618 0.06256172
0.06256172 0.62954069 0.06256172
0.06256172 0.62920384 0.06256172
0.06256172 0.62874453 0.06256172
0.06256172 0.62812105 0.06256172
0.06256172 0.62727712 0.06256172
0.40947526 0.62613606 0.06256172
0.51890189 0.62459223 0.06256172
0.57935672 0.62249764 0.06256172
0.62533721 0.61964057 0.06256172
0.66438217 0.61570935 0.06256172
0.69943283 0.61022691 0.06256172
0.73194130 0.60242249 0.06256172
0.76272622 0.59094934 0.06256172
0.79229006 0.57315361 0.06256172
0.82095973 0.54260699 0.06256172
0.84895703 0.47471502 0.06256172
0.87643719 0.06256172 0.06256172
0.90351139 0.06256172 0.06256172
0.91886608 0.06256172 0.06256172
0.91886608 0.06256172 0.06256172
0.91886608 0.06256172 0.06256172
0.06256172 0.65737117 0.06256172
0.06256172 0.65737064 0.06256172
0.06256172 0.65736869 0.06256172
0.06256172 0.65736441 0.06256172
0.06256172 0.65735654 0.06256172
0.06256172 0.65734334 0.06256172
0.06256172 0.65732249 0.06256172
0.06256172 0.65729082 0.06256172
0.06256172 0.65724416 0.06256172
0.06256172 0.65717690 0.06256172
0.06256172 0.65708160 0.06256172
0.06256172 0.65694841 0.06256172
0.06256172 0.65676426 0.06256172
0.06256172 0.65651176 0.06256172
0.06256172 0.65616784 0.06256172
0.06256172 0.65570167 0.06256172
0.06256172 0.65507188 0.06256172
0.06256172 0.65422265 0.06256172
0.43979736 0.65307782 0.06256172
0.54636301 0.65153232 0.06256172
0.60646834 0.64943878 0.06256172
0.65232453 0.64658598 0.06256172
0.69128374 0.64266248 0.06256172
0.72625180 0.63719075 0.06256172
0.75867309 0.62939800 0.06256172
0.78936540 0.61793191 0.06256172
0.81883224 0.60012451 0.06256172
