src/ffmpeg_scripts/luts/rec2020-sRGB_-1p33.cube
TITLE "rec2020-srgb_-1p33"
LUT_3D_SIZE 5
# PQ (EOTF Only)/Rec2020 -> PQ (EOTF Only)/Rec709, CineEI Shift -1.33, Black Level 0.00% IRE, Input 100% -> Output 109% - Created with LUTCalc v4.01 by Ben Turley October 2020
0.06256172 0.06256172 0.06256172
0.25216441 0.06256172 0.06256172
0.45561437 0.06256172 0.06256172
0.66594544 0.06256172 0.06256172
0.88119201 0.06256172 0.06256172
0.06256172 0.23133421 0.06256172
0.22849257 0.22529558 0.06256172
0.45396243 0.06256172 0.06256172
0.66577302 0.06256172 0.06256172
0.88117541 0.06256172 0.06256172
0.06256172 0.42448447 0.06256172
0.06256172 0.42399160 0.06256172
0.42013819 0.41521794 0.06256172
0.66281105 0.06256172 0.06256172
0.88089448 0.06256172 0.06256172
0.06256172 0.63057518 0.06256172
0.06256172 0.63052210 0.06256172
0.06256172 0.62962057 0.06256172
0.62556292 0.61986588 0.06256172
0.87796734 0.06256172 0.06256172
0.06256172 0.84620523 0.06256172
0.06256172 0.84620002 0.06256172
0.06256172 0.84611189 0.06256172
0.06256172 0.84520514 0.06256172
0.84119178 0.83547609 0.06256172
0.06256172 0.06256172 0.23067469
0.24964036 0.06256172 0.22982009
0.45541122 0.06256172 0.21334537
0.66592408 0.06256172 0.06256172
0.88118995 0.06256172 0.06256172
0.06256172 0.23094641 0.22579167
0.22486994 0.22486994 0.22486994
0.45375552 0.06256172 0.20684288
0.66575163 0.06256172 0.06256172
0.88117335 0.06256172 0.06256172
0.06256172 0.42445152 0.06256172
0.06256172 0.42395846 0.06256172
0.41983569 0.41518133 0.06256172
0.66278897 0.06256172 0.06256172
0.88089241 0.06256172 0.06256172
0.06256172 0.63057163 0.06256172
0.06256172 0.63051854 0.06256172
0.06256172 0.62961698 0.06256172
0.62553019 0.61986189 0.06256172
0.87796521 0.06256172 0.06256172
0.06256172 0.84620488 0.06256172
0.06256172 0.84619967 0.06256172
0.06256172 0.84611154 0.06256172
0.06256172 0.84520478 0.06256172
0.84118856 0.83547569 0.06256172
0.06256172 0.06256172 0.42347798
0.17770539 0.06256172 0.42340550
0.45190738 0.06256172 0.42217178
0.66556247 0.06256172 0.40844167
0.88115518 0.06256172 0.06256172
0.06256172 0.22401880 0.42307562
0.06256172 0.21721360 0.42300281
0.45018540 0.06256172 0.42176340
0.66538935 0.06256172 0.40796398
0.88113857 0.06256172 0.06256172
0.06256172 0.42389281 0.41598358
0.06256172 0.42339662 0.41590467
0.41456041 0.41456041 0.41456041
0.66241513 0.06256172 0.39946895
0.88085752 0.06256172 0.06256172
0.06256172 0.63051149 0.21567221
0.06256172 0.63045837 0.21458996
0.06256172 0.62955623 0.19261289
0.62497533 0.61979455 0.06256172
0.87792914 0.06256172 0.06256172
0.06256172 0.84619898 0.06256172
0.06256172 0.84619376 0.06256172
0.06256172 0.84610563 0.06256172
0.06256172 0.84519881 0.06256172
0.84113406 0.83546904 0.06256172
0.06256172 0.06256172 0.62941613
0.06256172 0.06256172 0.62940831
0.40486372 0.06256172 0.62927591
0.66178061 0.06256172 0.62791045
0.88079859 0.06256172 0.61285783
0.06256172 0.06256172 0.62937274
0.06256172 0.06256172 0.62936491
0.40191436 0.06256172 0.62923245
0.66160042 0.06256172 0.62786636
0.88078192 0.06256172 0.61280614
0.06256172 0.41796315 0.62863647
0.06256172 0.41743234 0.62862857
0.32470171 0.40794062 0.62849508
0.65850252 0.06256172 0.62711823
0.88049973 0.06256172 0.61192828
0.06256172 0.62989397 0.62075401
0.06256172 0.62984050 0.62074543
0.06256172 0.62893242 0.62060032
0.61910268 0.61910268 0.61910268
0.87755924 0.06256172 0.60244390
0.06256172 0.84613854 0.41634115
0.06256172 0.84613332 0.41626256
0.06256172 0.84604512 0.41492381
0.06256172 0.84513769 0.39990082
0.84057457 0.83540094 0.06256172
0.06256172 0.06256172 0.84504716
0.06256172 0.06256172 0.84504639
0.06256172 0.06256172 0.84503339
0.61142788 0.06256172 0.84490023
0.87710709 0.06256172 0.84354163
0.06256172 0.06256172 0.84504290
0.06256172 0.06256172 0.84504213
0.06256172 0.06256172 0.84502913
0.61112081 0.06256172 0.84489596
0.87708971 0.06256172 0.84353729
0.06256172 0.30708687 0.84497082
0.06256172 0.30505222 0.84497005
0.06256172 0.25824944 0.84495703
0.60577549 0.06256172 0.84482375
0.87679545 0.06256172 0.84346399
0.06256172 0.62340798 0.84422990
0.06256172 0.62335072 0.84422912
0.06256172 0.62237783 0.84421600
0.52008920 0.61180193 0.84408162
0.87372681 0.06256172 0.84271049
0.06256172 0.84552468 0.83636834
0.06256172 0.84551943 0.83636749
0.06256172 0.84543063 0.83635317
0.06256172 0.84451693 0.83620651
0.83470898 0.83470898 0.83470898
