src/ffmpeg_scripts/luts/rec2020-sRGB_-3p00.cube
TITLE "rec2020-srgb_-3p00"
LUT_3D_SIZE 5
# PQ (EOTF Only)/Rec2020 -> PQ (EOTF Only)/Rec709, CineEI Shift -3.00, Black Level 0.00% IRE, Input 100% -> Output 109% - Created with LUTCalc v4.01 by Ben Turley October 2020
0.06256172 0.06256172 0.06256172
0.19392961 0.06256172 0.06256172
0.36505483 0.06256172 0.06256172
0.56029656 0.06256172 0.06256172
0.77454969 0.06256172 0.06256172
0.06256172 0.17772400 0.06256172
0.17553668 0.17308278 0.06256172
0.36358668 0.06256172 0.06256172
0.56013035 0.06256172 0.06256172
0.77453268 0.06256172 0.06256172
0.06256172 0.33758086 0.06256172
0.06256172 0.33714920 0.06256172
0.33377798 0.32948287 0.06256172
0.55727653 0.06256172 0.06256172
0.77424480 0.06256172 0.06256172
0.06256172 0.52639744 0.06256172
0.06256172 0.52634686 0.06256172
0.06256172 0.52548809 0.06256172
0.52162615 0.51621298 0.06256172
0.77124642 0.06256172 0.06256172
0.06256172 0.73885430 0.06256172
0.06256172 0.73884900 0.06256172
0.06256172 0.73875950 0.06256172
0.06256172 0.73783866 0.06256172
0.73376560 0.72797225 0.06256172
0.06256172 0.06256172 0.17721583
0.19195025 0.06256172 0.17655781
0.36487422 0.06256172 0.16397707
0.56027597 0.06256172 0.06256172
0.77454759 0.06256172 0.06256172
0.06256172 0.17742515 0.17346308
0.17275665 0.17275665 0.17275665
0.36340287 0.06256172 0.15906800
0.56010973 0.06256172 0.06256172
0.77453058 0.06256172 0.06256172
0.06256172 0.33755199 0.06256172
0.06256172 0.33712018 0.06256172
0.33351360 0.32945095 0.06256172
0.55725527 0.06256172 0.06256172
0.77424269 0.06256172 0.06256172
0.06256172 0.52639405 0.06256172
0.06256172 0.52634347 0.06256172
0.06256172 0.52548467 0.06256172
0.52159502 0.51620919 0.06256172
0.77124424 0.06256172 0.06256172
0.06256172 0.73885394 0.06256172
0.06256172 0.73884865 0.06256172
0.06256172 0.73875914 0.06256172
0.06256172 0.73783830 0.06256172
0.73376233 0.72797185 0.06256172
0.06256172 0.06256172 0.33669947
0.13749553 0.06256172 0.33663602
0.36176185 0.06256172 0.33555629
0.55992740 0.06256172 0.32358507
0.77451195 0.06256172 0.06256172
0.06256172 0.17210485 0.33634725
0.06256172 0.16691283 0.33628352
0.36023413 0.06256172 0.33519903
0.55976054 0.06256172 0.32317008
0.77449493 0.06256172 0.06256172
0.06256172 0.33706269 0.33015053
0.06256172 0.33662825 0.33008170
0.32890969 0.32890969 0.32890969
0.55689528 0.06256172 0.31580722
0.77420693 0.06256172 0.06256172
0.06256172 0.52633676 0.16574164
0.06256172 0.52628615 0.16492040
0.06256172 0.52542681 0.14844285
0.52106735 0.51614527 0.06256172
0.77120730 0.06256172 0.06256172
0.06256172 0.73884795 0.06256172
0.06256172 0.73884265 0.06256172
0.06256172 0.73875314 0.06256172
0.06256172 0.73783224 0.06256172
0.73370705 0.72796512 0.06256172
0.06256172 0.06256172 0.52529339
0.06256172 0.06256172 0.52528593
0.32047924 0.06256172 0.52515985
0.55628436 0.06256172 0.52385980
0.77414654 0.06256172 0.50956876
0.06256172 0.06256172 0.52525206
0.06256172 0.06256172 0.52524460
0.31792337 0.06256172 0.52511846
0.55611089 0.06256172 0.52381783
0.77412946 0.06256172 0.50951981
0.06256172 0.33187797 0.52455096
0.06256172 0.33141460 0.52454345
0.25248683 0.32314979 0.52441635
0.55313023 0.06256172 0.52310581
0.77384031 0.06256172 0.50868869
0.06256172 0.52574849 0.51705615
0.06256172 0.52569756 0.51704800
0.06256172 0.52483275 0.51691023
0.51548861 0.51548861 0.51548861
0.77082857 0.06256172 0.49972560
0.06256172 0.73878656 0.33046243
0.06256172 0.73878126 0.33039387
0.06256172 0.73869169 0.32922644
0.06256172 0.73777018 0.31618074
0.73313959 0.72789614 0.06256172
0.06256172 0.06256172 0.73767826
0.06256172 0.06256172 0.73767748
0.06256172 0.06256172 0.73766427
0.50821504 0.06256172 0.73752907
0.77036566 0.06256172 0.73614989
0.06256172 0.06256172 0.73767393
0.06256172 0.06256172 0.73767315
0.06256172 0.06256172 0.73765994
0.50792443 0.06256172 0.73752473
0.77034786 0.06256172 0.73614549
0.06256172 0.23798602 0.73760074
0.06256172 0.23632211 0.73759996
0.06256172 0.19871874 0.73758674
0.50287065 0.06256172 0.73745142
0.77004662 0.06256172 0.73607109
0.06256172 0.51957734 0.73684852
0.06256172 0.51952291 0.73684773
0.06256172 0.51859845 0.73683441
0.42320557 0.50856909 0.73669800
0.76690660 0.06256172 0.73530640
0.06256172 0.73816314 0.72887606
0.06256172 0.73815781 0.72887520
0.06256172 0.73806764 0.72886069
0.06256172 0.73713992 0.72871211
0.72719539 0.72719539 0.72719539
