src/ffmpeg_scripts/luts/rec2020-sRGB_0-Native.cube
TITLE "rec2020-srgb_0-Native"
LUT_3D_SIZE 5
# PQ (EOTF Only)/Rec2020 -> PQ (EOTF Only)/Rec709, CineEI Shift 0.00, Black Level 0.00% IRE, Input 100% -> Output 109% - Created with LUTCalc v4.01 by Ben Turley October 2020
0.06256172 0.06256172 0.06256172
0.30880397 0.06256172 0.06256172
0.53477690 0.06256172 0.06256172
0.75215966 0.06256172 0.06256172
0.91886608 0.06256172 0.06256172
0.06256172 0.28430962 0.06256172
0.28094127 0.27714360 0.06256172
0.53301594 0.06256172 0.06256172
0.75198626 0.06256172 0.06256172
0.91886608 0.06256172 0.06256172
0.06256172 0.50142392 0.06256172
0.06256172 0.50089291 0.06256172
0.49673806 0.49142442 0.06256172
0.74900631 0.06256172 0.06256172
0.91886608 0.06256172 0.06256172
0.06256172 0.71644064 0.06256172
0.06256172 0.71638680 0.06256172
0.06256172 0.71547243 0.06256172
0.71135450 0.70556591 0.06256172
0.91886608 0.06256172 0.06256172
0.06256172 0.91886608 0.06256172
0.06256172 0.91886608 0.06256172
0.06256172 0.91886608 0.06256172
0.06256172 0.91886608 0.06256172
0.91886608 0.91886608 0.06256172
0.06256172 0.06256172 0.28352846
0.30585366 0.06256172 0.28251570
0.53456039 0.06256172 0.26286929
0.75213819 0.06256172 0.06256172
0.91886608 0.06256172 0.06256172
0.06256172 0.28385034 0.27773347
0.27663734 0.27663734 0.27663734
0.53279530 0.06256172 0.25504754
0.75196474 0.06256172 0.06256172
0.91886608 0.06256172 0.06256172
0.06256172 0.50138842 0.06256172
0.06256172 0.50085720 0.06256172
0.49641164 0.49138484 0.06256172
0.74898409 0.06256172 0.06256172
0.91886608 0.06256172 0.06256172
0.06256172 0.71643703 0.06256172
0.06256172 0.71638319 0.06256172
0.06256172 0.71546878 0.06256172
0.71132126 0.70556186 0.06256172
0.91886608 0.06256172 0.06256172
0.06256172 0.91886608 0.06256172
0.06256172 0.91886608 0.06256172
0.06256172 0.91886608 0.06256172
0.06256172 0.91886608 0.06256172
0.91886608 0.91886608 0.06256172
0.06256172 0.06256172 0.50033944
0.21947133 0.06256172 0.50026133
0.53082389 0.06256172 0.49893144
0.75177450 0.06256172 0.48409055
0.91886608 0.06256172 0.06256172
0.06256172 0.27562450 0.49990579
0.06256172 0.26750374 0.49982732
0.52898595 0.06256172 0.49849111
0.75160038 0.06256172 0.48357286
0.91886608 0.06256172 0.06256172
0.06256172 0.50078646 0.49225190
0.06256172 0.50025176 0.49216662
0.49071359 0.49071359 0.49071359
0.74860783 0.06256172 0.47435076
0.91886608 0.06256172 0.06256172
0.06256172 0.71637604 0.26565867
0.06256172 0.71632217 0.26436190
0.06256172 0.71540717 0.23778612
0.71075783 0.70549338 0.06256172
0.91886608 0.06256172 0.06256172
0.06256172 0.91886608 0.06256172
0.06256172 0.91886608 0.06256172
0.06256172 0.91886608 0.06256172
0.06256172 0.91886608 0.06256172
0.91886608 0.91886608 0.06256172
0.06256172 0.06256172 0.71526505
0.06256172 0.06256172 0.71525711
0.48021069 0.06256172 0.71512281
0.74796914 0.06256172 0.71373740
0.91886608 0.06256172 0.69843409
0.06256172 0.06256172 0.71522103
0.06256172 0.06256172 0.71521309
0.47700851 0.06256172 0.71507872
0.74778774 0.06256172 0.71369266
0.91886608 0.06256172 0.69838143
0.06256172 0.49439029 0.71447408
0.06256172 0.49381705 0.71446607
0.39179070 0.48354753 0.71433063
0.74466798 0.06256172 0.71293339
0.91886608 0.06256172 0.69748718
0.06256172 0.71574974 0.70646884
0.06256172 0.71569551 0.70646012
0.06256172 0.71477434 0.70631261
0.70478983 0.70478983 0.70478983
0.91886608 0.06256172 0.68781312
0.06256172 0.91886608 0.49263828
0.06256172 0.91886608 0.49255336
0.06256172 0.91886608 0.49110647
0.06256172 0.91886608 0.47482030
0.91886608 0.91886608 0.06256172
0.06256172 0.06256172 0.91886608
0.06256172 0.06256172 0.91886608
0.06256172 0.06256172 0.91886608
0.69697735 0.06256172 0.91886608
0.91886608 0.06256172 0.91886608
0.06256172 0.06256172 0.91886608
0.06256172 0.06256172 0.91886608
0.06256172 0.06256172 0.91886608
0.69666446 0.06256172 0.91886608
0.91886608 0.06256172 0.91886608
0.06256172 0.37193171 0.91886608
0.06256172 0.36962662 0.91886608
0.06256172 0.31589745 0.91886608
0.69121397 0.06256172 0.91886608
0.91886608 0.06256172 0.91886608
0.06256172 0.70916588 0.91886608
0.06256172 0.70910771 0.91886608
0.06256172 0.70811922 0.91886608
0.60278333 0.69735845 0.91886608
0.91886608 0.06256172 0.91886608
0.06256172 0.91886608 0.91886608
0.06256172 0.91886608 0.91886608
0.06256172 0.91886608 0.91886608
0.06256172 0.91886608 0.91886608
0.91886608 0.91886608 0.91886608
