src/ffmpeg_scripts/luts/rec2020-sRGB_2p33.cube
TITLE "rec2020-srgb_2p33"
LUT_3D_SIZE 5
# PQ (EOTF Only)/Rec2020 -> PQ (EOTF Only)/Rec709, CineEI Shift 2.33, Black Level 0.00% IRE, Input 100% -> Output 109% - Created with LUTCalc v4.01 by Ben Turley October 2020
0.06256172 0.06256172 0.06256172
0.42762869 0.06256172 0.06256172
0.68221981 0.06256172 0.06256172
0.90133287 0.06256172 0.06256172
0.91886608 0.06256172 0.06256172
0.06256172 0.39749230 0.06256172
0.39329511 0.38854680 0.06256172
0.68036045 0.06256172 0.06256172
0.90116523 0.06256172 0.06256172
0.91886608 0.06256172 0.06256172
0.06256172 0.64672823 0.06256172
0.06256172 0.64615835 0.06256172
0.64169398 0.63597046 0.06256172
0.89828263 0.06256172 0.06256172
0.91886608 0.06256172 0.06256172
0.06256172 0.86658495 0.06256172
0.06256172 0.86653225 0.06256172
0.06256172 0.86563694 0.06256172
0.86160120 0.85591797 0.06256172
0.91886608 0.06256172 0.06256172
0.06256172 0.91886608 0.06256172
0.06256172 0.91886608 0.06256172
0.06256172 0.91886608 0.06256172
0.06256172 0.91886608 0.06256172
0.91886608 0.91886608 0.06256172
0.06256172 0.06256172 0.39652011
0.42403332 0.06256172 0.39525862
0.68199128 0.06256172 0.37054047
0.90131211 0.06256172 0.06256172
0.91886608 0.06256172 0.06256172
0.06256172 0.39692079 0.38928546
0.38791250 0.38791250 0.38791250
0.68012738 0.06256172 0.36056238
0.90114442 0.06256172 0.06256172
0.91886608 0.06256172 0.06256172
0.06256172 0.64669013 0.06256172
0.06256172 0.64612003 0.06256172
0.64134284 0.63592778 0.06256172
0.89826112 0.06256172 0.06256172
0.91886608 0.06256172 0.06256172
0.06256172 0.86658142 0.06256172
0.06256172 0.86652871 0.06256172
0.06256172 0.86563337 0.06256172
0.86156860 0.85591399 0.06256172
0.91886608 0.06256172 0.06256172
0.06256172 0.91886608 0.06256172
0.06256172 0.91886608 0.06256172
0.06256172 0.91886608 0.06256172
0.06256172 0.91886608 0.06256172
0.91886608 0.91886608 0.06256172
0.06256172 0.06256172 0.64556420
0.31406797 0.06256172 0.64548034
0.67804372 0.06256172 0.64405196
0.90096048 0.06256172 0.62804464
0.91886608 0.06256172 0.06256172
0.06256172 0.38664256 0.64509857
0.06256172 0.37641475 0.64501429
0.67609934 0.06256172 0.64357880
0.90079211 0.06256172 0.62748399
0.91886608 0.06256172 0.06256172
0.06256172 0.64604409 0.63686282
0.06256172 0.64547007 0.63677088
0.63520360 0.63520360 0.63520360
0.89789695 0.06256172 0.61747068
0.91886608 0.06256172 0.06256172
0.06256172 0.86652171 0.37407938
0.06256172 0.86646897 0.37243541
0.06256172 0.86557302 0.33824230
0.86101595 0.85584669 0.06256172
0.91886608 0.06256172 0.06256172
0.06256172 0.91886608 0.06256172
0.06256172 0.91886608 0.06256172
0.06256172 0.91886608 0.06256172
0.06256172 0.91886608 0.06256172
0.91886608 0.91886608 0.06256172
0.06256172 0.06256172 0.86543385
0.06256172 0.06256172 0.86542607
0.62383912 0.06256172 0.86529453
0.89727865 0.06256172 0.86393727
0.91886608 0.06256172 0.84889942
0.06256172 0.06256172 0.86539073
0.06256172 0.06256172 0.86538295
0.62036156 0.06256172 0.86525135
0.89710303 0.06256172 0.86389343
0.91886608 0.06256172 0.84884753
0.06256172 0.63916707 0.86465907
0.06256172 0.63854962 0.86465122
0.52542208 0.62745656 0.86451853
0.89408075 0.06256172 0.86314929
0.91886608 0.06256172 0.84796617
0.06256172 0.86590850 0.85680526
0.06256172 0.86585539 0.85679669
0.06256172 0.86495321 0.85665176
0.85515511 0.85515511 0.85515511
0.91886608 0.06256172 0.83841283
0.06256172 0.91886608 0.63727935
0.06256172 0.91886608 0.63718781
0.06256172 0.91886608 0.63562748
0.06256172 0.91886608 0.61798172
0.91886608 0.91886608 0.06256172
0.06256172 0.06256172 0.91886608
0.06256172 0.06256172 0.91886608
0.06256172 0.06256172 0.91886608
0.84746355 0.06256172 0.91886608
0.91886608 0.06256172 0.91886608
0.06256172 0.06256172 0.91886608
0.06256172 0.06256172 0.91886608
0.06256172 0.06256172 0.91886608
0.84715505 0.06256172 0.91886608
0.91886608 0.06256172 0.91886608
0.06256172 0.50255786 0.91886608
0.06256172 0.49988364 0.91886608
0.06256172 0.43623625 0.91886608
0.84177516 0.06256172 0.91886608
0.91886608 0.06256172 0.91886608
0.06256172 0.85945383 0.91886608
0.06256172 0.85939673 0.91886608
0.06256172 0.85842629 0.91886608
0.75288088 0.84783927 0.91886608
0.91886608 0.06256172 0.91886608
0.06256172 0.91886608 0.91886608
0.06256172 0.91886608 0.91886608
0.06256172 0.91886608 0.91886608
0.06256172 0.91886608 0.91886608
0.91886608 0.91886608 0.91886608
