src/ffmpeg_scripts/luts/rec2020-sRGB_3p67.cube
TITLE "rec2020-srgb_3p67"
LUT_3D_SIZE 9
# PQ (EOTF Only)/Rec2020 -> PQ (EOTF Only)/Rec709, CineEI Shift 3.67, Black Level 0.00% IRE, Input 100% -> Output 109% - Created with LUTCalc v4.01 by Ben Turley October 2020
0.06256172 0.06256172 0.06256172
0.33463153 0.06256172 0.06256172
0.50480923 0.06256172 0.06256172
0.64520090 0.06256172 0.06256172
0.76849624 0.06256172 0.06256172
0.88016270 0.06256172 0.06256172
0.91886608 0.06256172 0.06256172
0.91886608 0.06256172 0.06256172
0.91886608 0.06256172 0.06256172
0.06256172 0.30869436 0.06256172
0.30511637 0.30107894 0.06256172
0.50121633 0.15449833 0.06256172
0.64440657 0.06256172 0.06256172
0.76828343 0.06256172 0.06256172
0.88010077 0.06256172 0.06256172
0.91886608 0.06256172 0.06256172
0.91886608 0.06256172 0.06256172
0.91886608 0.06256172 0.06256172
0.06256172 0.47220064 0.06256172
0.06256172 0.47112892 0.06256172
0.46762967 0.46244947 0.06256172
0.63807427 0.41167918 0.06256172
0.76663282 0.06256172 0.06256172
0.87962375 0.06256172 0.06256172
0.91886608 0.06256172 0.06256172
0.91886608 0.06256172 0.06256172
0.91886608 0.06256172 0.06256172
0.06256172 0.61002445 0.06256172
0.06256172 0.60978097 0.06256172
0.06256172 0.60789018 0.06256172
0.60504587 0.59938902 0.06256172
0.75925736 0.56178930 0.06256172
0.87756372 0.06256172 0.06256172
0.91886608 0.06256172 0.06256172
0.91886608 0.06256172 0.06256172
0.91886608 0.06256172 0.06256172
0.06256172 0.73279000 0.06256172
0.06256172 0.73272384 0.06256172
0.06256172 0.73221426 0.06256172
0.06256172 0.73001339 0.06256172
0.72770133 0.72190853 0.06256172
0.86998151 0.68991445 0.06256172
0.91886608 0.06256172 0.06256172
0.91886608 0.06256172 0.06256172
0.91886608 0.06256172 0.06256172
0.06256172 0.84516459 0.06256172
0.06256172 0.84514514 0.06256172
0.06256172 0.84499568 0.06256172
0.06256172 0.84435662 0.06256172
0.06256172 0.84209245 0.06256172
0.84014975 0.83443254 0.06256172
0.91886608 0.80535056 0.06256172
0.91886608 0.06256172 0.06256172
0.91886608 0.06256172 0.06256172
0.06256172 0.91886608 0.06256172
0.06256172 0.91886608 0.06256172
0.06256172 0.91886608 0.06256172
0.06256172 0.91886608 0.06256172
0.06256172 0.91886608 0.06256172
0.06256172 0.91886608 0.06256172
0.91886608 0.91886608 0.06256172
0.91886608 0.91183178 0.06256172
0.91886608 0.06256172 0.06256172
0.06256172 0.91886608 0.06256172
0.06256172 0.91886608 0.06256172
0.06256172 0.91886608 0.06256172
0.06256172 0.91886608 0.06256172
0.06256172 0.91886608 0.06256172
0.06256172 0.91886608 0.06256172
0.06256172 0.91886608 0.06256172
0.91886608 0.91886608 0.06256172
0.91886608 0.91886608 0.06256172
0.06256172 0.91886608 0.06256172
0.06256172 0.91886608 0.06256172
0.06256172 0.91886608 0.06256172
0.06256172 0.91886608 0.06256172
0.06256172 0.91886608 0.06256172
0.06256172 0.91886608 0.06256172
0.06256172 0.91886608 0.06256172
0.06256172 0.91886608 0.06256172
0.91886608 0.91886608 0.06256172
0.06256172 0.06256172 0.30786482
0.33151480 0.06256172 0.30678913
0.50437133 0.06256172 0.29798742
0.64510279 0.06256172 0.24095600
0.76846988 0.06256172 0.06256172
0.88015503 0.06256172 0.06256172
0.91886608 0.06256172 0.06256172
0.91886608 0.06256172 0.06256172
0.91886608 0.06256172 0.06256172
0.06256172 0.30820665 0.30170628
0.30054044 0.30054044 0.30054044
0.50076102 0.14863060 0.29093953
0.64430764 0.06256172 0.22413183
0.76825701 0.06256172 0.06256172
0.88009309 0.06256172 0.06256172
0.91886608 0.06256172 0.06256172
0.91886608 0.06256172 0.06256172
0.91886608 0.06256172 0.06256172
0.06256172 0.47212919 0.21989767
0.06256172 0.47105663 0.21608531
0.46697202 0.46236992 0.17406525
0.63796848 0.41153855 0.06256172
0.76660593 0.06256172 0.06256172
0.87961603 0.06256172 0.06256172
0.91886608 0.06256172 0.06256172
0.91886608 0.06256172 0.06256172
0.91886608 0.06256172 0.06256172
0.06256172 0.61000815 0.06256172
0.06256172 0.60976463 0.06256172
0.06256172 0.60787350 0.06256172
0.60489583 0.59937078 0.06256172
0.75922824 0.56176211 0.06256172
0.87755581 0.06256172 0.06256172
0.91886608 0.06256172 0.06256172
0.91886608 0.06256172 0.06256172
0.91886608 0.06256172 0.06256172
0.06256172 0.73278556 0.06256172
0.06256172 0.73271940 0.06256172
0.06256172 0.73220980 0.06256172
0.06256172 0.73000883 0.06256172
0.72766048 0.72190355 0.06256172
0.86997290 0.68990745 0.06256172
0.91886608 0.06256172 0.06256172
0.91886608 0.06256172 0.06256172
0.91886608 0.06256172 0.06256172
0.06256172 0.84516329 0.06256172
0.06256172 0.84514384 0.06256172
0.06256172 0.84499437 0.06256172
0.06256172 0.84435530 0.06256172
0.06256172 0.84209111 0.06256172
0.84013772 0.83443108 0.06256172
0.91886608 0.80534853 0.06256172
0.91886608 0.06256172 0.06256172
0.91886608 0.06256172 0.06256172
0.06256172 0.91886608 0.06256172
0.06256172 0.91886608 0.06256172
0.06256172 0.91886608 0.06256172
0.06256172 0.91886608 0.06256172
0.06256172 0.91886608 0.06256172
0.06256172 0.91886608 0.06256172
0.91886608 0.91886608 0.06256172
0.91886608 0.91183117 0.06256172
0.91886608 0.06256172 0.06256172
0.06256172 0.91886608 0.06256172
0.06256172 0.91886608 0.06256172
0.06256172 0.91886608 0.06256172
0.06256172 0.91886608 0.06256172
0.06256172 0.91886608 0.06256172
0.06256172 0.91886608 0.06256172
0.06256172 0.91886608 0.06256172
0.91886608 0.91886608 0.06256172
0.91886608 0.91886608 0.06256172
0.06256172 0.91886608 0.06256172
0.06256172 0.91886608 0.06256172
0.06256172 0.91886608 0.06256172
0.06256172 0.91886608 0.06256172
0.06256172 0.91886608 0.06256172
0.06256172 0.91886608 0.06256172
0.06256172 0.91886608 0.06256172
0.06256172 0.91886608 0.06256172
0.91886608 0.91886608 0.06256172
0.06256172 0.06256172 0.47114253
0.30234745 0.06256172 0.47098531
0.50093785 0.06256172 0.46976896
0.64434602 0.06256172 0.46440080
0.76826726 0.06256172 0.44271588
0.88009607 0.06256172 0.22382709
0.91886608 0.06256172 0.06256172
0.91886608 0.06256172 0.06256172
0.91886608 0.06256172 0.06256172
0.06256172 0.30435572 0.47026790
0.25093298 0.29627403 0.47010917
0.49718790 0.06256172 0.46888097
0.64354445 0.06256172 0.46345846
0.76805392 0.06256172 0.44151549
0.88003409 0.06256172 0.20079390
0.91886608 0.06256172 0.06256172
0.91886608 0.06256172 0.06256172
0.91886608 0.06256172 0.06256172
0.06256172 0.47157866 0.46325596
0.06256172 0.47049956 0.46308447
0.46175675 0.46175675 0.46175675
0.63715218 0.41045110 0.45587607
0.76639918 0.06256172 0.43171750
0.87955670 0.06256172 0.06256172
0.91886608 0.06256172 0.06256172
0.91886608 0.06256172 0.06256172
0.91886608 0.06256172 0.06256172
0.06256172 0.60988287 0.42520198
0.06256172 0.60963903 0.42493963
0.06256172 0.60774537 0.42289873
0.60373573 0.59923057 0.41363972
0.75900434 0.56155308 0.37040452
0.87749509 0.06256172 0.06256172
0.91886608 0.06256172 0.06256172
0.91886608 0.06256172 0.06256172
0.91886608 0.06256172 0.06256172
0.06256172 0.73275151 0.06256172
0.06256172 0.73268533 0.06256172
0.06256172 0.73217554 0.06256172
0.06256172 0.72997375 0.06256172
0.72734617 0.72186530 0.06256172
0.86990674 0.68985368 0.06256172
0.91886608 0.06256172 0.06256172
0.91886608 0.06256172 0.06256172
0.91886608 0.06256172 0.06256172
0.06256172 0.84515328 0.06256172
0.06256172 0.84513383 0.06256172
0.06256172 0.84498434 0.06256172
0.06256172 0.84434520 0.06256172
0.06256172 0.84208075 0.06256172
0.84004532 0.83441980 0.06256172
0.91886608 0.80533300 0.06256172
0.91886608 0.06256172 0.06256172
0.91886608 0.06256172 0.06256172
0.06256172 0.91886608 0.06256172
0.06256172 0.91886608 0.06256172
0.06256172 0.91886608 0.06256172
0.06256172 0.91886608 0.06256172
0.06256172 0.91886608 0.06256172
0.06256172 0.91886608 0.06256172
0.91886608 0.91886608 0.06256172
0.91886608 0.91182647 0.06256172
0.91886608 0.06256172 0.06256172
0.06256172 0.91886608 0.06256172
0.06256172 0.91886608 0.06256172
0.06256172 0.91886608 0.06256172
0.06256172 0.91886608 0.06256172
0.06256172 0.91886608 0.06256172
0.06256172 0.91886608 0.06256172
0.06256172 0.91886608 0.06256172
0.91886608 0.91886608 0.06256172
0.91886608 0.91886608 0.06256172
0.06256172 0.91886608 0.06256172
0.06256172 0.91886608 0.06256172
0.06256172 0.91886608 0.06256172
0.06256172 0.91886608 0.06256172
0.06256172 0.91886608 0.06256172
0.06256172 0.91886608 0.06256172
0.06256172 0.91886608 0.06256172
0.06256172 0.91886608 0.06256172
0.91886608 0.91886608 0.06256172
0.06256172 0.06256172 0.60887305
0.06256172 0.06256172 0.60883717
0.48469481 0.06256172 0.60856122
0.64105497 0.06256172 0.60737743
0.76739969 0.06256172 0.60313048
0.87984463 0.06256172 0.58808206
0.91886608 0.06256172 0.51508677
0.91886608 0.06256172 0.06256172
0.91886608 0.06256172 0.06256172
0.06256172 0.28536823 0.60867407
0.06256172 0.27479458 0.60863812
0.48020193 0.06256172 0.60836159
0.64022490 0.06256172 0.60717527
0.76718434 0.06256172 0.60291902
0.87978248 0.06256172 0.58783403
0.91886608 0.06256172 0.51454540
0.91886608 0.06256172 0.06256172
0.91886608 0.06256172 0.06256172
0.06256172 0.46919711 0.60713204
0.06256172 0.46808921 0.60709550
0.43540088 0.45909901 0.60681441
0.63359617 0.40566421 0.60560840
0.76551385 0.06256172 0.60127934
0.87930372 0.06256172 0.58590743
0.91886608 0.06256172 0.51027955
0.91886608 0.06256172 0.06256172
0.91886608 0.06256172 0.06256172
0.06256172 0.60934772 0.60027075
0.06256172 0.60910249 0.60023145
0.06256172 0.60719794 0.59992916
0.59863136 0.59863136 0.59863136
0.75804512 0.56065800 0.59396220
0.87723612 0.06256172 0.57723482
0.91886608 0.06256172 0.48953089
0.91886608 0.06256172 0.06256172
0.91886608 0.06256172 0.06256172
0.06256172 0.73260642 0.57148597
0.06256172 0.73254013 0.57143265
0.06256172 0.73202955 0.57102219
0.06256172 0.72982428 0.56925458
0.72599625 0.72170229 0.56281881
0.86962455 0.68962444 0.53861791
0.91886608 0.06256172 0.26891441
0.91886608 0.06256172 0.06256172
0.91886608 0.06256172 0.06256172
0.06256172 0.84511065 0.06256172
0.06256172 0.84509119 0.06256172
0.06256172 0.84494164 0.06256172
0.06256172 0.84430219 0.06256172
0.06256172 0.84203664 0.06256172
0.83965091 0.83437177 0.06256172
0.91886608 0.80526684 0.06256172
0.91886608 0.06256172 0.06256172
0.91886608 0.06256172 0.06256172
0.06256172 0.91886608 0.06256172
0.06256172 0.91886608 0.06256172
0.06256172 0.91886608 0.06256172
0.06256172 0.91886608 0.06256172
0.06256172 0.91886608 0.06256172
0.06256172 0.91886608 0.06256172
0.91886608 0.91886608 0.06256172
0.91886608 0.91180645 0.06256172
0.91886608 0.06256172 0.06256172
0.06256172 0.91886608 0.06256172
0.06256172 0.91886608 0.06256172
0.06256172 0.91886608 0.06256172
0.06256172 0.91886608 0.06256172
0.06256172 0.91886608 0.06256172
0.06256172 0.91886608 0.06256172
0.06256172 0.91886608 0.06256172
0.91886608 0.91886608 0.06256172
0.91886608 0.91886608 0.06256172
0.06256172 0.91886608 0.06256172
0.06256172 0.91886608 0.06256172
0.06256172 0.91886608 0.06256172
0.06256172 0.91886608 0.06256172
0.06256172 0.91886608 0.06256172
0.06256172 0.91886608 0.06256172
0.06256172 0.91886608 0.06256172
0.06256172 0.91886608 0.06256172
0.91886608 0.91886608 0.06256172
0.06256172 0.06256172 0.73161393
0.06256172 0.06256172 0.73160417
0.37982281 0.06256172 0.73152919
0.62859384 0.06256172 0.73120932
0.76430994 0.06256172 0.73008556
0.87896242 0.06256172 0.72639307
0.91886608 0.06256172 0.71387357
0.91886608 0.06256172 0.65821742
0.91886608 0.06256172 0.06256172
0.06256172 0.06256172 0.73155983
0.06256172 0.06256172 0.73155006
0.36415559 0.06256172 0.73147504
0.62764634 0.06256172 0.73115499
0.76408727 0.06256172 0.73003057
0.87889964 0.06256172 0.72633587
0.91886608 0.06256172 0.71380819
0.91886608 0.06256172 0.65809938
0.91886608 0.06256172 0.06256172
0.06256172 0.46036932 0.73114338
0.06256172 0.45914741 0.73113357
0.06256172 0.44916950 0.73105821
0.62003613 0.38654770 0.73073673
0.76235946 0.06256172 0.72960724
0.87841606 0.06256172 0.72589544
0.91886608 0.06256172 0.71330461
0.91886608 0.06256172 0.65718798
0.91886608 0.06256172 0.06256172
0.06256172 0.60745798 0.72934953
0.06256172 0.60720779 0.72933953
0.06256172 0.60526429 0.72926271
0.57830820 0.59651216 0.72893498
0.75462137 0.55746907 0.72778338
0.87632732 0.06256172 0.72399705
0.91886608 0.06256172 0.71113016
0.91886608 0.06256172 0.65320675
0.91886608 0.06256172 0.06256172
0.06256172 0.73209882 0.72281221
0.06256172 0.73203217 0.72280149
0.06256172 0.73151880 0.72271911
0.06256172 0.72930131 0.72236761
0.72113178 0.72113178 0.72113178
0.86863370 0.68882084 0.71706067
0.91886608 0.06256172 0.70312980
0.91886608 0.06256172 0.63784876
0.91886608 0.06256172 0.06256172
0.06256172 0.84496190 0.69815424
0.06256172 0.84494241 0.69814030
0.06256172 0.84479260 0.69803316
0.06256172 0.84415209 0.69757571
0.06256172 0.84188270 0.69596333
0.83826222 0.83420415 0.69060563
0.91886608 0.80503580 0.67167177
0.91886608 0.06256172 0.55917813
0.91886608 0.06256172 0.06256172
0.06256172 0.91886608 0.44660568
0.06256172 0.91886608 0.44639939
0.06256172 0.91886608 0.44479941
0.06256172 0.91886608 0.43764919
0.06256172 0.91886608 0.40694281
0.06256172 0.91886608 0.06256172
0.91886608 0.91886608 0.06256172
0.91886608 0.91173663 0.06256172
0.91886608 0.06256172 0.06256172
0.06256172 0.91886608 0.06256172
0.06256172 0.91886608 0.06256172
0.06256172 0.91886608 0.06256172
0.06256172 0.91886608 0.06256172
0.06256172 0.91886608 0.06256172
0.06256172 0.91886608 0.06256172
0.06256172 0.91886608 0.06256172
0.91886608 0.91886608 0.06256172
0.91886608 0.91886608 0.06256172
0.06256172 0.91886608 0.06256172
0.06256172 0.91886608 0.06256172
0.06256172 0.91886608 0.06256172
0.06256172 0.91886608 0.06256172
0.06256172 0.91886608 0.06256172
0.06256172 0.91886608 0.06256172
0.06256172 0.91886608 0.06256172
0.06256172 0.91886608 0.06256172
0.91886608 0.91886608 0.06256172
0.06256172 0.06256172 0.84400620
0.06256172 0.06256172 0.84400332
0.06256172 0.06256172 0.84398128
0.57187078 0.06256172 0.84388738
0.75365949 0.06256172 0.84355924
0.87607632 0.06256172 0.84250024
0.91886608 0.06256172 0.83912302
0.91886608 0.06256172 0.82762485
0.91886608 0.06256172 0.77495899
0.06256172 0.06256172 0.84399029
0.06256172 0.06256172 0.84398742
0.06256172 0.06256172 0.84396537
0.57013608 0.06256172 0.84387145
0.75340971 0.06256172 0.84354325
0.87601146 0.06256172 0.84248406
0.91886608 0.06256172 0.83910623
0.91886608 0.06256172 0.82760577
0.91886608 0.06256172 0.77492506
0.06256172 0.42432583 0.84386805
0.06256172 0.42249141 0.84386517
0.06256172 0.40696500 0.84384309
0.55562873 0.23604693 0.84374905
0.75146909 0.06256172 0.84342040
0.87551176 0.06256172 0.84235976
0.91886608 0.06256172 0.83897716
0.91886608 0.06256172 0.82745915
0.91886608 0.06256172 0.77466409
0.06256172 0.60113862 0.84334580
0.06256172 0.60087111 0.84334291
0.06256172 0.59879133 0.84332070
0.43769785 0.58938651 0.84322611
0.74272280 0.54645984 0.84289554
0.87335238 0.06256172 0.84182865
0.91886608 0.06256172 0.83842564
0.91886608 0.06256172 0.82683233
0.91886608 0.06256172 0.77354484
0.06256172 0.73045445 0.84150102
0.06256172 0.73038662 0.84149807
0.06256172 0.72986411 0.84147541
0.06256172 0.72760655 0.84137885
0.70360127 0.71928099 0.84104140
0.86538396 0.68620024 0.83995215
0.91886608 0.06256172 0.83647608
0.91886608 0.06256172 0.82461252
0.91886608 0.06256172 0.76953331
0.06256172 0.84448385 0.83532503
0.06256172 0.84446425 0.83532187
0.06256172 0.84431365 0.83529759
0.06256172 0.84366970 0.83519417
0.06256172 0.84138794 0.83483270
0.83366524 0.83366524 0.83366524
0.91886608 0.80429194 0.82993299
0.91886608 0.06256172 0.81711427
0.91886608 0.06256172 0.75537491
0.06256172 0.91886608 0.81286351
0.06256172 0.91886608 0.81285946
0.06256172 0.91886608 0.81282836
0.06256172 0.91886608 0.81269582
0.06256172 0.91886608 0.81223226
0.06256172 0.91886608 0.81073164
0.91886608 0.91886608 0.80589791
0.91886608 0.91151265 0.78882885
0.91886608 0.06256172 0.68882891
0.06256172 0.91886608 0.62835933
0.06256172 0.91886608 0.62833013
0.06256172 0.91886608 0.62810564
0.06256172 0.91886608 0.62714397
0.06256172 0.91886608 0.62371277
0.06256172 0.91886608 0.61180353
0.06256172 0.91886608 0.56065763
0.91886608 0.91886608 0.06256172
0.91886608 0.91886608 0.06256172
0.06256172 0.91886608 0.06256172
0.06256172 0.91886608 0.06256172
0.06256172 0.91886608 0.06256172
0.06256172 0.91886608 0.06256172
0.06256172 0.91886608 0.06256172
0.06256172 0.91886608 0.06256172
0.06256172 0.91886608 0.06256172
0.06256172 0.91886608 0.06256172
0.91886608 0.91886608 0.06256172
0.06256172 0.06256172 0.91886608
0.06256172 0.06256172 0.91886608
0.06256172 0.06256172 0.91886608
0.06256172 0.06256172 0.91886608
0.70960385 0.06256172 0.91886608
0.86644212 0.06256172 0.91886608
0.91886608 0.06256172 0.91886608
0.91886608 0.06256172 0.91886608
0.91886608 0.06256172 0.91886608
0.06256172 0.06256172 0.91886608
0.06256172 0.06256172 0.91886608
0.06256172 0.06256172 0.91886608
0.06256172 0.06256172 0.91886608
0.70920336 0.06256172 0.91886608
0.86636980 0.06256172 0.91886608
0.91886608 0.06256172 0.91886608
0.91886608 0.06256172 0.91886608
0.91886608 0.06256172 0.91886608
0.06256172 0.06256172 0.91886608
0.06256172 0.06256172 0.91886608
0.06256172 0.06256172 0.91886608
0.06256172 0.06256172 0.91886608
0.70606988 0.06256172 0.91886608
0.86581249 0.06256172 0.91886608
0.91886608 0.06256172 0.91886608
0.91886608 0.06256172 0.91886608
0.91886608 0.06256172 0.91886608
0.06256172 0.57823784 0.91886608
0.06256172 0.57789673 0.91886608
0.06256172 0.57523548 0.91886608
0.06256172 0.56298100 0.91886608
0.69142225 0.50040215 0.91886608
0.86340014 0.06256172 0.91886608
0.91886608 0.06256172 0.91886608
0.91886608 0.06256172 0.91886608
0.91886608 0.06256172 0.91886608
0.06256172 0.72514481 0.91886608
0.06256172 0.72507302 0.91886608
0.06256172 0.72451989 0.91886608
0.06256172 0.72212798 0.91886608
0.60834862 0.71327678 0.91886608
0.85443918 0.67754656 0.91886608
0.91886608 0.06256172 0.91886608
0.91886608 0.06256172 0.91886608
0.91886608 0.06256172 0.91886608
0.06256172 0.84297989 0.91886608
0.06256172 0.84295997 0.91886608
0.06256172 0.84280682 0.91886608
0.06256172 0.84215194 0.91886608
0.06256172 0.83983084 0.91886608
0.81765400 0.83196752 0.91886608
0.91886608 0.80193792 0.91886608
0.91886608 0.06256172 0.91886608
0.91886608 0.06256172 0.91886608
0.06256172 0.91886608 0.91886608
0.06256172 0.91886608 0.91886608
0.06256172 0.91886608 0.91886608
0.06256172 0.91886608 0.91886608
0.06256172 0.91886608 0.91886608
0.06256172 0.91886608 0.91886608
0.91886608 0.91886608 0.91886608
0.91886608 0.91081200 0.91886608
0.91886608 0.06256172 0.91886608
0.06256172 0.91886608 0.91886608
0.06256172 0.91886608 0.91886608
0.06256172 0.91886608 0.91886608
0.06256172 0.91886608 0.91886608
0.06256172 0.91886608 0.91878919
0.06256172 0.91886608 0.91833986
0.06256172 0.91886608 0.91692659
0.91886608 0.91886608 0.91233697
0.91886608 0.91886608 0.89541373
0.06256172 0.91886608 0.72323397
0.06256172 0.91886608 0.72322329
0.06256172 0.91886608 0.72314128
0.06256172 0.91886608 0.72279137
0.06256172 0.91886608 0.72156115
0.06256172 0.91886608 0.71750906
0.06256172 0.91886608 0.70364969
0.06256172 0.91886608 0.63888408
0.91886608 0.91886608 0.06256172
0.06256172 0.06256172 0.91886608
0.06256172 0.06256172 0.91886608
0.06256172 0.06256172 0.91886608
0.06256172 0.06256172 0.91886608
0.06256172 0.06256172 0.91886608
0.82694824 0.06256172 0.91886608
0.91886608 0.06256172 0.91886608
0.91886608 0.06256172 0.91886608
0.91886608 0.06256172 0.91886608
0.06256172 0.06256172 0.91886608
0.06256172 0.06256172 0.91886608
0.06256172 0.06256172 0.91886608
0.06256172 0.06256172 0.91886608
0.06256172 0.06256172 0.91886608
0.82683589 0.06256172 0.91886608
0.91886608 0.06256172 0.91886608
0.91886608 0.06256172 0.91886608
0.91886608 0.06256172 0.91886608
0.06256172 0.06256172 0.91886608
0.06256172 0.06256172 0.91886608
0.06256172 0.06256172 0.91886608
0.06256172 0.06256172 0.91886608
0.06256172 0.06256172 0.91886608
0.82596850 0.06256172 0.91886608
0.91886608 0.06256172 0.91886608
0.91886608 0.06256172 0.91886608
0.91886608 0.06256172 0.91886608
0.06256172 0.38459268 0.91886608
0.06256172 0.38167698 0.91886608
0.06256172 0.35513619 0.91886608
0.06256172 0.06256172 0.91886608
0.06256172 0.06256172 0.91886608
0.82218023 0.06256172 0.91886608
0.91886608 0.06256172 0.91886608
0.91886608 0.06256172 0.91886608
0.91886608 0.06256172 0.91886608
0.06256172 0.70621919 0.91886608
0.06256172 0.70613134 0.91886608
0.06256172 0.70545401 0.91886608
0.06256172 0.70251474 0.91886608
0.06256172 0.69148378 0.91886608
0.80758162 0.64372363 0.91886608
0.91886608 0.06256172 0.91886608
0.91886608 0.06256172 0.91886608
0.91886608 0.06256172 0.91886608
0.06256172 0.83809193 0.91886608
0.06256172 0.83807089 0.91886608
0.06256172 0.83790918 0.91886608
0.06256172 0.83721754 0.91886608
0.06256172 0.83476392 0.91886608
0.73388774 0.82642503 0.91886608
0.91886608 0.79413431 0.91886608
0.91886608 0.06256172 0.91886608
0.91886608 0.06256172 0.91886608
0.06256172 0.91886608 0.91886608
0.06256172 0.91886608 0.91886608
0.06256172 0.91886608 0.91886608
0.06256172 0.91886608 0.91886608
0.06256172 0.91886608 0.91886608
0.06256172 0.91886608 0.91886608
0.91886608 0.91886608 0.91886608
0.91886608 0.90857662 0.91886608
0.91886608 0.06256172 0.91886608
0.06256172 0.91886608 0.91886608
0.06256172 0.91886608 0.91886608
0.06256172 0.91886608 0.91886608
0.06256172 0.91886608 0.91886608
0.06256172 0.91886608 0.91886608
0.06256172 0.91886608 0.91886608
0.06256172 0.91886608 0.91886608
0.91886608 0.91886608 0.91886608
0.91886608 0.91886608 0.91886608
0.06256172 0.91886608 0.91886608
0.06256172 0.91886608 0.91886608
0.06256172 0.91886608 0.91886608
0.06256172 0.91886608 0.91886608
0.06256172 0.91886608 0.91886608
0.06256172 0.91886608 0.91886608
0.06256172 0.91886608 0.91886608
0.06256172 0.91886608 0.91886608
0.91886608 0.91886608 0.91886608
0.06256172 0.06256172 0.91886608
0.06256172 0.06256172 0.91886608
0.06256172 0.06256172 0.91886608
0.06256172 0.06256172 0.91886608
0.06256172 0.06256172 0.91886608
0.06256172 0.06256172 0.91886608
0.91886608 0.06256172 0.91886608
0.91886608 0.06256172 0.91886608
0.91886608 0.06256172 0.91886608
0.06256172 0.06256172 0.91886608
0.06256172 0.06256172 0.91886608
0.06256172 0.06256172 0.91886608
0.06256172 0.06256172 0.91886608
0.06256172 0.06256172 0.91886608
0.06256172 0.06256172 0.91886608
0.91886608 0.06256172 0.91886608
0.91886608 0.06256172 0.91886608
0.91886608 0.06256172 0.91886608
0.06256172 0.06256172 0.91886608
0.06256172 0.06256172 0.91886608
0.06256172 0.06256172 0.91886608
0.06256172 0.06256172 0.91886608
0.06256172 0.06256172 0.91886608
0.06256172 0.06256172 0.91886608
0.91886608 0.06256172 0.91886608
0.91886608 0.06256172 0.91886608
0.91886608 0.06256172 0.91886608
0.06256172 0.06256172 0.91886608
0.06256172 0.06256172 0.91886608
0.06256172 0.06256172 0.91886608
0.06256172 0.06256172 0.91886608
0.06256172 0.06256172 0.91886608
0.06256172 0.06256172 0.91886608
0.91886608 0.06256172 0.91886608
0.91886608 0.06256172 0.91886608
0.91886608 0.06256172 0.91886608
0.06256172 0.58442602 0.91886608
0.06256172 0.58410661 0.91886608
0.06256172 0.58161729 0.91886608
0.06256172 0.57021658 0.91886608
0.06256172 0.51405743 0.91886608
0.06256172 0.06256172 0.91886608
0.91886608 0.06256172 0.91886608
0.91886608 0.06256172 0.91886608
0.91886608 0.06256172 0.91886608
0.06256172 0.82001107 0.91886608
0.06256172 0.81998538 0.91886608
0.06256172 0.81978784 0.91886608
0.06256172 0.81894208 0.91886608
0.06256172 0.81593043 0.91886608
0.06256172 0.80555500 0.91886608
0.91117739 0.76278200 0.91886608
0.91886608 0.06256172 0.91886608
0.91886608 0.06256172 0.91886608
0.06256172 0.91886608 0.91886608
0.06256172 0.91886608 0.91886608
0.06256172 0.91886608 0.91886608
0.06256172 0.91886608 0.91886608
0.06256172 0.91886608 0.91886608
0.06256172 0.91886608 0.91886608
0.83875572 0.91886608 0.91886608
0.91886608 0.90085666 0.91886608
0.91886608 0.06256172 0.91886608
0.06256172 0.91886608 0.91886608
0.06256172 0.91886608 0.91886608
0.06256172 0.91886608 0.91886608
0.06256172 0.91886608 0.91886608
0.06256172 0.91886608 0.91886608
0.06256172 0.91886608 0.91886608
0.06256172 0.91886608 0.91886608
0.91886608 0.91886608 0.91886608
0.91886608 0.91886608 0.91886608
0.06256172 0.91886608 0.91886608
0.06256172 0.91886608 0.91886608
0.06256172 0.91886608 0.91886608
0.06256172 0.91886608 0.91886608
0.06256172 0.91886608 0.91886608
0.06256172 0.91886608 0.91886608
0.06256172 0.91886608 0.91886608
0.06256172 0.91886608 0.91886608
0.91886608 0.91886608 0.91886608
