src/ffmpeg_scripts/luts/rec2020-sRGB_-1p00.cube
TITLE "rec2020-srgb_-1p00"
LUT_3D_SIZE 5
# PQ (EOTF Only)/Rec2020 -> PQ (EOTF Only)/Rec709, CineEI Shift -1.00, Black Level 0.00% IRE, Input 100% -> Output 109% - Created with LUTCalc v4.01 by Ben Turley October 2020
0.06256172 0.06256172 0.06256172
0.26549752 0.06256172 0.06256172
0.47492015 0.06256172 0.06256172
0.68744020 0.06256172 0.06256172
0.90213241 0.06256172 0.06256172
0.06256172 0.24373789 0.06256172
0.24076338 0.23741506 0.06256172
0.47323753 0.06256172 0.06256172
0.68726722 0.06256172 0.06256172
0.90211595 0.06256172 0.06256172
0.06256172 0.44317052 0.06256172
0.06256172 0.44266712 0.06256172
0.43873054 0.43370202 0.06256172
0.68429520 0.06256172 0.06256172
0.90183724 0.06256172 0.06256172
0.06256172 0.65191532 0.06256172
0.06256172 0.65186195 0.06256172
0.06256172 0.65095546 0.06256172
0.64687483 0.64114375 0.06256172
0.89893306 0.06256172 0.06256172
0.06256172 0.86739463 0.06256172
0.06256172 0.86738945 0.06256172
0.06256172 0.86730188 0.06256172
0.06256172 0.86640081 0.06256172
0.86241216 0.85673034 0.06256172
0.06256172 0.06256172 0.24304767
0.26286488 0.06256172 0.24215317
0.47471324 0.06256172 0.22488154
0.68741877 0.06256172 0.06256172
0.90213037 0.06256172 0.06256172
0.06256172 0.24333204 0.23793476
0.23696914 0.23696914 0.23696914
0.47302676 0.06256172 0.21804943
0.68724575 0.06256172 0.06256172
0.90211391 0.06256172 0.06256172
0.06256172 0.44313686 0.06256172
0.06256172 0.44263327 0.06256172
0.43842145 0.43366460 0.06256172
0.68427304 0.06256172 0.06256172
0.90183519 0.06256172 0.06256172
0.06256172 0.65191175 0.06256172
0.06256172 0.65185837 0.06256172
0.06256172 0.65095184 0.06256172
0.64684191 0.64113974 0.06256172
0.89893095 0.06256172 0.06256172
0.06256172 0.86739429 0.06256172
0.06256172 0.86738911 0.06256172
0.06256172 0.86730153 0.06256172
0.06256172 0.86640046 0.06256172
0.86240896 0.85672994 0.06256172
0.06256172 0.06256172 0.44214249
0.18731847 0.06256172 0.44206846
0.47114397 0.06256172 0.44080819
0.68705596 0.06256172 0.42677278
0.90209588 0.06256172 0.06256172
0.06256172 0.23607731 0.44173149
0.06256172 0.22894170 0.44165712
0.46938944 0.06256172 0.44039100
0.68688227 0.06256172 0.42628413
0.90207940 0.06256172 0.06256172
0.06256172 0.44256621 0.43448466
0.06256172 0.44205939 0.43440400
0.43302985 0.43302985 0.43302985
0.68389790 0.06256172 0.41759050
0.90180058 0.06256172 0.06256172
0.06256172 0.65185128 0.22732420
0.06256172 0.65179787 0.22618822
0.06256172 0.65089076 0.20306609
0.64628382 0.64107198 0.06256172
0.89889516 0.06256172 0.06256172
0.06256172 0.86738842 0.06256172
0.06256172 0.86738324 0.06256172
0.06256172 0.86729566 0.06256172
0.06256172 0.86639453 0.06256172
0.86235480 0.85672333 0.06256172
0.06256172 0.06256172 0.65074989
0.06256172 0.06256172 0.65074202
0.42311223 0.06256172 0.65060888
0.68326115 0.06256172 0.64923578
0.90174211 0.06256172 0.63409096
0.06256172 0.06256172 0.65070625
0.06256172 0.06256172 0.65069838
0.42009382 0.06256172 0.65056518
0.68308032 0.06256172 0.64919144
0.90172557 0.06256172 0.63403892
0.06256172 0.43650793 0.64996588
0.06256172 0.43596544 0.64995794
0.34073911 0.42626024 0.64982370
0.67997112 0.06256172 0.64843907
0.90144561 0.06256172 0.63315523
0.06256172 0.65123036 0.64203732
0.06256172 0.65117660 0.64202869
0.06256172 0.65026348 0.64188270
0.64037583 0.64037583 0.64037583
0.89852814 0.06256172 0.62360460
0.06256172 0.86732836 0.43485016
0.06256172 0.86732317 0.43476982
0.06256172 0.86723553 0.43340135
0.06256172 0.86633379 0.41803264
0.86179869 0.85665562 0.06256172
0.06256172 0.06256172 0.86624383
0.06256172 0.06256172 0.86624306
0.06256172 0.06256172 0.86623014
0.63265148 0.06256172 0.86609781
0.89807949 0.06256172 0.86474764
0.06256172 0.06256172 0.86623959
0.06256172 0.06256172 0.86623883
0.06256172 0.06256172 0.86622590
0.63234235 0.06256172 0.86609356
0.89806224 0.06256172 0.86474333
0.06256172 0.32253602 0.86616796
0.06256172 0.32043079 0.86616719
0.06256172 0.27183994 0.86615426
0.62696014 0.06256172 0.86602181
0.89777025 0.06256172 0.86467048
0.06256172 0.64470726 0.86543165
0.06256172 0.64464966 0.86543088
0.06256172 0.64367097 0.86541784
0.54041249 0.63302803 0.86528429
0.89472510 0.06256172 0.86392161
0.06256172 0.86671836 0.85761741
0.06256172 0.86671314 0.85761656
0.06256172 0.86662490 0.85760233
0.06256172 0.86571690 0.85745652
0.85596766 0.85596766 0.85596766
