src/ffmpeg_scripts/luts/rec2020-sRGB_-3p67.cube
TITLE "rec2020-srgb_-3p67"
LUT_3D_SIZE 9
# PQ (EOTF Only)/Rec2020 -> PQ (EOTF Only)/Rec709, CineEI Shift -3.67, Black Level 0.00% IRE, Input 100% -> Output 109% - Created with LUTCalc v4.01 by Ben Turley October 2020
0.06256172 0.06256172 0.06256172
0.11047458 0.06256172 0.06256172
0.17453060 0.06256172 0.06256172
0.24903166 0.06256172 0.06256172
0.33202074 0.06256172 0.06256172
0.42239295 0.06256172 0.06256172
0.51941463 0.06256172 0.06256172
0.62255357 0.06256172 0.06256172
0.73140134 0.06256172 0.06256172
0.06256172 0.10308009 0.06256172
0.10210747 0.10102370 0.06256172
0.17288925 0.07136233 0.06256172
0.24855168 0.06256172 0.06256172
0.33186263 0.06256172 0.06256172
0.42233865 0.06256172 0.06256172
0.51939596 0.06256172 0.06256172
0.62254734 0.06256172 0.06256172
0.73139938 0.06256172 0.06256172
0.06256172 0.16010294 0.06256172
0.06256172 0.15964654 0.06256172
0.15816420 0.15599173 0.06256172
0.24474966 0.13607085 0.06256172
0.33063807 0.06256172 0.06256172
0.42192053 0.06256172 0.06256172
0.51925249 0.06256172 0.06256172
0.62249947 0.06256172 0.06256172
0.73138430 0.06256172 0.06256172
0.06256172 0.22842627 0.06256172
0.06256172 0.22828826 0.06256172
0.06256172 0.22721862 0.06256172
0.22561670 0.22245621 0.06256172
0.32520491 0.20230195 0.06256172
0.42011813 0.06256172 0.06256172
0.51863926 0.06256172 0.06256172
0.62229545 0.06256172 0.06256172
0.73132007 0.06256172 0.06256172
0.06256172 0.30622346 0.06256172
0.06256172 0.30617702 0.06256172
0.06256172 0.30581948 0.06256172
0.06256172 0.30427863 0.06256172
0.30266586 0.29865176 0.06256172
0.41352919 0.27716246 0.06256172
0.51646917 0.06256172 0.06256172
0.62158070 0.06256172 0.06256172
0.73109582 0.06256172 0.06256172
0.06256172 0.39245540 0.06256172
0.06256172 0.39243918 0.06256172
0.06256172 0.39231454 0.06256172
0.06256172 0.39178189 0.06256172
0.06256172 0.38989875 0.06256172
0.38828790 0.38357378 0.06256172
0.50915684 0.36020122 0.06256172
0.61925468 0.06256172 0.06256172
0.73037401 0.06256172 0.06256172
0.06256172 0.48642901 0.06256172
0.06256172 0.48642336 0.06256172
0.06256172 0.48637993 0.06256172
0.06256172 0.48619481 0.06256172
0.06256172 0.48554652 0.06256172
0.06256172 0.48343897 0.06256172
0.48180004 0.47655253 0.06256172
0.61162811 0.45078543 0.06256172
0.72809176 0.06256172 0.06256172
0.06256172 0.58764019 0.06256172
0.06256172 0.58763828 0.06256172
0.06256172 0.58762360 0.06256172
0.06256172 0.58756110 0.06256172
0.06256172 0.58734290 0.06256172
0.06256172 0.58664068 0.06256172
0.06256172 0.58442166 0.06256172
0.58270578 0.57710127 0.06256172
0.72054855 0.54827061 0.06256172
0.06256172 0.69570138 0.06256172
0.06256172 0.69570077 0.06256172
0.06256172 0.69569610 0.06256172
0.06256172 0.69567619 0.06256172
0.06256172 0.69560675 0.06256172
0.06256172 0.69538404 0.06256172
0.06256172 0.69468769 0.06256172
0.06256172 0.69246924 0.06256172
0.69062360 0.68484627 0.06256172
0.06256172 0.06256172 0.10285358
0.10955394 0.06256172 0.10256076
0.17432987 0.06256172 0.10020366
0.24897234 0.06256172 0.08659138
0.33200115 0.06256172 0.06256172
0.42238622 0.06256172 0.06256172
0.51941231 0.06256172 0.06256172
0.62255280 0.06256172 0.06256172
0.73140110 0.06256172 0.06256172
0.06256172 0.10294684 0.10119114
0.10088025 0.10088025 0.10088025
0.17268217 0.07056443 0.09836600
0.24849194 0.06256172 0.08311975
0.33184300 0.06256172 0.06256172
0.42233191 0.06256172 0.06256172
0.51939364 0.06256172 0.06256172
0.62254656 0.06256172 0.06256172
0.73139914 0.06256172 0.06256172
0.06256172 0.16007247 0.08228478
0.06256172 0.15961579 0.08154629
0.15788694 0.15595857 0.07424089
0.24468651 0.13601909 0.06256172
0.33061814 0.06256172 0.06256172
0.42191377 0.06256172 0.06256172
0.51925017 0.06256172 0.06256172
0.62249870 0.06256172 0.06256172
0.73138406 0.06256172 0.06256172
0.06256172 0.22841703 0.06256172
0.06256172 0.22827900 0.06256172
0.06256172 0.22720920 0.06256172
0.22553244 0.22244607 0.06256172
0.32518358 0.20228791 0.06256172
0.42011122 0.06256172 0.06256172
0.51863693 0.06256172 0.06256172
0.62229467 0.06256172 0.06256172
0.73131983 0.06256172 0.06256172
0.06256172 0.30622035 0.06256172
0.06256172 0.30617391 0.06256172
0.06256172 0.30581635 0.06256172
0.06256172 0.30427544 0.06256172
0.30263742 0.29864833 0.06256172
0.41352174 0.27715788 0.06256172
0.51646678 0.06256172 0.06256172
0.62157991 0.06256172 0.06256172
0.73109558 0.06256172 0.06256172
0.06256172 0.39245431 0.06256172
0.06256172 0.39243809 0.06256172
0.06256172 0.39231345 0.06256172
0.06256172 0.39178080 0.06256172
0.06256172 0.38989763 0.06256172
0.38827794 0.38357258 0.06256172
0.50915426 0.36019963 0.06256172
0.61925388 0.06256172 0.06256172
0.73037376 0.06256172 0.06256172
0.06256172 0.48642863 0.06256172
0.06256172 0.48642298 0.06256172
0.06256172 0.48637955 0.06256172
0.06256172 0.48619443 0.06256172
0.06256172 0.48554614 0.06256172
0.06256172 0.48343858 0.06256172
0.48179656 0.47655211 0.06256172
0.61162724 0.45078487 0.06256172
0.72809151 0.06256172 0.06256172
0.06256172 0.58764006 0.06256172
0.06256172 0.58763815 0.06256172
0.06256172 0.58762347 0.06256172
0.06256172 0.58756098 0.06256172
0.06256172 0.58734277 0.06256172
0.06256172 0.58664055 0.06256172
0.06256172 0.58442152 0.06256172
0.58270461 0.57710113 0.06256172
0.72054828 0.54827042 0.06256172
0.06256172 0.69570134 0.06256172
0.06256172 0.69570073 0.06256172
0.06256172 0.69569605 0.06256172
0.06256172 0.69567615 0.06256172
0.06256172 0.69560671 0.06256172
0.06256172 0.69538400 0.06256172
0.06256172 0.69468765 0.06256172
0.06256172 0.69246920 0.06256172
0.69062322 0.68484623 0.06256172
0.06256172 0.06256172 0.15965233
0.10136264 0.06256172 0.15958547
0.17276257 0.06256172 0.15906902
0.24851511 0.06256172 0.15680700
0.33185061 0.06256172 0.14795460
0.42233452 0.06256172 0.08305914
0.51939454 0.06256172 0.06256172
0.62254686 0.06256172 0.06256172
0.73139923 0.06256172 0.06256172
0.06256172 0.10190218 0.15928069
0.08876657 0.09975285 0.15921332
0.17106423 0.06256172 0.15869289
0.24803149 0.06256172 0.15641283
0.33169217 0.06256172 0.14747784
0.42228018 0.06256172 0.07871077
0.51937587 0.06256172 0.06256172
0.62254063 0.06256172 0.06256172
0.73139727 0.06256172 0.06256172
0.06256172 0.15983793 0.15632823
0.06256172 0.15937905 0.15625663
0.15570320 0.15570320 0.15570320
0.24419963 0.13561948 0.15327259
0.33046499 0.06256172 0.14363815
0.42186179 0.06256172 0.06256172
0.51923237 0.06256172 0.06256172
0.62249276 0.06256172 0.06256172
0.73138219 0.06256172 0.06256172
0.06256172 0.22834601 0.14113569
0.06256172 0.22820783 0.14103578
0.06256172 0.22713685 0.14026075
0.22488171 0.22236817 0.13679441
0.32501964 0.20217998 0.12167582
0.42005817 0.06256172 0.06256172
0.51861901 0.06256172 0.06256172
0.62228872 0.06256172 0.06256172
0.73131796 0.06256172 0.06256172
0.06256172 0.30619645 0.06256172
0.06256172 0.30614999 0.06256172
0.06256172 0.30579232 0.06256172
0.06256172 0.30425092 0.06256172
0.30241866 0.29862195 0.06256172
0.41346456 0.27712273 0.06256172
0.51644843 0.06256172 0.06256172
0.62157392 0.06256172 0.06256172
0.73109370 0.06256172 0.06256172
0.06256172 0.39244596 0.06256172
0.06256172 0.39242974 0.06256172
0.06256172 0.39230508 0.06256172
0.06256172 0.39177238 0.06256172
0.06256172 0.38988903 0.06256172
0.38820144 0.38356332 0.06256172
0.50913441 0.36018741 0.06256172
0.61924774 0.06256172 0.06256172
0.73037187 0.06256172 0.06256172
0.06256172 0.48642572 0.06256172
0.06256172 0.48642007 0.06256172
0.06256172 0.48637664 0.06256172
0.06256172 0.48619152 0.06256172
0.06256172 0.48554320 0.06256172
0.06256172 0.48343558 0.06256172
0.48176985 0.47654886 0.06256172
0.61162059 0.45078056 0.06256172
0.72808958 0.06256172 0.06256172
0.06256172 0.58763908 0.06256172
0.06256172 0.58763716 0.06256172
0.06256172 0.58762249 0.06256172
0.06256172 0.58755999 0.06256172
0.06256172 0.58734178 0.06256172
0.06256172 0.58663955 0.06256172
0.06256172 0.58442050 0.06256172
0.58269556 0.57710003 0.06256172
0.72054618 0.54826892 0.06256172
0.06256172 0.69570103 0.06256172
0.06256172 0.69570042 0.06256172
0.06256172 0.69569574 0.06256172
0.06256172 0.69567583 0.06256172
0.06256172 0.69560640 0.06256172
0.06256172 0.69538369 0.06256172
0.06256172 0.69468733 0.06256172
0.06256172 0.69246888 0.06256172
0.69062034 0.68484587 0.06256172
0.06256172 0.06256172 0.22777417
0.06256172 0.06256172 0.22775387
0.16550682 0.06256172 0.22759780
0.24653392 0.06256172 0.22692920
0.33120660 0.06256172 0.22454278
0.42211411 0.06256172 0.21624007
0.51931886 0.06256172 0.17929697
0.62252161 0.06256172 0.06256172
0.73139127 0.06256172 0.06256172
0.06256172 0.09694456 0.22766161
0.06256172 0.09432238 0.22764128
0.16354592 0.06256172 0.22748494
0.24603607 0.06256172 0.22681518
0.33104688 0.06256172 0.22442446
0.42205963 0.06256172 0.21610522
0.51930017 0.06256172 0.17904325
0.62251537 0.06256172 0.06256172
0.73138931 0.06256172 0.06256172
0.06256172 0.15882671 0.22679080
0.06256172 0.15835818 0.22677019
0.14507081 0.15460054 0.22661174
0.24208706 0.13387366 0.22593284
0.32980971 0.06256172 0.22350858
0.42164019 0.06256172 0.21505994
0.51915655 0.06256172 0.17705438
0.62246749 0.06256172 0.06256172
0.73137423 0.06256172 0.06256172
0.06256172 0.22804283 0.22294661
0.06256172 0.22790400 0.22292474
0.06256172 0.22682796 0.22275653
0.22203547 0.22203547 0.22203547
0.32431793 0.20171832 0.21945597
0.41983199 0.06256172 0.21040263
0.51854269 0.06256172 0.16763976
0.62226340 0.06256172 0.06256172
0.73130999 0.06256172 0.06256172
0.06256172 0.30609461 0.20735863
0.06256172 0.30604809 0.20733056
0.06256172 0.30568995 0.20711456
0.06256172 0.30414648 0.20618637
0.30148038 0.29850955 0.20283421
0.41322073 0.27697290 0.19061045
0.51637031 0.06256172 0.09290683
0.62154840 0.06256172 0.06256172
0.73108572 0.06256172 0.06256172
0.06256172 0.39241042 0.06256172
0.06256172 0.39239419 0.06256172
0.06256172 0.39226948 0.06256172
0.06256172 0.39173655 0.06256172
0.06256172 0.38985240 0.06256172
0.38787501 0.38352389 0.06256172
0.50904987 0.36013539 0.06256172
0.61922159 0.06256172 0.06256172
0.73036383 0.06256172 0.06256172
0.06256172 0.48641333 0.06256172
0.06256172 0.48640768 0.06256172
0.06256172 0.48636424 0.06256172
0.06256172 0.48617909 0.06256172
0.06256172 0.48553069 0.06256172
0.06256172 0.48342277 0.06256172
0.48165603 0.47653506 0.06256172
0.61159224 0.45076222 0.06256172
0.72808133 0.06256172 0.06256172
0.06256172 0.58763489 0.06256172
0.06256172 0.58763298 0.06256172
0.06256172 0.58761830 0.06256172
0.06256172 0.58755580 0.06256172
0.06256172 0.58733758 0.06256172
0.06256172 0.58663532 0.06256172
0.06256172 0.58441617 0.06256172
0.58265705 0.57709534 0.06256172
0.72053724 0.54826256 0.06256172
0.06256172 0.69569969 0.06256172
0.06256172 0.69569908 0.06256172
0.06256172 0.69569441 0.06256172
0.06256172 0.69567450 0.06256172
0.06256172 0.69560506 0.06256172
0.06256172 0.69538235 0.06256172
0.06256172 0.69468598 0.06256172
0.06256172 0.69246749 0.06256172
0.69060805 0.68484438 0.06256172
0.06256172 0.06256172 0.30539863
0.06256172 0.06256172 0.30539179
0.12482061 0.06256172 0.30533926
0.23913830 0.06256172 0.30511523
0.32892011 0.06256172 0.30432906
0.42134135 0.06256172 0.30175598
0.51905451 0.06256172 0.29314683
0.62243350 0.06256172 0.25699479
0.73136352 0.06256172 0.06256172
0.06256172 0.06256172 0.30536073
0.06256172 0.06256172 0.30535389
0.11963454 0.06256172 0.30530133
0.23858279 0.06256172 0.30507718
0.32875576 0.06256172 0.30429063
0.42128639 0.06256172 0.30171624
0.51903577 0.06256172 0.29310233
0.62242726 0.06256172 0.25692174
0.73136156 0.06256172 0.06256172
0.06256172 0.15512671 0.30506906
0.06256172 0.15462056 0.30506219
0.06256172 0.15054157 0.30500943
0.23415592 0.12711648 0.30478444
0.32748240 0.06256172 0.30399487
0.42086325 0.06256172 0.30141040
0.51889174 0.06256172 0.29275978
0.62237934 0.06256172 0.25635829
0.73134647 0.06256172 0.06256172
0.06256172 0.22697465 0.30381493
0.06256172 0.22683352 0.30380795
0.06256172 0.22573941 0.30375432
0.21097480 0.22086186 0.30352563
0.32182199 0.20008030 0.30272299
0.41903887 0.06256172 0.30009461
0.51827612 0.06256172 0.29128393
0.62217505 0.06256172 0.25390759
0.73128222 0.06256172 0.06256172
0.06256172 0.30573852 0.29927546
0.06256172 0.30569179 0.29926806
0.06256172 0.30533199 0.29921116
0.06256172 0.30378127 0.29896850
0.29811641 0.29811641 0.29811641
0.41236534 0.27644815 0.29532166
0.51609742 0.06256172 0.28589963
0.62145939 0.06256172 0.24461506
0.73105787 0.06256172 0.06256172
0.06256172 0.39228637 0.28258722
0.06256172 0.39227012 0.28257797
0.06256172 0.39214522 0.28250696
0.06256172 0.39161153 0.28220387
0.06256172 0.38972461 0.28113742
0.38672718 0.38338628 0.27761459
0.50875453 0.35995377 0.26542017
0.61913035 0.06256172 0.20095687
0.73033577 0.06256172 0.06256172
0.06256172 0.48637012 0.14950904
0.06256172 0.48636446 0.14942624
0.06256172 0.48632100 0.14878541
0.06256172 0.48613577 0.14595169
0.06256172 0.48548706 0.13433786
0.06256172 0.48337813 0.06256172
0.48125813 0.47648692 0.06256172
0.61149333 0.45069825 0.06256172
0.72805258 0.06256172 0.06256172
0.06256172 0.58762029 0.06256172
0.06256172 0.58761838 0.06256172
0.06256172 0.58760370 0.06256172
0.06256172 0.58754119 0.06256172
0.06256172 0.58732293 0.06256172
0.06256172 0.58662057 0.06256172
0.06256172 0.58440106 0.06256172
0.58252267 0.57707902 0.06256172
0.72050608 0.54824037 0.06256172
0.06256172 0.69569504 0.06256172
0.06256172 0.69569443 0.06256172
0.06256172 0.69568975 0.06256172
0.06256172 0.69566985 0.06256172
0.06256172 0.69560041 0.06256172
0.06256172 0.69537768 0.06256172
0.06256172 0.69468128 0.06256172
0.06256172 0.69246268 0.06256172
0.69056520 0.68483916 0.06256172
0.06256172 0.06256172 0.39149003
0.06256172 0.06256172 0.39148764
0.06256172 0.06256172 0.39146929
0.20756132 0.06256172 0.39139111
0.32112320 0.06256172 0.39111799
0.41882001 0.06256172 0.39023745
0.51820285 0.06256172 0.38743841
0.62215080 0.06256172 0.37801185
0.73127460 0.06256172 0.33684744
0.06256172 0.06256172 0.39147679
0.06256172 0.06256172 0.39147440
0.06256172 0.06256172 0.39145604
0.20664884 0.06256172 0.39137785
0.32094192 0.06256172 0.39110469
0.41876345 0.06256172 0.39022401
0.51818393 0.06256172 0.38742453
0.62214454 0.06256172 0.37799634
0.73127263 0.06256172 0.33682197
0.06256172 0.14080227 0.39137501
0.06256172 0.14010655 0.39137262
0.06256172 0.13434593 0.39135424
0.19913975 0.08555297 0.39127596
0.31953590 0.06256172 0.39100247
0.41832799 0.06256172 0.39012074
0.51803858 0.06256172 0.38731783
0.62209647 0.06256172 0.37787717
0.73125753 0.06256172 0.33662614
0.06256172 0.22343010 0.39094041
0.06256172 0.22328099 0.39093801
0.06256172 0.22212425 0.39091953
0.14597081 0.21695035 0.39084085
0.31325276 0.19450564 0.39056598
0.41644975 0.06256172 0.38967974
0.51741726 0.06256172 0.38686214
0.62189157 0.06256172 0.37736798
0.73119322 0.06256172 0.33578713
0.06256172 0.30458698 0.38940786
0.06256172 0.30453954 0.38940542
0.06256172 0.30417431 0.38938661
0.06256172 0.30259988 0.38930651
0.28621494 0.29684355 0.38902668
0.40956831 0.27474186 0.38812432
0.51521807 0.06256172 0.38525425
0.62117375 0.06256172 0.37556852
0.73096866 0.06256172 0.33279200
0.06256172 0.39188790 0.38430709
0.06256172 0.39187157 0.38430449
0.06256172 0.39174610 0.38428453
0.06256172 0.39120992 0.38419951
0.06256172 0.38931406 0.38390245
0.38294411 0.38294411 0.38294411
0.50780231 0.35936944 0.37989138
0.61883759 0.06256172 0.36953378
0.73024586 0.06256172 0.32237016
0.06256172 0.48623159 0.36614251
0.06256172 0.48622593 0.36613929
0.06256172 0.48618240 0.36611455
0.06256172 0.48599689 0.36600917
0.06256172 0.48534719 0.36564073
0.06256172 0.48323500 0.36444980
0.47997208 0.47633258 0.36063180
0.61117590 0.45049307 0.34737077
0.72796045 0.06256172 0.27645341
0.06256172 0.58757351 0.23900071
0.06256172 0.58757160 0.23898359
0.06256172 0.58755692 0.23885195
0.06256172 0.58749437 0.23828865
0.06256172 0.58727601 0.23628689
0.06256172 0.58657329 0.22943664
0.06256172 0.58435267 0.20171814
0.58209103 0.57702671 0.06256172
0.72040621 0.54816927 0.06256172
0.06256172 0.69568014 0.06256172
0.06256172 0.69567953 0.06256172
0.06256172 0.69567485 0.06256172
0.06256172 0.69565494 0.06256172
0.06256172 0.69558549 0.06256172
0.06256172 0.69536273 0.06256172
0.06256172 0.69466622 0.06256172
0.06256172 0.69244726 0.06256172
0.69042783 0.68482244 0.06256172
0.06256172 0.06256172 0.48535758
0.06256172 0.06256172 0.48535675
0.06256172 0.06256172 0.48535035
0.06256172 0.06256172 0.48532309
0.29025116 0.06256172 0.48522800
0.41047764 0.06256172 0.48492281
0.51550179 0.06256172 0.48396663
0.62126571 0.06256172 0.48090073
0.73099736 0.06256172 0.47011783
0.06256172 0.06256172 0.48535296
0.06256172 0.06256172 0.48535213
0.06256172 0.06256172 0.48534573
0.06256172 0.06256172 0.48531847
0.28998061 0.06256172 0.48522337
0.41041545 0.06256172 0.48491816
0.51548232 0.06256172 0.48396194
0.62125939 0.06256172 0.48089588
0.73099539 0.06256172 0.47011237
0.06256172 0.06256172 0.48531748
0.06256172 0.06256172 0.48531665
0.06256172 0.06256172 0.48531024
0.06256172 0.06256172 0.48528297
0.28786998 0.06256172 0.48518784
0.40993640 0.06256172 0.48488251
0.51533267 0.06256172 0.48392592
0.62121087 0.06256172 0.48085863
0.73098024 0.06256172 0.47007044
0.06256172 0.21093726 0.48516628
0.06256172 0.21075532 0.48516545
0.06256172 0.20934009 0.48515903
0.06256172 0.20291816 0.48513172
0.27814948 0.17251910 0.48503643
0.40786722 0.06256172 0.48473059
0.51469291 0.06256172 0.48377240
0.62100404 0.06256172 0.48069988
0.73091574 0.06256172 0.46989175
0.06256172 0.30088964 0.48463720
0.06256172 0.30083987 0.48463636
0.06256172 0.30045659 0.48462991
0.06256172 0.29880314 0.48460244
0.22747761 0.29274086 0.48450659
0.40024324 0.26916146 0.48419898
0.51242739 0.06256172 0.48323519
0.62027943 0.06256172 0.48014427
0.73069051 0.06256172 0.46926602
0.06256172 0.39063610 0.48292197
0.06256172 0.39061954 0.48292112
0.06256172 0.39049223 0.48291454
0.06256172 0.38994814 0.48288655
0.06256172 0.38802391 0.48278890
0.36996593 0.38155341 0.48247545
0.50477518 0.35752460 0.48149325
0.61792079 0.06256172 0.47834188
0.72996555 0.06256172 0.46723264
0.06256172 0.48579922 0.47736960
0.06256172 0.48579353 0.47736869
0.06256172 0.48574980 0.47736171
0.06256172 0.48556340 0.47733196
0.06256172 0.48491062 0.47722819
0.06256172 0.48278822 0.47689506
0.47585068 0.47585068 0.47585068
0.61018134 0.44985165 0.47249471
0.72767320 0.06256172 0.46059770
0.06256172 0.58742783 0.45736725
0.06256172 0.58742591 0.45736612
0.06256172 0.58741120 0.45735741
0.06256172 0.58734857 0.45732034
0.06256172 0.58712987 0.45719098
0.06256172 0.58642605 0.45677545
0.06256172 0.58420192 0.45547016
0.58073517 0.57686377 0.45124850
0.72009479 0.54794770 0.43591018
0.06256172 0.69563377 0.29956686
0.06256172 0.69563316 0.29955949
0.06256172 0.69562848 0.29950281
0.06256172 0.69560856 0.29926107
0.06256172 0.69553907 0.29841225
0.06256172 0.69531620 0.29562855
0.06256172 0.69461934 0.28624734
0.06256172 0.69239927 0.24523347
0.68999914 0.68477040 0.06256172
0.06256172 0.06256172 0.58649885
0.06256172 0.06256172 0.58649857
0.06256172 0.06256172 0.58649640
0.06256172 0.06256172 0.58648719
0.06256172 0.06256172 0.58645506
0.37746209 0.06256172 0.58635208
0.50647913 0.06256172 0.58603095
0.61843425 0.06256172 0.58501643
0.73012231 0.06256172 0.58162899
0.06256172 0.06256172 0.58649729
0.06256172 0.06256172 0.58649700
0.06256172 0.06256172 0.58649484
0.06256172 0.06256172 0.58648563
0.06256172 0.06256172 0.58645349
0.37737086 0.06256172 0.58635052
0.50645767 0.06256172 0.58602938
0.61842774 0.06256172 0.58501485
0.73012032 0.06256172 0.58162735
0.06256172 0.06256172 0.58648529
0.06256172 0.06256172 0.58648501
0.06256172 0.06256172 0.58648284
0.06256172 0.06256172 0.58647363
0.06256172 0.06256172 0.58644149
0.37666702 0.06256172 0.58633850
0.50629270 0.06256172 0.58601733
0.61837775 0.06256172 0.58500266
0.73010503 0.06256172 0.58161472
0.06256172 0.12644470 0.58643421
0.06256172 0.12544942 0.58643393
0.06256172 0.11675166 0.58643177
0.06256172 0.06256172 0.58642254
0.06256172 0.06256172 0.58639039
0.37360360 0.06256172 0.58628735
0.50558711 0.06256172 0.58596599
0.61816462 0.06256172 0.58495078
0.73003992 0.06256172 0.58156093
0.06256172 0.28797030 0.58625592
0.06256172 0.28791127 0.58625564
0.06256172 0.28745644 0.58625347
0.06256172 0.28548866 0.58624423
0.06256172 0.27818981 0.58621202
0.36195856 0.24813954 0.58610878
0.50308428 0.06256172 0.58578682
0.61741784 0.06256172 0.58476966
0.72981257 0.06256172 0.58137318
0.06256172 0.38658659 0.58568268
0.06256172 0.38656922 0.58568239
0.06256172 0.38643575 0.58568021
0.06256172 0.38586523 0.58567092
0.06256172 0.38384595 0.58563850
0.30699478 0.37703736 0.58553463
0.49457928 0.35145579 0.58521071
0.61498582 0.06256172 0.58418728
0.72908075 0.06256172 0.58076938
0.06256172 0.48442951 0.58387639
0.06256172 0.48442373 0.58387610
0.06256172 0.48437934 0.58387388
0.06256172 0.48419014 0.58386440
0.06256172 0.48352746 0.58383136
0.06256172 0.48137239 0.58372548
0.46156103 0.47432224 0.58339527
0.60699178 0.44780934 0.58235184
0.72676634 0.06256172 0.57886550
0.06256172 0.58696936 0.57797469
0.06256172 0.58696743 0.57797438
0.06256172 0.58695265 0.57797201
0.06256172 0.58688971 0.57796192
0.06256172 0.58666994 0.57792675
0.06256172 0.58596268 0.57781402
0.06256172 0.58372746 0.57746240
0.57635080 0.57635080 0.57635080
0.71911110 0.54724922 0.57263063
0.06256172 0.69548814 0.55565920
0.06256172 0.69548753 0.55565881
0.06256172 0.69548285 0.55565581
0.06256172 0.69546290 0.55564302
0.06256172 0.69539330 0.55559843
0.06256172 0.69517009 0.55545547
0.06256172 0.69447214 0.55500927
0.06256172 0.69224855 0.55359563
0.68864154 0.68460696 0.54883022
0.06256172 0.06256172 0.69452760
0.06256172 0.06256172 0.69452751
0.06256172 0.06256172 0.69452682
0.06256172 0.06256172 0.69452389
0.06256172 0.06256172 0.69451365
0.06256172 0.06256172 0.69448085
0.46880763 0.06256172 0.69437871
0.60856009 0.06256172 0.69405760
0.72720952 0.06256172 0.69300241
0.06256172 0.06256172 0.69452711
0.06256172 0.06256172 0.69452702
0.06256172 0.06256172 0.69452633
0.06256172 0.06256172 0.69452339
0.06256172 0.06256172 0.69451315
0.06256172 0.06256172 0.69448035
0.46877527 0.06256172 0.69437821
0.60855286 0.06256172 0.69405710
0.72720746 0.06256172 0.69300190
0.06256172 0.06256172 0.69452328
0.06256172 0.06256172 0.69452319
0.06256172 0.06256172 0.69452250
0.06256172 0.06256172 0.69451957
0.06256172 0.06256172 0.69450933
0.06256172 0.06256172 0.69447652
0.46852640 0.06256172 0.69437438
0.60849737 0.06256172 0.69405325
0.72719169 0.06256172 0.69299802
0.06256172 0.06256172 0.69450701
0.06256172 0.06256172 0.69450692
0.06256172 0.06256172 0.69450623
0.06256172 0.06256172 0.69450329
0.06256172 0.06256172 0.69449305
0.06256172 0.06256172 0.69446024
0.46745930 0.06256172 0.69435808
0.60826074 0.06256172 0.69403690
0.72712452 0.06256172 0.69298147
0.06256172 0.21425883 0.69445024
0.06256172 0.21408641 0.69445015
0.06256172 0.21274626 0.69444946
0.06256172 0.20669112 0.69444652
0.06256172 0.17881482 0.69443627
0.06256172 0.06256172 0.69440344
0.46363788 0.06256172 0.69430122
0.60743114 0.06256172 0.69397984
0.72688997 0.06256172 0.69292378
0.06256172 0.37185722 0.69426821
0.06256172 0.37183656 0.69426812
0.06256172 0.37167781 0.69426743
0.06256172 0.37099864 0.69426448
0.06256172 0.36858714 0.69425421
0.06256172 0.36036201 0.69422132
0.45018608 0.32779349 0.69411890
0.60472428 0.06256172 0.69379690
0.72613483 0.06256172 0.69273877
0.06256172 0.47981340 0.69369956
0.06256172 0.47980732 0.69369947
0.06256172 0.47976064 0.69369877
0.06256172 0.47956163 0.69369581
0.06256172 0.47886445 0.69368548
0.06256172 0.47659524 0.69365239
0.38713482 0.46915026 0.69354935
0.59576878 0.44080432 0.69322539
0.72374546 0.06256172 0.69216078
0.06256172 0.58545809 0.69189313
0.06256172 0.58545613 0.69189304
0.06256172 0.58544111 0.69189233
0.06256172 0.58537715 0.69188931
0.06256172 0.58515383 0.69187878
0.06256172 0.58443507 0.69184505
0.06256172 0.58216291 0.69174001
0.56043833 0.57465773 0.69140976
0.71582849 0.54493379 0.69032431
0.06256172 0.69501154 0.68574732
0.06256172 0.69501092 0.68574723
0.06256172 0.69500621 0.68574647
0.06256172 0.69498616 0.68574324
0.06256172 0.69491621 0.68573200
0.06256172 0.69469186 0.68569600
0.06256172 0.69399035 0.68558387
0.06256172 0.69175522 0.68523129
0.68407185 0.68407185 0.68407185
