src/ffmpeg_scripts/luts/rec2020-sRGB_-1p00.cube
TITLE "rec2020-srgb_-1p00"
LUT_3D_SIZE 9
# PQ (EOTF Only)/Rec2020 -> PQ (EOTF Only)/Rec709, CineEI Shift -1.00, Black Level 0.00% IRE, Input 100% -> Output 109% - Created with LUTCalc v4.01 by Ben Turley October 2020
0.06256172 0.06256172 0.06256172
0.16263176 0.06256172 0.06256172
0.26549752 0.06256172 0.06256172
0.36972777 0.06256172 0.06256172
0.47492015 0.06256172 0.06256172
0.58086726 0.06256172 0.06256172
0.68744020 0.06256172 0.06256172
0.79455028 0.06256172 0.06256172
0.90213241 0.06256172 0.06256172
0.06256172 0.14936436 0.06256172
0.14758695 0.14559684 0.06256172
0.26305381 0.08535588 0.06256172
0.36909091 0.06256172 0.06256172
0.47472785 0.06256172 0.06256172
0.58080573 0.06256172 0.06256172
0.68742028 0.06256172 0.06256172
0.79454397 0.06256172 0.06256172
0.90213052 0.06256172 0.06256172
0.06256172 0.24373789 0.06256172
0.06256172 0.24303880 0.06256172
0.24076338 0.23741506 0.06256172
0.36403275 0.20588676 0.06256172
0.47323753 0.06256172 0.06256172
0.58033191 0.06256172 0.06256172
0.68726722 0.06256172 0.06256172
0.79449552 0.06256172 0.06256172
0.90211595 0.06256172 0.06256172
0.06256172 0.34203249 0.06256172
0.06256172 0.34184443 0.06256172
0.06256172 0.34038571 0.06256172
0.33819707 0.33386464 0.06256172
0.46660536 0.30576121 0.06256172
0.57828778 0.06256172 0.06256172
0.68661281 0.06256172 0.06256172
0.79428897 0.06256172 0.06256172
0.90205390 0.06256172 0.06256172
0.06256172 0.44317052 0.06256172
0.06256172 0.44311266 0.06256172
0.06256172 0.44266712 0.06256172
0.06256172 0.44074524 0.06256172
0.43873054 0.43370202 0.06256172
0.57079325 0.40642643 0.06256172
0.68429520 0.06256172 0.06256172
0.79356524 0.06256172 0.06256172
0.90183724 0.06256172 0.06256172
0.06256172 0.54658429 0.06256172
0.06256172 0.54656551 0.06256172
0.06256172 0.54642120 0.06256172
0.06256172 0.54580439 0.06256172
0.06256172 0.54362169 0.06256172
0.54175215 0.53626784 0.06256172
0.67646489 0.50877715 0.06256172
0.79120833 0.06256172 0.06256172
0.90113975 0.06256172 0.06256172
0.06256172 0.65191532 0.06256172
0.06256172 0.65190917 0.06256172
0.06256172 0.65186195 0.06256172
0.06256172 0.65166064 0.06256172
0.06256172 0.65095546 0.06256172
0.06256172 0.64866107 0.06256172
0.64687483 0.64114375 0.06256172
0.78346236 0.61273020 0.06256172
0.89893306 0.06256172 0.06256172
0.06256172 0.75891387 0.06256172
0.06256172 0.75891191 0.06256172
0.06256172 0.75889680 0.06256172
0.06256172 0.75883247 0.06256172
0.06256172 0.75860783 0.06256172
0.06256172 0.75788477 0.06256172
0.06256172 0.75559823 0.06256172
0.75382842 0.74803717 0.06256172
0.89162526 0.71798327 0.06256172
0.06256172 0.86739463 0.06256172
0.06256172 0.86739404 0.06256172
0.06256172 0.86738945 0.06256172
0.06256172 0.86736994 0.06256172
0.06256172 0.86730188 0.06256172
0.06256172 0.86708356 0.06256172
0.06256172 0.86640081 0.06256172
0.06256172 0.86422439 0.06256172
0.86241216 0.85673034 0.06256172
0.06256172 0.06256172 0.14895113
0.16100223 0.06256172 0.14841631
0.26519907 0.06256172 0.14408418
0.36964908 0.06256172 0.11796521
0.47489634 0.06256172 0.06256172
0.58085964 0.06256172 0.06256172
0.68743773 0.06256172 0.06256172
0.79454950 0.06256172 0.06256172
0.90213218 0.06256172 0.06256172
0.06256172 0.14912133 0.14590499
0.14533266 0.14533266 0.14533266
0.26274494 0.08348205 0.14067217
0.36901162 0.06256172 0.11093048
0.47470398 0.06256172 0.06256172
0.58079810 0.06256172 0.06256172
0.68741782 0.06256172 0.06256172
0.79454319 0.06256172 0.06256172
0.90213028 0.06256172 0.06256172
0.06256172 0.24369125 0.10921012
0.06256172 0.24299168 0.10767864
0.24033695 0.23736383 0.09193574
0.36394853 0.20580271 0.06256172
0.47321327 0.06256172 0.06256172
0.58032424 0.06256172 0.06256172
0.68726474 0.06256172 0.06256172
0.79449474 0.06256172 0.06256172
0.90211571 0.06256172 0.06256172
0.06256172 0.34201989 0.06256172
0.06256172 0.34183180 0.06256172
0.06256172 0.34037286 0.06256172
0.33808181 0.33385071 0.06256172
0.46657927 0.30574133 0.06256172
0.57827994 0.06256172 0.06256172
0.68661032 0.06256172 0.06256172
0.79428819 0.06256172 0.06256172
0.90205366 0.06256172 0.06256172
0.06256172 0.44316664 0.06256172
0.06256172 0.44310878 0.06256172
0.06256172 0.44266322 0.06256172
0.06256172 0.44074126 0.06256172
0.43869498 0.43369771 0.06256172
0.57078476 0.40642055 0.06256172
0.68429265 0.06256172 0.06256172
0.79356445 0.06256172 0.06256172
0.90183701 0.06256172 0.06256172
0.06256172 0.54658303 0.06256172
0.06256172 0.54656425 0.06256172
0.06256172 0.54641994 0.06256172
0.06256172 0.54580312 0.06256172
0.06256172 0.54362039 0.06256172
0.54174059 0.53626643 0.06256172
0.67646212 0.50877526 0.06256172
0.79120752 0.06256172 0.06256172
0.90113951 0.06256172 0.06256172
0.06256172 0.65191491 0.06256172
0.06256172 0.65190876 0.06256172
0.06256172 0.65186153 0.06256172
0.06256172 0.65166023 0.06256172
0.06256172 0.65095504 0.06256172
0.06256172 0.64866064 0.06256172
0.64687104 0.64114329 0.06256172
0.78346147 0.61272958 0.06256172
0.89893282 0.06256172 0.06256172
0.06256172 0.75891374 0.06256172
0.06256172 0.75891177 0.06256172
0.06256172 0.75889667 0.06256172
0.06256172 0.75883233 0.06256172
0.06256172 0.75860770 0.06256172
0.06256172 0.75788464 0.06256172
0.06256172 0.75559809 0.06256172
0.75382720 0.74803703 0.06256172
0.89162500 0.71798306 0.06256172
0.06256172 0.86739459 0.06256172
0.06256172 0.86739400 0.06256172
0.06256172 0.86738941 0.06256172
0.06256172 0.86736990 0.06256172
0.06256172 0.86730184 0.06256172
0.06256172 0.86708352 0.06256172
0.06256172 0.86640077 0.06256172
0.06256172 0.86422435 0.06256172
0.86241180 0.85673029 0.06256172
0.06256172 0.06256172 0.24304767
0.14622033 0.06256172 0.24294520
0.26286488 0.06256172 0.24215317
0.36904237 0.06256172 0.23867351
0.47471324 0.06256172 0.22488154
0.58080106 0.06256172 0.11080598
0.68741877 0.06256172 0.06256172
0.79454350 0.06256172 0.06256172
0.90213037 0.06256172 0.06256172
0.06256172 0.14721075 0.24247790
0.12228450 0.14325003 0.24237456
0.26032742 0.06256172 0.24157578
0.36840028 0.06256172 0.23806535
0.47452049 0.06256172 0.22413050
0.58073949 0.06256172 0.10170497
0.68739885 0.06256172 0.06256172
0.79453719 0.06256172 0.06256172
0.90212848 0.06256172 0.06256172
0.06256172 0.24333204 0.23793476
0.06256172 0.24262874 0.23782421
0.23696914 0.23696914 0.23696914
0.36329900 0.20515340 0.23320098
0.47302676 0.06256172 0.21804943
0.58026533 0.06256172 0.06256172
0.68724575 0.06256172 0.06256172
0.79448873 0.06256172 0.06256172
0.90211391 0.06256172 0.06256172
0.06256172 0.34192313 0.21405419
0.06256172 0.34173482 0.21389413
0.06256172 0.34027411 0.21265118
0.33719125 0.33374367 0.20706042
0.46637863 0.30558848 0.18201179
0.57821974 0.06256172 0.06256172
0.68659119 0.06256172 0.06256172
0.79428217 0.06256172 0.06256172
0.90205186 0.06256172 0.06256172
0.06256172 0.44313686 0.06256172
0.06256172 0.44307898 0.06256172
0.06256172 0.44263327 0.06256172
0.06256172 0.44071066 0.06256172
0.43842145 0.43366460 0.06256172
0.57071957 0.40637542 0.06256172
0.68427304 0.06256172 0.06256172
0.79355838 0.06256172 0.06256172
0.90183519 0.06256172 0.06256172
0.06256172 0.54657336 0.06256172
0.06256172 0.54655458 0.06256172
0.06256172 0.54641026 0.06256172
0.06256172 0.54579338 0.06256172
0.06256172 0.54361041 0.06256172
0.54165174 0.53625564 0.06256172
0.67644082 0.50876076 0.06256172
0.79120129 0.06256172 0.06256172
0.90113768 0.06256172 0.06256172
0.06256172 0.65191175 0.06256172
0.06256172 0.65190560 0.06256172
0.06256172 0.65185837 0.06256172
0.06256172 0.65165705 0.06256172
0.06256172 0.65095184 0.06256172
0.06256172 0.64865737 0.06256172
0.64684191 0.64113974 0.06256172
0.78345470 0.61272479 0.06256172
0.89893095 0.06256172 0.06256172
0.06256172 0.75891273 0.06256172
0.06256172 0.75891076 0.06256172
0.06256172 0.75889565 0.06256172
0.06256172 0.75883132 0.06256172
0.06256172 0.75860668 0.06256172
0.06256172 0.75788361 0.06256172
0.06256172 0.75559704 0.06256172
0.75381787 0.74803589 0.06256172
0.89162296 0.71798149 0.06256172
0.06256172 0.86739429 0.06256172
0.06256172 0.86739369 0.06256172
0.06256172 0.86738911 0.06256172
0.06256172 0.86736959 0.06256172
0.06256172 0.86730153 0.06256172
0.06256172 0.86708322 0.06256172
0.06256172 0.86640046 0.06256172
0.06256172 0.86422403 0.06256172
0.86240896 0.85672994 0.06256172
0.06256172 0.06256172 0.34114360
0.06256172 0.06256172 0.34111592
0.25196361 0.06256172 0.34090307
0.36640950 0.06256172 0.33999065
0.47392965 0.06256172 0.33672708
0.58055129 0.06256172 0.32528644
0.68733802 0.06256172 0.27255051
0.79451793 0.06256172 0.06256172
0.90212268 0.06256172 0.06256172
0.06256172 0.13801109 0.34099010
0.06256172 0.13304913 0.34096237
0.24898963 0.06256172 0.34074911
0.36574687 0.06256172 0.33983496
0.47373525 0.06256172 0.33656499
0.58048955 0.06256172 0.32509948
0.68731808 0.06256172 0.27217667
0.79451162 0.06256172 0.06256172
0.90212079 0.06256172 0.06256172
0.06256172 0.24178126 0.33980167
0.06256172 0.24106157 0.33977353
0.22032523 0.23526228 0.33955712
0.36047601 0.20230821 0.33862938
0.47222848 0.06256172 0.33530936
0.58001414 0.06256172 0.32364910
0.68716485 0.06256172 0.26923998
0.79446315 0.06256172 0.06256172
0.90210622 0.06256172 0.06256172
0.06256172 0.34150991 0.33453814
0.06256172 0.34132064 0.33450811
0.06256172 0.33985241 0.33427714
0.33328643 0.33328643 0.33328643
0.46551953 0.30493440 0.32973391
0.57796303 0.06256172 0.31715945
0.68650973 0.06256172 0.25518482
0.79425653 0.06256172 0.06256172
0.90204416 0.06256172 0.06256172
0.06256172 0.44300998 0.31289309
0.06256172 0.44295201 0.31285365
0.06256172 0.44250567 0.31255014
0.06256172 0.44058028 0.31124476
0.43724756 0.43352350 0.30651458
0.57044155 0.40618304 0.28904700
0.68418955 0.06256172 0.13034030
0.79353254 0.06256172 0.06256172
0.90182748 0.06256172 0.06256172
0.06256172 0.54653221 0.06256172
0.06256172 0.54651342 0.06256172
0.06256172 0.54636903 0.06256172
0.06256172 0.54575188 0.06256172
0.06256172 0.54356794 0.06256172
0.54127259 0.53620969 0.06256172
0.67635009 0.50869899 0.06256172
0.79117477 0.06256172 0.06256172
0.90112991 0.06256172 0.06256172
0.06256172 0.65189827 0.06256172
0.06256172 0.65189212 0.06256172
0.06256172 0.65184489 0.06256172
0.06256172 0.65164354 0.06256172
0.06256172 0.65093823 0.06256172
0.06256172 0.64864342 0.06256172
0.64671779 0.64112464 0.06256172
0.78342585 0.61270440 0.06256172
0.89892297 0.06256172 0.06256172
0.06256172 0.75890842 0.06256172
0.06256172 0.75890645 0.06256172
0.06256172 0.75889134 0.06256172
0.06256172 0.75882701 0.06256172
0.06256172 0.75860236 0.06256172
0.06256172 0.75787925 0.06256172
0.06256172 0.75559257 0.06256172
0.75377813 0.74803104 0.06256172
0.89161429 0.71797481 0.06256172
0.06256172 0.86739298 0.06256172
0.06256172 0.86739238 0.06256172
0.06256172 0.86738780 0.06256172
0.06256172 0.86736828 0.06256172
0.06256172 0.86730022 0.06256172
0.06256172 0.86708190 0.06256172
0.06256172 0.86639914 0.06256172
0.06256172 0.86422267 0.06256172
0.86239689 0.85672847 0.06256172
0.06256172 0.06256172 0.44214249
0.06256172 0.06256172 0.44213396
0.18731847 0.06256172 0.44206846
0.35652284 0.06256172 0.44178907
0.47114397 0.06256172 0.44080819
0.57967532 0.06256172 0.43759248
0.68705596 0.06256172 0.42677278
0.79442874 0.06256172 0.38023925
0.90209588 0.06256172 0.06256172
0.06256172 0.06256172 0.44209523
0.06256172 0.06256172 0.44208670
0.17853750 0.06256172 0.44202116
0.35577642 0.06256172 0.44174163
0.47094352 0.06256172 0.44076022
0.57961301 0.06256172 0.43754275
0.68703597 0.06256172 0.42671661
0.79442242 0.06256172 0.38014329
0.90209398 0.06256172 0.06256172
0.06256172 0.23607731 0.44173149
0.06256172 0.23529331 0.44172292
0.06256172 0.22894170 0.44165712
0.34980880 0.19115898 0.44137644
0.46938944 0.06256172 0.44039100
0.57913314 0.06256172 0.43715996
0.68688227 0.06256172 0.42628413
0.79437391 0.06256172 0.37940277
0.90207940 0.06256172 0.06256172
0.06256172 0.34005270 0.44016631
0.06256172 0.33986000 0.44015759
0.06256172 0.33836490 0.44009062
0.31795917 0.33167174 0.43980498
0.46245925 0.30260973 0.43880196
0.57706255 0.06256172 0.43551181
0.68622518 0.06256172 0.42441906
0.79416709 0.06256172 0.37617613
0.90201733 0.06256172 0.06256172
0.06256172 0.44256621 0.43448466
0.06256172 0.44250796 0.43447537
0.06256172 0.44205939 0.43440400
0.06256172 0.44012427 0.43409953
0.43302985 0.43302985 0.43302985
0.56946582 0.40550903 0.42951495
0.68389790 0.06256172 0.41759050
0.79344239 0.06256172 0.36385323
0.90180058 0.06256172 0.06256172
0.06256172 0.54638859 0.41337031
0.06256172 0.54636977 0.41335851
0.06256172 0.54622516 0.41326787
0.06256172 0.54560706 0.41288094
0.06256172 0.54341969 0.41151849
0.53993861 0.53604930 0.40700674
0.67603313 0.50848334 0.39125287
0.79108227 0.06256172 0.30385452
0.90110279 0.06256172 0.06256172
0.06256172 0.65185128 0.22732420
0.06256172 0.65184513 0.22719432
0.06256172 0.65179787 0.22618822
0.06256172 0.65159642 0.22172045
0.06256172 0.65089076 0.20306609
0.06256172 0.64859479 0.06256172
0.64628382 0.64107198 0.06256172
0.78332522 0.61263327 0.06256172
0.89889516 0.06256172 0.06256172
0.06256172 0.75889339 0.06256172
0.06256172 0.75889142 0.06256172
0.06256172 0.75887631 0.06256172
0.06256172 0.75881196 0.06256172
0.06256172 0.75858728 0.06256172
0.06256172 0.75786406 0.06256172
0.06256172 0.75557700 0.06256172
0.75363946 0.74801415 0.06256172
0.89158405 0.71795150 0.06256172
0.06256172 0.86738842 0.06256172
0.06256172 0.86738782 0.06256172
0.06256172 0.86738324 0.06256172
0.06256172 0.86736372 0.06256172
0.06256172 0.86729566 0.06256172
0.06256172 0.86707733 0.06256172
0.06256172 0.86639453 0.06256172
0.06256172 0.86421795 0.06256172
0.86235480 0.85672333 0.06256172
0.06256172 0.06256172 0.54546631
0.06256172 0.06256172 0.54546354
0.06256172 0.06256172 0.54544227
0.31317778 0.06256172 0.54535170
0.46160121 0.06256172 0.54503523
0.57681397 0.06256172 0.54401450
0.68614696 0.06256172 0.54076532
0.79414253 0.06256172 0.52977167
0.90200997 0.06256172 0.48077772
0.06256172 0.06256172 0.54545096
0.06256172 0.06256172 0.54544819
0.06256172 0.06256172 0.54542693
0.31189541 0.06256172 0.54533633
0.46137852 0.06256172 0.54501982
0.57674974 0.06256172 0.54399892
0.68612677 0.06256172 0.54074918
0.79413619 0.06256172 0.52975352
0.90200807 0.06256172 0.48074688
0.06256172 0.21351991 0.54533305
0.06256172 0.21240357 0.54533028
0.06256172 0.20307925 0.54530898
0.30127214 0.11588002 0.54521828
0.45965008 0.06256172 0.54490136
0.57625502 0.06256172 0.54387916
0.68597158 0.06256172 0.54062519
0.79408752 0.06256172 0.52961402
0.90199348 0.06256172 0.48050970
0.06256172 0.33520171 0.54482944
0.06256172 0.33499710 0.54482665
0.06256172 0.33340846 0.54480524
0.22175070 0.32627052 0.54471404
0.45189820 0.29465164 0.54439541
0.57411948 0.06256172 0.54336764
0.68530809 0.06256172 0.54009552
0.79388006 0.06256172 0.52901784
0.90193134 0.06256172 0.47949310
0.06256172 0.44113007 0.54305221
0.06256172 0.44107087 0.54304937
0.06256172 0.44061502 0.54302755
0.06256172 0.43864804 0.54293461
0.41799145 0.43143023 0.54260985
0.56627119 0.40331472 0.54156217
0.68295777 0.06256172 0.53822512
0.79315308 0.06256172 0.52690907
0.90171438 0.06256172 0.47585782
0.06256172 0.54592717 0.53712224
0.06256172 0.54590826 0.53711921
0.06256172 0.54576293 0.53709596
0.06256172 0.54514175 0.53699693
0.06256172 0.54294336 0.53665084
0.53553379 0.53553379 0.53553379
0.67501083 0.50778931 0.53197002
0.79078542 0.06256172 0.51981521
0.90101589 0.06256172 0.46313197
0.06256172 0.65170064 0.51581380
0.06256172 0.65169447 0.51580999
0.06256172 0.65164714 0.51578077
0.06256172 0.65144537 0.51565624
0.06256172 0.65073858 0.51522082
0.06256172 0.64843886 0.51381246
0.64488049 0.64090313 0.50928826
0.78300219 0.61240514 0.49346317
0.89880603 0.06256172 0.40551580
0.06256172 0.75884524 0.35633802
0.06256172 0.75884327 0.35631502
0.06256172 0.75882815 0.35613815
0.06256172 0.75876377 0.35538098
0.06256172 0.75853897 0.35268579
0.06256172 0.75781537 0.34340815
0.06256172 0.75552710 0.30493414
0.75319397 0.74796002 0.06256172
0.89148715 0.71787683 0.06256172
0.06256172 0.86737381 0.06256172
0.06256172 0.86737322 0.06256172
0.06256172 0.86736863 0.06256172
0.06256172 0.86734912 0.06256172
0.06256172 0.86728104 0.06256172
0.06256172 0.86706267 0.06256172
0.06256172 0.86637976 0.06256172
0.06256172 0.86420281 0.06256172
0.86221986 0.85670687 0.06256172
0.06256172 0.06256172 0.65074989
0.06256172 0.06256172 0.65074898
0.06256172 0.06256172 0.65074202
0.06256172 0.06256172 0.65071236
0.42311223 0.06256172 0.65060888
0.56731048 0.06256172 0.65027675
0.68326115 0.06256172 0.64923578
0.79324622 0.06256172 0.64589394
0.90174211 0.06256172 0.63409096
0.06256172 0.06256172 0.65074486
0.06256172 0.06256172 0.65074395
0.06256172 0.06256172 0.65073699
0.06256172 0.06256172 0.65070733
0.42276965 0.06256172 0.65060385
0.56723942 0.06256172 0.65027170
0.68324033 0.06256172 0.64923067
0.79323982 0.06256172 0.64588865
0.90174020 0.06256172 0.63408496
0.06256172 0.06256172 0.65070625
0.06256172 0.06256172 0.65070535
0.06256172 0.06256172 0.65069838
0.06256172 0.06256172 0.65066870
0.42009382 0.06256172 0.65056518
0.56669197 0.06256172 0.65023290
0.68308032 0.06256172 0.64919144
0.79319068 0.06256172 0.64584801
0.90172557 0.06256172 0.63403892
0.06256172 0.31790672 0.65054172
0.06256172 0.31765249 0.65054081
0.06256172 0.31567248 0.65053383
0.06256172 0.30663335 0.65050411
0.40769289 0.26250163 0.65040041
0.56432516 0.06256172 0.65006754
0.68239609 0.06256172 0.64902425
0.79298117 0.06256172 0.64567480
0.90166324 0.06256172 0.63384266
0.06256172 0.43650793 0.64996588
0.06256172 0.43644559 0.64996496
0.06256172 0.43596544 0.64995794
0.06256172 0.43389202 0.64992803
0.34073911 0.42626024 0.64982370
0.55557404 0.39610915 0.64948879
0.67997112 0.06256172 0.64843907
0.79224700 0.06256172 0.64506845
0.90144561 0.06256172 0.63315523
0.06256172 0.54447671 0.64809779
0.06256172 0.54445750 0.64809686
0.06256172 0.54430991 0.64808970
0.06256172 0.54367898 0.64805919
0.06256172 0.54144554 0.64795277
0.52032432 0.53391132 0.64761116
0.67175720 0.50559591 0.64654027
0.78985556 0.06256172 0.64310005
0.90074496 0.06256172 0.63091953
0.06256172 0.65123036 0.64203732
0.06256172 0.65122417 0.64203633
0.06256172 0.65117660 0.64202869
0.06256172 0.65097382 0.64199617
0.06256172 0.65026348 0.64188270
0.06256172 0.64795204 0.64151840
0.64037583 0.64037583 0.64037583
0.78198978 0.61169177 0.63669941
0.89852814 0.06256172 0.62360460
0.06256172 0.75869527 0.62003199
0.06256172 0.75869330 0.62003074
0.06256172 0.75867815 0.62002110
0.06256172 0.75861367 0.61998006
0.06256172 0.75838851 0.61983684
0.06256172 0.75766372 0.61937671
0.06256172 0.75537167 0.61793053
0.75179399 0.74779140 0.61324494
0.89118495 0.71764409 0.59611217
0.06256172 0.86732836 0.43485016
0.06256172 0.86732776 0.43484090
0.06256172 0.86732317 0.43476982
0.06256172 0.86730365 0.43446660
0.06256172 0.86723553 0.43340135
0.06256172 0.86701706 0.42990140
0.06256172 0.86633379 0.41803264
0.06256172 0.86415571 0.36467774
0.86179869 0.85665562 0.06256172
0.06256172 0.06256172 0.75773870
0.06256172 0.06256172 0.75773841
0.06256172 0.06256172 0.75773618
0.06256172 0.06256172 0.75772669
0.06256172 0.06256172 0.75769360
0.52912806 0.06256172 0.75758753
0.67358934 0.06256172 0.75725674
0.79037638 0.06256172 0.75621135
0.90089648 0.06256172 0.75271701
0.06256172 0.06256172 0.75773709
0.06256172 0.06256172 0.75773680
0.06256172 0.06256172 0.75773457
0.06256172 0.06256172 0.75772508
0.06256172 0.06256172 0.75769199
0.52902122 0.06256172 0.75758592
0.67356628 0.06256172 0.75725512
0.79036978 0.06256172 0.75620971
0.90089456 0.06256172 0.75271531
0.06256172 0.06256172 0.75772474
0.06256172 0.06256172 0.75772445
0.06256172 0.06256172 0.75772222
0.06256172 0.06256172 0.75771272
0.06256172 0.06256172 0.75767963
0.52819675 0.06256172 0.75757355
0.67338897 0.06256172 0.75724270
0.79031908 0.06256172 0.75619716
0.90087978 0.06256172 0.75270227
0.06256172 0.19003809 0.75767213
0.06256172 0.18837310 0.75767184
0.06256172 0.17358888 0.75766961
0.06256172 0.06256172 0.75766011
0.06256172 0.06256172 0.75762699
0.52460300 0.06256172 0.75752085
0.67263044 0.06256172 0.75718982
0.79010290 0.06256172 0.75614367
0.90081684 0.06256172 0.75264674
0.06256172 0.42022114 0.75748849
0.06256172 0.42014623 0.75748820
0.06256172 0.41956885 0.75748596
0.06256172 0.41706770 0.75747645
0.06256172 0.40774461 0.75744326
0.51086202 0.36854376 0.75733691
0.66993731 0.06256172 0.75700522
0.78934527 0.06256172 0.75595698
0.90059708 0.06256172 0.75245289
0.06256172 0.53977514 0.75689793
0.06256172 0.53975494 0.75689763
0.06256172 0.53959973 0.75689539
0.06256172 0.53893611 0.75688581
0.06256172 0.53658500 0.75685241
0.44413111 0.52863061 0.75674539
0.66075642 0.49835676 0.75641157
0.78687606 0.06256172 0.75535657
0.89988955 0.06256172 0.75182933
0.06256172 0.64973978 0.75503599
0.06256172 0.64973349 0.75503569
0.06256172 0.64968516 0.75503339
0.06256172 0.64947916 0.75502362
0.06256172 0.64875746 0.75498955
0.06256172 0.64640845 0.75488035
0.62466855 0.63870239 0.75453976
0.77873976 0.60941839 0.75346317
0.89765060 0.06256172 0.74986194
0.06256172 0.75822324 0.74894076
0.06256172 0.75822125 0.74894044
0.06256172 0.75820603 0.74893799
0.06256172 0.75814122 0.74892756
0.06256172 0.75791491 0.74889118
0.06256172 0.75718640 0.74877458
0.06256172 0.75488239 0.74841083
0.74726046 0.74726046 0.74726046
0.89023016 0.71691024 0.74340588
0.06256172 0.86718561 0.72572813
0.06256172 0.86718501 0.72572772
0.06256172 0.86718042 0.72572458
0.06256172 0.86716086 0.72571120
0.06256172 0.86709264 0.72566455
0.06256172 0.86687381 0.72551498
0.06256172 0.86618944 0.72504806
0.06256172 0.86400777 0.72356808
0.86046443 0.85649469 0.71857091
0.06256172 0.06256172 0.86624383
0.06256172 0.06256172 0.86624374
0.06256172 0.06256172 0.86624306
0.06256172 0.06256172 0.86624018
0.06256172 0.06256172 0.86623014
0.06256172 0.06256172 0.86619797
0.63265148 0.06256172 0.86609781
0.78033842 0.06256172 0.86578286
0.89807949 0.06256172 0.86474764
0.06256172 0.06256172 0.86624334
0.06256172 0.06256172 0.86624325
0.06256172 0.06256172 0.86624258
0.06256172 0.06256172 0.86623970
0.06256172 0.06256172 0.86622965
0.06256172 0.06256172 0.86619749
0.63261591 0.06256172 0.86609732
0.78033105 0.06256172 0.86578237
0.89807750 0.06256172 0.86474714
0.06256172 0.06256172 0.86623959
0.06256172 0.06256172 0.86623950
0.06256172 0.06256172 0.86623883
0.06256172 0.06256172 0.86623595
0.06256172 0.06256172 0.86622590
0.06256172 0.06256172 0.86619373
0.63234235 0.06256172 0.86609356
0.78027450 0.06256172 0.86577860
0.89806224 0.06256172 0.86474333
0.06256172 0.06256172 0.86622363
0.06256172 0.06256172 0.86622354
0.06256172 0.06256172 0.86622286
0.06256172 0.06256172 0.86621998
0.06256172 0.06256172 0.86620994
0.06256172 0.06256172 0.86617776
0.63116888 0.06256172 0.86607758
0.78003337 0.06256172 0.86576256
0.89799724 0.06256172 0.86472710
0.06256172 0.32253602 0.86616796
0.06256172 0.32229628 0.86616787
0.06256172 0.32043079 0.86616719
0.06256172 0.31195486 0.86616431
0.06256172 0.27183994 0.86615426
0.06256172 0.06256172 0.86612206
0.62696014 0.06256172 0.86602181
0.77918774 0.06256172 0.86570660
0.89777025 0.06256172 0.86467048
0.06256172 0.52255042 0.86598944
0.06256172 0.52252613 0.86598935
0.06256172 0.52233940 0.86598867
0.06256172 0.52154027 0.86598578
0.06256172 0.51869935 0.86597571
0.06256172 0.50896803 0.86594345
0.61206375 0.46976927 0.86584300
0.77642627 0.06256172 0.86552714
0.89703932 0.06256172 0.86448892
0.06256172 0.64470726 0.86543165
0.06256172 0.64470063 0.86543156
0.06256172 0.64464966 0.86543088
0.06256172 0.64443238 0.86542797
0.06256172 0.64367097 0.86541784
0.06256172 0.64119047 0.86538538
0.54041249 0.63302803 0.86528429
0.76726440 0.60159769 0.86496644
0.89472510 0.06256172 0.86392161
0.06256172 0.75666651 0.86365886
0.06256172 0.75666449 0.86365877
0.06256172 0.75664902 0.86365807
0.06256172 0.75658311 0.86365511
0.06256172 0.75635296 0.86364477
0.06256172 0.75561205 0.86361165
0.06256172 0.75326816 0.86350853
0.73072180 0.74550712 0.86318426
0.88704122 0.71447563 0.86211816
0.06256172 0.86671836 0.85761741
0.06256172 0.86671776 0.85761731
0.06256172 0.86671314 0.85761656
0.06256172 0.86669348 0.85761339
0.06256172 0.86662490 0.85760233
0.06256172 0.86640491 0.85756689
0.06256172 0.86571690 0.85745652
0.06256172 0.86352346 0.85710942
0.85596766 0.85596766 0.85596766
