src/ffmpeg_scripts/luts/rec2020-sRGB_3p67.cube
TITLE "rec2020-srgb_3p67"
LUT_3D_SIZE 5
# PQ (EOTF Only)/Rec2020 -> PQ (EOTF Only)/Rec709, CineEI Shift 3.67, Black Level 0.00% IRE, Input 100% -> Output 109% - Created with LUTCalc v4.01 by Ben Turley October 2020
0.06256172 0.06256172 0.06256172
0.50480923 0.06256172 0.06256172
0.76849624 0.06256172 0.06256172
0.91886608 0.06256172 0.06256172
0.91886608 0.06256172 0.06256172
0.06256172 0.47220064 0.06256172
0.46762967 0.46244947 0.06256172
0.76663282 0.06256172 0.06256172
0.91886608 0.06256172 0.06256172
0.91886608 0.06256172 0.06256172
0.06256172 0.73279000 0.06256172
0.06256172 0.73221426 0.06256172
0.72770133 0.72190853 0.06256172
0.91886608 0.06256172 0.06256172
0.91886608 0.06256172 0.06256172
0.06256172 0.91886608 0.06256172
0.06256172 0.91886608 0.06256172
0.06256172 0.91886608 0.06256172
0.91886608 0.91886608 0.06256172
0.91886608 0.06256172 0.06256172
0.06256172 0.91886608 0.06256172
0.06256172 0.91886608 0.06256172
0.06256172 0.91886608 0.06256172
0.06256172 0.91886608 0.06256172
0.91886608 0.91886608 0.06256172
0.06256172 0.06256172 0.47114253
0.50093785 0.06256172 0.46976896
0.76826726 0.06256172 0.44271588
0.91886608 0.06256172 0.06256172
0.91886608 0.06256172 0.06256172
0.06256172 0.47157866 0.46325596
0.46175675 0.46175675 0.46175675
0.76639918 0.06256172 0.43171750
0.91886608 0.06256172 0.06256172
0.91886608 0.06256172 0.06256172
0.06256172 0.73275151 0.06256172
0.06256172 0.73217554 0.06256172
0.72734617 0.72186530 0.06256172
0.91886608 0.06256172 0.06256172
0.91886608 0.06256172 0.06256172
0.06256172 0.91886608 0.06256172
0.06256172 0.91886608 0.06256172
0.06256172 0.91886608 0.06256172
0.91886608 0.91886608 0.06256172
0.91886608 0.06256172 0.06256172
0.06256172 0.91886608 0.06256172
0.06256172 0.91886608 0.06256172
0.06256172 0.91886608 0.06256172
0.06256172 0.91886608 0.06256172
0.91886608 0.91886608 0.06256172
0.06256172 0.06256172 0.73161393
0.37982281 0.06256172 0.73152919
0.76430994 0.06256172 0.73008556
0.91886608 0.06256172 0.71387357
0.91886608 0.06256172 0.06256172
0.06256172 0.46036932 0.73114338
0.06256172 0.44916950 0.73105821
0.76235946 0.06256172 0.72960724
0.91886608 0.06256172 0.71330461
0.91886608 0.06256172 0.06256172
0.06256172 0.73209882 0.72281221
0.06256172 0.73151880 0.72271911
0.72113178 0.72113178 0.72113178
0.91886608 0.06256172 0.70312980
0.91886608 0.06256172 0.06256172
0.06256172 0.91886608 0.44660568
0.06256172 0.91886608 0.44479941
0.06256172 0.91886608 0.40694281
0.91886608 0.91886608 0.06256172
0.91886608 0.06256172 0.06256172
0.06256172 0.91886608 0.06256172
0.06256172 0.91886608 0.06256172
0.06256172 0.91886608 0.06256172
0.06256172 0.91886608 0.06256172
0.91886608 0.91886608 0.06256172
0.06256172 0.06256172 0.91886608
0.06256172 0.06256172 0.91886608
0.70960385 0.06256172 0.91886608
0.91886608 0.06256172 0.91886608
0.91886608 0.06256172 0.91886608
0.06256172 0.06256172 0.91886608
0.06256172 0.06256172 0.91886608
0.70606988 0.06256172 0.91886608
0.91886608 0.06256172 0.91886608
0.91886608 0.06256172 0.91886608
0.06256172 0.72514481 0.91886608
0.06256172 0.72451989 0.91886608
0.60834862 0.71327678 0.91886608
0.91886608 0.06256172 0.91886608
0.91886608 0.06256172 0.91886608
0.06256172 0.91886608 0.91886608
0.06256172 0.91886608 0.91886608
0.06256172 0.91886608 0.91886608
0.91886608 0.91886608 0.91886608
0.91886608 0.06256172 0.91886608
0.06256172 0.91886608 0.72323397
0.06256172 0.91886608 0.72314128
0.06256172 0.91886608 0.72156115
0.06256172 0.91886608 0.70364969
0.91886608 0.91886608 0.06256172
0.06256172 0.06256172 0.91886608
0.06256172 0.06256172 0.91886608
0.06256172 0.06256172 0.91886608
0.91886608 0.06256172 0.91886608
0.91886608 0.06256172 0.91886608
0.06256172 0.06256172 0.91886608
0.06256172 0.06256172 0.91886608
0.06256172 0.06256172 0.91886608
0.91886608 0.06256172 0.91886608
0.91886608 0.06256172 0.91886608
0.06256172 0.58442602 0.91886608
0.06256172 0.58161729 0.91886608
0.06256172 0.51405743 0.91886608
0.91886608 0.06256172 0.91886608
0.91886608 0.06256172 0.91886608
0.06256172 0.91886608 0.91886608
0.06256172 0.91886608 0.91886608
0.06256172 0.91886608 0.91886608
0.83875572 0.91886608 0.91886608
0.91886608 0.06256172 0.91886608
0.06256172 0.91886608 0.91886608
0.06256172 0.91886608 0.91886608
0.06256172 0.91886608 0.91886608
0.06256172 0.91886608 0.91886608
0.91886608 0.91886608 0.91886608
