src/ffmpeg_scripts/luts/rec2020-sRGB_-2p00.cube
TITLE "rec2020-srgb_-2p00"
LUT_3D_SIZE 33
# PQ (EOTF Only)/Rec2020 -> PQ (EOTF Only)/Rec709, CineEI Shift -2.00, Black Level 0.00% IRE, Input 100% -> Output 109% - Created with LUTCalc v4.01 by Ben Turley October 2020
0.06256172 0.06256172 0.06256172
0.07995032 0.06256172 0.06256172
0.09897458 0.06256172 0.06256172
0.11893182 0.06256172 0.06256172
0.13958646 0.06256172 0.06256172
0.16081034 0.06256172 0.06256172
0.18252088 0.06256172 0.06256172
0.20465972 0.06256172 0.06256172
0.22718299 0.06256172 0.06256172
0.25005641 0.06256172 0.06256172
0.27325225 0.06256172 0.06256172
0.29674760 0.06256172 0.06256172
0.32052314 0.06256172 0.06256172
0.34456232 0.06256172 0.06256172
0.36885078 0.06256172 0.06256172
0.39337595 0.06256172 0.06256172
0.41812667 0.06256172 0.06256172
0.44309299 0.06256172 0.06256172
0.46826597 0.06256172 0.06256172
0.49363752 0.06256172 0.06256172
0.51920029 0.06256172 0.06256172
0.54494754 0.06256172 0.06256172
0.57087310 0.06256172 0.06256172
0.59697127 0.06256172 0.06256172
0.62323677 0.06256172 0.06256172
0.64966473 0.06256172 0.06256172
0.67625057 0.06256172 0.06256172
0.70299003 0.06256172 0.06256172
0.72987914 0.06256172 0.06256172
0.75691413 0.06256172 0.06256172
0.78409150 0.06256172 0.06256172
0.81140792 0.06256172 0.06256172
0.83886025 0.06256172 0.06256172
0.06256172 0.07687030 0.06256172
0.07647351 0.07603376 0.06256172
0.09769350 0.07235559 0.06256172
0.11827108 0.06256172 0.06256172
0.13919919 0.06256172 0.06256172
0.16056657 0.06256172 0.06256172
0.18236018 0.06256172 0.06256172
0.20455027 0.06256172 0.06256172
0.22710664 0.06256172 0.06256172
0.25000215 0.06256172 0.06256172
0.27321313 0.06256172 0.06256172
0.29671907 0.06256172 0.06256172
0.32050213 0.06256172 0.06256172
0.34454674 0.06256172 0.06256172
0.36883916 0.06256172 0.06256172
0.39336723 0.06256172 0.06256172
0.41812011 0.06256172 0.06256172
0.44308804 0.06256172 0.06256172
0.46826222 0.06256172 0.06256172
0.49363468 0.06256172 0.06256172
0.51919814 0.06256172 0.06256172
0.54494591 0.06256172 0.06256172
0.57087186 0.06256172 0.06256172
0.59697033 0.06256172 0.06256172
0.62323606 0.06256172 0.06256172
0.64966419 0.06256172 0.06256172
0.67625016 0.06256172 0.06256172
0.70298973 0.06256172 0.06256172
0.72987891 0.06256172 0.06256172
0.75691396 0.06256172 0.06256172
0.78409138 0.06256172 0.06256172
0.81140783 0.06256172 0.06256172
0.83886018 0.06256172 0.06256172
0.06256172 0.09310137 0.06256172
0.06256172 0.09276374 0.06256172
0.09233358 0.09147941 0.06256172
0.11572995 0.08836991 0.06256172
0.13774551 0.08096529 0.06256172
0.15966057 0.06256172 0.06256172
0.18176576 0.06256172 0.06256172
0.20414649 0.06256172 0.06256172
0.22682537 0.06256172 0.06256172
0.24980245 0.06256172 0.06256172
0.27306924 0.06256172 0.06256172
0.29661417 0.06256172 0.06256172
0.32042494 0.06256172 0.06256172
0.34448950 0.06256172 0.06256172
0.36879645 0.06256172 0.06256172
0.39333522 0.06256172 0.06256172
0.41809601 0.06256172 0.06256172
0.44306985 0.06256172 0.06256172
0.46824846 0.06256172 0.06256172
0.49362426 0.06256172 0.06256172
0.51919022 0.06256172 0.06256172
0.54493990 0.06256172 0.06256172
0.57086730 0.06256172 0.06256172
0.59696687 0.06256172 0.06256172
0.62323345 0.06256172 0.06256172
0.64966221 0.06256172 0.06256172
0.67624867 0.06256172 0.06256172
0.70298860 0.06256172 0.06256172
0.72987806 0.06256172 0.06256172
0.75691333 0.06256172 0.06256172
0.78409091 0.06256172 0.06256172
0.81140748 0.06256172 0.06256172
0.83885992 0.06256172 0.06256172
0.06256172 0.11048075 0.06256172
0.06256172 0.11030173 0.06256172
0.06926838 0.10963526 0.06256172
0.10936490 0.10812029 0.06256172
0.13436543 0.10511842 0.06256172
0.15761055 0.09926287 0.06256172
0.18043771 0.08585847 0.06256172
0.20325038 0.06256172 0.06256172
0.22620353 0.06256172 0.06256172
0.24936199 0.06256172 0.06256172
0.27275233 0.06256172 0.06256172
0.29638335 0.06256172 0.06256172
0.32025518 0.06256172 0.06256172
0.34436368 0.06256172 0.06256172
0.36870262 0.06256172 0.06256172
0.39326488 0.06256172 0.06256172
0.41804308 0.06256172 0.06256172
0.44302990 0.06256172 0.06256172
0.46821824 0.06256172 0.06256172
0.49360135 0.06256172 0.06256172
0.51917286 0.06256172 0.06256172
0.54492672 0.06256172 0.06256172
0.57085730 0.06256172 0.06256172
0.59695929 0.06256172 0.06256172
0.62322770 0.06256172 0.06256172
0.64965787 0.06256172 0.06256172
0.67624539 0.06256172 0.06256172
0.70298613 0.06256172 0.06256172
0.72987621 0.06256172 0.06256172
0.75691194 0.06256172 0.06256172
0.78408987 0.06256172 0.06256172
0.81140671 0.06256172 0.06256172
0.83885936 0.06256172 0.06256172
0.06256172 0.12873856 0.06256172
0.06256172 0.12863188 0.06256172
0.06256172 0.12823744 0.06256172
0.09213412 0.12735714 0.06256172
0.12729517 0.12568198 0.06256172
0.15359270 0.12269562 0.06256172
0.17790511 0.11741231 0.06256172
0.20156499 0.10739989 0.06256172
0.22504302 0.07870289 0.06256172
0.24854378 0.06256172 0.06256172
0.27216535 0.06256172 0.06256172
0.29595663 0.06256172 0.06256172
0.31994176 0.06256172 0.06256172
0.34413157 0.06256172 0.06256172
0.36852962 0.06256172 0.06256172
0.39313526 0.06256172 0.06256172
0.41794557 0.06256172 0.06256172
0.44295631 0.06256172 0.06256172
0.46816258 0.06256172 0.06256172
0.49355918 0.06256172 0.06256172
0.51914087 0.06256172 0.06256172
0.54490246 0.06256172 0.06256172
0.57083889 0.06256172 0.06256172
0.59694533 0.06256172 0.06256172
0.62321713 0.06256172 0.06256172
0.64964987 0.06256172 0.06256172
0.67623935 0.06256172 0.06256172
0.70298159 0.06256172 0.06256172
0.72987280 0.06256172 0.06256172
0.75690939 0.06256172 0.06256172
0.78408797 0.06256172 0.06256172
0.81140530 0.06256172 0.06256172
0.83885832 0.06256172 0.06256172
0.06256172 0.14772560 0.06256172
0.06256172 0.14765761 0.06256172
0.06256172 0.14740698 0.06256172
0.06256172 0.14685182 0.06256172
0.11124464 0.14581166 0.06256172
0.14597351 0.14401203 0.06256172
0.17337278 0.14100916 0.06256172
0.19862831 0.13600989 0.06256172
0.22304966 0.12732256 0.06256172
0.24715009 0.10963571 0.06256172
0.27117068 0.06256172 0.06256172
0.29523596 0.06256172 0.06256172
0.31941359 0.06256172 0.06256172
0.34374104 0.06256172 0.06256172
0.36823883 0.06256172 0.06256172
0.39291756 0.06256172 0.06256172
0.41778189 0.06256172 0.06256172
0.44283284 0.06256172 0.06256172
0.46806921 0.06256172 0.06256172
0.49348846 0.06256172 0.06256172
0.51908724 0.06256172 0.06256172
0.54486177 0.06256172 0.06256172
0.57080803 0.06256172 0.06256172
0.59692193 0.06256172 0.06256172
0.62319941 0.06256172 0.06256172
0.64963647 0.06256172 0.06256172
0.67622924 0.06256172 0.06256172
0.70297397 0.06256172 0.06256172
0.72986708 0.06256172 0.06256172
0.75690512 0.06256172 0.06256172
0.78408478 0.06256172 0.06256172
0.81140293 0.06256172 0.06256172
0.83885657 0.06256172 0.06256172
0.06256172 0.16734458 0.06256172
0.06256172 0.16729930 0.06256172
0.06256172 0.16713265 0.06256172
0.06256172 0.16676484 0.06256172
0.06256172 0.16608077 0.06256172
0.13035646 0.16491306 0.06256172
0.16530137 0.16301069 0.06256172
0.19366576 0.15997751 0.06256172
0.21976713 0.15513541 0.06256172
0.24488805 0.14715499 0.06256172
0.26957036 0.13266159 0.06256172
0.29408290 0.09201793 0.06256172
0.31857163 0.06256172 0.06256172
0.34312002 0.06256172 0.06256172
0.36777723 0.06256172 0.06256172
0.39257239 0.06256172 0.06256172
0.41752259 0.06256172 0.06256172
0.44263735 0.06256172 0.06256172
0.46792145 0.06256172 0.06256172
0.49337657 0.06256172 0.06256172
0.51900242 0.06256172 0.06256172
0.54479743 0.06256172 0.06256172
0.57075923 0.06256172 0.06256172
0.59688493 0.06256172 0.06256172
0.62317139 0.06256172 0.06256172
0.64961528 0.06256172 0.06256172
0.67621325 0.06256172 0.06256172
0.70296194 0.06256172 0.06256172
0.72985805 0.06256172 0.06256172
0.75689835 0.06256172 0.06256172
0.78407974 0.06256172 0.06256172
0.81139919 0.06256172 0.06256172
0.83885381 0.06256172 0.06256172
0.06256172 0.18752603 0.06256172
0.06256172 0.18749493 0.06256172
0.06256172 0.18738054 0.06256172
0.06256172 0.18712858 0.06256172
0.06256172 0.18666181 0.06256172
0.06256172 0.18587061 0.06256172
0.14984143 0.18459694 0.06256172
0.18520829 0.18260656 0.06256172
0.21443607 0.17953650 0.06256172
0.24130500 0.17478410 0.06256172
0.26707191 0.16723122 0.06256172
0.29229884 0.15435415 0.06256172
0.31727648 0.12719663 0.06256172
0.34216848 0.06256172 0.06256172
0.36707184 0.06256172 0.06256172
0.39204593 0.06256172 0.06256172
0.41712762 0.06256172 0.06256172
0.44233988 0.06256172 0.06256172
0.46769677 0.06256172 0.06256172
0.49320652 0.06256172 0.06256172
0.51887355 0.06256172 0.06256172
0.54469971 0.06256172 0.06256172
0.57068512 0.06256172 0.06256172
0.59682877 0.06256172 0.06256172
0.62312886 0.06256172 0.06256172
0.64958313 0.06256172 0.06256172
0.67618898 0.06256172 0.06256172
0.70294367 0.06256172 0.06256172
0.72984433 0.06256172 0.06256172
0.75688809 0.06256172 0.06256172
0.78407210 0.06256172 0.06256172
0.81139352 0.06256172 0.06256172
0.83884961 0.06256172 0.06256172
0.06256172 0.20821738 0.06256172
0.06256172 0.20819552 0.06256172
0.06256172 0.20811515 0.06256172
0.06256172 0.20793832 0.06256172
0.06256172 0.20761148 0.06256172
0.06256172 0.20705968 0.06256172
0.10637096 0.20617728 0.06256172
0.16977398 0.20481317 0.06256172
0.20564091 0.20274547 0.06256172
0.23565285 0.19963526 0.06256172
0.26322488 0.19493231 0.06256172
0.28959111 0.18765443 0.06256172
0.31532869 0.17574524 0.06256172
0.34074604 0.15326412 0.06256172
0.36602170 0.06256172 0.06256172
0.39126438 0.06256172 0.06256172
0.41654248 0.06256172 0.06256172
0.44189982 0.06256172 0.06256172
0.46736473 0.06256172 0.06256172
0.49295541 0.06256172 0.06256172
0.51868337 0.06256172 0.06256172
0.54455555 0.06256172 0.06256172
0.57057584 0.06256172 0.06256172
0.59674595 0.06256172 0.06256172
0.62306616 0.06256172 0.06256172
0.64953573 0.06256172 0.06256172
0.67615322 0.06256172 0.06256172
0.70291675 0.06256172 0.06256172
0.72982412 0.06256172 0.06256172
0.75687298 0.06256172 0.06256172
0.78406083 0.06256172 0.06256172
0.81138516 0.06256172 0.06256172
0.83884344 0.06256172 0.06256172
0.06256172 0.22937721 0.06256172
0.06256172 0.22936157 0.06256172
0.06256172 0.22930408 0.06256172
0.06256172 0.22917769 0.06256172
0.06256172 0.22894440 0.06256172
0.06256172 0.22855149 0.06256172
0.06256172 0.22792567 0.06256172
0.13292467 0.22696431 0.06256172
0.19016060 0.22552148 0.06256172
0.22655711 0.22338464 0.06256172
0.25728946 0.22023268 0.06256172
0.28551040 0.21555316 0.06256172
0.31243495 0.20845683 0.06256172
0.33865222 0.19717615 0.06256172
0.36448543 0.17718333 0.06256172
0.39012591 0.12390133 0.06256172
0.41569265 0.06256172 0.06256172
0.44126207 0.06256172 0.06256172
0.46688428 0.06256172 0.06256172
0.49259248 0.06256172 0.06256172
0.51840871 0.06256172 0.06256172
0.54434750 0.06256172 0.06256172
0.57041819 0.06256172 0.06256172
0.59662653 0.06256172 0.06256172
0.62297577 0.06256172 0.06256172
0.64946741 0.06256172 0.06256172
0.67610167 0.06256172 0.06256172
0.70287795 0.06256172 0.06256172
0.72979500 0.06256172 0.06256172
0.75685119 0.06256172 0.06256172
0.78404459 0.06256172 0.06256172
0.81137311 0.06256172 0.06256172
0.83883454 0.06256172 0.06256172
0.06256172 0.25097182 0.06256172
0.06256172 0.25096048 0.06256172
0.06256172 0.25091878 0.06256172
0.06256172 0.25082716 0.06256172
0.06256172 0.25065818 0.06256172
0.06256172 0.25037400 0.06256172
0.06256172 0.24992251 0.06256172
0.06256172 0.24923167 0.06256172
0.15645525 0.24820107 0.06256172
0.21098830 0.24668875 0.06256172
0.24792264 0.24448924 0.06256172
0.27932275 0.24129482 0.06256172
0.30814626 0.23662086 0.06256172
0.33559279 0.22964412 0.06256172
0.36226144 0.21878859 0.06256172
0.38848815 0.20032480 0.06256172
0.41447548 0.15957193 0.06256172
0.44035148 0.06256172 0.06256172
0.46619982 0.06256172 0.06256172
0.49207627 0.06256172 0.06256172
0.51801855 0.06256172 0.06256172
0.54405221 0.06256172 0.06256172
0.57019458 0.06256172 0.06256172
0.59645722 0.06256172 0.06256172
0.62284768 0.06256172 0.06256172
0.64937061 0.06256172 0.06256172
0.67602867 0.06256172 0.06256172
0.70282301 0.06256172 0.06256172
0.72975377 0.06256172 0.06256172
0.75682035 0.06256172 0.06256172
0.78402161 0.06256172 0.06256172
0.81135605 0.06256172 0.06256172
0.83882195 0.06256172 0.06256172
0.06256172 0.27297323 0.06256172
0.06256172 0.27296491 0.06256172
0.06256172 0.27293433 0.06256172
0.06256172 0.27286716 0.06256172
0.06256172 0.27274334 0.06256172
0.06256172 0.27253532 0.06256172
0.06256172 0.27220535 0.06256172
0.06256172 0.27170174 0.06256172
0.06256172 0.27095335 0.06256172
0.17910490 0.26986148 0.06256172
0.23223851 0.26828716 0.06256172
0.26970900 0.26603025 0.06256172
0.30173247 0.26279316 0.06256172
0.33111833 0.25811189 0.06256172
0.35905430 0.25121108 0.06256172
0.38614835 0.24064732 0.06256172
0.41274763 0.22319008 0.06256172
0.43906464 0.18808555 0.06256172
0.46523564 0.06256172 0.06256172
0.49135081 0.06256172 0.06256172
0.51747114 0.06256172 0.06256172
0.54363844 0.06256172 0.06256172
0.56988155 0.06256172 0.06256172
0.59622038 0.06256172 0.06256172
0.62266857 0.06256172 0.06256172
0.64923533 0.06256172 0.06256172
0.67592665 0.06256172 0.06256172
0.70274626 0.06256172 0.06256172
0.72969618 0.06256172 0.06256172
0.75677728 0.06256172 0.06256172
0.78398951 0.06256172 0.06256172
0.81133224 0.06256172 0.06256172
0.83880436 0.06256172 0.06256172
0.06256172 0.29535770 0.06256172
0.06256172 0.29535154 0.06256172
0.06256172 0.29532891 0.06256172
0.06256172 0.29527922 0.06256172
0.06256172 0.29518765 0.06256172
0.06256172 0.29503393 0.06256172
0.06256172 0.29479035 0.06256172
0.06256172 0.29441920 0.06256172
0.06256172 0.29386907 0.06256172
0.06256172 0.29306950 0.06256172
0.20150075 0.29192304 0.06256172
0.25389183 0.29029293 0.06256172
0.29189201 0.28798307 0.06256172
0.32450075 0.28470334 0.06256172
0.35441360 0.28000510 0.06256172
0.38280966 0.27314792 0.06256172
0.41030512 0.26278243 0.06256172
0.43725728 0.24600880 0.06256172
0.46388763 0.21414410 0.06256172
0.49033988 0.06256172 0.06256172
0.51671016 0.06256172 0.06256172
0.54306424 0.06256172 0.06256172
0.56944772 0.06256172 0.06256172
0.59589246 0.06256172 0.06256172
0.62242078 0.06256172 0.06256172
0.64904827 0.06256172 0.06256172
0.67578566 0.06256172 0.06256172
0.70264021 0.06256172 0.06256172
0.72961663 0.06256172 0.06256172
0.75671779 0.06256172 0.06256172
0.78394519 0.06256172 0.06256172
0.81129936 0.06256172 0.06256172
0.83878008 0.06256172 0.06256172
0.06256172 0.31810480 0.06256172
0.06256172 0.31810021 0.06256172
0.06256172 0.31808335 0.06256172
0.06256172 0.31804632 0.06256172
0.06256172 0.31797811 0.06256172
0.06256172 0.31786364 0.06256172
0.06256172 0.31768240 0.06256172
0.06256172 0.31740657 0.06256172
0.06256172 0.31699842 0.06256172
0.06256172 0.31640673 0.06256172
0.06256172 0.31556148 0.06256172
0.22389830 0.31436613 0.06256172
0.27592960 0.31268553 0.06256172
0.31445086 0.31032646 0.06256172
0.34761172 0.30700429 0.06256172
0.37802008 0.30228154 0.06256172
0.40684951 0.29544310 0.06256172
0.43472415 0.28520674 0.06256172
0.46201064 0.26889896 0.06256172
0.48893877 0.23907430 0.06256172
0.51565902 0.13603449 0.06256172
0.54227306 0.06256172 0.06256172
0.56885103 0.06256172 0.06256172
0.59544204 0.06256172 0.06256172
0.62208077 0.06256172 0.06256172
0.64879178 0.06256172 0.06256172
0.67559245 0.06256172 0.06256172
0.70249495 0.06256172 0.06256172
0.72950770 0.06256172 0.06256172
0.75663635 0.06256172 0.06256172
0.78388453 0.06256172 0.06256172
0.81125436 0.06256172 0.06256172
0.83874686 0.06256172 0.06256172
0.06256172 0.34119674 0.06256172
0.06256172 0.34119330 0.06256172
0.06256172 0.34118067 0.06256172
0.06256172 0.34115291 0.06256172
0.06256172 0.34110180 0.06256172
0.06256172 0.34101605 0.06256172
0.06256172 0.34088035 0.06256172
0.06256172 0.34067400 0.06256172
0.06256172 0.34036902 0.06256172
0.06256172 0.33992767 0.06256172
0.06256172 0.33929881 0.06256172
0.06256172 0.33841272 0.06256172
0.24641843 0.33717345 0.06256172
0.29833449 0.33544693 0.06256172
0.33736739 0.33304192 0.06256172
0.37105119 0.32967759 0.06256172
0.40192677 0.32492424 0.06256172
0.43116506 0.31808464 0.06256172
0.45939813 0.30792388 0.06256172
0.48700143 0.29192499 0.06256172
0.51421243 0.26343119 0.06256172
0.54118795 0.18467956 0.06256172
0.56803473 0.06256172 0.06256172
0.59482700 0.06256172 0.06256172
0.62161714 0.06256172 0.06256172
0.64844241 0.06256172 0.06256172
0.67532947 0.06256172 0.06256172
0.70229735 0.06256172 0.06256172
0.72935959 0.06256172 0.06256172
0.75652566 0.06256172 0.06256172
0.78380210 0.06256172 0.06256172
0.81119322 0.06256172 0.06256172
0.83870173 0.06256172 0.06256172
0.06256172 0.36461786 0.06256172
0.06256172 0.36461527 0.06256172
0.06256172 0.36460576 0.06256172
0.06256172 0.36458486 0.06256172
0.06256172 0.36454638 0.06256172
0.06256172 0.36448184 0.06256172
0.06256172 0.36437974 0.06256172
0.06256172 0.36422455 0.06256172
0.06256172 0.36399541 0.06256172
0.06256172 0.36366420 0.06256172
0.06256172 0.36319313 0.06256172
0.06256172 0.36253106 0.06256172
0.14830848 0.36160844 0.06256172
0.26912276 0.36032964 0.06256172
0.32109063 0.35856121 0.06256172
0.36062563 0.35611314 0.06256172
0.39480635 0.35270693 0.06256172
0.42612348 0.34791790 0.06256172
0.45574798 0.34106066 0.06256172
0.48432003 0.33093242 0.06256172
0.51222352 0.31512286 0.06256172
0.53970314 0.28749168 0.06256172
0.56692163 0.21866310 0.06256172
0.59399049 0.06256172 0.06256172
0.62098775 0.06256172 0.06256172
0.64796881 0.06256172 0.06256172
0.67497336 0.06256172 0.06256172
0.70203000 0.06256172 0.06256172
0.72915931 0.06256172 0.06256172
0.75637605 0.06256172 0.06256172
0.78369073 0.06256172 0.06256172
0.81111065 0.06256172 0.06256172
0.83864078 0.06256172 0.06256172
0.06256172 0.38835424 0.06256172
0.06256172 0.38835228 0.06256172
0.06256172 0.38834509 0.06256172
0.06256172 0.38832929 0.06256172
0.06256172 0.38830021 0.06256172
0.06256172 0.38825145 0.06256172
0.06256172 0.38817433 0.06256172
0.06256172 0.38805717 0.06256172
0.06256172 0.38788426 0.06256172
0.06256172 0.38763456 0.06256172
0.06256172 0.38727987 0.06256172
0.06256172 0.38678227 0.06256172
0.06256172 0.38609060 0.06256172
0.18498705 0.38513533 0.06256172
0.29204347 0.38382092 0.06256172
0.34418348 0.38201418 0.06256172
0.38421136 0.37952560 0.06256172
0.41886561 0.37607779 0.06256172
0.45060078 0.37124871 0.06256172
0.48059044 0.36435977 0.06256172
0.50948315 0.35422801 0.06256172
0.53767099 0.33851218 0.06256172
0.56540555 0.31140758 0.06256172
0.59285515 0.24789697 0.06256172
0.62013576 0.06256172 0.06256172
0.64732894 0.06256172 0.06256172
0.67449294 0.06256172 0.06256172
0.70166971 0.06256172 0.06256172
0.72888963 0.06256172 0.06256172
0.75617473 0.06256172 0.06256172
0.78354092 0.06256172 0.06256172
0.81099961 0.06256172 0.06256172
0.83855885 0.06256172 0.06256172
0.06256172 0.41239338 0.06256172
0.06256172 0.41239190 0.06256172
0.06256172 0.41238645 0.06256172
0.06256172 0.41237448 0.06256172
0.06256172 0.41235244 0.06256172
0.06256172 0.41231549 0.06256172
0.06256172 0.41225707 0.06256172
0.06256172 0.41216834 0.06256172
0.06256172 0.41203744 0.06256172
0.06256172 0.41184854 0.06256172
0.06256172 0.41158045 0.06256172
0.06256172 0.41120484 0.06256172
0.06256172 0.41068368 0.06256172
0.06256172 0.40996572 0.06256172
0.21507765 0.40898133 0.06256172
0.31519686 0.40763487 0.06256172
0.36759977 0.40579306 0.06256172
0.40811183 0.40326627 0.06256172
0.44321841 0.39977714 0.06256172
0.47534993 0.39490412 0.06256172
0.50568502 0.38797109 0.06256172
0.53488104 0.37780464 0.06256172
0.56333810 0.36210265 0.06256172
0.59131444 0.33526606 0.06256172
0.61898368 0.27475082 0.06256172
0.64646600 0.06256172 0.06256172
0.67384631 0.06256172 0.06256172
0.70118549 0.06256172 0.06256172
0.72852759 0.06256172 0.06256172
0.75590469 0.06256172 0.06256172
0.78334011 0.06256172 0.06256172
0.81085084 0.06256172 0.06256172
0.83844912 0.06256172 0.06256172
0.06256172 0.43672405 0.06256172
0.06256172 0.43672293 0.06256172
0.06256172 0.43671879 0.06256172
0.06256172 0.43670970 0.06256172
0.06256172 0.43669296 0.06256172
0.06256172 0.43666491 0.06256172
0.06256172 0.43662055 0.06256172
0.06256172 0.43655320 0.06256172
0.06256172 0.43645388 0.06256172
0.06256172 0.43631061 0.06256172
0.06256172 0.43610741 0.06256172
0.06256172 0.43582298 0.06256172
0.06256172 0.43542886 0.06256172
0.06256172 0.43488691 0.06256172
0.06256172 0.43414572 0.06256172
0.24253548 0.43313546 0.06256172
0.33859014 0.43176024 0.06256172
0.39132737 0.42988631 0.06256172
0.43231555 0.42732341 0.06256172
0.46785507 0.42379317 0.06256172
0.50036278 0.41887267 0.06256172
0.53102472 0.41188433 0.06256172
0.56050752 0.40165533 0.06256172
0.58921929 0.38589757 0.06256172
0.61742472 0.35911736 0.06256172
0.64530250 0.30015377 0.06256172
0.67297679 0.06256172 0.06256172
0.70053566 0.06256172 0.06256172
0.72804247 0.06256172 0.06256172
0.75554324 0.06256172 0.06256172
0.78307156 0.06256172 0.06256172
0.81065202 0.06256172 0.06256172
0.83830254 0.06256172 0.06256172
0.06256172 0.46133603 0.06256172
0.06256172 0.46133518 0.06256172
0.06256172 0.46133203 0.06256172
0.06256172 0.46132512 0.06256172
0.06256172 0.46131239 0.06256172
0.06256172 0.46129106 0.06256172
0.06256172 0.46125733 0.06256172
0.06256172 0.46120613 0.06256172
0.06256172 0.46113064 0.06256172
0.06256172 0.46102179 0.06256172
0.06256172 0.46086748 0.06256172
0.06256172 0.46065164 0.06256172
0.06256172 0.46035284 0.06256172
0.06256172 0.45994250 0.06256172
0.06256172 0.45938235 0.06256172
0.06256172 0.45862078 0.06256172
0.26864702 0.45758769 0.06256172
0.36222512 0.45618672 0.06256172
0.41535513 0.45428343 0.06256172
0.45681207 0.45168634 0.06256172
0.49276669 0.44811517 0.06256172
0.52563171 0.44314385 0.06256172
0.55660289 0.43608976 0.06256172
0.58635667 0.42577252 0.06256172
0.61530920 0.40989594 0.06256172
0.64373144 0.38298864 0.06256172
0.67180697 0.32453957 0.06256172
0.69966377 0.06256172 0.06256172
0.72739288 0.06256172 0.06256172
0.75505998 0.06256172 0.06256172
0.78271292 0.06256172 0.06256172
0.81038672 0.06256172 0.06256172
0.83810708 0.06256172 0.06256172
0.06256172 0.48622001 0.06256172
0.06256172 0.48621936 0.06256172
0.06256172 0.48621696 0.06256172
0.06256172 0.48621170 0.06256172
0.06256172 0.48620202 0.06256172
0.06256172 0.48618578 0.06256172
0.06256172 0.48616012 0.06256172
0.06256172 0.48612116 0.06256172
0.06256172 0.48606373 0.06256172
0.06256172 0.48598094 0.06256172
0.06256172 0.48586362 0.06256172
0.06256172 0.48569959 0.06256172
0.06256172 0.48547269 0.06256172
0.06256172 0.48516140 0.06256172
0.06256172 0.48473703 0.06256172
0.06256172 0.48416113 0.06256172
0.06256172 0.48338187 0.06256172
0.29398474 0.48232878 0.06256172
0.38610021 0.48090490 0.06256172
0.43967276 0.47897479 0.06256172
0.48159186 0.47634531 0.06256172
0.51794505 0.47273333 0.06256172
0.55114958 0.46770797 0.06256172
0.58241321 0.46057817 0.06256172
0.61242279 0.45014830 0.06256172
0.64160259 0.43409365 0.06256172
0.67022973 0.40689152 0.06256172
0.69849256 0.34811691 0.06256172
0.72652267 0.06256172 0.06256172
0.75441392 0.06256172 0.06256172
0.78223419 0.06256172 0.06256172
0.81003299 0.06256172 0.06256172
0.83784669 0.06256172 0.06256172
0.06256172 0.51136744 0.06256172
0.06256172 0.51136694 0.06256172
0.06256172 0.51136512 0.06256172
0.06256172 0.51136111 0.06256172
0.06256172 0.51135374 0.06256172
0.06256172 0.51134138 0.06256172
0.06256172 0.51132184 0.06256172
0.06256172 0.51129219 0.06256172
0.06256172 0.51124848 0.06256172
0.06256172 0.51118549 0.06256172
0.06256172 0.51109624 0.06256172
0.06256172 0.51097151 0.06256172
0.06256172 0.51079906 0.06256172
0.06256172 0.51056265 0.06256172
0.06256172 0.51024068 0.06256172
0.06256172 0.50980433 0.06256172
0.06256172 0.50921501 0.06256172
0.06256172 0.50842060 0.06256172
0.31884455 0.50735019 0.06256172
0.41021165 0.50590608 0.06256172
0.46427077 0.50395156 0.06256172
0.50664619 0.50129136 0.06256172
0.54338251 0.49763865 0.06256172
0.57690967 0.49255608 0.06256172
0.60844966 0.48534082 0.06256172
0.63870041 0.47477453 0.06256172
0.66809439 0.45848423 0.06256172
