src/ffmpeg_scripts/luts/rec2020-sRGB_1p00.cube
TITLE "rec2020-srgb_1p00"
LUT_3D_SIZE 5
# PQ (EOTF Only)/Rec2020 -> PQ (EOTF Only)/Rec709, CineEI Shift 1.00, Black Level 0.00% IRE, Input 100% -> Output 109% - Created with LUTCalc v4.01 by Ben Turley October 2020
0.06256172 0.06256172 0.06256172
0.35686362 0.06256172 0.06256172
0.59697062 0.06256172 0.06256172
0.81668942 0.06256172 0.06256172
0.91886608 0.06256172 0.06256172
0.06256172 0.32978687 0.06256172
0.32604229 0.32181402 0.06256172
0.59515286 0.06256172 0.06256172
0.81651742 0.06256172 0.06256172
0.91886608 0.06256172 0.06256172
0.06256172 0.56242114 0.06256172
0.06256172 0.56186897 0.06256172
0.55754621 0.55201172 0.06256172
0.81356078 0.06256172 0.06256172
0.91886608 0.06256172 0.06256172
0.06256172 0.78115900 0.06256172
0.06256172 0.78110529 0.06256172
0.06256172 0.78019307 0.06256172
0.77608311 0.77030103 0.06256172
0.91886608 0.06256172 0.06256172
0.06256172 0.91886608 0.06256172
0.06256172 0.91886608 0.06256172
0.06256172 0.91886608 0.06256172
0.06256172 0.91886608 0.06256172
0.91886608 0.91886608 0.06256172
0.06256172 0.06256172 0.32891892
0.35361609 0.06256172 0.32779323
0.59674716 0.06256172 0.30585861
0.81666811 0.06256172 0.06256172
0.91886608 0.06256172 0.06256172
0.06256172 0.32927659 0.32247122
0.32124984 0.32124984 0.32124984
0.59492506 0.06256172 0.29707202
0.81649607 0.06256172 0.06256172
0.91886608 0.06256172 0.06256172
0.06256172 0.56238422 0.06256172
0.06256172 0.56183184 0.06256172
0.55720643 0.55197048 0.06256172
0.81353873 0.06256172 0.06256172
0.91886608 0.06256172 0.06256172
0.06256172 0.78115540 0.06256172
0.06256172 0.78110169 0.06256172
0.06256172 0.78018943 0.06256172
0.77604992 0.77029698 0.06256172
0.91886608 0.06256172 0.06256172
0.06256172 0.91886608 0.06256172
0.06256172 0.91886608 0.06256172
0.06256172 0.91886608 0.06256172
0.06256172 0.91886608 0.06256172
0.91886608 0.91886608 0.06256172
0.06256172 0.06256172 0.56129338
0.25667785 0.06256172 0.56121214
0.59288914 0.06256172 0.55982876
0.81630736 0.06256172 0.54436164
0.91886608 0.06256172 0.06256172
0.06256172 0.32012075 0.56084234
0.06256172 0.31104994 0.56076071
0.59099028 0.06256172 0.55937062
0.81613463 0.06256172 0.54382111
0.91886608 0.06256172 0.06256172
0.06256172 0.56175827 0.55287405
0.06256172 0.56120219 0.55278519
0.55127083 0.55127083 0.55127083
0.81316532 0.06256172 0.53418107
0.91886608 0.06256172 0.06256172
0.06256172 0.78109456 0.30898446
0.06256172 0.78104082 0.30753176
0.06256172 0.78012795 0.27756478
0.77548737 0.77022855 0.06256172
0.91886608 0.06256172 0.06256172
0.06256172 0.91886608 0.06256172
0.06256172 0.91886608 0.06256172
0.06256172 0.91886608 0.06256172
0.06256172 0.91886608 0.06256172
0.91886608 0.91886608 0.06256172
0.06256172 0.06256172 0.77998616
0.06256172 0.06256172 0.77997824
0.54030907 0.06256172 0.77984423
0.81253141 0.06256172 0.77846174
0.91886608 0.06256172 0.76316961
0.06256172 0.06256172 0.77994224
0.06256172 0.06256172 0.77993431
0.53696148 0.06256172 0.77980024
0.81235136 0.06256172 0.77841708
0.91886608 0.06256172 0.76311692
0.06256172 0.55510172 0.77919691
0.06256172 0.55450465 0.77918892
0.44684925 0.54379467 0.77905375
0.80925394 0.06256172 0.77765927
0.91886608 0.06256172 0.76222212
0.06256172 0.78046974 0.77120331
0.06256172 0.78041564 0.77119459
0.06256172 0.77949653 0.77104720
0.76952541 0.76952541 0.76952541
0.91886608 0.06256172 0.75253347
0.06256172 0.91886608 0.55327664
0.06256172 0.91886608 0.55318816
0.06256172 0.91886608 0.55168034
0.06256172 0.91886608 0.53467242
0.91886608 0.91886608 0.06256172
0.06256172 0.06256172 0.91886608
0.06256172 0.06256172 0.91886608
0.06256172 0.06256172 0.91886608
0.76171191 0.06256172 0.91886608
0.91886608 0.06256172 0.91886608
0.06256172 0.06256172 0.91886608
0.06256172 0.06256172 0.91886608
0.06256172 0.06256172 0.91886608
0.76139877 0.06256172 0.91886608
0.91886608 0.06256172 0.91886608
0.06256172 0.42553727 0.91886608
0.06256172 0.42305506 0.91886608
0.06256172 0.36465686 0.91886608
0.75594125 0.06256172 0.91886608
0.91886608 0.06256172 0.91886608
0.06256172 0.77389760 0.91886608
0.06256172 0.77383950 0.91886608
0.06256172 0.77285215 0.91886608
0.66666264 0.76209330 0.91886608
0.91886608 0.06256172 0.91886608
0.06256172 0.91886608 0.91886608
0.06256172 0.91886608 0.91886608
0.06256172 0.91886608 0.91886608
0.06256172 0.91886608 0.91886608
0.91886608 0.91886608 0.91886608
