src/ffmpeg_scripts/luts/rec2020-sRGB_-3p33.cube
TITLE "rec2020-srgb_-3p33"
LUT_3D_SIZE 33
# PQ (EOTF Only)/Rec2020 -> PQ (EOTF Only)/Rec709, CineEI Shift -3.33, Black Level 0.00% IRE, Input 100% -> Output 109% - Created with LUTCalc v4.01 by Ben Turley October 2020
0.06256172 0.06256172 0.06256172
0.07333779 0.06256172 0.06256172
0.08616235 0.06256172 0.06256172
0.10029057 0.06256172 0.06256172
0.11544928 0.06256172 0.06256172
0.13148429 0.06256172 0.06256172
0.14829357 0.06256172 0.06256172
0.16580343 0.06256172 0.06256172
0.18395752 0.06256172 0.06256172
0.20271105 0.06256172 0.06256172
0.22202733 0.06256172 0.06256172
0.24187566 0.06256172 0.06256172
0.26222984 0.06256172 0.06256172
0.28306720 0.06256172 0.06256172
0.30436789 0.06256172 0.06256172
0.32611434 0.06256172 0.06256172
0.34829086 0.06256172 0.06256172
0.37088333 0.06256172 0.06256172
0.39387897 0.06256172 0.06256172
0.41726613 0.06256172 0.06256172
0.44103414 0.06256172 0.06256172
0.46517318 0.06256172 0.06256172
0.48967418 0.06256172 0.06256172
0.51452874 0.06256172 0.06256172
0.53972901 0.06256172 0.06256172
0.56526769 0.06256172 0.06256172
0.59113793 0.06256172 0.06256172
0.61733330 0.06256172 0.06256172
0.64384776 0.06256172 0.06256172
0.67067559 0.06256172 0.06256172
0.69781140 0.06256172 0.06256172
0.72525009 0.06256172 0.06256172
0.75298680 0.06256172 0.06256172
0.06256172 0.07134200 0.06256172
0.07108695 0.07080486 0.06256172
0.08527638 0.06847108 0.06256172
0.09981395 0.06256172 0.06256172
0.11516075 0.06256172 0.06256172
0.13129777 0.06256172 0.06256172
0.14816778 0.06256172 0.06256172
0.16571602 0.06256172 0.06256172
0.18389544 0.06256172 0.06256172
0.20266620 0.06256172 0.06256172
0.22199451 0.06256172 0.06256172
0.24185139 0.06256172 0.06256172
0.26221174 0.06256172 0.06256172
0.28305362 0.06256172 0.06256172
0.30435764 0.06256172 0.06256172
0.32610657 0.06256172 0.06256172
0.34828495 0.06256172 0.06256172
0.37087883 0.06256172 0.06256172
0.39387553 0.06256172 0.06256172
0.41726350 0.06256172 0.06256172
0.44103213 0.06256172 0.06256172
0.46517164 0.06256172 0.06256172
0.48967301 0.06256172 0.06256172
0.51452784 0.06256172 0.06256172
0.53972832 0.06256172 0.06256172
0.56526717 0.06256172 0.06256172
0.59113753 0.06256172 0.06256172
0.61733300 0.06256172 0.06256172
0.64384753 0.06256172 0.06256172
0.67067542 0.06256172 0.06256172
0.69781128 0.06256172 0.06256172
0.72524999 0.06256172 0.06256172
0.75298673 0.06256172 0.06256172
0.06256172 0.08212452 0.06256172
0.06256172 0.08189433 0.06256172
0.08160136 0.08102069 0.06256172
0.09798616 0.07891921 0.06256172
0.11407908 0.07400132 0.06256172
0.13060501 0.06256172 0.06256172
0.14770265 0.06256172 0.06256172
0.16539362 0.06256172 0.06256172
0.18366677 0.06256172 0.06256172
0.20250118 0.06256172 0.06256172
0.22187382 0.06256172 0.06256172
0.24176217 0.06256172 0.06256172
0.26214523 0.06256172 0.06256172
0.28300370 0.06256172 0.06256172
0.30431998 0.06256172 0.06256172
0.32607803 0.06256172 0.06256172
0.34826325 0.06256172 0.06256172
0.37086229 0.06256172 0.06256172
0.39386290 0.06256172 0.06256172
0.41725384 0.06256172 0.06256172
0.44102474 0.06256172 0.06256172
0.46516599 0.06256172 0.06256172
0.48966868 0.06256172 0.06256172
0.51452454 0.06256172 0.06256172
0.53972580 0.06256172 0.06256172
0.56526525 0.06256172 0.06256172
0.59113607 0.06256172 0.06256172
0.61733190 0.06256172 0.06256172
0.64384670 0.06256172 0.06256172
0.67067479 0.06256172 0.06256172
0.69781080 0.06256172 0.06256172
0.72524964 0.06256172 0.06256172
0.75298647 0.06256172 0.06256172
0.06256172 0.09423781 0.06256172
0.06256172 0.09411064 0.06256172
0.06655276 0.09363763 0.06256172
0.09344593 0.09256479 0.06256172
0.11157257 0.09044897 0.06256172
0.12904015 0.08636211 0.06256172
0.14666442 0.07723687 0.06256172
0.16467851 0.06256172 0.06256172
0.18316140 0.06256172 0.06256172
0.20213728 0.06256172 0.06256172
0.22160802 0.06256172 0.06256172
0.24156588 0.06256172 0.06256172
0.26199900 0.06256172 0.06256172
0.28289400 0.06256172 0.06256172
0.30423723 0.06256172 0.06256172
0.32601534 0.06256172 0.06256172
0.34821559 0.06256172 0.06256172
0.37082597 0.06256172 0.06256172
0.39383517 0.06256172 0.06256172
0.41723264 0.06256172 0.06256172
0.44100852 0.06256172 0.06256172
0.46515358 0.06256172 0.06256172
0.48965920 0.06256172 0.06256172
0.51451729 0.06256172 0.06256172
0.53972027 0.06256172 0.06256172
0.56526104 0.06256172 0.06256172
0.59113287 0.06256172 0.06256172
0.61732947 0.06256172 0.06256172
0.64384486 0.06256172 0.06256172
0.67067341 0.06256172 0.06256172
0.69780977 0.06256172 0.06256172
0.72524887 0.06256172 0.06256172
0.75298589 0.06256172 0.06256172
0.06256172 0.10742743 0.06256172
0.06256172 0.10734918 0.06256172
0.06256172 0.10705999 0.06256172
0.08146564 0.10641521 0.06256172
0.10636986 0.10519071 0.06256172
0.12598407 0.10301599 0.06256172
0.14468828 0.09919532 0.06256172
0.16333502 0.09205580 0.06256172
0.18221888 0.07252617 0.06256172
0.20146157 0.06256172 0.06256172
0.22111586 0.06256172 0.06256172
0.24120306 0.06256172 0.06256172
0.26172903 0.06256172 0.06256172
0.28269164 0.06256172 0.06256172
0.30408467 0.06256172 0.06256172
0.32589980 0.06256172 0.06256172
0.34812779 0.06256172 0.06256172
0.37075906 0.06256172 0.06256172
0.39378409 0.06256172 0.06256172
0.41719360 0.06256172 0.06256172
0.44097866 0.06256172 0.06256172
0.46513074 0.06256172 0.06256172
0.48964173 0.06256172 0.06256172
0.51450394 0.06256172 0.06256172
0.53971009 0.06256172 0.06256172
0.56525328 0.06256172 0.06256172
0.59112698 0.06256172 0.06256172
0.61732500 0.06256172 0.06256172
0.64384149 0.06256172 0.06256172
0.67067087 0.06256172 0.06256172
0.69780786 0.06256172 0.06256172
0.72524745 0.06256172 0.06256172
0.75298484 0.06256172 0.06256172
0.06256172 0.12154809 0.06256172
0.06256172 0.12149688 0.06256172
0.06256172 0.12130812 0.06256172
0.06256172 0.12089023 0.06256172
0.09478093 0.12010807 0.06256172
0.12022971 0.11875730 0.06256172
0.14116432 0.11651056 0.06256172
0.16099873 0.11279051 0.06256172
0.18060189 0.10638990 0.06256172
0.20031148 0.09363796 0.06256172
0.22028227 0.06256172 0.06256172
0.24059050 0.06256172 0.06256172
0.26127419 0.06256172 0.06256172
0.28235121 0.06256172 0.06256172
0.30382828 0.06256172 0.06256172
0.32570577 0.06256172 0.06256172
0.34798041 0.06256172 0.06256172
0.37064680 0.06256172 0.06256172
0.39369841 0.06256172 0.06256172
0.41712812 0.06256172 0.06256172
0.44092858 0.06256172 0.06256172
0.46509244 0.06256172 0.06256172
0.48961245 0.06256172 0.06256172
0.51448157 0.06256172 0.06256172
0.53969303 0.06256172 0.06256172
0.56524028 0.06256172 0.06256172
0.59111710 0.06256172 0.06256172
0.61731752 0.06256172 0.06256172
0.64383583 0.06256172 0.06256172
0.67066661 0.06256172 0.06256172
0.69780467 0.06256172 0.06256172
0.72524506 0.06256172 0.06256172
0.75298307 0.06256172 0.06256172
0.06256172 0.13650286 0.06256172
0.06256172 0.13646796 0.06256172
0.06256172 0.13633952 0.06256172
0.06256172 0.13605613 0.06256172
0.06256172 0.13552938 0.06256172
0.10861568 0.13463112 0.06256172
0.13492970 0.13317019 0.06256172
0.15706443 0.13084728 0.06256172
0.17794453 0.12715578 0.06256172
0.19844715 0.12111840 0.06256172
0.21894218 0.11031372 0.06256172
0.23961094 0.08138661 0.06256172
0.26054939 0.06256172 0.06256172
0.28181000 0.06256172 0.06256172
0.30342134 0.06256172 0.06256172
0.32539817 0.06256172 0.06256172
0.34774695 0.06256172 0.06256172
0.37046908 0.06256172 0.06256172
0.39356283 0.06256172 0.06256172
0.41702454 0.06256172 0.06256172
0.44084939 0.06256172 0.06256172
0.46503188 0.06256172 0.06256172
0.48956615 0.06256172 0.06256172
0.51444621 0.06256172 0.06256172
0.53966605 0.06256172 0.06256172
0.56521974 0.06256172 0.06256172
0.59110149 0.06256172 0.06256172
0.61730569 0.06256172 0.06256172
0.64382689 0.06256172 0.06256172
0.67065988 0.06256172 0.06256172
0.69779963 0.06256172 0.06256172
0.72524130 0.06256172 0.06256172
0.75298027 0.06256172 0.06256172
0.06256172 0.15222124 0.06256172
0.06256172 0.15219678 0.06256172
0.06256172 0.15210681 0.06256172
0.06256172 0.15190867 0.06256172
0.06256172 0.15154173 0.06256172
0.06256172 0.15092012 0.06256172
0.12314410 0.14992044 0.06256172
0.15040013 0.14836065 0.06256172
0.17364328 0.14596066 0.06256172
0.19550002 0.14225990 0.06256172
0.21685268 0.13641549 0.06256172
0.23809659 0.12656213 0.06256172
0.25943509 0.10629774 0.06256172
0.28098105 0.06256172 0.06256172
0.30279966 0.06256172 0.06256172
0.32492908 0.06256172 0.06256172
0.34739139 0.06256172 0.06256172
0.37019866 0.06256172 0.06256172
0.39335667 0.06256172 0.06256172
0.41686712 0.06256172 0.06256172
0.44072908 0.06256172 0.06256172
0.46493990 0.06256172 0.06256172
0.48949585 0.06256172 0.06256172
0.51439252 0.06256172 0.06256172
0.53962510 0.06256172 0.06256172
0.56518856 0.06256172 0.06256172
0.59107780 0.06256172 0.06256172
0.61728773 0.06256172 0.06256172
0.64381333 0.06256172 0.06256172
0.67064967 0.06256172 0.06256172
0.69779197 0.06256172 0.06256172
0.72523558 0.06256172 0.06256172
0.75297602 0.06256172 0.06256172
0.06256172 0.16864908 0.06256172
0.06256172 0.16863157 0.06256172
0.06256172 0.16856719 0.06256172
0.06256172 0.16842557 0.06256172
0.06256172 0.16816385 0.06256172
0.06256172 0.16772215 0.06256172
0.09133016 0.16701624 0.06256172
0.13837788 0.16592600 0.06256172
0.16658741 0.16427582 0.06256172
0.19086612 0.16179914 0.06256172
0.21364177 0.15806690 0.06256172
0.23580115 0.15232225 0.06256172
0.25776069 0.14300693 0.06256172
0.27974259 0.12573479 0.06256172
0.30187449 0.06256172 0.06256172
0.32423292 0.06256172 0.06256172
0.34686474 0.06256172 0.06256172
0.36979868 0.06256172 0.06256172
0.39305205 0.06256172 0.06256172
0.41663468 0.06256172 0.06256172
0.44055153 0.06256172 0.06256172
0.46480421 0.06256172 0.06256172
0.48939217 0.06256172 0.06256172
0.51431336 0.06256172 0.06256172
0.53956473 0.06256172 0.06256172
0.56514259 0.06256172 0.06256172
0.59104288 0.06256172 0.06256172
0.61726127 0.06256172 0.06256172
0.64379334 0.06256172 0.06256172
0.67063462 0.06256172 0.06256172
0.69778068 0.06256172 0.06256172
0.72522716 0.06256172 0.06256172
0.75296976 0.06256172 0.06256172
0.06256172 0.18574313 0.06256172
0.06256172 0.18573039 0.06256172
0.06256172 0.18568357 0.06256172
0.06256172 0.18558065 0.06256172
0.06256172 0.18539069 0.06256172
0.06256172 0.18507083 0.06256172
0.06256172 0.18456157 0.06256172
0.11050788 0.18377972 0.06256172
0.15429611 0.18260736 0.06256172
0.18344872 0.18087345 0.06256172
0.20870329 0.17832100 0.06256172
0.23234858 0.17454308 0.06256172
0.25527631 0.16884091 0.06256172
0.27792114 0.15984567 0.06256172
0.30052184 0.14412600 0.06256172
0.32321924 0.10389272 0.06256172
0.34610007 0.06256172 0.06256172
0.36921913 0.06256172 0.06256172
0.39261132 0.06256172 0.06256172
0.41629877 0.06256172 0.06256172
0.44029514 0.06256172 0.06256172
0.46460840 0.06256172 0.06256172
0.48924262 0.06256172 0.06256172
0.51419921 0.06256172 0.06256172
0.53947769 0.06256172 0.06256172
0.56507634 0.06256172 0.06256172
0.59099255 0.06256172 0.06256172
0.61722314 0.06256172 0.06256172
0.64376453 0.06256172 0.06256172
0.67061294 0.06256172 0.06256172
0.69776442 0.06256172 0.06256172
0.72521502 0.06256172 0.06256172
0.75296075 0.06256172 0.06256172
0.06256172 0.20346783 0.06256172
0.06256172 0.20345844 0.06256172
0.06256172 0.20342397 0.06256172
0.06256172 0.20334820 0.06256172
0.06256172 0.20320848 0.06256172
0.06256172 0.20297355 0.06256172
0.06256172 0.20260039 0.06256172
0.06256172 0.20202963 0.06256172
0.12815992 0.20117866 0.06256172
0.17087127 0.19993102 0.06256172
0.20094886 0.19811875 0.06256172
0.22712916 0.19549166 0.06256172
0.25160137 0.19165842 0.06256172
0.27526308 0.18596054 0.06256172
0.29856536 0.17715366 0.06256172
0.32176185 0.16234765 0.06256172
0.34500533 0.13053727 0.06256172
0.36839188 0.06256172 0.06256172
0.39198358 0.06256172 0.06256172
0.41582106 0.06256172 0.06256172
0.43993095 0.06256172 0.06256172
0.46433050 0.06256172 0.06256172
0.48903052 0.06256172 0.06256172
0.51403739 0.06256172 0.06256172
0.53935436 0.06256172 0.06256172
0.56498248 0.06256172 0.06256172
0.59092127 0.06256172 0.06256172
0.61716914 0.06256172 0.06256172
0.64372375 0.06256172 0.06256172
0.67058224 0.06256172 0.06256172
0.69774141 0.06256172 0.06256172
0.72519784 0.06256172 0.06256172
0.75294799 0.06256172 0.06256172
0.06256172 0.22179329 0.06256172
0.06256172 0.22178631 0.06256172
0.06256172 0.22176066 0.06256172
0.06256172 0.22170432 0.06256172
0.06256172 0.22160048 0.06256172
0.06256172 0.22142604 0.06256172
0.06256172 0.22114940 0.06256172
0.06256172 0.22072726 0.06256172
0.06256172 0.22010020 0.06256172
0.14562383 0.21918586 0.06256172
0.18807598 0.21786861 0.06256172
0.21905823 0.21598250 0.06256172
0.24612138 0.21328192 0.06256172
0.27138289 0.20938645 0.06256172
0.29574751 0.20366569 0.06256172
0.31968152 0.19495987 0.06256172
0.34345220 0.18071571 0.06256172
0.36722330 0.15266147 0.06256172
0.39109957 0.06256172 0.06256172
0.41514984 0.06256172 0.06256172
0.43942008 0.06256172 0.06256172
0.46394113 0.06256172 0.06256172
0.48873360 0.06256172 0.06256172
0.51381102 0.06256172 0.06256172
0.53918192 0.06256172 0.06256172
0.56485131 0.06256172 0.06256172
0.59082168 0.06256172 0.06256172
0.61709371 0.06256172 0.06256172
0.64366678 0.06256172 0.06256172
0.67053936 0.06256172 0.06256172
0.69770926 0.06256172 0.06256172
0.72517385 0.06256172 0.06256172
0.75293017 0.06256172 0.06256172
0.06256172 0.24069396 0.06256172
0.06256172 0.24068873 0.06256172
0.06256172 0.24066950 0.06256172
0.06256172 0.24062727 0.06256172
0.06256172 0.24054945 0.06256172
0.06256172 0.24041882 0.06256172
0.06256172 0.24021186 0.06256172
0.06256172 0.23989658 0.06256172
0.06256172 0.23942936 0.06256172
0.06256172 0.23875056 0.06256172
0.16328385 0.23777780 0.06256172
0.20588492 0.23639577 0.06256172
0.23775148 0.23443966 0.06256172
0.26566023 0.23166673 0.06256172
0.29167751 0.22770380 0.06256172
0.31671670 0.22193981 0.06256172
0.34125852 0.21327299 0.06256172
0.36558301 0.19937048 0.06256172
0.38986417 0.17340824 0.06256172
0.41421479 0.06256172 0.06256172
0.43871004 0.06256172 0.06256172
0.46340089 0.06256172 0.06256172
0.48832217 0.06256172 0.06256172
0.51349763 0.06256172 0.06256172
0.53894336 0.06256172 0.06256172
0.56466993 0.06256172 0.06256172
0.59068402 0.06256172 0.06256172
0.61698948 0.06256172 0.06256172
0.64358809 0.06256172 0.06256172
0.67048015 0.06256172 0.06256172
0.69766488 0.06256172 0.06256172
0.72514072 0.06256172 0.06256172
0.75290557 0.06256172 0.06256172
0.06256172 0.26014766 0.06256172
0.06256172 0.26014371 0.06256172
0.06256172 0.26012920 0.06256172
0.06256172 0.26009734 0.06256172
0.06256172 0.26003865 0.06256172
0.06256172 0.25994017 0.06256172
0.06256172 0.25978425 0.06256172
0.06256172 0.25954698 0.06256172
0.06256172 0.25919595 0.06256172
0.06256172 0.25868720 0.06256172
0.06256172 0.25796072 0.06256172
0.18128999 0.25693388 0.06256172
0.22427513 0.25549129 0.06256172
0.25700664 0.25346850 0.06256172
0.28572815 0.25062426 0.06256172
0.31247099 0.24658976 0.06256172
0.33815867 0.24076655 0.06256172
0.36328594 0.23209199 0.06256172
0.38814496 0.21838035 0.06256172
0.41291937 0.19366896 0.06256172
0.43772955 0.11280876 0.06256172
0.46265665 0.06256172 0.06256172
0.48775636 0.06256172 0.06256172
0.51306723 0.06256172 0.06256172
0.53861604 0.06256172 0.06256172
0.56442126 0.06256172 0.06256172
0.59049540 0.06256172 0.06256172
0.61684672 0.06256172 0.06256172
0.64348034 0.06256172 0.06256172
0.67039909 0.06256172 0.06256172
0.69760413 0.06256172 0.06256172
0.72509539 0.06256172 0.06256172
0.75287190 0.06256172 0.06256172
0.06256172 0.28013490 0.06256172
0.06256172 0.28013191 0.06256172
0.06256172 0.28012091 0.06256172
0.06256172 0.28009675 0.06256172
0.06256172 0.28005225 0.06256172
0.06256172 0.27997761 0.06256172
0.06256172 0.27985949 0.06256172
0.06256172 0.27967989 0.06256172
0.06256172 0.27941448 0.06256172
0.06256172 0.27903046 0.06256172
0.06256172 0.27848342 0.06256172
0.06256172 0.27771293 0.06256172
0.19970814 0.27663588 0.06256172
0.24322597 0.27513646 0.06256172
0.27680439 0.27304994 0.06256172
0.30630941 0.27013535 0.06256172
0.33375030 0.26602587 0.06256172
0.36006229 0.26013031 0.06256172
0.38575400 0.25141105 0.06256172
0.41112919 0.23777945 0.06256172
0.43638073 0.21381377 0.06256172
0.46163622 0.14998525 0.06256172
0.48698246 0.06256172 0.06256172
0.51247961 0.06256172 0.06256172
0.53816977 0.06256172 0.06256172
0.56408255 0.06256172 0.06256172
0.59023868 0.06256172 0.06256172
0.61665254 0.06256172 0.06256172
0.64333384 0.06256172 0.06256172
0.67028891 0.06256172 0.06256172
0.69752158 0.06256172 0.06256172
0.72503380 0.06256172 0.06256172
0.75282618 0.06256172 0.06256172
0.06256172 0.30063842 0.06256172
0.06256172 0.30063614 0.06256172
0.06256172 0.30062776 0.06256172
0.06256172 0.30060936 0.06256172
0.06256172 0.30057549 0.06256172
0.06256172 0.30051868 0.06256172
0.06256172 0.30042882 0.06256172
0.06256172 0.30029225 0.06256172
0.06256172 0.30009060 0.06256172
0.06256172 0.29979917 0.06256172
0.06256172 0.29938475 0.06256172
0.06256172 0.29880245 0.06256172
0.12198734 0.29799129 0.06256172
0.21856760 0.29686755 0.06256172
0.26271882 0.29531464 0.06256172
0.29712759 0.29316702 0.06256172
0.32738979 0.29018295 0.06256172
0.35550347 0.28599554 0.06256172
0.38241720 0.28001644 0.06256172
0.40865345 0.27122186 0.06256172
0.43452730 0.25758385 0.06256172
0.46024048 0.23402387 0.06256172
0.48592750 0.17705228 0.06256172
0.51168055 0.06256172 0.06256172
0.53756404 0.06256172 0.06256172
0.56362345 0.06256172 0.06256172
0.58989108 0.06256172 0.06256172
0.61638981 0.06256172 0.06256172
0.64313575 0.06256172 0.06256172
0.67014001 0.06256172 0.06256172
0.69741005 0.06256172 0.06256172
0.72495061 0.06256172 0.06256172
0.75276442 0.06256172 0.06256172
0.06256172 0.32164273 0.06256172
0.06256172 0.32164099 0.06256172
0.06256172 0.32163459 0.06256172
0.06256172 0.32162054 0.06256172
0.06256172 0.32159468 0.06256172
0.06256172 0.32155130 0.06256172
0.06256172 0.32148271 0.06256172
0.06256172 0.32137850 0.06256172
0.06256172 0.32122473 0.06256172
0.06256172 0.32100268 0.06256172
0.06256172 0.32068730 0.06256172
0.06256172 0.32024493 0.06256172
0.06256172 0.31963020 0.06256172
0.15022650 0.31878149 0.06256172
0.23787995 0.31761427 0.06256172
0.28273689 0.31601094 0.06256172
0.31796092 0.31380459 0.06256172
0.34895638 0.31075179 0.06256172
0.37771946 0.30648379 0.06256172
0.40521370 0.30041125 0.06256172
0.43197557 0.29151493 0.06256172
0.45833128 0.27779939 0.06256172
0.48449115 0.25439519 0.06256172
0.51059634 0.20092768 0.06256172
0.53674423 0.06256172 0.06256172
0.56300327 0.06256172 0.06256172
0.58942218 0.06256172 0.06256172
0.61603579 0.06256172 0.06256172
0.64286903 0.06256172 0.06256172
0.66993963 0.06256172 0.06256172
0.69726004 0.06256172 0.06256172
0.72483876 0.06256172 0.06256172
0.75268141 0.06256172 0.06256172
0.06256172 0.34313391 0.06256172
0.06256172 0.34313257 0.06256172
0.06256172 0.34312768 0.06256172
0.06256172 0.34311692 0.06256172
0.06256172 0.34309712 0.06256172
0.06256172 0.34306393 0.06256172
0.06256172 0.34301144 0.06256172
0.06256172 0.34293173 0.06256172
0.06256172 0.34281414 0.06256172
0.06256172 0.34264446 0.06256172
0.06256172 0.34240366 0.06256172
0.06256172 0.34206633 0.06256172
0.06256172 0.34159837 0.06256172
0.06256172 0.34095387 0.06256172
0.17415997 0.34007050 0.06256172
0.25764743 0.33886279 0.06256172
0.30326492 0.33721185 0.06256172
0.33929052 0.33494895 0.06256172
0.37099738 0.33182809 0.06256172
0.40038803 0.32747700 0.06256172
0.42844269 0.32130195 0.06256172
0.45571209 0.31228022 0.06256172
0.48253348 0.29842575 0.06256172
0.50912558 0.27497946 0.06256172
0.53563598 0.22328502 0.06256172
0.56216705 0.06256172 0.06256172
0.58879114 0.06256172 0.06256172
0.61556004 0.06256172 0.06256172
0.64251099 0.06256172 0.06256172
0.66967088 0.06256172 0.06256172
0.69705895 0.06256172 0.06256172
0.72468890 0.06256172 0.06256172
0.75257024 0.06256172 0.06256172
0.06256172 0.36509929 0.06256172
0.06256172 0.36509827 0.06256172
0.06256172 0.36509452 0.06256172
0.06256172 0.36508627 0.06256172
0.06256172 0.36507109 0.06256172
0.06256172 0.36504565 0.06256172
0.06256172 0.36500541 0.06256172
0.06256172 0.36494432 0.06256172
0.06256172 0.36485424 0.06256172
0.06256172 0.36472430 0.06256172
0.06256172 0.36454002 0.06256172
0.06256172 0.36428210 0.06256172
0.06256172 0.36392476 0.06256172
0.06256172 0.36343347 0.06256172
0.06256172 0.36276173 0.06256172
0.19651129 0.36184644 0.06256172
0.27786718 0.36060107 0.06256172
0.32428902 0.35890515 0.06256172
0.36110387 0.35658770 0.06256172
0.39350192 0.35339934 0.06256172
0.42349964 0.34896274 0.06256172
0.45209560 0.34267660 0.06256172
0.47985517 0.33350748 0.06256172
0.50712660 0.31945867 0.06256172
0.53413688 0.29580287 0.06256172
0.56103987 0.24477550 0.06256172
0.58794276 0.06256172 0.06256172
0.61492167 0.06256172 0.06256172
0.64203128 0.06256172 0.06256172
0.66931118 0.06256172 0.06256172
0.69679005 0.06256172 0.06256172
0.72448863 0.06256172 0.06256172
0.75242173 0.06256172 0.06256172
0.06256172 0.38752734 0.06256172
0.06256172 0.38752656 0.06256172
0.06256172 0.38752368 0.06256172
0.06256172 0.38751735 0.06256172
0.06256172 0.38750570 0.06256172
0.06256172 0.38748617 0.06256172
0.06256172 0.38745530 0.06256172
0.06256172 0.38740843 0.06256172
0.06256172 0.38733934 0.06256172
0.06256172 0.38723970 0.06256172
0.06256172 0.38709846 0.06256172
0.06256172 0.38690092 0.06256172
0.06256172 0.38662748 0.06256172
0.06256172 0.38625202 0.06256172
0.06256172 0.38573957 0.06256172
0.06256172 0.38504302 0.06256172
0.21816959 0.38409843 0.06256172
0.29853343 0.38281805 0.06256172
0.34579644 0.38107963 0.06256172
0.38338948 0.37870949 0.06256172
0.41646001 0.37545410 0.06256172
0.44704538 0.37092958 0.06256172
0.47616433 0.36452402 0.06256172
0.50439731 0.35518646 0.06256172
0.53210362 0.34089123 0.06256172
0.55951841 0.31687553 0.06256172
0.58680168 0.26569375 0.06256172
0.61406531 0.06256172 0.06256172
0.64138902 0.06256172 0.06256172
0.66883032 0.06256172 0.06256172
0.69643097 0.06256172 0.06256172
0.72422141 0.06256172 0.06256172
0.75222370 0.06256172 0.06256172
0.06256172 0.41040747 0.06256172
0.06256172 0.41040687 0.06256172
0.06256172 0.41040465 0.06256172
0.06256172 0.41039979 0.06256172
0.06256172 0.41039085 0.06256172
0.06256172 0.41037586 0.06256172
0.06256172 0.41035216 0.06256172
0.06256172 0.41031618 0.06256172
0.06256172 0.41026315 0.06256172
0.06256172 0.41018669 0.06256172
0.06256172 0.41007836 0.06256172
0.06256172 0.40992691 0.06256172
0.06256172 0.40971742 0.06256172
0.06256172 0.40943004 0.06256172
0.06256172 0.40903831 0.06256172
0.06256172 0.40850680 0.06256172
0.06256172 0.40778777 0.06256172
0.23952758 0.40681639 0.06256172
0.31963874 0.40550355 0.06256172
0.36777547 0.40372500 0.06256172
0.40613686 0.40130393 0.06256172
0.43986235 0.39798188 0.06256172
0.47101691 0.39336696 0.06256172
0.50064122 0.38683369 0.06256172
0.52933136 0.37730692 0.06256172
0.55745777 0.36271455 0.06256172
0.58526372 0.33819632 0.06256172
0.61291524 0.28616936 0.06256172
0.64052878 0.06256172 0.06256172
0.66818753 0.06256172 0.06256172
0.69595170 0.06256172 0.06256172
0.72386514 0.06256172 0.06256172
0.75195991 0.06256172 0.06256172
0.06256172 0.43372990 0.06256172
0.06256172 0.43372944 0.06256172
0.06256172 0.43372774 0.06256172
0.06256172 0.43372401 0.06256172
0.06256172 0.43371714 0.06256172
0.06256172 0.43370563 0.06256172
0.06256172 0.43368744 0.06256172
0.06256172 0.43365982 0.06256172
0.06256172 0.43361912 0.06256172
0.06256172 0.43356045 0.06256172
0.06256172 0.43347734 0.06256172
0.06256172 0.43336119 0.06256172
0.06256172 0.43320061 0.06256172
0.06256172 0.43298048 0.06256172
0.06256172 0.43268072 0.06256172
0.06256172 0.43227452 0.06256172
0.06256172 0.43172600 0.06256172
0.06256172 0.43098677 0.06256172
0.26078430 0.42999102 0.06256172
0.34117461 0.42864819 0.06256172
0.39021524 0.42683177 0.06256172
0.42933632 0.42436143 0.06256172
0.46370032 0.42097299 0.06256172
0.49540636 0.41626509 0.06256172
0.52551898 0.40959568 0.06256172
0.55465046 0.39985872 0.06256172
0.58318253 0.38491814 0.06256172
