src/ffmpeg_scripts/luts/rec2020-sRGB_-2p67.cube
TITLE "rec2020-srgb_-2p67"
LUT_3D_SIZE 33
# PQ (EOTF Only)/Rec2020 -> PQ (EOTF Only)/Rec709, CineEI Shift -2.67, Black Level 0.00% IRE, Input 100% -> Output 109% - Created with LUTCalc v4.01 by Ben Turley October 2020
0.06256172 0.06256172 0.06256172
0.07629253 0.06256172 0.06256172
0.09198246 0.06256172 0.06256172
0.10885369 0.06256172 0.06256172
0.12663299 0.06256172 0.06256172
0.14516879 0.06256172 0.06256172
0.16436201 0.06256172 0.06256172
0.18414180 0.06256172 0.06256172
0.20445444 0.06256172 0.06256172
0.22525754 0.06256172 0.06256172
0.24651660 0.06256172 0.06256172
0.26820290 0.06256172 0.06256172
0.29029207 0.06256172 0.06256172
0.31276314 0.06256172 0.06256172
0.33559779 0.06256172 0.06256172
0.35877991 0.06256172 0.06256172
0.38229515 0.06256172 0.06256172
0.40613066 0.06256172 0.06256172
0.43027482 0.06256172 0.06256172
0.45471709 0.06256172 0.06256172
0.47944786 0.06256172 0.06256172
0.50445830 0.06256172 0.06256172
0.52974026 0.06256172 0.06256172
0.55528623 0.06256172 0.06256172
0.58108923 0.06256172 0.06256172
0.60714273 0.06256172 0.06256172
0.63344068 0.06256172 0.06256172
0.65997737 0.06256172 0.06256172
0.68674746 0.06256172 0.06256172
0.71374592 0.06256172 0.06256172
0.74096800 0.06256172 0.06256172
0.76840922 0.06256172 0.06256172
0.79606532 0.06256172 0.06256172
0.06256172 0.07380281 0.06256172
0.07348338 0.07312974 0.06256172
0.09091211 0.07018840 0.06256172
0.10828982 0.06256172 0.06256172
0.12629712 0.06256172 0.06256172
0.14495455 0.06256172 0.06256172
0.16421916 0.06256172 0.06256172
0.18404354 0.06256172 0.06256172
0.20438528 0.06256172 0.06256172
0.22520800 0.06256172 0.06256172
0.24648062 0.06256172 0.06256172
0.26817648 0.06256172 0.06256172
0.29027250 0.06256172 0.06256172
0.31274853 0.06256172 0.06256172
0.33558684 0.06256172 0.06256172
0.35877165 0.06256172 0.06256172
0.38228891 0.06256172 0.06256172
0.40612592 0.06256172 0.06256172
0.43027121 0.06256172 0.06256172
0.45471435 0.06256172 0.06256172
0.47944577 0.06256172 0.06256172
0.50445671 0.06256172 0.06256172
0.52973905 0.06256172 0.06256172
0.55528531 0.06256172 0.06256172
0.58108853 0.06256172 0.06256172
0.60714220 0.06256172 0.06256172
0.63344028 0.06256172 0.06256172
0.65997707 0.06256172 0.06256172
0.68674723 0.06256172 0.06256172
0.71374575 0.06256172 0.06256172
0.74096787 0.06256172 0.06256172
0.76840912 0.06256172 0.06256172
0.79606525 0.06256172 0.06256172
0.06256172 0.08709000 0.06256172
0.06256172 0.08680993 0.06256172
0.08645330 0.08574579 0.06256172
0.10612435 0.08317786 0.06256172
0.12503715 0.07711669 0.06256172
0.14415855 0.06256172 0.06256172
0.16369089 0.06256172 0.06256172
0.18368109 0.06256172 0.06256172
0.20413054 0.06256172 0.06256172
0.22502567 0.06256172 0.06256172
0.24634827 0.06256172 0.06256172
0.26807933 0.06256172 0.06256172
0.29020055 0.06256172 0.06256172
0.31269487 0.06256172 0.06256172
0.33554658 0.06256172 0.06256172
0.35874131 0.06256172 0.06256172
0.38226596 0.06256172 0.06256172
0.40610851 0.06256172 0.06256172
0.43025798 0.06256172 0.06256172
0.45470428 0.06256172 0.06256172
0.47943811 0.06256172 0.06256172
0.50445086 0.06256172 0.06256172
0.52973460 0.06256172 0.06256172
0.55528193 0.06256172 0.06256172
0.58108595 0.06256172 0.06256172
0.60714025 0.06256172 0.06256172
0.63343880 0.06256172 0.06256172
0.65997595 0.06256172 0.06256172
0.68674639 0.06256172 0.06256172
0.71374512 0.06256172 0.06256172
0.74096740 0.06256172 0.06256172
0.76840877 0.06256172 0.06256172
0.79606499 0.06256172 0.06256172
0.06256172 0.10166741 0.06256172
0.06256172 0.10151581 0.06256172
0.06774613 0.10095166 0.06256172
0.10072292 0.09967071 0.06256172
0.12211248 0.09713854 0.06256172
0.14235895 0.09222356 0.06256172
0.16251117 0.08111312 0.06256172
0.18287691 0.06256172 0.06256172
0.20356744 0.06256172 0.06256172
0.22462356 0.06256172 0.06256172
0.24605680 0.06256172 0.06256172
0.26786559 0.06256172 0.06256172
0.29004236 0.06256172 0.06256172
0.31257692 0.06256172 0.06256172
0.33545812 0.06256172 0.06256172
0.35867466 0.06256172 0.06256172
0.38221555 0.06256172 0.06256172
0.40607028 0.06256172 0.06256172
0.43022893 0.06256172 0.06256172
0.45468217 0.06256172 0.06256172
0.47942127 0.06256172 0.06256172
0.50443804 0.06256172 0.06256172
0.52972483 0.06256172 0.06256172
0.55527449 0.06256172 0.06256172
0.58108030 0.06256172 0.06256172
0.60713596 0.06256172 0.06256172
0.63343555 0.06256172 0.06256172
0.65997350 0.06256172 0.06256172
0.68674454 0.06256172 0.06256172
0.71374373 0.06256172 0.06256172
0.74096636 0.06256172 0.06256172
0.76840800 0.06256172 0.06256172
0.79606442 0.06256172 0.06256172
0.06256172 0.11725978 0.06256172
0.06256172 0.11716798 0.06256172
0.06256172 0.11682862 0.06256172
0.08628801 0.11607161 0.06256172
0.11601834 0.11463252 0.06256172
0.13883816 0.11207185 0.06256172
0.16026356 0.10755745 0.06256172
0.18136523 0.09906229 0.06256172
0.20251689 0.07528207 0.06256172
0.22387674 0.06256172 0.06256172
0.24551701 0.06256172 0.06256172
0.26747047 0.06256172 0.06256172
0.28975028 0.06256172 0.06256172
0.31235934 0.06256172 0.06256172
0.33529503 0.06256172 0.06256172
0.35855182 0.06256172 0.06256172
0.38212268 0.06256172 0.06256172
0.40599987 0.06256172 0.06256172
0.43017543 0.06256172 0.06256172
0.45464146 0.06256172 0.06256172
0.47939026 0.06256172 0.06256172
0.50441442 0.06256172 0.06256172
0.52970684 0.06256172 0.06256172
0.55526080 0.06256172 0.06256172
0.58106990 0.06256172 0.06256172
0.60712806 0.06256172 0.06256172
0.63342957 0.06256172 0.06256172
0.65996898 0.06256172 0.06256172
0.68674114 0.06256172 0.06256172
0.71374118 0.06256172 0.06256172
0.74096446 0.06256172 0.06256172
0.76840658 0.06256172 0.06256172
0.79606336 0.06256172 0.06256172
0.06256172 0.13371221 0.06256172
0.06256172 0.13365292 0.06256172
0.06256172 0.13343438 0.06256172
0.06256172 0.13295041 0.06256172
0.10231460 0.13204412 0.06256172
0.13218510 0.13047753 0.06256172
0.15624832 0.12786765 0.06256172
0.17873385 0.12353449 0.06256172
0.20071347 0.11604188 0.06256172
0.22260513 0.10095205 0.06256172
0.24460253 0.06256172 0.06256172
0.26680327 0.06256172 0.06256172
0.28925815 0.06256172 0.06256172
0.31199326 0.06256172 0.06256172
0.33502093 0.06256172 0.06256172
0.35834552 0.06256172 0.06256172
0.38196679 0.06256172 0.06256172
0.40588171 0.06256172 0.06256172
0.43008568 0.06256172 0.06256172
0.45457318 0.06256172 0.06256172
0.47933827 0.06256172 0.06256172
0.50437482 0.06256172 0.06256172
0.52967669 0.06256172 0.06256172
0.55523785 0.06256172 0.06256172
0.58105245 0.06256172 0.06256172
0.60711483 0.06256172 0.06256172
0.63341955 0.06256172 0.06256172
0.65996141 0.06256172 0.06256172
0.68673544 0.06256172 0.06256172
0.71373690 0.06256172 0.06256172
0.74096126 0.06256172 0.06256172
0.76840420 0.06256172 0.06256172
0.79606160 0.06256172 0.06256172
0.06256172 0.15092237 0.06256172
0.06256172 0.15088244 0.06256172
0.06256172 0.15073544 0.06256172
0.06256172 0.15041106 0.06256172
0.06256172 0.14980795 0.06256172
0.11865298 0.14877894 0.06256172
0.14912106 0.14710395 0.06256172
0.17429483 0.14443697 0.06256172
0.19774669 0.14018903 0.06256172
0.22054251 0.13321468 0.06256172
0.24313180 0.12064091 0.06256172
0.26573604 0.08619174 0.06256172
0.28847378 0.06256172 0.06256172
0.31141122 0.06256172 0.06256172
0.33458584 0.06256172 0.06256172
0.35801845 0.06256172 0.06256172
0.38171985 0.06256172 0.06256172
0.40569466 0.06256172 0.06256172
0.42994365 0.06256172 0.06256172
0.45446516 0.06256172 0.06256172
0.47925604 0.06256172 0.06256172
0.50431220 0.06256172 0.06256172
0.52962901 0.06256172 0.06256172
0.55520157 0.06256172 0.06256172
0.58102488 0.06256172 0.06256172
0.60709391 0.06256172 0.06256172
0.63340371 0.06256172 0.06256172
0.65994944 0.06256172 0.06256172
0.68672643 0.06256172 0.06256172
0.71373014 0.06256172 0.06256172
0.74095620 0.06256172 0.06256172
0.76840043 0.06256172 0.06256172
0.79605881 0.06256172 0.06256172
0.06256172 0.16881647 0.06256172
0.06256172 0.16878876 0.06256172
0.06256172 0.16868684 0.06256172
0.06256172 0.16846236 0.06256172
0.06256172 0.16804659 0.06256172
0.06256172 0.16734202 0.06256172
0.13555862 0.16620837 0.06256172
0.16675243 0.16443817 0.06256172
0.19293645 0.16171105 0.06256172
0.21727859 0.15749764 0.06256172
0.24083713 0.15082239 0.06256172
0.26408546 0.13950476 0.06256172
0.28726754 0.11593363 0.06256172
0.31051955 0.06256172 0.06256172
0.33392106 0.06256172 0.06256172
0.35751963 0.06256172 0.06256172
0.38134373 0.06256172 0.06256172
0.40541003 0.06256172 0.06256172
0.42972768 0.06256172 0.06256172
0.45430100 0.06256172 0.06256172
0.47913112 0.06256172 0.06256172
0.50421709 0.06256172 0.06256172
0.52955661 0.06256172 0.06256172
0.55514649 0.06256172 0.06256172
0.58098302 0.06256172 0.06256172
0.60706215 0.06256172 0.06256172
0.63337966 0.06256172 0.06256172
0.65993129 0.06256172 0.06256172
0.68671276 0.06256172 0.06256172
0.71371988 0.06256172 0.06256172
0.74094853 0.06256172 0.06256172
0.76839473 0.06256172 0.06256172
0.79605459 0.06256172 0.06256172
0.06256172 0.18733816 0.06256172
0.06256172 0.18731851 0.06256172
0.06256172 0.18724625 0.06256172
0.06256172 0.18708727 0.06256172
0.06256172 0.18679346 0.06256172
0.06256172 0.18629751 0.06256172
0.09819410 0.18550467 0.06256172
0.15306673 0.18427957 0.06256172
0.18502288 0.18242392 0.06256172
0.21213812 0.17963574 0.06256172
0.23730734 0.17542683 0.06256172
0.26158191 0.16893088 0.06256172
0.28545422 0.15834897 0.06256172
0.30918700 0.13855059 0.06256172
0.33293156 0.06256172 0.06256172
0.35677923 0.06256172 0.06256172
0.38078656 0.06256172 0.06256172
0.40498899 0.06256172 0.06256172
0.42940854 0.06256172 0.06256172
0.45405859 0.06256172 0.06256172
0.47894676 0.06256172 0.06256172
0.50407679 0.06256172 0.06256172
0.52944984 0.06256172 0.06256172
0.55506529 0.06256172 0.06256172
0.58092132 0.06256172 0.06256172
0.60701535 0.06256172 0.06256172
0.63334423 0.06256172 0.06256172
0.65990452 0.06256172 0.06256172
0.68669261 0.06256172 0.06256172
0.71370475 0.06256172 0.06256172
0.74093723 0.06256172 0.06256172
0.76838631 0.06256172 0.06256172
0.79604836 0.06256172 0.06256172
0.06256172 0.20644271 0.06256172
0.06256172 0.20642853 0.06256172
0.06256172 0.20637642 0.06256172
0.06256172 0.20626186 0.06256172
0.06256172 0.20605040 0.06256172
0.06256172 0.20569431 0.06256172
0.06256172 0.20512724 0.06256172
0.12086800 0.20425638 0.06256172
0.17116536 0.20294995 0.06256172
0.20388760 0.20101643 0.06256172
0.23186979 0.19816723 0.06256172
0.25781255 0.19394357 0.06256172
0.28276196 0.18755346 0.06256172
0.30722631 0.17743388 0.06256172
0.33148443 0.15962352 0.06256172
0.35570091 0.11310494 0.06256172
0.37997749 0.06256172 0.06256172
0.40437886 0.06256172 0.06256172
0.42894679 0.06256172 0.06256172
0.45370825 0.06256172 0.06256172
0.47868053 0.06256172 0.06256172
0.50387431 0.06256172 0.06256172
0.52929582 0.06256172 0.06256172
0.55494818 0.06256172 0.06256172
0.58083237 0.06256172 0.06256172
0.60694788 0.06256172 0.06256172
0.63329316 0.06256172 0.06256172
0.65986596 0.06256172 0.06256172
0.68666357 0.06256172 0.06256172
0.71368297 0.06256172 0.06256172
0.74092094 0.06256172 0.06256172
0.76837419 0.06256172 0.06256172
0.79603938 0.06256172 0.06256172
0.06256172 0.22609352 0.06256172
0.06256172 0.22608316 0.06256172
0.06256172 0.22604508 0.06256172
0.06256172 0.22596139 0.06256172
0.06256172 0.22580706 0.06256172
0.06256172 0.22554755 0.06256172
0.06256172 0.22513529 0.06256172
0.06256172 0.22450459 0.06256172
0.14134573 0.22356400 0.06256172
0.18983091 0.22218433 0.06256172
0.22330994 0.22017902 0.06256172
0.25210549 0.21726932 0.06256172
0.27877564 0.21301777 0.06256172
0.30436321 0.20668468 0.06256172
0.32939036 0.19686300 0.06256172
0.35415013 0.18025356 0.06256172
0.37881891 0.14408069 0.06256172
0.40350785 0.06256172 0.06256172
0.42828903 0.06256172 0.06256172
0.45321000 0.06256172 0.06256172
0.47830234 0.06256172 0.06256172
0.50358693 0.06256172 0.06256172
0.52907737 0.06256172 0.06256172
0.55478217 0.06256172 0.06256172
0.58070632 0.06256172 0.06256172
0.60685230 0.06256172 0.06256172
0.63322082 0.06256172 0.06256172
0.65981135 0.06256172 0.06256172
0.68662246 0.06256172 0.06256172
0.71365212 0.06256172 0.06256172
0.74089789 0.06256172 0.06256172
0.76835704 0.06256172 0.06256172
0.79602667 0.06256172 0.06256172
0.06256172 0.24625997 0.06256172
0.06256172 0.24625232 0.06256172
0.06256172 0.24622419 0.06256172
0.06256172 0.24616241 0.06256172
0.06256172 0.24604853 0.06256172
0.06256172 0.24585722 0.06256172
0.06256172 0.24555380 0.06256172
0.06256172 0.24509074 0.06256172
0.06256172 0.24440275 0.06256172
0.16132799 0.24339930 0.06256172
0.20903786 0.24195304 0.06256172
0.24325919 0.23988095 0.06256172
0.27282255 0.23691148 0.06256172
0.30017973 0.23262262 0.06256172
0.32637244 0.22631205 0.06256172
0.35193551 0.21667992 0.06256172
0.37717471 0.20084046 0.06256172
0.40227718 0.16931509 0.06256172
0.42736260 0.06256172 0.06256172
0.45250983 0.06256172 0.06256172
0.47777178 0.06256172 0.06256172
0.50318427 0.06256172 0.06256172
0.52877156 0.06256172 0.06256172
0.55454993 0.06256172 0.06256172
0.58053007 0.06256172 0.06256172
0.60671871 0.06256172 0.06256172
0.63311975 0.06256172 0.06256172
0.65973506 0.06256172 0.06256172
0.68656504 0.06256172 0.06256172
0.71360904 0.06256172 0.06256172
0.74086569 0.06256172 0.06256172
0.76833308 0.06256172 0.06256172
0.79600893 0.06256172 0.06256172
0.06256172 0.26691597 0.06256172
0.06256172 0.26691027 0.06256172
0.06256172 0.26688932 0.06256172
0.06256172 0.26684331 0.06256172
0.06256172 0.26675855 0.06256172
0.06256172 0.26661625 0.06256172
0.06256172 0.26639079 0.06256172
0.06256172 0.26604728 0.06256172
0.06256172 0.26553817 0.06256172
0.06256172 0.26479837 0.06256172
0.18130763 0.26373789 0.06256172
0.22876182 0.26223063 0.06256172
0.26370919 0.26009603 0.06256172
0.29400097 0.25706759 0.06256172
0.32200942 0.25273434 0.06256172
0.34877734 0.24642064 0.06256172
0.37485142 0.23690165 0.06256172
0.40054921 0.22156425 0.06256172
0.42606763 0.19267330 0.06256172
0.45153430 0.06256172 0.06256172
0.47703431 0.06256172 0.06256172
0.50262555 0.06256172 0.06256172
0.52834777 0.06256172 0.06256172
0.55422840 0.06256172 0.06256172
0.58028623 0.06256172 0.06256172
0.60653399 0.06256172 0.06256172
0.63298006 0.06256172 0.06256172
0.65962965 0.06256172 0.06256172
0.68648571 0.06256172 0.06256172
0.71354955 0.06256172 0.06256172
0.74082123 0.06256172 0.06256172
0.76830000 0.06256172 0.06256172
0.79598444 0.06256172 0.06256172
0.06256172 0.28803895 0.06256172
0.06256172 0.28803467 0.06256172
0.06256172 0.28801897 0.06256172
0.06256172 0.28798448 0.06256172
0.06256172 0.28792095 0.06256172
0.06256172 0.28781434 0.06256172
0.06256172 0.28764555 0.06256172
0.06256172 0.28738868 0.06256172
0.06256172 0.28700862 0.06256172
0.06256172 0.28645772 0.06256172
0.06256172 0.28567089 0.06256172
0.20148107 0.28455846 0.06256172
0.24898029 0.28299501 0.06256172
0.28463730 0.28080156 0.06256172
0.31562299 0.27771495 0.06256172
0.34425068 0.27333178 0.06256172
0.37156641 0.26699503 0.06256172
0.39812834 0.25753224 0.06256172
0.42426501 0.24251499 0.06256172
0.45018251 0.21524861 0.06256172
0.47601578 0.12355578 0.06256172
0.50185575 0.06256172 0.06256172
0.52776494 0.06256172 0.06256172
0.55378679 0.06256172 0.06256172
0.57995166 0.06256172 0.06256172
0.60628074 0.06256172 0.06256172
0.63278864 0.06256172 0.06256172
0.65948527 0.06256172 0.06256172
0.68637710 0.06256172 0.06256172
0.71346810 0.06256172 0.06256172
0.74076039 0.06256172 0.06256172
0.76825473 0.06256172 0.06256172
0.79595092 0.06256172 0.06256172
0.06256172 0.30960917 0.06256172
0.06256172 0.30960595 0.06256172
0.06256172 0.30959411 0.06256172
0.06256172 0.30956811 0.06256172
0.06256172 0.30952023 0.06256172
0.06256172 0.30943991 0.06256172
0.06256172 0.30931281 0.06256172
0.06256172 0.30911952 0.06256172
0.06256172 0.30883388 0.06256172
0.06256172 0.30842055 0.06256172
0.06256172 0.30783169 0.06256172
0.06256172 0.30700211 0.06256172
0.22193780 0.30584218 0.06256172
0.26967285 0.30422676 0.06256172
0.30602368 0.30197766 0.06256172
0.33767268 0.29883365 0.06256172
0.36689063 0.29439607 0.06256172
0.39472891 0.28802017 0.06256172
0.42175700 0.27856906 0.06256172
0.44831390 0.26373969 0.06256172
0.47461434 0.23749653 0.06256172
0.50080013 0.16628189 0.06256172
0.52696767 0.06256172 0.06256172
0.55318381 0.06256172 0.06256172
0.57949547 0.06256172 0.06256172
0.60593577 0.06256172 0.06256172
0.63252810 0.06256172 0.06256172
0.65928887 0.06256172 0.06256172
0.68622942 0.06256172 0.06256172
0.71335739 0.06256172 0.06256172
0.74067770 0.06256172 0.06256172
0.76819323 0.06256172 0.06256172
0.79590540 0.06256172 0.06256172
0.06256172 0.33160916 0.06256172
0.06256172 0.33160672 0.06256172
0.06256172 0.33159776 0.06256172
0.06256172 0.33157808 0.06256172
0.06256172 0.33154184 0.06256172
0.06256172 0.33148105 0.06256172
0.06256172 0.33138489 0.06256172
0.06256172 0.33123874 0.06256172
0.06256172 0.33102295 0.06256172
0.06256172 0.33071106 0.06256172
0.06256172 0.33026750 0.06256172
0.06256172 0.32964419 0.06256172
0.13422062 0.32877572 0.06256172
0.24272058 0.32757227 0.06256172
0.29082100 0.32590864 0.06256172
0.32785080 0.32360673 0.06256172
0.36013570 0.32040604 0.06256172
0.38991744 0.31591025 0.06256172
0.41825481 0.30948170 0.06256172
0.44572864 0.30000600 0.06256172
0.47268805 0.28526266 0.06256172
0.49935595 0.25964212 0.06256172
0.52588068 0.19674970 0.06256172
0.55236379 0.06256172 0.06256172
0.57887624 0.06256172 0.06256172
0.60546817 0.06256172 0.06256172
0.63217532 0.06256172 0.06256172
0.65902315 0.06256172 0.06256172
0.68602973 0.06256172 0.06256172
0.71320777 0.06256172 0.06256172
0.74056598 0.06256172 0.06256172
0.76811016 0.06256172 0.06256172
0.79584391 0.06256172 0.06256172
0.06256172 0.35402334 0.06256172
0.06256172 0.35402149 0.06256172
0.06256172 0.35401468 0.06256172
0.06256172 0.35399973 0.06256172
0.06256172 0.35397220 0.06256172
0.06256172 0.35392604 0.06256172
0.06256172 0.35385303 0.06256172
0.06256172 0.35374211 0.06256172
0.06256172 0.35357844 0.06256172
0.06256172 0.35334208 0.06256172
0.06256172 0.35300635 0.06256172
0.06256172 0.35253540 0.06256172
0.06256172 0.35188087 0.06256172
0.16655552 0.35097703 0.06256172
0.26384927 0.34973369 0.06256172
0.31240799 0.34802521 0.06256172
0.35010298 0.34567305 0.06256172
0.38299899 0.34241633 0.06256172
0.41332016 0.33785899 0.06256172
0.44213469 0.33136609 0.06256172
0.47003496 0.32183503 0.06256172
0.49737994 0.30709522 0.06256172
0.52440044 0.28180661 0.06256172
0.55125099 0.22328652 0.06256172
0.57803806 0.06256172 0.06256172
0.60483645 0.06256172 0.06256172
0.63169940 0.06256172 0.06256172
0.65866506 0.06256172 0.06256172
0.68576086 0.06256172 0.06256172
0.71300643 0.06256172 0.06256172
0.74041572 0.06256172 0.06256172
0.76799846 0.06256172 0.06256172
0.79576126 0.06256172 0.06256172
0.06256172 0.37683769 0.06256172
0.06256172 0.37683628 0.06256172
0.06256172 0.37683109 0.06256172
0.06256172 0.37681971 0.06256172
0.06256172 0.37679874 0.06256172
0.06256172 0.37676359 0.06256172
0.06256172 0.37670801 0.06256172
0.06256172 0.37662360 0.06256172
0.06256172 0.37649908 0.06256172
0.06256172 0.37631938 0.06256172
0.06256172 0.37606437 0.06256172
0.06256172 0.37570710 0.06256172
0.06256172 0.37521143 0.06256172
0.06256172 0.37452868 0.06256172
0.19351482 0.37359272 0.06256172
0.28533153 0.37231280 0.06256172
0.33441859 0.37056257 0.06256172
0.37276615 0.36816247 0.06256172
0.40625068 0.36485030 0.06256172
0.43708866 0.36022838 0.06256172
0.46635972 0.35366063 0.06256172
0.49466806 0.34404717 0.06256172
0.52238238 0.32924090 0.06256172
0.54974114 0.30405758 0.06256172
0.57690483 0.24789534 0.06256172
0.60398458 0.06256172 0.06256172
0.63105887 0.06256172 0.06256172
0.65818383 0.06256172 0.06256172
0.68539991 0.06256172 0.06256172
0.71273637 0.06256172 0.06256172
0.74021430 0.06256172 0.06256172
0.76784881 0.06256172 0.06256172
0.79565057 0.06256172 0.06256172
0.06256172 0.40003952 0.06256172
0.06256172 0.40003844 0.06256172
0.06256172 0.40003448 0.06256172
0.06256172 0.40002580 0.06256172
0.06256172 0.40000980 0.06256172
0.06256172 0.39998299 0.06256172
0.06256172 0.39994059 0.06256172
0.06256172 0.39987622 0.06256172
0.06256172 0.39978129 0.06256172
0.06256172 0.39964436 0.06256172
0.06256172 0.39945016 0.06256172
0.06256172 0.39917833 0.06256172
0.06256172 0.39880171 0.06256172
0.06256172 0.39828385 0.06256172
0.06256172 0.39757570 0.06256172
0.21839902 0.39661064 0.06256172
0.30716820 0.39529723 0.06256172
0.35683890 0.39350810 0.06256172
0.39582754 0.39106219 0.06256172
0.42987984 0.38769505 0.06256172
0.46121351 0.38300572 0.06256172
0.49092156 0.37635343 0.06256172
0.51962042 0.36663295 0.06256172
0.54768848 0.35169821 0.06256172
0.57537164 0.32643175 0.06256172
0.60283616 0.27135884 0.06256172
0.63019765 0.06256172 0.06256172
0.65753806 0.06256172 0.06256172
0.68491627 0.06256172 0.06256172
0.71237491 0.06256172 0.06256172
0.73994493 0.06256172 0.06256172
0.76764880 0.06256172 0.06256172
0.79550270 0.06256172 0.06256172
0.06256172 0.42361727 0.06256172
0.06256172 0.42361645 0.06256172
0.06256172 0.42361343 0.06256172
0.06256172 0.42360679 0.06256172
0.06256172 0.42359458 0.06256172
0.06256172 0.42357409 0.06256172
0.06256172 0.42354171 0.06256172
0.06256172 0.42349255 0.06256172
0.06256172 0.42342008 0.06256172
0.06256172 0.42331557 0.06256172
0.06256172 0.42316743 0.06256172
0.06256172 0.42296022 0.06256172
0.06256172 0.42267338 0.06256172
0.06256172 0.42227950 0.06256172
0.06256172 0.42174186 0.06256172
0.06256172 0.42101097 0.06256172
0.24228356 0.42001966 0.06256172
0.32935618 0.41867565 0.06256172
0.37965618 0.41685027 0.06256172
0.41927553 0.41436051 0.06256172
0.45387642 0.41093883 0.06256172
0.48568589 0.40617933 0.06256172
0.51581234 0.39943329 0.06256172
0.54488488 0.38958267 0.06256172
0.57329160 0.37446232 0.06256172
0.60128574 0.34894659 0.06256172
0.62903913 0.29403719 0.06256172
0.65667169 0.06256172 0.06256172
0.68426871 0.06256172 0.06256172
0.71189167 0.06256172 0.06256172
0.73958522 0.06256172 0.06256172
0.76738193 0.06256172 0.06256172
0.79530553 0.06256172 0.06256172
0.06256172 0.44756038 0.06256172
0.06256172 0.44755975 0.06256172
0.06256172 0.44755744 0.06256172
0.06256172 0.44755237 0.06256172
0.06256172 0.44754303 0.06256172
0.06256172 0.44752737 0.06256172
0.06256172 0.44750263 0.06256172
0.06256172 0.44746506 0.06256172
0.06256172 0.44740969 0.06256172
0.06256172 0.44732986 0.06256172
0.06256172 0.44721674 0.06256172
0.06256172 0.44705859 0.06256172
0.06256172 0.44683983 0.06256172
0.06256172 0.44653972 0.06256172
0.06256172 0.44613061 0.06256172
0.06256172 0.44557547 0.06256172
0.06256172 0.44482438 0.06256172
0.26564521 0.44380953 0.06256172
0.35188995 0.44243763 0.06256172
0.40285871 0.44057852 0.06256172
0.44309947 0.43804675 0.06256172
0.47823110 0.43457086 0.06256172
0.51049755 0.42973845 0.06256172
0.54102459 0.42288969 0.06256172
0.57045457 0.41288658 0.06256172
0.59918535 0.39752596 0.06256172
0.62747741 0.37160633 0.06256172
0.65550804 0.31609697 0.06256172
0.68340129 0.06256172 0.06256172
0.71124566 0.06256172 0.06256172
0.73910508 0.06256172 0.06256172
0.76702613 0.06256172 0.06256172
0.79504287 0.06256172 0.06256172
0.06256172 0.47185911 0.06256172
0.06256172 0.47185863 0.06256172
0.06256172 0.47185686 0.06256172
0.06256172 0.47185298 0.06256172
0.06256172 0.47184584 0.06256172
0.06256172 0.47183388 0.06256172
0.06256172 0.47181496 0.06256172
0.06256172 0.47178625 0.06256172
0.06256172 0.47174393 0.06256172
0.06256172 0.47168294 0.06256172
0.06256172 0.47159653 0.06256172
0.06256172 0.47147577 0.06256172
0.06256172 0.47130882 0.06256172
0.06256172 0.47107994 0.06256172
0.06256172 0.47076824 0.06256172
0.06256172 0.47034585 0.06256172
0.06256172 0.46977542 0.06256172
0.06256172 0.46900656 0.06256172
0.28872801 0.46797074 0.06256172
0.37476254 0.46657357 0.06256172
0.42643567 0.46468311 0.06256172
0.46728958 0.46211105 0.06256172
0.50293523 0.45858121 0.06256172
0.53564072 0.45367313 0.06256172
0.56655121 0.44671270 0.06256172
0.59632290 0.43653489 0.06256172
0.62536354 0.42087993 0.06256172
