src/ffmpeg_scripts/luts/rec2020-sRGB_2p67.cube
TITLE "rec2020-srgb_2p67"
LUT_3D_SIZE 5
# PQ (EOTF Only)/Rec2020 -> PQ (EOTF Only)/Rec709, CineEI Shift 2.67, Black Level 0.00% IRE, Input 100% -> Output 109% - Created with LUTCalc v4.01 by Ben Turley October 2020
0.06256172 0.06256172 0.06256172
0.44638141 0.06256172 0.06256172
0.70376022 0.06256172 0.06256172
0.91886608 0.06256172 0.06256172
0.91886608 0.06256172 0.06256172
0.06256172 0.41556659 0.06256172
0.41126774 0.40640222 0.06256172
0.70189644 0.06256172 0.06256172
0.91886608 0.06256172 0.06256172
0.91886608 0.06256172 0.06256172
0.06256172 0.66814857 0.06256172
0.06256172 0.66757614 0.06256172
0.66309107 0.65733921 0.06256172
0.91886608 0.06256172 0.06256172
0.91886608 0.06256172 0.06256172
0.06256172 0.88763622 0.06256172
0.06256172 0.88758389 0.06256172
0.06256172 0.88669506 0.06256172
0.88268804 0.87704397 0.06256172
0.91886608 0.06256172 0.06256172
0.06256172 0.91886608 0.06256172
0.06256172 0.91886608 0.06256172
0.06256172 0.91886608 0.06256172
0.06256172 0.91886608 0.06256172
0.91886608 0.91886608 0.06256172
0.06256172 0.06256172 0.41457101
0.44270972 0.06256172 0.41327903
0.70353116 0.06256172 0.38792978
0.91886608 0.06256172 0.06256172
0.91886608 0.06256172 0.06256172
0.06256172 0.41498134 0.40715927
0.40575209 0.40575209 0.40575209
0.70166280 0.06256172 0.37767819
0.91886608 0.06256172 0.06256172
0.91886608 0.06256172 0.06256172
0.06256172 0.66811030 0.06256172
0.06256172 0.66753764 0.06256172
0.66273825 0.65729630 0.06256172
0.91886608 0.06256172 0.06256172
0.91886608 0.06256172 0.06256172
0.06256172 0.88763271 0.06256172
0.06256172 0.88758039 0.06256172
0.06256172 0.88669152 0.06256172
0.88265567 0.87704001 0.06256172
0.91886608 0.06256172 0.06256172
0.06256172 0.91886608 0.06256172
0.06256172 0.91886608 0.06256172
0.06256172 0.91886608 0.06256172
0.06256172 0.91886608 0.06256172
0.91886608 0.91886608 0.06256172
0.06256172 0.06256172 0.66697931
0.32975511 0.06256172 0.66689506
0.69957391 0.06256172 0.66546013
0.91886608 0.06256172 0.64937073
0.91886608 0.06256172 0.06256172
0.06256172 0.40445032 0.66651155
0.06256172 0.39395995 0.66642689
0.69762443 0.06256172 0.66498478
0.91886608 0.06256172 0.64880691
0.91886608 0.06256172 0.06256172
0.06256172 0.66746136 0.65823612
0.06256172 0.66688474 0.65814371
0.65656839 0.65656839 0.65656839
0.91869868 0.06256172 0.63873362
0.91886608 0.06256172 0.06256172
0.06256172 0.88757344 0.39156306
0.06256172 0.88752108 0.38987542
0.06256172 0.88663161 0.35470504
0.88210689 0.87697317 0.06256172
0.91886608 0.06256172 0.06256172
0.06256172 0.91886608 0.06256172
0.06256172 0.91886608 0.06256172
0.06256172 0.91886608 0.06256172
0.06256172 0.91886608 0.06256172
0.91886608 0.91886608 0.06256172
0.06256172 0.06256172 0.88649343
0.06256172 0.06256172 0.88648571
0.64514095 0.06256172 0.88635511
0.91808574 0.06256172 0.88500758
0.91886608 0.06256172 0.87007168
0.06256172 0.06256172 0.88645063
0.06256172 0.06256172 0.88644290
0.64164247 0.06256172 0.88631224
0.91791163 0.06256172 0.88496405
0.91886608 0.06256172 0.87002012
0.06256172 0.66055190 0.88572422
0.06256172 0.65993139 0.88571643
0.54581459 0.64877932 0.88558468
0.91491527 0.06256172 0.88422520
0.91886608 0.06256172 0.86914440
0.06256172 0.88696466 0.87792524
0.06256172 0.88691194 0.87791673
0.06256172 0.88601625 0.87777278
0.87628625 0.87628625 0.87628625
0.91886608 0.06256172 0.85964987
0.06256172 0.91886608 0.65865476
0.06256172 0.91886608 0.65856276
0.06256172 0.91886608 0.65699446
0.06256172 0.91886608 0.63924788
0.91886608 0.91886608 0.06256172
0.06256172 0.06256172 0.91886608
0.06256172 0.06256172 0.91886608
0.06256172 0.06256172 0.91886608
0.86864499 0.06256172 0.91886608
0.91886608 0.06256172 0.91886608
0.06256172 0.06256172 0.91886608
0.06256172 0.06256172 0.91886608
0.06256172 0.06256172 0.91886608
0.86833844 0.06256172 0.91886608
0.91886608 0.06256172 0.91886608
0.06256172 0.52263803 0.91886608
0.06256172 0.51992459 0.91886608
0.06256172 0.45516671 0.91886608
0.86299200 0.06256172 0.91886608
0.91886608 0.06256172 0.91886608
0.06256172 0.88055564 0.91886608
0.06256172 0.88049893 0.91886608
0.06256172 0.87953519 0.91886608
0.77444395 0.86901832 0.91886608
0.91886608 0.06256172 0.91886608
0.06256172 0.91886608 0.91886608
0.06256172 0.91886608 0.91886608
0.06256172 0.91886608 0.91886608
0.06256172 0.91886608 0.91886608
0.91886608 0.91886608 0.91886608
