src/ffmpeg_scripts/luts/rec2020-sRGB_-2p33.cube
TITLE "rec2020-srgb_-2p33"
LUT_3D_SIZE 33
# PQ (EOTF Only)/Rec2020 -> PQ (EOTF Only)/Rec709, CineEI Shift -2.33, Black Level 0.00% IRE, Input 100% -> Output 109% - Created with LUTCalc v4.01 by Ben Turley October 2020
0.06256172 0.06256172 0.06256172
0.07802582 0.06256172 0.06256172
0.09532227 0.06256172 0.06256172
0.11369355 0.06256172 0.06256172
0.13287955 0.06256172 0.06256172
0.15273739 0.06256172 0.06256172
0.17317431 0.06256172 0.06256172
0.19412433 0.06256172 0.06256172
0.21553767 0.06256172 0.06256172
0.23737522 0.06256172 0.06256172
0.25960524 0.06256172 0.06256172
0.28220141 0.06256172 0.06256172
0.30514147 0.06256172 0.06256172
0.32840629 0.06256172 0.06256172
0.35197923 0.06256172 0.06256172
0.37584569 0.06256172 0.06256172
0.39999267 0.06256172 0.06256172
0.42440856 0.06256172 0.06256172
0.44908291 0.06256172 0.06256172
0.47400624 0.06256172 0.06256172
0.49916990 0.06256172 0.06256172
0.52456599 0.06256172 0.06256172
0.55018723 0.06256172 0.06256172
0.57602689 0.06256172 0.06256172
0.60207874 0.06256172 0.06256172
0.62833700 0.06256172 0.06256172
0.65479624 0.06256172 0.06256172
0.68145142 0.06256172 0.06256172
0.70829780 0.06256172 0.06256172
0.73533091 0.06256172 0.06256172
0.76254656 0.06256172 0.06256172
0.78994078 0.06256172 0.06256172
0.81750982 0.06256172 0.06256172
0.06256172 0.07525367 0.06256172
0.07489729 0.07450253 0.06256172
0.09414991 0.07121003 0.06256172
0.11308242 0.06256172 0.06256172
0.13251847 0.06256172 0.06256172
0.15250859 0.06256172 0.06256172
0.17302262 0.06256172 0.06256172
0.19402051 0.06256172 0.06256172
0.21546492 0.06256172 0.06256172
0.23732331 0.06256172 0.06256172
0.25956768 0.06256172 0.06256172
0.28217393 0.06256172 0.06256172
0.30512117 0.06256172 0.06256172
0.32839119 0.06256172 0.06256172
0.35196794 0.06256172 0.06256172
0.37583720 0.06256172 0.06256172
0.39998626 0.06256172 0.06256172
0.42440371 0.06256172 0.06256172
0.44907923 0.06256172 0.06256172
0.47400345 0.06256172 0.06256172
0.49916778 0.06256172 0.06256172
0.52456438 0.06256172 0.06256172
0.55018600 0.06256172 0.06256172
0.57602596 0.06256172 0.06256172
0.60207804 0.06256172 0.06256172
0.62833646 0.06256172 0.06256172
0.65479584 0.06256172 0.06256172
0.68145112 0.06256172 0.06256172
0.70829757 0.06256172 0.06256172
0.73533074 0.06256172 0.06256172
0.76254643 0.06256172 0.06256172
0.78994068 0.06256172 0.06256172
0.81750975 0.06256172 0.06256172
0.06256172 0.08995554 0.06256172
0.06256172 0.08964768 0.06256172
0.08925555 0.08847726 0.06256172
0.11073382 0.08564824 0.06256172
0.13116349 0.07894142 0.06256172
0.15165838 0.06256172 0.06256172
0.17246160 0.06256172 0.06256172
0.19363751 0.06256172 0.06256172
0.21519695 0.06256172 0.06256172
0.23713229 0.06256172 0.06256172
0.25942954 0.06256172 0.06256172
0.28207287 0.06256172 0.06256172
0.30504657 0.06256172 0.06256172
0.32833571 0.06256172 0.06256172
0.35192644 0.06256172 0.06256172
0.37580600 0.06256172 0.06256172
0.39996272 0.06256172 0.06256172
0.42438590 0.06256172 0.06256172
0.44906573 0.06256172 0.06256172
0.47399319 0.06256172 0.06256172
0.49915999 0.06256172 0.06256172
0.52455845 0.06256172 0.06256172
0.55018150 0.06256172 0.06256172
0.57602254 0.06256172 0.06256172
0.60207544 0.06256172 0.06256172
0.62833449 0.06256172 0.06256172
0.65479435 0.06256172 0.06256172
0.68145000 0.06256172 0.06256172
0.70829673 0.06256172 0.06256172
0.73533011 0.06256172 0.06256172
0.76254596 0.06256172 0.06256172
0.78994033 0.06256172 0.06256172
0.81750949 0.06256172 0.06256172
0.06256172 0.10589116 0.06256172
0.06256172 0.10572622 0.06256172
0.06846162 0.10511231 0.06256172
0.10486333 0.10371759 0.06256172
0.12801559 0.10095727 0.06256172
0.14973538 0.09558622 0.06256172
0.17120846 0.08336848 0.06256172
0.19278765 0.06256172 0.06256172
0.21460455 0.06256172 0.06256172
0.23671099 0.06256172 0.06256172
0.25912529 0.06256172 0.06256172
0.28185053 0.06256172 0.06256172
0.30488253 0.06256172 0.06256172
0.32821377 0.06256172 0.06256172
0.35183524 0.06256172 0.06256172
0.37573747 0.06256172 0.06256172
0.39991102 0.06256172 0.06256172
0.42434679 0.06256172 0.06256172
0.44903607 0.06256172 0.06256172
0.47397067 0.06256172 0.06256172
0.49914287 0.06256172 0.06256172
0.52454544 0.06256172 0.06256172
0.55017161 0.06256172 0.06256172
0.57601502 0.06256172 0.06256172
0.60206974 0.06256172 0.06256172
0.62833017 0.06256172 0.06256172
0.65479108 0.06256172 0.06256172
0.68144753 0.06256172 0.06256172
0.70829487 0.06256172 0.06256172
0.73532872 0.06256172 0.06256172
0.76254492 0.06256172 0.06256172
0.78993956 0.06256172 0.06256172
0.81750892 0.06256172 0.06256172
0.06256172 0.12278387 0.06256172
0.06256172 0.12268478 0.06256172
0.06256172 0.12231849 0.06256172
0.08907377 0.12150117 0.06256172
0.12144365 0.11994667 0.06256172
0.14596981 0.11717802 0.06256172
0.16881984 0.11228842 0.06256172
0.19118967 0.10305476 0.06256172
0.21349917 0.07690190 0.06256172
0.23592844 0.06256172 0.06256172
0.25856180 0.06256172 0.06256172
0.28143949 0.06256172 0.06256172
0.30457967 0.06256172 0.06256172
0.32798883 0.06256172 0.06256172
0.35166711 0.06256172 0.06256172
0.37561117 0.06256172 0.06256172
0.39981578 0.06256172 0.06256172
0.42427474 0.06256172 0.06256172
0.44898146 0.06256172 0.06256172
0.47392920 0.06256172 0.06256172
0.49911136 0.06256172 0.06256172
0.52452148 0.06256172 0.06256172
0.55015340 0.06256172 0.06256172
0.57600119 0.06256172 0.06256172
0.60205924 0.06256172 0.06256172
0.62832222 0.06256172 0.06256172
0.65478507 0.06256172 0.06256172
0.68144300 0.06256172 0.06256172
0.70829147 0.06256172 0.06256172
0.73532617 0.06256172 0.06256172
0.76254302 0.06256172 0.06256172
0.78993815 0.06256172 0.06256172
0.81750787 0.06256172 0.06256172
0.06256172 0.14047929 0.06256172
0.06256172 0.14041573 0.06256172
0.06256172 0.14018141 0.06256172
0.06256172 0.13966245 0.06256172
0.10659513 0.13869038 0.06256172
0.13884162 0.13700930 0.06256172
0.16454892 0.13420648 0.06256172
0.18840667 0.12954661 0.06256172
0.21160105 0.12146907 0.06256172
0.23459575 0.10511273 0.06256172
0.25760707 0.06256172 0.06256172
0.28074536 0.06256172 0.06256172
0.30406933 0.06256172 0.06256172
0.32761035 0.06256172 0.06256172
0.35138452 0.06256172 0.06256172
0.37539905 0.06256172 0.06256172
0.39965590 0.06256172 0.06256172
0.42415385 0.06256172 0.06256172
0.44888983 0.06256172 0.06256172
0.47385965 0.06256172 0.06256172
0.49905851 0.06256172 0.06256172
0.52448131 0.06256172 0.06256172
0.55012286 0.06256172 0.06256172
0.57597800 0.06256172 0.06256172
0.60204165 0.06256172 0.06256172
0.62830890 0.06256172 0.06256172
0.65477500 0.06256172 0.06256172
0.68143540 0.06256172 0.06256172
0.70828575 0.06256172 0.06256172
0.73532188 0.06256172 0.06256172
0.76253982 0.06256172 0.06256172
0.78993577 0.06256172 0.06256172
0.81750612 0.06256172 0.06256172
0.06256172 0.15887609 0.06256172
0.06256172 0.15883352 0.06256172
0.06256172 0.15867682 0.06256172
0.06256172 0.15833100 0.06256172
0.06256172 0.15768793 0.06256172
0.12428701 0.15659049 0.06256172
0.15695539 0.15480332 0.06256172
0.18370782 0.15195578 0.06256172
0.20847691 0.14741513 0.06256172
0.23243338 0.13994584 0.06256172
0.25607129 0.12643024 0.06256172
0.27963490 0.08896788 0.06256172
0.30325585 0.06256172 0.06256172
0.32700855 0.06256172 0.06256172
0.35093595 0.06256172 0.06256172
0.37506274 0.06256172 0.06256172
0.39940262 0.06256172 0.06256172
0.42396247 0.06256172 0.06256172
0.44874485 0.06256172 0.06256172
0.47374963 0.06256172 0.06256172
0.49897493 0.06256172 0.06256172
0.52441779 0.06256172 0.06256172
0.55007459 0.06256172 0.06256172
0.57594134 0.06256172 0.06256172
0.60201384 0.06256172 0.06256172
0.62828783 0.06256172 0.06256172
0.65475907 0.06256172 0.06256172
0.68142339 0.06256172 0.06256172
0.70827672 0.06256172 0.06256172
0.73531512 0.06256172 0.06256172
0.76253477 0.06256172 0.06256172
0.78993202 0.06256172 0.06256172
0.81750334 0.06256172 0.06256172
0.06256172 0.17790153 0.06256172
0.06256172 0.17787214 0.06256172
0.06256172 0.17776404 0.06256172
0.06256172 0.17752595 0.06256172
0.06256172 0.17708491 0.06256172
0.06256172 0.17633742 0.06256172
0.14245818 0.17513441 0.06256172
0.17571180 0.17325518 0.06256172
0.20340729 0.17035832 0.06256172
0.22900989 0.16587832 0.06256172
0.25367436 0.15876951 0.06256172
0.27791711 0.14668311 0.06256172
0.30200470 0.12135218 0.06256172
0.32608653 0.06256172 0.06256172
0.35025052 0.06256172 0.06256172
0.37454981 0.06256172 0.06256172
0.39901685 0.06256172 0.06256172
0.42367123 0.06256172 0.06256172
0.44852438 0.06256172 0.06256172
0.47358241 0.06256172 0.06256172
0.49884794 0.06256172 0.06256172
0.52432131 0.06256172 0.06256172
0.55000129 0.06256172 0.06256172
0.57588567 0.06256172 0.06256172
0.60197161 0.06256172 0.06256172
0.62825585 0.06256172 0.06256172
0.65473490 0.06256172 0.06256172
0.68140517 0.06256172 0.06256172
0.70826302 0.06256172 0.06256172
0.73530485 0.06256172 0.06256172
0.76252711 0.06256172 0.06256172
0.78992632 0.06256172 0.06256172
0.81749913 0.06256172 0.06256172
0.06256172 0.19750032 0.06256172
0.06256172 0.19747957 0.06256172
0.06256172 0.19740327 0.06256172
0.06256172 0.19723542 0.06256172
0.06256172 0.19692519 0.06256172
0.06256172 0.19640146 0.06256172
0.10210848 0.19556410 0.06256172
0.16116120 0.19426989 0.06256172
0.19505517 0.19230887 0.06256172
0.22361376 0.18936072 0.06256172
0.24998544 0.18490657 0.06256172
0.27531078 0.17802288 0.06256172
0.30012346 0.16678394 0.06256172
0.32470842 0.14566206 0.06256172
0.34923018 0.06256172 0.06256172
0.37378841 0.06256172 0.06256172
0.39844535 0.06256172 0.06256172
0.42324041 0.06256172 0.06256172
0.44819858 0.06256172 0.06256172
0.47333549 0.06256172 0.06256172
0.49866055 0.06256172 0.06256172
0.52417898 0.06256172 0.06256172
0.54989319 0.06256172 0.06256172
0.57580361 0.06256172 0.06256172
0.60190937 0.06256172 0.06256172
0.62820872 0.06256172 0.06256172
0.65469928 0.06256172 0.06256172
0.68137831 0.06256172 0.06256172
0.70824283 0.06256172 0.06256172
0.73528972 0.06256172 0.06256172
0.76251582 0.06256172 0.06256172
0.78991793 0.06256172 0.06256172
0.81749292 0.06256172 0.06256172
0.06256172 0.21762869 0.06256172
0.06256172 0.21761378 0.06256172
0.06256172 0.21755898 0.06256172
0.06256172 0.21743852 0.06256172
0.06256172 0.21721617 0.06256172
0.06256172 0.21684171 0.06256172
0.06256172 0.21624533 0.06256172
0.12667496 0.21532933 0.06256172
0.18039203 0.21395487 0.06256172
0.21494138 0.21191997 0.06256172
0.24429835 0.20891988 0.06256172
0.27138476 0.20446916 0.06256172
0.29732947 0.19772763 0.06256172
0.32268028 0.18703114 0.06256172
0.34773772 0.16813937 0.06256172
0.37267940 0.11829542 0.06256172
0.39761541 0.06256172 0.06256172
0.42261608 0.06256172 0.06256172
0.44772717 0.06256172 0.06256172
0.47297861 0.06256172 0.06256172
0.49838992 0.06256172 0.06256172
0.52397358 0.06256172 0.06256172
0.54973725 0.06256172 0.06256172
0.57568526 0.06256172 0.06256172
0.60181964 0.06256172 0.06256172
0.62814078 0.06256172 0.06256172
0.65464794 0.06256172 0.06256172
0.68133961 0.06256172 0.06256172
0.70821374 0.06256172 0.06256172
0.73526793 0.06256172 0.06256172
0.76249955 0.06256172 0.06256172
0.78990584 0.06256172 0.06256172
0.81748398 0.06256172 0.06256172
0.06256172 0.23825096 0.06256172
0.06256172 0.23824010 0.06256172
0.06256172 0.23820021 0.06256172
0.06256172 0.23811255 0.06256172
0.06256172 0.23795089 0.06256172
0.06256172 0.23767903 0.06256172
0.06256172 0.23724714 0.06256172
0.06256172 0.23658634 0.06256172
0.14865217 0.23560071 0.06256172
0.20013143 0.23415467 0.06256172
0.23533445 0.23205222 0.06256172
0.26543608 0.22900017 0.06256172
0.29319054 0.22453754 0.06256172
0.31971774 0.21788310 0.06256172
0.34557762 0.20754597 0.06256172
0.37108425 0.19001416 0.06256172
0.39642682 0.15157520 0.06256172
0.42172472 0.06256172 0.06256172
0.44705562 0.06256172 0.06256172
0.47247105 0.06256172 0.06256172
0.49800548 0.06256172 0.06256172
0.52368205 0.06256172 0.06256172
0.54951607 0.06256172 0.06256172
0.57551749 0.06256172 0.06256172
0.60169248 0.06256172 0.06256172
0.62804453 0.06256172 0.06256172
0.65457522 0.06256172 0.06256172
0.68128479 0.06256172 0.06256172
0.70817254 0.06256172 0.06256172
0.73523706 0.06256172 0.06256172
0.76247651 0.06256172 0.06256172
0.78988873 0.06256172 0.06256172
0.81747132 0.06256172 0.06256172
0.06256172 0.25933737 0.06256172
0.06256172 0.25932938 0.06256172
0.06256172 0.25930002 0.06256172
0.06256172 0.25923553 0.06256172
0.06256172 0.25911666 0.06256172
0.06256172 0.25891696 0.06256172
0.06256172 0.25860021 0.06256172
0.06256172 0.25811679 0.06256172
0.06256172 0.25739848 0.06256172
0.16995123 0.25635065 0.06256172
0.22035667 0.25484011 0.06256172
0.25620433 0.25267530 0.06256172
0.28700511 0.24957161 0.06256172
0.31538695 0.24508605 0.06256172
0.34246356 0.23847986 0.06256172
0.36880579 0.22838172 0.06256172
0.39473981 0.21173473 0.06256172
0.42046518 0.17843034 0.06256172
0.44610970 0.06256172 0.06256172
0.47175775 0.06256172 0.06256172
0.49746614 0.06256172 0.06256172
0.52327355 0.06256172 0.06256172
0.54920643 0.06256172 0.06256172
0.57528279 0.06256172 0.06256172
0.60151468 0.06256172 0.06256172
0.62791000 0.06256172 0.06256172
0.65447361 0.06256172 0.06256172
0.68120822 0.06256172 0.06256172
0.70811500 0.06256172 0.06256172
0.73519396 0.06256172 0.06256172
0.76244435 0.06256172 0.06256172
0.78986483 0.06256172 0.06256172
0.81745365 0.06256172 0.06256172
0.06256172 0.28086261 0.06256172
0.06256172 0.28085668 0.06256172
0.06256172 0.28083489 0.06256172
0.06256172 0.28078702 0.06256172
0.06256172 0.28069883 0.06256172
0.06256172 0.28055078 0.06256172
0.06256172 0.28031619 0.06256172
0.06256172 0.27995876 0.06256172
0.06256172 0.27942900 0.06256172
0.06256172 0.27865910 0.06256172
0.19112877 0.27755533 0.06256172
0.24104528 0.27598623 0.06256172
0.27752546 0.27376343 0.06256172
0.30898620 0.27060857 0.06256172
0.33795951 0.26609181 0.06256172
0.36555559 0.25950507 0.06256172
0.39235550 0.24956133 0.06256172
0.41869641 0.23350464 0.06256172
0.44478737 0.20312979 0.06256172
0.47076386 0.06256172 0.06256172
0.49671641 0.06256172 0.06256172
0.52270670 0.06256172 0.06256172
0.54877733 0.06256172 0.06256172
0.57495784 0.06256172 0.06256172
0.60126871 0.06256172 0.06256172
0.62772399 0.06256172 0.06256172
0.65433318 0.06256172 0.06256172
0.68110243 0.06256172 0.06256172
0.70803551 0.06256172 0.06256172
0.73513443 0.06256172 0.06256172
0.76239994 0.06256172 0.06256172
0.78983183 0.06256172 0.06256172
0.81742925 0.06256172 0.06256172
0.06256172 0.30280486 0.06256172
0.06256172 0.30280043 0.06256172
0.06256172 0.30278414 0.06256172
0.06256172 0.30274836 0.06256172
0.06256172 0.30268247 0.06256172
0.06256172 0.30257189 0.06256172
0.06256172 0.30239681 0.06256172
0.06256172 0.30213036 0.06256172
0.06256172 0.30173611 0.06256172
0.06256172 0.30116461 0.06256172
0.06256172 0.30034827 0.06256172
0.21240905 0.29919397 0.06256172
0.26217624 0.29757137 0.06256172
0.29927578 0.29529431 0.06256172
0.33136226 0.29208885 0.06256172
0.36089498 0.28753443 0.06256172
0.38898322 0.28094487 0.06256172
0.41621788 0.27109271 0.06256172
0.44294637 0.25542708 0.06256172
0.46938650 0.22687959 0.06256172
0.49568087 0.12956953 0.06256172
0.52192568 0.06256172 0.06256172
0.54818717 0.06256172 0.06256172
0.57451153 0.06256172 0.06256172
0.60093119 0.06256172 0.06256172
0.62746895 0.06256172 0.06256172
0.65414073 0.06256172 0.06256172
0.68095751 0.06256172 0.06256172
0.70792667 0.06256172 0.06256172
0.73505294 0.06256172 0.06256172
0.76233915 0.06256172 0.06256172
0.78978667 0.06256172 0.06256172
0.81739586 0.06256172 0.06256172
0.06256172 0.32514506 0.06256172
0.06256172 0.32514173 0.06256172
0.06256172 0.32512948 0.06256172
0.06256172 0.32510259 0.06256172
0.06256172 0.32505307 0.06256172
0.06256172 0.32497000 0.06256172
0.06256172 0.32483854 0.06256172
0.06256172 0.32463864 0.06256172
0.06256172 0.32434320 0.06256172
0.06256172 0.32391567 0.06256172
0.06256172 0.32330654 0.06256172
0.06256172 0.32244834 0.06256172
0.23389623 0.32124821 0.06256172
0.28373028 0.31957653 0.06256172
0.32143602 0.31724849 0.06256172
0.35411798 0.31399297 0.06256172
0.38418118 0.30939566 0.06256172
0.41273647 0.30278538 0.06256172
0.44038445 0.29297599 0.06256172
0.46748226 0.27755721 0.06256172
0.49425590 0.25018323 0.06256172
0.52085458 0.17521244 0.06256172
0.54737983 0.06256172 0.06256172
0.57390211 0.06256172 0.06256172
0.60047097 0.06256172 0.06256172
0.62712155 0.06256172 0.06256172
0.65387881 0.06256172 0.06256172
0.68076039 0.06256172 0.06256172
0.70777868 0.06256172 0.06256172
0.73494218 0.06256172 0.06256172
0.76225654 0.06256172 0.06256172
0.78972532 0.06256172 0.06256172
0.81735051 0.06256172 0.06256172
0.06256172 0.34786638 0.06256172
0.06256172 0.34786386 0.06256172
0.06256172 0.34785462 0.06256172
0.06256172 0.34783431 0.06256172
0.06256172 0.34779693 0.06256172
0.06256172 0.34773424 0.06256172
0.06256172 0.34763506 0.06256172
0.06256172 0.34748432 0.06256172
0.06256172 0.34726174 0.06256172
0.06256172 0.34694003 0.06256172
0.06256172 0.34648248 0.06256172
0.06256172 0.34583947 0.06256172
0.14102431 0.34494349 0.06256172
0.25564181 0.34370175 0.06256172
0.30568988 0.34198487 0.06256172
0.34398915 0.33960873 0.06256172
0.37723956 0.33630370 0.06256172
0.40780693 0.33165912 0.06256172
0.43680599 0.32501322 0.06256172
0.46484719 0.31520706 0.06256172
0.49229697 0.29992469 0.06256172
0.51938910 0.27329066 0.06256172
0.54627904 0.20742660 0.06256172
0.57307328 0.06256172 0.06256172
0.59984624 0.06256172 0.06256172
0.62665064 0.06256172 0.06256172
0.65352413 0.06256172 0.06256172
0.68049369 0.06256172 0.06256172
0.70757858 0.06256172 0.06256172
0.73479247 0.06256172 0.06256172
0.76214493 0.06256172 0.06256172
0.78964245 0.06256172 0.06256172
0.81728926 0.06256172 0.06256172
0.06256172 0.37095383 0.06256172
0.06256172 0.37095192 0.06256172
0.06256172 0.37094492 0.06256172
0.06256172 0.37092954 0.06256172
0.06256172 0.37090122 0.06256172
0.06256172 0.37085373 0.06256172
0.06256172 0.37077862 0.06256172
0.06256172 0.37066452 0.06256172
0.06256172 0.37049613 0.06256172
0.06256172 0.37025298 0.06256172
0.06256172 0.36990758 0.06256172
0.06256172 0.36942304 0.06256172
0.06256172 0.36874957 0.06256172
0.17550284 0.36781950 0.06256172
0.27767126 0.36653993 0.06256172
0.32803913 0.36478137 0.06256172
0.36692001 0.36235970 0.06256172
0.40071449 0.35900566 0.06256172
0.43176185 0.35431000 0.06256172
0.46118300 0.34761566 0.06256172
0.48959843 0.33777944 0.06256172
0.51738365 0.32254466 0.06256172
0.54477985 0.29633776 0.06256172
0.57194844 0.23530991 0.06256172
0.59900058 0.06256172 0.06256172
0.62601442 0.06256172 0.06256172
0.65304565 0.06256172 0.06256172
0.68013427 0.06256172 0.06256172
0.70730913 0.06256172 0.06256172
0.73459102 0.06256172 0.06256172
0.76199481 0.06256172 0.06256172
0.78953102 0.06256172 0.06256172
0.81720693 0.06256172 0.06256172
0.06256172 0.39439397 0.06256172
0.06256172 0.39439252 0.06256172
0.06256172 0.39438720 0.06256172
0.06256172 0.39437551 0.06256172
0.06256172 0.39435400 0.06256172
0.06256172 0.39431793 0.06256172
0.06256172 0.39426089 0.06256172
0.06256172 0.39417427 0.06256172
0.06256172 0.39404649 0.06256172
0.06256172 0.39386208 0.06256172
0.06256172 0.39360038 0.06256172
0.06256172 0.39323372 0.06256172
0.06256172 0.39272500 0.06256172
0.06256172 0.39202424 0.06256172
0.20401713 0.39106350 0.06256172
0.29999615 0.38974955 0.06256172
0.35076351 0.38795248 0.06256172
0.39021497 0.38548761 0.06256172
0.42453136 0.38208500 0.06256172
0.45603635 0.37733484 0.06256172
0.48585923 0.37058070 0.06256172
0.51463086 0.36068539 0.06256172
0.54273571 0.34542342 0.06256172
0.57042212 0.31940143 0.06256172
0.59785716 0.26104415 0.06256172
0.62515645 0.06256172 0.06256172
0.65240165 0.06256172 0.06256172
0.67965124 0.06256172 0.06256172
0.70694742 0.06256172 0.06256172
0.73432081 0.06256172 0.06256172
0.76179358 0.06256172 0.06256172
0.78938173 0.06256172 0.06256172
0.81709666 0.06256172 0.06256172
0.06256172 0.41817463 0.06256172
0.06256172 0.41817353 0.06256172
0.06256172 0.41816948 0.06256172
0.06256172 0.41816058 0.06256172
0.06256172 0.41814421 0.06256172
0.06256172 0.41811676 0.06256172
0.06256172 0.41807336 0.06256172
0.06256172 0.41800745 0.06256172
0.06256172 0.41791026 0.06256172
0.06256172 0.41777008 0.06256172
0.06256172 0.41757125 0.06256172
0.06256172 0.41729296 0.06256172
0.06256172 0.41690734 0.06256172
0.06256172 0.41637711 0.06256172
0.06256172 0.41565199 0.06256172
0.23018534 0.41466372 0.06256172
0.32262017 0.41331858 0.06256172
0.37384978 0.41148593 0.06256172
0.41386172 0.40897999 0.06256172
0.44867971 0.40552920 0.06256172
0.48062149 0.40072139 0.06256172
0.51082687 0.39389702 0.06256172
0.53993753 0.38391647 0.06256172
0.56834681 0.36856162 0.06256172
0.59631004 0.34252477 0.06256172
0.62399972 0.28548344 0.06256172
0.65153572 0.06256172 0.06256172
0.67900303 0.06256172 0.06256172
0.70646274 0.06256172 0.06256172
0.73395914 0.06256172 0.06256172
0.76152447 0.06256172 0.06256172
0.78918220 0.06256172 0.06256172
0.81694936 0.06256172 0.06256172
0.06256172 0.44228477 0.06256172
0.06256172 0.44228393 0.06256172
0.06256172 0.44228084 0.06256172
0.06256172 0.44227406 0.06256172
0.06256172 0.44226159 0.06256172
0.06256172 0.44224066 0.06256172
0.06256172 0.44220759 0.06256172
0.06256172 0.44215738 0.06256172
0.06256172 0.44208335 0.06256172
0.06256172 0.44197660 0.06256172
0.06256172 0.44182528 0.06256172
0.06256172 0.44161361 0.06256172
0.06256172 0.44132060 0.06256172
0.06256172 0.44091824 0.06256172
0.06256172 0.44036899 0.06256172
0.06256172 0.43962228 0.06256172
0.25518536 0.43860943 0.06256172
0.34554235 0.43723606 0.06256172
0.39728580 0.43537053 0.06256172
0.43784906 0.43282548 0.06256172
0.47314992 0.42932684 0.06256172
0.50550892 0.42445836 0.06256172
0.53607854 0.41755399 0.06256172
0.56551177 0.40746386 0.06256172
0.59421085 0.39195613 0.06256172
0.62243794 0.36572980 0.06256172
0.65037079 0.30902374 0.06256172
0.67813335 0.06256172 0.06256172
0.70581376 0.06256172 0.06256172
0.73347560 0.06256172 0.06256172
0.76116508 0.06256172 0.06256172
0.78891597 0.06256172 0.06256172
0.81675294 0.06256172 0.06256172
0.06256172 0.46671428 0.06256172
0.06256172 0.46671364 0.06256172
0.06256172 0.46671129 0.06256172
0.06256172 0.46670612 0.06256172
0.06256172 0.46669660 0.06256172
0.06256172 0.46668064 0.06256172
0.06256172 0.46665542 0.06256172
0.06256172 0.46661713 0.06256172
0.06256172 0.46656069 0.06256172
0.06256172 0.46647933 0.06256172
0.06256172 0.46636403 0.06256172
0.06256172 0.46620284 0.06256172
0.06256172 0.46597986 0.06256172
0.06256172 0.46567396 0.06256172
0.06256172 0.46525694 0.06256172
0.06256172 0.46469105 0.06256172
0.06256172 0.46392537 0.06256172
0.27954038 0.46289071 0.06256172
0.36875891 0.46149190 0.06256172
0.42106038 0.45959605 0.06256172
0.46216675 0.45701372 0.06256172
0.49793307 0.45346747 0.06256172
0.53069082 0.44853538 0.06256172
0.56160723 0.44154157 0.06256172
0.59134720 0.43131854 0.06256172
0.62032191 0.41560105 0.06256172
0.64880029 0.38902421 0.06256172
0.67696517 0.33185208 0.06256172
0.70494441 0.06256172 0.06256172
0.73282918 0.06256172 0.06256172
0.76068537 0.06256172 0.06256172
0.78856101 0.06256172 0.06256172
0.81649128 0.06256172 0.06256172
0.06256172 0.49145389 0.06256172
0.06256172 0.49145340 0.06256172
0.06256172 0.49145161 0.06256172
0.06256172 0.49144766 0.06256172
0.06256172 0.49144040 0.06256172
0.06256172 0.49142823 0.06256172
0.06256172 0.49140899 0.06256172
0.06256172 0.49137979 0.06256172
0.06256172 0.49133675 0.06256172
0.06256172 0.49127471 0.06256172
0.06256172 0.49118683 0.06256172
0.06256172 0.49106400 0.06256172
0.06256172 0.49089418 0.06256172
0.06256172 0.49066138 0.06256172
0.06256172 0.49034433 0.06256172
0.06256172 0.48991468 0.06256172
0.06256172 0.48933440 0.06256172
0.06256172 0.48855225 0.06256172
0.30351953 0.48749842 0.06256172
0.39226427 0.48607683 0.06256172
0.44516319 0.48415305 0.06256172
0.48680538 0.48153516 0.06256172
0.52302089 0.47794148 0.06256172
0.55615982 0.47294283 0.06256172
0.58740628 0.46585028 0.06256172
0.61743768 0.45547140 0.06256172
0.64667430 0.43948839 0.06256172
