src/ffmpeg_scripts/luts/rec2020-sRGB_-1p67.cube
TITLE "rec2020-srgb_-1p67"
LUT_3D_SIZE 9
# PQ (EOTF Only)/Rec2020 -> PQ (EOTF Only)/Rec709, CineEI Shift -1.67, Black Level 0.00% IRE, Input 100% -> Output 109% - Created with LUTCalc v4.01 by Ben Turley October 2020
0.06256172 0.06256172 0.06256172
0.14677051 0.06256172 0.06256172
0.23939205 0.06256172 0.06256172
0.33642464 0.06256172 0.06256172
0.43667503 0.06256172 0.06256172
0.53951183 0.06256172 0.06256172
0.64453504 0.06256172 0.06256172
0.75146523 0.06256172 0.06256172
0.86009464 0.06256172 0.06256172
0.06256172 0.13514209 0.06256172
0.13359130 0.13185703 0.06256172
0.23715047 0.08070098 0.06256172
0.33582417 0.06256172 0.06256172
0.43648996 0.06256172 0.06256172
0.53945163 0.06256172 0.06256172
0.64451528 0.06256172 0.06256172
0.75145889 0.06256172 0.06256172
0.86009271 0.06256172 0.06256172
0.06256172 0.21949435 0.06256172
0.06256172 0.21885746 0.06256172
0.21678555 0.21373970 0.06256172
0.33105812 0.18524370 0.06256172
0.43505593 0.06256172 0.06256172
0.53898805 0.06256172 0.06256172
0.64436341 0.06256172 0.06256172
0.75141024 0.06256172 0.06256172
0.86007793 0.06256172 0.06256172
0.06256172 0.31039213 0.06256172
0.06256172 0.31021594 0.06256172
0.06256172 0.30884951 0.06256172
0.30680024 0.30274690 0.06256172
0.42867874 0.27656071 0.06256172
0.53698847 0.06256172 0.06256172
0.64371418 0.06256172 0.06256172
0.75120282 0.06256172 0.06256172
0.86001495 0.06256172 0.06256172
0.06256172 0.40620485 0.06256172
0.06256172 0.40614948 0.06256172
0.06256172 0.40572314 0.06256172
0.06256172 0.40388447 0.06256172
0.40195771 0.39715183 0.06256172
0.52966225 0.37116437 0.06256172
0.64141529 0.06256172 0.06256172
0.75047607 0.06256172 0.06256172
0.85979503 0.06256172 0.06256172
0.06256172 0.50605154 0.06256172
0.06256172 0.50603326 0.06256172
0.06256172 0.50589277 0.06256172
0.06256172 0.50529232 0.06256172
0.06256172 0.50316798 0.06256172
0.50134898 0.49601591 0.06256172
0.63365303 0.46935163 0.06256172
0.74810972 0.06256172 0.06256172
0.85908709 0.06256172 0.06256172
0.06256172 0.60936555 0.06256172
0.06256172 0.60935948 0.06256172
0.06256172 0.60931283 0.06256172
0.06256172 0.60911398 0.06256172
0.06256172 0.60841745 0.06256172
0.06256172 0.60615167 0.06256172
0.60438816 0.59873272 0.06256172
0.74033691 0.57075667 0.06256172
0.85684765 0.06256172 0.06256172
0.06256172 0.71574619 0.06256172
0.06256172 0.71574423 0.06256172
0.06256172 0.71572912 0.06256172
0.06256172 0.71566476 0.06256172
0.06256172 0.71544004 0.06256172
0.06256172 0.71471676 0.06256172
0.06256172 0.71242990 0.06256172
0.71066024 0.70487193 0.06256172
0.84943471 0.67489392 0.06256172
0.06256172 0.82489243 0.06256172
0.06256172 0.82489182 0.06256172
0.06256172 0.82488719 0.06256172
0.06256172 0.82486744 0.06256172
0.06256172 0.82479859 0.06256172
0.06256172 0.82457773 0.06256172
0.06256172 0.82388705 0.06256172
0.06256172 0.82168566 0.06256172
0.81985300 0.81410922 0.06256172
0.06256172 0.06256172 0.13478139
0.14533746 0.06256172 0.13431470
0.23911820 0.06256172 0.13054031
0.33635044 0.06256172 0.10802890
0.43665211 0.06256172 0.06256172
0.53950437 0.06256172 0.06256172
0.64453259 0.06256172 0.06256172
0.75146444 0.06256172 0.06256172
0.86009440 0.06256172 0.06256172
0.06256172 0.13492994 0.13212541
0.13162697 0.13162697 0.13162697
0.23686728 0.07916763 0.12757510
0.33574942 0.06256172 0.10204837
0.43646699 0.06256172 0.06256172
0.53944416 0.06256172 0.06256172
0.64451283 0.06256172 0.06256172
0.75145811 0.06256172 0.06256172
0.86009248 0.06256172 0.06256172
0.06256172 0.21945185 0.10059199
0.06256172 0.21881454 0.09929766
0.21639745 0.21369313 0.08612365
0.33097881 0.18516820 0.06256172
0.43503259 0.06256172 0.06256172
0.53898055 0.06256172 0.06256172
0.64436096 0.06256172 0.06256172
0.75140945 0.06256172 0.06256172
0.86007769 0.06256172 0.06256172
0.06256172 0.31038033 0.06256172
0.06256172 0.31020411 0.06256172
0.06256172 0.30883747 0.06256172
0.30669235 0.30273387 0.06256172
0.42865367 0.27654225 0.06256172
0.53698080 0.06256172 0.06256172
0.64371170 0.06256172 0.06256172
0.75120203 0.06256172 0.06256172
0.86001471 0.06256172 0.06256172
0.06256172 0.40620114 0.06256172
0.06256172 0.40614577 0.06256172
0.06256172 0.40571940 0.06256172
0.06256172 0.40388066 0.06256172
0.40192371 0.39714771 0.06256172
0.52965395 0.37115879 0.06256172
0.64141276 0.06256172 0.06256172
0.75047528 0.06256172 0.06256172
0.85979479 0.06256172 0.06256172
0.06256172 0.50605031 0.06256172
0.06256172 0.50603203 0.06256172
0.06256172 0.50589154 0.06256172
0.06256172 0.50529109 0.06256172
0.06256172 0.50316671 0.06256172
0.50133773 0.49601454 0.06256172
0.63365029 0.46934980 0.06256172
0.74810890 0.06256172 0.06256172
0.85908685 0.06256172 0.06256172
0.06256172 0.60936514 0.06256172
0.06256172 0.60935907 0.06256172
0.06256172 0.60931242 0.06256172
0.06256172 0.60911357 0.06256172
0.06256172 0.60841704 0.06256172
0.06256172 0.60615125 0.06256172
0.60438441 0.59873227 0.06256172
0.74033603 0.57075606 0.06256172
0.85684740 0.06256172 0.06256172
0.06256172 0.71574606 0.06256172
0.06256172 0.71574409 0.06256172
0.06256172 0.71572898 0.06256172
0.06256172 0.71566463 0.06256172
0.06256172 0.71543991 0.06256172
0.06256172 0.71471663 0.06256172
0.06256172 0.71242976 0.06256172
0.71065903 0.70487178 0.06256172
0.84943444 0.67489372 0.06256172
0.06256172 0.82489239 0.06256172
0.06256172 0.82489178 0.06256172
0.06256172 0.82488715 0.06256172
0.06256172 0.82486740 0.06256172
0.06256172 0.82479855 0.06256172
0.06256172 0.82457769 0.06256172
0.06256172 0.82388701 0.06256172
0.06256172 0.82168562 0.06256172
0.81985263 0.81410917 0.06256172
0.06256172 0.06256172 0.21886554
0.13240012 0.06256172 0.21877220
0.23697724 0.06256172 0.21805085
0.33577841 0.06256172 0.21488405
0.43647590 0.06256172 0.20237074
0.53944706 0.06256172 0.10194290
0.64451378 0.06256172 0.06256172
0.75145841 0.06256172 0.06256172
0.86009257 0.06256172 0.06256172
0.06256172 0.13326329 0.21834657
0.11171983 0.12981476 0.21825246
0.23465163 0.06256172 0.21752511
0.33517311 0.06256172 0.21433097
0.43629042 0.06256172 0.20169115
0.53938681 0.06256172 0.09426932
0.64449401 0.06256172 0.06256172
0.75145208 0.06256172 0.06256172
0.86009064 0.06256172 0.06256172
0.06256172 0.21912459 0.21421222
0.06256172 0.21848396 0.21411170
0.21333433 0.21333433 0.21333433
0.33036719 0.18458507 0.20991140
0.43485315 0.06256172 0.19619571
0.53892291 0.06256172 0.06256172
0.64434211 0.06256172 0.06256172
0.75140342 0.06256172 0.06256172
0.86007585 0.06256172 0.06256172
0.06256172 0.31028967 0.19259227
0.06256172 0.31011324 0.19244803
0.06256172 0.30874499 0.19132820
0.30585883 0.30263379 0.18629818
0.42846086 0.27640036 0.16390952
0.53692192 0.06256172 0.06256172
0.64369273 0.06256172 0.06256172
0.75119598 0.06256172 0.06256172
0.86001287 0.06256172 0.06256172
0.06256172 0.40617264 0.06256172
0.06256172 0.40611725 0.06256172
0.06256172 0.40569075 0.06256172
0.06256172 0.40385139 0.06256172
0.40166217 0.39711608 0.06256172
0.52959026 0.37111590 0.06256172
0.64139331 0.06256172 0.06256172
0.75046918 0.06256172 0.06256172
0.85979295 0.06256172 0.06256172
0.06256172 0.50604090 0.06256172
0.06256172 0.50602262 0.06256172
0.06256172 0.50588212 0.06256172
0.06256172 0.50528160 0.06256172
0.06256172 0.50315701 0.06256172
0.50125130 0.49600405 0.06256172
0.63362918 0.46933577 0.06256172
0.74810265 0.06256172 0.06256172
0.85908499 0.06256172 0.06256172
0.06256172 0.60936202 0.06256172
0.06256172 0.60935594 0.06256172
0.06256172 0.60930929 0.06256172
0.06256172 0.60911044 0.06256172
0.06256172 0.60841389 0.06256172
0.06256172 0.60614801 0.06256172
0.60435566 0.59872877 0.06256172
0.74032923 0.57075135 0.06256172
0.85684550 0.06256172 0.06256172
0.06256172 0.71574505 0.06256172
0.06256172 0.71574308 0.06256172
0.06256172 0.71572797 0.06256172
0.06256172 0.71566361 0.06256172
0.06256172 0.71543890 0.06256172
0.06256172 0.71471560 0.06256172
0.06256172 0.71242871 0.06256172
0.71064970 0.70487064 0.06256172
0.84943237 0.67489215 0.06256172
0.06256172 0.82489207 0.06256172
0.06256172 0.82489147 0.06256172
0.06256172 0.82488683 0.06256172
0.06256172 0.82486709 0.06256172
0.06256172 0.82479824 0.06256172
0.06256172 0.82457738 0.06256172
0.06256172 0.82388670 0.06256172
0.06256172 0.82168529 0.06256172
0.81984976 0.81410882 0.06256172
0.06256172 0.06256172 0.30955939
0.06256172 0.06256172 0.30953346
0.22699953 0.06256172 0.30933408
0.33329694 0.06256172 0.30847953
0.43572187 0.06256172 0.30542447
0.53920268 0.06256172 0.29473403
0.64443366 0.06256172 0.24587120
0.75143274 0.06256172 0.06256172
0.86008476 0.06256172 0.06256172
0.06256172 0.12526724 0.30941560
0.06256172 0.12097546 0.30938963
0.22428366 0.06256172 0.30918987
0.33267265 0.06256172 0.30833373
0.43553481 0.06256172 0.30527279
0.53914228 0.06256172 0.29455958
0.64441388 0.06256172 0.24552742
0.75142640 0.06256172 0.06256172
0.86008284 0.06256172 0.06256172
0.06256172 0.21771220 0.30830256
0.06256172 0.21705698 0.30827620
0.19825084 0.21178329 0.30807356
0.32771000 0.18203171 0.30720494
0.43408520 0.06256172 0.30409808
0.53867716 0.06256172 0.29320655
0.64426185 0.06256172 0.24282827
0.75137773 0.06256172 0.06256172
0.86006805 0.06256172 0.06256172
0.06256172 0.30990254 0.30337673
0.06256172 0.30972523 0.30334865
0.06256172 0.30835007 0.30313264
0.30220626 0.30220626 0.30220626
0.42763536 0.27579321 0.29888627
0.53667084 0.06256172 0.28715856
0.64361192 0.06256172 0.22994418
0.75117024 0.06256172 0.06256172
0.86000506 0.06256172 0.06256172
0.06256172 0.40605122 0.28318807
0.06256172 0.40599575 0.28315139
0.06256172 0.40556865 0.28286910
0.06256172 0.40372669 0.28165523
0.40053992 0.39698130 0.27726019
0.52931864 0.37093311 0.26107907
0.64131051 0.06256172 0.11863906
0.75044323 0.06256172 0.06256172
0.85978512 0.06256172 0.06256172
0.06256172 0.50600084 0.06256172
0.06256172 0.50598255 0.06256172
0.06256172 0.50584198 0.06256172
0.06256172 0.50524120 0.06256172
0.06256172 0.50311567 0.06256172
0.50088246 0.49595938 0.06256172
0.63353929 0.46927599 0.06256172
0.74807603 0.06256172 0.06256172
0.85907710 0.06256172 0.06256172
0.06256172 0.60934871 0.06256172
0.06256172 0.60934263 0.06256172
0.06256172 0.60929597 0.06256172
0.06256172 0.60909709 0.06256172
0.06256172 0.60840044 0.06256172
0.06256172 0.60613424 0.06256172
0.60423314 0.59871387 0.06256172
0.74030030 0.57073131 0.06256172
0.85683741 0.06256172 0.06256172
0.06256172 0.71574074 0.06256172
0.06256172 0.71573877 0.06256172
0.06256172 0.71572366 0.06256172
0.06256172 0.71565930 0.06256172
0.06256172 0.71543457 0.06256172
0.06256172 0.71471124 0.06256172
0.06256172 0.71242425 0.06256172
0.71060997 0.70486580 0.06256172
0.84942358 0.67488550 0.06256172
0.06256172 0.82489075 0.06256172
0.06256172 0.82489015 0.06256172
0.06256172 0.82488551 0.06256172
0.06256172 0.82486577 0.06256172
0.06256172 0.82479691 0.06256172
0.06256172 0.82457605 0.06256172
0.06256172 0.82388536 0.06256172
0.06256172 0.82168392 0.06256172
0.81983755 0.81410733 0.06256172
0.06256172 0.06256172 0.40522116
0.06256172 0.06256172 0.40521300
0.16863154 0.06256172 0.40515033
0.32399188 0.06256172 0.40488303
0.43304207 0.06256172 0.40394469
0.53834571 0.06256172 0.40086964
0.64415382 0.06256172 0.39053685
0.75134317 0.06256172 0.34634745
0.86005755 0.06256172 0.06256172
0.06256172 0.06256172 0.40517594
0.06256172 0.06256172 0.40516778
0.16082452 0.06256172 0.40510507
0.32329022 0.06256172 0.40483764
0.43284929 0.06256172 0.40389880
0.53828475 0.06256172 0.40082210
0.64413398 0.06256172 0.39048326
0.75133683 0.06256172 0.34625676
0.86005563 0.06256172 0.06256172
0.06256172 0.21252379 0.40482794
0.06256172 0.21181147 0.40481974
0.06256172 0.20604796 0.40475679
0.31768477 0.17205623 0.40448828
0.43135489 0.06256172 0.40354565
0.53781533 0.06256172 0.40045619
0.64398150 0.06256172 0.39007069
0.75128811 0.06256172 0.34555699
0.86004083 0.06256172 0.06256172
0.06256172 0.30853764 0.40333074
0.06256172 0.30835718 0.40332240
0.06256172 0.30695734 0.40325835
0.28790331 0.30069690 0.40298516
0.42469579 0.27363619 0.40202600
0.53579022 0.06256172 0.39888097
0.64332963 0.06256172 0.38829186
0.75108042 0.06256172 0.34250918
0.85997782 0.06256172 0.06256172
0.06256172 0.40562658 0.39789953
0.06256172 0.40557084 0.39789065
0.06256172 0.40514165 0.39782246
0.06256172 0.40329053 0.39753157
0.39650976 0.39650976 0.39650976
0.52836545 0.37029272 0.39315361
0.64102126 0.06256172 0.38178452
0.75035271 0.06256172 0.33088907
0.85975782 0.06256172 0.06256172
0.06256172 0.50586102 0.37776718
0.06256172 0.50584270 0.37775596
0.06256172 0.50570193 0.37766971
0.06256172 0.50510023 0.37730155
0.06256172 0.50297142 0.37600543
0.49958496 0.49580348 0.37171583
0.63322524 0.46906728 0.35676832
0.74798318 0.06256172 0.27479103
0.85904958 0.06256172 0.06256172
0.06256172 0.60930229 0.20458235
0.06256172 0.60929621 0.20446470
0.06256172 0.60924953 0.20355357
0.06256172 0.60905055 0.19951167
0.06256172 0.60835356 0.18271156
0.06256172 0.60608622 0.06256172
0.60380476 0.59866193 0.06256172
0.74019936 0.57066141 0.06256172
0.85680919 0.06256172 0.06256172
0.06256172 0.71572570 0.06256172
0.06256172 0.71572373 0.06256172
0.06256172 0.71570862 0.06256172
0.06256172 0.71564425 0.06256172
0.06256172 0.71541949 0.06256172
0.06256172 0.71469604 0.06256172
0.06256172 0.71240867 0.06256172
0.71047132 0.70484892 0.06256172
0.84939292 0.67486229 0.06256172
0.06256172 0.82488614 0.06256172
0.06256172 0.82488553 0.06256172
0.06256172 0.82488090 0.06256172
0.06256172 0.82486116 0.06256172
0.06256172 0.82479230 0.06256172
0.06256172 0.82457142 0.06256172
0.06256172 0.82388069 0.06256172
0.06256172 0.82167914 0.06256172
0.81979499 0.81410214 0.06256172
0.06256172 0.06256172 0.50496323
0.06256172 0.06256172 0.50496054
0.06256172 0.06256172 0.50493984
0.28345288 0.06256172 0.50485167
0.42387187 0.06256172 0.50454365
0.53554714 0.06256172 0.50355023
0.64325203 0.06256172 0.50038903
0.75105576 0.06256172 0.48970468
0.85997035 0.06256172 0.44231512
0.06256172 0.06256172 0.50494830
0.06256172 0.06256172 0.50494560
0.06256172 0.06256172 0.50492490
0.28226021 0.06256172 0.50483672
0.42365806 0.06256172 0.50452864
0.53548432 0.06256172 0.50353507
0.64323200 0.06256172 0.50037334
0.75104940 0.06256172 0.48968705
0.85996842 0.06256172 0.44228541
0.06256172 0.19211082 0.50483353
0.06256172 0.19110519 0.50483083
0.06256172 0.18272337 0.50481010
0.27239569 0.10625209 0.50472181
0.42199882 0.06256172 0.50441335
0.53500058 0.06256172 0.50341853
0.64307806 0.06256172 0.50025274
0.75100052 0.06256172 0.48955160
0.85995361 0.06256172 0.44205692
0.06256172 0.30399738 0.50434335
0.06256172 0.30380600 0.50434063
0.06256172 0.30232036 0.50431980
0.19953901 0.29565238 0.50423104
0.41456357 0.26626240 0.50392093
0.53291281 0.06256172 0.50292077
0.64241991 0.06256172 0.49973756
0.75079219 0.06256172 0.48897272
0.85989054 0.06256172 0.44107770
0.06256172 0.40425259 0.50261384
0.06256172 0.40419596 0.50261108
0.06256172 0.40375992 0.50258985
0.06256172 0.40187883 0.50249941
0.38216637 0.39498211 0.50218343
0.52524557 0.36820848 0.50116416
0.64008896 0.06256172 0.49791870
0.75006221 0.06256172 0.48692559
0.85967032 0.06256172 0.43757751
0.06256172 0.50541184 0.49684645
0.06256172 0.50539343 0.49684351
0.06256172 0.50525197 0.49682091
0.06256172 0.50464733 0.49672463
0.06256172 0.50250793 0.49638820
0.49530244 0.49530244 0.49530244
0.63221243 0.46839565 0.49183974
0.74768518 0.06256172 0.48004402
0.85896138 0.06256172 0.42534184
0.06256172 0.60915349 0.47616574
0.06256172 0.60914740 0.47616206
0.06256172 0.60910064 0.47613374
0.06256172 0.60890135 0.47601309
0.06256172 0.60820325 0.47559122
0.06256172 0.60593226 0.47422692
0.60241966 0.59849538 0.46984632
0.73987536 0.57043723 0.45454877
0.85671875 0.06256172 0.37029915
0.06256172 0.71567754 0.32381813
0.06256172 0.71567557 0.32379650
0.06256172 0.71566044 0.32363024
0.06256172 0.71559604 0.32291854
0.06256172 0.71537116 0.32038619
0.06256172 0.71464734 0.31168126
0.06256172 0.71235877 0.27579296
0.71002593 0.70479484 0.06256172
0.84929466 0.67478793 0.06256172
0.06256172 0.82487136 0.06256172
0.06256172 0.82487076 0.06256172
0.06256172 0.82486612 0.06256172
0.06256172 0.82484638 0.06256172
0.06256172 0.82477751 0.06256172
0.06256172 0.82455659 0.06256172
0.06256172 0.82386575 0.06256172
0.06256172 0.82166384 0.06256172
0.81965855 0.81408550 0.06256172
0.06256172 0.06256172 0.60821442
0.06256172 0.06256172 0.60821353
0.06256172 0.06256172 0.60820665
0.06256172 0.06256172 0.60817735
0.38704584 0.06256172 0.60807516
0.52626038 0.06256172 0.60774714
0.64038980 0.06256172 0.60671915
0.75015574 0.06256172 0.60341992
0.85969847 0.06256172 0.59177877
0.06256172 0.06256172 0.60820946
0.06256172 0.06256172 0.60820856
0.06256172 0.06256172 0.60820168
0.06256172 0.06256172 0.60817239
0.38671925 0.06256172 0.60807019
0.52619099 0.06256172 0.60774215
0.64036915 0.06256172 0.60671411
0.75014931 0.06256172 0.60341470
0.85969654 0.06256172 0.59177287
0.06256172 0.06256172 0.60817133
0.06256172 0.06256172 0.60817043
0.06256172 0.06256172 0.60816355
0.06256172 0.06256172 0.60813424
0.38416908 0.06256172 0.60803200
0.52565642 0.06256172 0.60770383
0.64021048 0.06256172 0.60667537
0.75009996 0.06256172 0.60337458
0.85968168 0.06256172 0.59172749
0.06256172 0.28785446 0.60800883
0.06256172 0.28761769 0.60800793
0.06256172 0.28577421 0.60800104
0.06256172 0.27737047 0.60797168
0.37236794 0.23664421 0.60786926
0.52334578 0.06256172 0.60754053
0.63953200 0.06256172 0.60651028
0.74988960 0.06256172 0.60320362
0.85961842 0.06256172 0.59153407
0.06256172 0.39983295 0.60744013
0.06256172 0.39977336 0.60743923
0.06256172 0.39931448 0.60743229
0.06256172 0.39733333 0.60740276
0.30918051 0.39004789 0.60729972
0.51480930 0.36137089 0.60696900
0.63712787 0.06256172 0.60593247
0.74915248 0.06256172 0.60260517
0.85939753 0.06256172 0.59085664
0.06256172 0.50400005 0.60559552
0.06256172 0.50398136 0.60559459
0.06256172 0.50383772 0.60558752
0.06256172 0.50322373 0.60555741
0.06256172 0.50105071 0.60545234
0.48053764 0.49372575 0.60511507
0.62898984 0.46627352 0.60405790
0.74675180 0.06256172 0.60066273
0.85868641 0.06256172 0.58865387
0.06256172 0.60868898 0.59961422
0.06256172 0.60868286 0.59961324
0.06256172 0.60863587 0.59960571
0.06256172 0.60843560 0.59957362
0.06256172 0.60773404 0.59946168
0.06256172 0.60545161 0.59910231
0.59797526 0.59797526 0.59797526
0.73885996 0.56973623 0.59434993
0.85643676 0.06256172 0.58145122
0.06256172 0.71552751 0.57793599
0.06256172 0.71552554 0.57793475
0.06256172 0.71551039 0.57792527
0.06256172 0.71544588 0.57788490
0.06256172 0.71522064 0.57774401
0.06256172 0.71449566 0.57729141
0.06256172 0.71220334 0.57586906
0.70862642 0.70462636 0.57126254
0.84898822 0.67455619 0.55444382
0.06256172 0.82482538 0.39824873
0.06256172 0.82482477 0.39823989
0.06256172 0.82482013 0.39817198
0.06256172 0.82480038 0.39788227
0.06256172 0.82473147 0.39686461
0.06256172 0.82451045 0.39352250
0.06256172 0.82381925 0.38220560
0.06256172 0.82161619 0.33166556
0.81923268 0.81403371 0.06256172
0.06256172 0.06256172 0.71457065
0.06256172 0.06256172 0.71457036
0.06256172 0.06256172 0.71456813
0.06256172 0.06256172 0.71455864
0.06256172 0.06256172 0.71452554
0.48907973 0.06256172 0.71441945
0.63080435 0.06256172 0.71408859
0.74727459 0.06256172 0.71304305
0.85884019 0.06256172 0.70954911
0.06256172 0.06256172 0.71456904
0.06256172 0.06256172 0.71456875
0.06256172 0.06256172 0.71456652
0.06256172 0.06256172 0.71455703
0.06256172 0.06256172 0.71452393
0.48897600 0.06256172 0.71441784
0.63078150 0.06256172 0.71408697
0.74726796 0.06256172 0.71304142
0.85883823 0.06256172 0.70954741
0.06256172 0.06256172 0.71455669
0.06256172 0.06256172 0.71455640
0.06256172 0.06256172 0.71455417
0.06256172 0.06256172 0.71454467
0.06256172 0.06256172 0.71451156
0.48817555 0.06256172 0.71440546
0.63060589 0.06256172 0.71407455
0.74721706 0.06256172 0.71302886
0.85882324 0.06256172 0.70953437
0.06256172 0.17105608 0.71450406
0.06256172 0.16957138 0.71450377
0.06256172 0.15643957 0.71450154
0.06256172 0.06256172 0.71449204
0.06256172 0.06256172 0.71445892
0.48468769 0.06256172 0.71435275
0.62985463 0.06256172 0.71402166
0.74700007 0.06256172 0.71297537
0.85875936 0.06256172 0.70947886
0.06256172 0.38429039 0.71432038
0.06256172 0.38421901 0.71432009
0.06256172 0.38366892 0.71431786
0.06256172 0.38128667 0.71430834
0.06256172 0.37241710 0.71427515
0.47136977 0.33530836 0.71416878
0.62718789 0.06256172 0.71383702
0.74623962 0.06256172 0.71278867
0.85853633 0.06256172 0.70928507
0.06256172 0.49942597 0.71372971
0.06256172 0.49940633 0.71372942
0.06256172 0.49925539 0.71372717
0.06256172 0.49861004 0.71371759
0.06256172 0.49632420 0.71368419
0.40712418 0.48859676 0.71357715
0.61810367 0.45927499 0.71324329
0.74376165 0.06256172 0.71218825
0.85781828 0.06256172 0.70866174
0.06256172 0.60721685 0.71186767
0.06256172 0.60721064 0.71186737
0.06256172 0.60716291 0.71186508
0.06256172 0.60695949 0.71185531
0.06256172 0.60624685 0.71182124
0.06256172 0.60392778 0.71171205
0.58249841 0.59632486 0.71137148
0.73560111 0.56750273 0.71029507
0.85554636 0.06256172 0.70669536
0.06256172 0.71505532 0.70577481
0.06256172 0.71505334 0.70577449
0.06256172 0.71503812 0.70577204
0.06256172 0.71497328 0.70576162
0.06256172 0.71474691 0.70572526
0.06256172 0.71401824 0.70560875
0.06256172 0.71171408 0.70524528
0.70409589 0.70409589 0.70409589
0.84802011 0.67382552 0.70024567
0.06256172 0.82468097 0.68260938
0.06256172 0.82468036 0.68260898
0.06256172 0.82467571 0.68260584
0.06256172 0.82465593 0.68259251
0.06256172 0.82458691 0.68254601
0.06256172 0.82436553 0.68239695
0.06256172 0.82367323 0.68193162
0.06256172 0.82146658 0.68045684
0.81788367 0.81387107 0.67547909
0.06256172 0.06256172 0.82372825
0.06256172 0.06256172 0.82372816
0.06256172 0.06256172 0.82372748
0.06256172 0.06256172 0.82372456
0.06256172 0.06256172 0.82371440
0.06256172 0.06256172 0.82368186
0.59036025 0.06256172 0.82358054
0.73720397 0.06256172 0.82326196
0.85598153 0.06256172 0.82221487
0.06256172 0.06256172 0.82372776
0.06256172 0.06256172 0.82372767
0.06256172 0.06256172 0.82372698
0.06256172 0.06256172 0.82372407
0.06256172 0.06256172 0.82371391
0.06256172 0.06256172 0.82368137
0.59032520 0.06256172 0.82358005
0.73719659 0.06256172 0.82326147
0.85597951 0.06256172 0.82221437
0.06256172 0.06256172 0.82372396
0.06256172 0.06256172 0.82372387
0.06256172 0.06256172 0.82372319
0.06256172 0.06256172 0.82372028
0.06256172 0.06256172 0.82371012
0.06256172 0.06256172 0.82367758
0.59005566 0.06256172 0.82357625
0.73713988 0.06256172 0.82325765
0.85596403 0.06256172 0.82221051
0.06256172 0.06256172 0.82370782
0.06256172 0.06256172 0.82370773
0.06256172 0.06256172 0.82370704
0.06256172 0.06256172 0.82370413
0.06256172 0.06256172 0.82369397
0.06256172 0.06256172 0.82366142
0.58889951 0.06256172 0.82356007
0.73689810 0.06256172 0.82324142
0.85589807 0.06256172 0.82219409
0.06256172 0.29216851 0.82365150
0.06256172 0.29194497 0.82365141
0.06256172 0.29020601 0.82365073
0.06256172 0.28231550 0.82364781
0.06256172 0.24521780 0.82363764
0.06256172 0.06256172 0.82360508
0.58475439 0.06256172 0.82350367
0.73605024 0.06256172 0.82318482
0.85566776 0.06256172 0.82213683
0.06256172 0.48269647 0.82347092
0.06256172 0.48267291 0.82347083
0.06256172 0.48249179 0.82347014
0.06256172 0.48171675 0.82346722
0.06256172 0.47896225 0.82345703
0.06256172 0.46953637 0.82342440
0.57010175 0.43172010 0.82332279
0.73328203 0.06256172 0.82300330
0.85492617 0.06256172 0.82195320
0.06256172 0.60224871 0.82290671
0.06256172 0.60224216 0.82290662
0.06256172 0.60219186 0.82290593
0.06256172 0.60197744 0.82290299
0.06256172 0.60122607 0.82289274
0.06256172 0.59877881 0.82285990
0.50004585 0.59073130 0.82275766
0.72410372 0.55982451 0.82243617
0.85257852 0.06256172 0.82137945
0.06256172 0.71349826 0.82111372
0.06256172 0.71349624 0.82111363
0.06256172 0.71348077 0.82111292
0.06256172 0.71341485 0.82110992
0.06256172 0.71318467 0.82109947
0.06256172 0.71244373 0.82106597
0.06256172 0.71010011 0.82096169
0.68758774 0.70234433 0.82063376
0.84478733 0.67140188 0.81955571
0.06256172 0.82420828 0.81500575
0.06256172 0.82420767 0.81500565
0.06256172 0.82420300 0.81500490
0.06256172 0.82418311 0.81500169
0.06256172 0.82411373 0.81499051
0.06256172 0.82389119 0.81495469
0.06256172 0.82319524 0.81484314
0.06256172 0.82097679 0.81449233
0.81333847 0.81333847 0.81333847
