src/ffmpeg_scripts/luts/rec2020-sRGB_-3p67.cube
TITLE "rec2020-srgb_-3p67"
LUT_3D_SIZE 33
# PQ (EOTF Only)/Rec2020 -> PQ (EOTF Only)/Rec709, CineEI Shift -3.67, Black Level 0.00% IRE, Input 100% -> Output 109% - Created with LUTCalc v4.01 by Ben Turley October 2020
0.06256172 0.06256172 0.06256172
0.07208751 0.06256172 0.06256172
0.08364407 0.06256172 0.06256172
0.09652755 0.06256172 0.06256172
0.11047458 0.06256172 0.06256172
0.12533540 0.06256172 0.06256172
0.14101038 0.06256172 0.06256172
0.15742725 0.06256172 0.06256172
0.17453060 0.06256172 0.06256172
0.19227622 0.06256172 0.06256172
0.21062784 0.06256172 0.06256172
0.22955499 0.06256172 0.06256172
0.24903166 0.06256172 0.06256172
0.26903528 0.06256172 0.06256172
0.28954606 0.06256172 0.06256172
0.31054644 0.06256172 0.06256172
0.33202074 0.06256172 0.06256172
0.35395481 0.06256172 0.06256172
0.37633584 0.06256172 0.06256172
0.39915213 0.06256172 0.06256172
0.42239295 0.06256172 0.06256172
0.44604843 0.06256172 0.06256172
0.47010943 0.06256172 0.06256172
0.49456746 0.06256172 0.06256172
0.51941463 0.06256172 0.06256172
0.54464354 0.06256172 0.06256172
0.57024727 0.06256172 0.06256172
0.59621932 0.06256172 0.06256172
0.62255357 0.06256172 0.06256172
0.64924422 0.06256172 0.06256172
0.67628582 0.06256172 0.06256172
0.70367317 0.06256172 0.06256172
0.73140134 0.06256172 0.06256172
0.06256172 0.07030599 0.06256172
0.07007876 0.06982755 0.06256172
0.08284079 0.06775451 0.06256172
0.09609092 0.06256172 0.06256172
0.11020812 0.06256172 0.06256172
0.12516199 0.06256172 0.06256172
0.14089274 0.06256172 0.06256172
0.15734510 0.06256172 0.06256172
0.17447198 0.06256172 0.06256172
0.19223370 0.06256172 0.06256172
0.21059660 0.06256172 0.06256172
0.22953181 0.06256172 0.06256172
0.24901432 0.06256172 0.06256172
0.26902222 0.06256172 0.06256172
0.28953617 0.06256172 0.06256172
0.31053893 0.06256172 0.06256172
0.33201501 0.06256172 0.06256172
0.35395044 0.06256172 0.06256172
0.37633249 0.06256172 0.06256172
0.39914956 0.06256172 0.06256172
0.42239098 0.06256172 0.06256172
0.44604692 0.06256172 0.06256172
0.47010827 0.06256172 0.06256172
0.49456658 0.06256172 0.06256172
0.51941395 0.06256172 0.06256172
0.54464302 0.06256172 0.06256172
0.57024688 0.06256172 0.06256172
0.59621902 0.06256172 0.06256172
0.62255334 0.06256172 0.06256172
0.64924405 0.06256172 0.06256172
0.67628569 0.06256172 0.06256172
0.70367307 0.06256172 0.06256172
0.73140127 0.06256172 0.06256172
0.06256172 0.07998834 0.06256172
0.06256172 0.07978035 0.06256172
0.07951572 0.07899142 0.06256172
0.09441765 0.07709668 0.06256172
0.10920950 0.07268103 0.06256172
0.12451802 0.06256172 0.06256172
0.14045783 0.06256172 0.06256172
0.15704209 0.06256172 0.06256172
0.17425607 0.06256172 0.06256172
0.19207724 0.06256172 0.06256172
0.21048172 0.06256172 0.06256172
0.22944659 0.06256172 0.06256172
0.24895057 0.06256172 0.06256172
0.26897423 0.06256172 0.06256172
0.28949986 0.06256172 0.06256172
0.31051133 0.06256172 0.06256172
0.33199397 0.06256172 0.06256172
0.35393436 0.06256172 0.06256172
0.37632018 0.06256172 0.06256172
0.39914013 0.06256172 0.06256172
0.42238375 0.06256172 0.06256172
0.44604138 0.06256172 0.06256172
0.47010403 0.06256172 0.06256172
0.49456333 0.06256172 0.06256172
0.51941146 0.06256172 0.06256172
0.54464112 0.06256172 0.06256172
0.57024543 0.06256172 0.06256172
0.59621793 0.06256172 0.06256172
0.62255251 0.06256172 0.06256172
0.64924343 0.06256172 0.06256172
0.67628522 0.06256172 0.06256172
0.70367272 0.06256172 0.06256172
0.73140101 0.06256172 0.06256172
0.06256172 0.09099232 0.06256172
0.06256172 0.09087627 0.06256172
0.06605863 0.09044468 0.06256172
0.09026980 0.08946630 0.06256172
0.10689741 0.08753901 0.06256172
0.12306400 0.08382527 0.06256172
0.13948730 0.07558308 0.06256172
0.15637009 0.06256172 0.06256172
0.17377895 0.06256172 0.06256172
0.19173221 0.06256172 0.06256172
0.21022874 0.06256172 0.06256172
0.22925908 0.06256172 0.06256172
0.24881042 0.06256172 0.06256172
0.26886876 0.06256172 0.06256172
0.28942006 0.06256172 0.06256172
0.31045070 0.06256172 0.06256172
0.33194776 0.06256172 0.06256172
0.35389905 0.06256172 0.06256172
0.37629316 0.06256172 0.06256172
0.39911942 0.06256172 0.06256172
0.42236788 0.06256172 0.06256172
0.44602921 0.06256172 0.06256172
0.47009470 0.06256172 0.06256172
0.49455619 0.06256172 0.06256172
0.51940601 0.06256172 0.06256172
0.54463696 0.06256172 0.06256172
0.57024226 0.06256172 0.06256172
0.59621552 0.06256172 0.06256172
0.62255069 0.06256172 0.06256172
0.64924205 0.06256172 0.06256172
0.67628419 0.06256172 0.06256172
0.70367195 0.06256172 0.06256172
0.73140044 0.06256172 0.06256172
0.06256172 0.10308009 0.06256172
0.06256172 0.10300811 0.06256172
0.06256172 0.10274211 0.06256172
0.07939314 0.10214917 0.06256172
0.10210747 0.10102370 0.06256172
0.12022693 0.09902671 0.06256172
0.13764090 0.09552437 0.06256172
0.15510794 0.08900239 0.06256172
0.17288925 0.07136233 0.06256172
0.19109163 0.06256172 0.06256172
0.20976032 0.06256172 0.06256172
0.22891252 0.06256172 0.06256172
0.24855168 0.06256172 0.06256172
0.26867420 0.06256172 0.06256172
0.28927295 0.06256172 0.06256172
0.31033898 0.06256172 0.06256172
0.33186263 0.06256172 0.06256172
0.35383401 0.06256172 0.06256172
0.37624339 0.06256172 0.06256172
0.39908129 0.06256172 0.06256172
0.42233865 0.06256172 0.06256172
0.44600680 0.06256172 0.06256172
0.47007753 0.06256172 0.06256172
0.49454304 0.06256172 0.06256172
0.51939596 0.06256172 0.06256172
0.54462929 0.06256172 0.06256172
0.57023643 0.06256172 0.06256172
0.59621109 0.06256172 0.06256172
0.62254734 0.06256172 0.06256172
0.64923953 0.06256172 0.06256172
0.67628229 0.06256172 0.06256172
0.70367053 0.06256172 0.06256172
0.73139938 0.06256172 0.06256172
0.06256172 0.11611506 0.06256172
0.06256172 0.11606763 0.06256172
0.06256172 0.11589284 0.06256172
0.06256172 0.11550591 0.06256172
0.09148811 0.11478190 0.06256172
0.11489447 0.11353211 0.06256172
0.13435124 0.11145500 0.06256172
0.15291423 0.10802053 0.06256172
0.17136336 0.10212590 0.06256172
0.19000154 0.09044497 0.06256172
0.20896706 0.06256172 0.06256172
0.22832746 0.06256172 0.06256172
0.24811578 0.06256172 0.06256172
0.26834691 0.06256172 0.06256172
0.28902572 0.06256172 0.06256172
0.31015135 0.06256172 0.06256172
0.33171973 0.06256172 0.06256172
0.35372489 0.06256172 0.06256172
0.37615990 0.06256172 0.06256172
0.39901734 0.06256172 0.06256172
0.42228963 0.06256172 0.06256172
0.44596923 0.06256172 0.06256172
0.47004874 0.06256172 0.06256172
0.49452101 0.06256172 0.06256172
0.51937912 0.06256172 0.06256172
0.54461644 0.06256172 0.06256172
0.57022664 0.06256172 0.06256172
0.59620366 0.06256172 0.06256172
0.62254172 0.06256172 0.06256172
0.64923529 0.06256172 0.06256172
0.67627910 0.06256172 0.06256172
0.70366815 0.06256172 0.06256172
0.73139761 0.06256172 0.06256172
0.06256172 0.13000575 0.06256172
0.06256172 0.12997325 0.06256172
0.06256172 0.12985362 0.06256172
0.06256172 0.12958968 0.06256172
0.06256172 0.12909916 0.06256172
0.10417355 0.12826289 0.06256172
0.12854083 0.12690337 0.06256172
0.14922329 0.12474320 0.06256172
0.16885700 0.12131426 0.06256172
0.18823504 0.11571717 0.06256172
0.20769208 0.10573727 0.06256172
0.22739201 0.07932178 0.06256172
0.24742123 0.06256172 0.06256172
0.26782663 0.06256172 0.06256172
0.28863334 0.06256172 0.06256172
0.30985391 0.06256172 0.06256172
0.33149337 0.06256172 0.06256172
0.35355214 0.06256172 0.06256172
0.37602779 0.06256172 0.06256172
0.39891617 0.06256172 0.06256172
0.42221211 0.06256172 0.06256172
0.44590982 0.06256172 0.06256172
0.47000323 0.06256172 0.06256172
0.49448617 0.06256172 0.06256172
0.51935249 0.06256172 0.06256172
0.54459613 0.06256172 0.06256172
0.57021118 0.06256172 0.06256172
0.59619192 0.06256172 0.06256172
0.62253283 0.06256172 0.06256172
0.64922858 0.06256172 0.06256172
0.67627407 0.06256172 0.06256172
0.70366438 0.06256172 0.06256172
0.73139481 0.06256172 0.06256172
0.06256172 0.14468550 0.06256172
0.06256172 0.14466259 0.06256172
0.06256172 0.14457836 0.06256172
0.06256172 0.14439286 0.06256172
0.06256172 0.14404936 0.06256172
0.06256172 0.14346755 0.06256172
0.11759359 0.14253209 0.06256172
0.14298092 0.14107310 0.06256172
0.16480369 0.13882960 0.06256172
0.18544401 0.13537357 0.06256172
0.20570475 0.12992438 0.06256172
0.22594615 0.12076330 0.06256172
0.24635359 0.10204117 0.06256172
0.26702981 0.06256172 0.06256172
0.28803393 0.06256172 0.06256172
0.30940035 0.06256172 0.06256172
0.33114865 0.06256172 0.06256172
0.35328929 0.06256172 0.06256172
0.37582690 0.06256172 0.06256172
0.39876242 0.06256172 0.06256172
0.42209433 0.06256172 0.06256172
0.44581958 0.06256172 0.06256172
0.46993412 0.06256172 0.06256172
0.49443329 0.06256172 0.06256172
0.51931207 0.06256172 0.06256172
0.54456529 0.06256172 0.06256172
0.57018771 0.06256172 0.06256172
0.59617410 0.06256172 0.06256172
0.62251934 0.06256172 0.06256172
0.64921841 0.06256172 0.06256172
0.67626643 0.06256172 0.06256172
0.70365867 0.06256172 0.06256172
0.73139056 0.06256172 0.06256172
0.06256172 0.16010294 0.06256172
0.06256172 0.16008647 0.06256172
0.06256172 0.16002591 0.06256172
0.06256172 0.15989270 0.06256172
0.06256172 0.15964654 0.06256172
0.06256172 0.15923114 0.06256172
0.08834132 0.15856738 0.06256172
0.13175284 0.15754245 0.06256172
0.15816420 0.15599173 0.06256172
0.18105923 0.15366563 0.06256172
0.20265240 0.15016335 0.06256172
0.22375527 0.14478006 0.06256172
0.24474966 0.13607085 0.06256172
0.26583953 0.11999566 0.06256172
0.28714201 0.06256172 0.06256172
0.30872726 0.06256172 0.06256172
0.33063807 0.06256172 0.06256172
0.35290051 0.06256172 0.06256172
0.37553008 0.06256172 0.06256172
0.39853541 0.06256172 0.06256172
0.42192053 0.06256172 0.06256172
0.44568648 0.06256172 0.06256172
0.46983220 0.06256172 0.06256172
0.49435531 0.06256172 0.06256172
0.51925249 0.06256172 0.06256172
0.54451984 0.06256172 0.06256172
0.57015312 0.06256172 0.06256172
0.59614784 0.06256172 0.06256172
0.62249947 0.06256172 0.06256172
0.64920343 0.06256172 0.06256172
0.67625518 0.06256172 0.06256172
0.70365026 0.06256172 0.06256172
0.73138430 0.06256172 0.06256172
0.06256172 0.17621700 0.06256172
0.06256172 0.17620497 0.06256172
0.06256172 0.17616074 0.06256172
0.06256172 0.17606352 0.06256172
0.06256172 0.17588409 0.06256172
0.06256172 0.17558197 0.06256172
0.06256172 0.17510101 0.06256172
0.10591616 0.17436272 0.06256172
0.14662873 0.17325594 0.06256172
0.17405021 0.17161957 0.06256172
0.19796160 0.16921198 0.06256172
0.22046164 0.16565125 0.06256172
0.24237064 0.16028338 0.06256172
0.26408934 0.15183206 0.06256172
0.28583818 0.13711574 0.06256172
0.30774729 0.09983150 0.06256172
0.32989680 0.06256172 0.06256172
0.35233722 0.06256172 0.06256172
0.37510067 0.06256172 0.06256172
0.39820734 0.06256172 0.06256172
0.42166957 0.06256172 0.06256172
0.44549439 0.06256172 0.06256172
0.46968519 0.06256172 0.06256172
0.49424287 0.06256172 0.06256172
0.51916660 0.06256172 0.06256172
0.54445434 0.06256172 0.06256172
0.57010326 0.06256172 0.06256172
0.59611001 0.06256172 0.06256172
0.62247084 0.06256172 0.06256172
0.64918184 0.06256172 0.06256172
0.67623896 0.06256172 0.06256172
0.70363813 0.06256172 0.06256172
0.73137528 0.06256172 0.06256172
0.06256172 0.19299386 0.06256172
0.06256172 0.19298496 0.06256172
0.06256172 0.19295226 0.06256172
0.06256172 0.19288041 0.06256172
0.06256172 0.19274791 0.06256172
0.06256172 0.19252514 0.06256172
0.06256172 0.19217131 0.06256172
0.06256172 0.19163015 0.06256172
0.12224650 0.19082346 0.06256172
0.16219380 0.18964098 0.06256172
0.19060564 0.18792395 0.06256172
0.21548638 0.18543610 0.06256172
0.23885330 0.18180861 0.06256172
0.26153610 0.17642238 0.06256172
0.28395273 0.16811139 0.06256172
0.30633860 0.15418065 0.06256172
0.32883566 0.12445506 0.06256172
0.35153326 0.06256172 0.06256172
0.37448907 0.06256172 0.06256172
0.39774081 0.06256172 0.06256172
0.42131310 0.06256172 0.06256172
0.44522178 0.06256172 0.06256172
0.46947669 0.06256172 0.06256172
0.49408348 0.06256172 0.06256172
0.51904488 0.06256172 0.06256172
0.54436153 0.06256172 0.06256172
0.57003265 0.06256172 0.06256172
0.59605642 0.06256172 0.06256172
0.62243030 0.06256172 0.06256172
0.64915127 0.06256172 0.06256172
0.67621601 0.06256172 0.06256172
0.70362097 0.06256172 0.06256172
0.73136251 0.06256172 0.06256172
0.06256172 0.21040507 0.06256172
0.06256172 0.21039843 0.06256172
0.06256172 0.21037402 0.06256172
0.06256172 0.21032039 0.06256172
0.06256172 0.21022156 0.06256172
0.06256172 0.21005554 0.06256172
0.06256172 0.20979224 0.06256172
0.06256172 0.20939051 0.06256172
0.06256172 0.20879382 0.06256172
0.13851488 0.20792390 0.06256172
0.17842129 0.20667090 0.06256172
0.20780247 0.20487734 0.06256172
0.23361226 0.20231045 0.06256172
0.25781075 0.19861022 0.06256172
0.28123807 0.19318151 0.06256172
0.30432821 0.18493266 0.06256172
0.32733044 0.17147075 0.06256172
0.35039769 0.14509770 0.06256172
0.37362786 0.06256172 0.06256172
0.39708533 0.06256172 0.06256172
0.42081306 0.06256172 0.06256172
0.44483984 0.06256172 0.06256172
0.46918483 0.06256172 0.06256172
0.49386051 0.06256172 0.06256172
0.51887469 0.06256172 0.06256172
0.54423183 0.06256172 0.06256172
0.56993400 0.06256172 0.06256172
0.59598156 0.06256172 0.06256172
0.62237367 0.06256172 0.06256172
0.64910858 0.06256172 0.06256172
0.67618395 0.06256172 0.06256172
0.70359701 0.06256172 0.06256172
0.73134469 0.06256172 0.06256172
0.06256172 0.22842627 0.06256172
0.06256172 0.22842127 0.06256172
0.06256172 0.22840291 0.06256172
0.06256172 0.22836257 0.06256172
0.06256172 0.22828826 0.06256172
0.06256172 0.22816350 0.06256172
0.06256172 0.22796585 0.06256172
0.06256172 0.22766476 0.06256172
0.06256172 0.22721862 0.06256172
0.06256172 0.22657049 0.06256172
0.15505988 0.22564183 0.06256172
0.19528669 0.22432272 0.06256172
0.22561670 0.22245621 0.06256172
0.25232044 0.21981141 0.06256172
0.27731896 0.21603390 0.06256172
0.30146400 0.21054454 0.06256172
0.32520491 0.20230195 0.06256172
0.34880398 0.18910983 0.06256172
0.37242445 0.16458232 0.06256172
0.39617228 0.06256172 0.06256172
0.42011813 0.06256172 0.06256172
0.44430993 0.06256172 0.06256172
0.46878040 0.06256172 0.06256172
0.49355184 0.06256172 0.06256172
0.51863926 0.06256172 0.06256172
0.54405249 0.06256172 0.06256172
0.56979764 0.06256172 0.06256172
0.59587814 0.06256172 0.06256172
0.62229545 0.06256172 0.06256172
0.64904962 0.06256172 0.06256172
0.67613968 0.06256172 0.06256172
0.70356392 0.06256172 0.06256172
0.73132007 0.06256172 0.06256172
0.06256172 0.24703630 0.06256172
0.06256172 0.24703252 0.06256172
0.06256172 0.24701862 0.06256172
0.06256172 0.24698809 0.06256172
0.06256172 0.24693185 0.06256172
0.06256172 0.24683749 0.06256172
0.06256172 0.24668811 0.06256172
0.06256172 0.24646078 0.06256172
0.06256172 0.24612449 0.06256172
0.06256172 0.24563713 0.06256172
0.06256172 0.24494125 0.06256172
0.17201262 0.24395781 0.06256172
0.21276789 0.24257646 0.06256172
0.24402749 0.24064009 0.06256172
0.27159420 0.23791844 0.06256172
0.29736426 0.23406003 0.06256172
0.32220229 0.22849560 0.06256172
0.34657263 0.22021695 0.06256172
0.37075002 0.20715764 0.06256172
0.39490747 0.18371085 0.06256172
0.41915857 0.10803736 0.06256172
0.44357996 0.06256172 0.06256172
0.46822426 0.06256172 0.06256172
0.49312793 0.06256172 0.06256172
0.51831625 0.06256172 0.06256172
0.54380662 0.06256172 0.06256172
0.56961080 0.06256172 0.06256172
0.59573648 0.06256172 0.06256172
0.62218834 0.06256172 0.06256172
0.64896891 0.06256172 0.06256172
0.67607910 0.06256172 0.06256172
0.70351863 0.06256172 0.06256172
0.73128640 0.06256172 0.06256172
0.06256172 0.26621656 0.06256172
0.06256172 0.26621368 0.06256172
0.06256172 0.26620311 0.06256172
0.06256172 0.26617989 0.06256172
0.06256172 0.26613712 0.06256172
0.06256172 0.26606539 0.06256172
0.06256172 0.26595188 0.06256172
0.06256172 0.26577927 0.06256172
0.06256172 0.26552422 0.06256172
0.06256172 0.26515520 0.06256172
0.06256172 0.26462957 0.06256172
0.06256172 0.26388930 0.06256172
0.18942978 0.26285463 0.06256172
0.23084505 0.26141450 0.06256172
0.26301650 0.25941101 0.06256172
0.29141855 0.25661345 0.06256172
0.31793412 0.25267109 0.06256172
0.34344217 0.24701968 0.06256172
0.36842183 0.23867119 0.06256172
0.39315987 0.22564341 0.06256172
0.41783869 0.20281586 0.06256172
0.44257916 0.14259273 0.06256172
0.46746362 0.06256172 0.06256172
0.49254918 0.06256172 0.06256172
0.51787584 0.06256172 0.06256172
0.54347173 0.06256172 0.06256172
0.56935651 0.06256172 0.06256172
0.59554378 0.06256172 0.06256172
0.62204271 0.06256172 0.06256172
0.64885921 0.06256172 0.06256172
0.67599677 0.06256172 0.06256172
0.70345711 0.06256172 0.06256172
0.73124065 0.06256172 0.06256172
0.06256172 0.28595054 0.06256172
0.06256172 0.28594834 0.06256172
0.06256172 0.28594027 0.06256172
0.06256172 0.28592254 0.06256172
0.06256172 0.28588989 0.06256172
0.06256172 0.28583514 0.06256172
0.06256172 0.28574853 0.06256172
0.06256172 0.28561690 0.06256172
0.06256172 0.28542255 0.06256172
0.06256172 0.28514169 0.06256172
0.06256172 0.28474231 0.06256172
0.06256172 0.28418119 0.06256172
0.11652188 0.28339960 0.06256172
0.20733576 0.28231696 0.06256172
0.24950036 0.28082114 0.06256172
0.28256748 0.27875300 0.06256172
0.31177994 0.27588037 0.06256172
0.33901708 0.27185139 0.06256172
0.36517362 0.26610271 0.06256172
0.39074351 0.25765619 0.06256172
0.41602529 0.24458030 0.06256172
0.44121043 0.22205955 0.06256172
0.46642681 0.16801583 0.06256172
0.49176224 0.06256172 0.06256172
0.51727811 0.06256172 0.06256172
0.54301783 0.06256172 0.06256172
0.56901220 0.06256172 0.06256172
0.59528309 0.06256172 0.06256172
0.62184581 0.06256172 0.06256172
0.64871095 0.06256172 0.06256172
0.67588554 0.06256172 0.06256172
0.70337402 0.06256172 0.06256172
0.73117887 0.06256172 0.06256172
0.06256172 0.30622346 0.06256172
0.06256172 0.30622178 0.06256172
0.06256172 0.30621560 0.06256172
0.06256172 0.30620202 0.06256172
0.06256172 0.30617702 0.06256172
0.06256172 0.30613510 0.06256172
0.06256172 0.30606881 0.06256172
0.06256172 0.30596810 0.06256172
0.06256172 0.30581948 0.06256172
0.06256172 0.30560489 0.06256172
0.06256172 0.30530011 0.06256172
0.06256172 0.30487263 0.06256172
0.06256172 0.30427863 0.06256172
0.14281846 0.30345861 0.06256172
0.22573934 0.30233099 0.06256172
0.26871771 0.30078234 0.06256172
0.30266586 0.29865176 0.06256172
0.33266606 0.29570480 0.06256172
0.36060253 0.29158675 0.06256172
0.38738726 0.28573159 0.06256172
0.41352919 0.27716246 0.06256172
0.43933844 0.26397237 0.06256172
0.46501533 0.24152712 0.06256172
0.49069456 0.19058556 0.06256172
0.51646917 0.06256172 0.06256172
0.54240468 0.06256172 0.06256172
0.56854776 0.06256172 0.06256172
0.59493180 0.06256172 0.06256172
0.62158070 0.06256172 0.06256172
0.64851144 0.06256172 0.06256172
0.67573593 0.06256172 0.06256172
0.70326229 0.06256172 0.06256172
0.73109582 0.06256172 0.06256172
0.06256172 0.32702200 0.06256172
0.06256172 0.32702071 0.06256172
0.06256172 0.32701597 0.06256172
0.06256172 0.32700555 0.06256172
0.06256172 0.32698636 0.06256172
0.06256172 0.32695419 0.06256172
0.06256172 0.32690333 0.06256172
0.06256172 0.32682609 0.06256172
0.06256172 0.32671215 0.06256172
0.06256172 0.32654773 0.06256172
0.06256172 0.32631441 0.06256172
0.06256172 0.32598756 0.06256172
0.06256172 0.32553417 0.06256172
0.06256172 0.32490976 0.06256172
0.16529036 0.32405402 0.06256172
0.24464118 0.32288423 0.06256172
0.28848252 0.32128540 0.06256172
0.32329851 0.31909443 0.06256172
0.35406567 0.31607376 0.06256172
0.38268066 0.31186429 0.06256172
0.41007431 0.30589411 0.06256172
0.43677082 0.29718010 0.06256172
0.46309183 0.28381821 0.06256172
0.48924636 0.26126372 0.06256172
0.51537569 0.21182513 0.06256172
0.54157799 0.06256172 0.06256172
0.56792275 0.06256172 0.06256172
0.59445973 0.06256172 0.06256172
0.62122481 0.06256172 0.06256172
0.64824385 0.06256172 0.06256172
0.67553539 0.06256172 0.06256172
0.70311260 0.06256172 0.06256172
0.73098459 0.06256172 0.06256172
0.06256172 0.34833405 0.06256172
0.06256172 0.34833306 0.06256172
0.06256172 0.34832941 0.06256172
0.06256172 0.34832140 0.06256172
0.06256172 0.34830666 0.06256172
0.06256172 0.34828194 0.06256172
0.06256172 0.34824285 0.06256172
0.06256172 0.34818351 0.06256172
0.06256172 0.34809600 0.06256172
0.06256172 0.34796977 0.06256172
0.06256172 0.34779076 0.06256172
0.06256172 0.34754022 0.06256172
0.06256172 0.34719312 0.06256172
0.06256172 0.34671592 0.06256172
0.06256172 0.34606350 0.06256172
0.18640151 0.34517461 0.06256172
0.26403749 0.34396529 0.06256172
0.30878150 0.34231876 0.06256172
0.34445351 0.34006929 0.06256172
0.37596844 0.33697544 0.06256172
0.40524233 0.33267223 0.06256172
0.43322650 0.32657888 0.06256172
0.46046077 0.31769910 0.06256172
0.48727831 0.30411289 0.06256172
0.51389672 0.28129139 0.06256172
0.54046374 0.23232580 0.06256172
0.56708251 0.06256172 0.06256172
0.59382634 0.06256172 0.06256172
0.62074800 0.06256172 0.06256172
0.64788572 0.06256172 0.06256172
0.67526722 0.06256172 0.06256172
0.70291255 0.06256172 0.06256172
0.73083602 0.06256172 0.06256172
0.06256172 0.37014857 0.06256172
0.06256172 0.37014780 0.06256172
0.06256172 0.37014499 0.06256172
0.06256172 0.37013883 0.06256172
0.06256172 0.37012749 0.06256172
0.06256172 0.37010847 0.06256172
0.06256172 0.37007841 0.06256172
0.06256172 0.37003277 0.06256172
0.06256172 0.36996548 0.06256172
0.06256172 0.36986846 0.06256172
0.06256172 0.36973093 0.06256172
0.06256172 0.36953857 0.06256172
0.06256172 0.36927231 0.06256172
0.06256172 0.36890673 0.06256172
0.06256172 0.36840778 0.06256172
0.06256172 0.36772963 0.06256172
0.20695717 0.36681007 0.06256172
0.28392196 0.36556376 0.06256172
0.32960248 0.36387188 0.06256172
0.36611997 0.36156568 0.06256172
0.39836481 0.35839906 0.06256172
0.42827900 0.35399977 0.06256172
0.45683602 0.34777522 0.06256172
0.48459176 0.33870945 0.06256172
0.51189102 0.32484908 0.06256172
0.53895987 0.30161741 0.06256172
0.56595245 0.25235259 0.06256172
0.59297670 0.06256172 0.06256172
0.62010965 0.06256172 0.06256172
0.64740696 0.06256172 0.06256172
0.67490913 0.06256172 0.06256172
0.70264563 0.06256172 0.06256172
0.73063791 0.06256172 0.06256172
0.06256172 0.39245540 0.06256172
0.06256172 0.39245481 0.06256172
0.06256172 0.39245265 0.06256172
0.06256172 0.39244791 0.06256172
0.06256172 0.39243918 0.06256172
0.06256172 0.39242455 0.06256172
0.06256172 0.39240141 0.06256172
0.06256172 0.39236630 0.06256172
0.06256172 0.39231454 0.06256172
0.06256172 0.39223992 0.06256172
0.06256172 0.39213418 0.06256172
0.06256172 0.39198636 0.06256172
0.06256172 0.39178189 0.06256172
0.06256172 0.39150141 0.06256172
0.06256172 0.39111911 0.06256172
0.06256172 0.39060040 0.06256172
0.06256172 0.38989875 0.06256172
0.22731241 0.38895091 0.06256172
0.30428687 0.38767003 0.06256172
0.35093424 0.38593505 0.06256172
0.38828790 0.38357378 0.06256172
0.42124595 0.38033473 0.06256172
0.45178267 0.37583693 0.06256172
0.48089546 0.36947310 0.06256172
0.50915684 0.36020122 0.06256172
0.53692334 0.34601767 0.06256172
0.56442950 0.32223876 0.06256172
0.59183572 0.27201859 0.06256172
0.61925468 0.06256172 0.06256172
0.64676702 0.06256172 0.06256172
0.67443117 0.06256172 0.06256172
0.70228977 0.06256172 0.06256172
0.73037401 0.06256172 0.06256172
0.06256172 0.41524521 0.06256172
0.06256172 0.41524476 0.06256172
0.06256172 0.41524310 0.06256172
0.06256172 0.41523945 0.06256172
0.06256172 0.41523273 0.06256172
0.06256172 0.41522147 0.06256172
0.06256172 0.41520367 0.06256172
0.06256172 0.41517666 0.06256172
0.06256172 0.41513684 0.06256172
0.06256172 0.41507945 0.06256172
0.06256172 0.41499815 0.06256172
0.06256172 0.41488453 0.06256172
0.06256172 0.41472745 0.06256172
0.06256172 0.41451213 0.06256172
0.06256172 0.41421891 0.06256172
0.06256172 0.41382159 0.06256172
0.06256172 0.41328510 0.06256172
0.06256172 0.41256211 0.06256172
0.24764632 0.41158832 0.06256172
0.32512362 0.41027524 0.06256172
0.37276642 0.40849934 0.06256172
0.41094810 0.40608459 0.06256172
0.44460363 0.40277333 0.06256172
0.47574579 0.39817444 0.06256172
0.50539778 0.39166307 0.06256172
0.53414934 0.38216455 0.06256172
0.56236888 0.36760805 0.06256172
