src/ffmpeg_scripts/luts/rec2020-sRGB_0-Native.cube
TITLE "rec2020-srgb_0-Native"
LUT_3D_SIZE 9
# PQ (EOTF Only)/Rec2020 -> PQ (EOTF Only)/Rec709, CineEI Shift 0.00, Black Level 0.00% IRE, Input 100% -> Output 109% - Created with LUTCalc v4.01 by Ben Turley October 2020
0.06256172 0.06256172 0.06256172
0.19035250 0.06256172 0.06256172
0.30880397 0.06256172 0.06256172
0.42316403 0.06256172 0.06256172
0.53477690 0.06256172 0.06256172
0.64430815 0.06256172 0.06256172
0.75215966 0.06256172 0.06256172
0.85860163 0.06256172 0.06256172
0.91886608 0.06256172 0.06256172
0.06256172 0.17446477 0.06256172
0.17232201 0.16991861 0.06256172
0.30606551 0.09425522 0.06256172
0.42247794 0.06256172 0.06256172
0.53457568 0.06256172 0.06256172
0.64424525 0.06256172 0.06256172
0.75213970 0.06256172 0.06256172
0.85859541 0.06256172 0.06256172
0.91886608 0.06256172 0.06256172
0.06256172 0.28430962 0.06256172
0.06256172 0.28351842 0.06256172
0.28094127 0.27714360 0.06256172
0.41702388 0.24104741 0.06256172
0.53301594 0.06256172 0.06256172
0.64376088 0.06256172 0.06256172
0.75198626 0.06256172 0.06256172
0.85854766 0.06256172 0.06256172
0.91886608 0.06256172 0.06256172
0.06256172 0.39319693 0.06256172
0.06256172 0.39299250 0.06256172
0.06256172 0.39140635 0.06256172
0.38902502 0.38430583 0.06256172
0.52606789 0.35351426 0.06256172
0.64167069 0.06256172 0.06256172
0.75133024 0.06256172 0.06256172
0.85834409 0.06256172 0.06256172
0.91886608 0.06256172 0.06256172
0.06256172 0.50142392 0.06256172
0.06256172 0.50136289 0.06256172
0.06256172 0.50089291 0.06256172
0.06256172 0.49886500 0.06256172
0.49673806 0.49142442 0.06256172
0.63399995 0.46247527 0.06256172
0.74900631 0.06256172 0.06256172
0.85763073 0.06256172 0.06256172
0.91886608 0.06256172 0.06256172
0.06256172 0.60914105 0.06256172
0.06256172 0.60912172 0.06256172
0.06256172 0.60897316 0.06256172
0.06256172 0.60833812 0.06256172
0.06256172 0.60609025 0.06256172
0.60416406 0.59850911 0.06256172
0.74114784 0.57006046 0.06256172
0.85530707 0.06256172 0.06256172
0.91886608 0.06256172 0.06256172
0.06256172 0.71644064 0.06256172
0.06256172 0.71643443 0.06256172
0.06256172 0.71638680 0.06256172
0.06256172 0.71618375 0.06256172
0.06256172 0.71547243 0.06256172
0.06256172 0.71315744 0.06256172
0.71135450 0.70556591 0.06256172
0.84766469 0.67677719 0.06256172
0.91886608 0.06256172 0.06256172
0.06256172 0.82338553 0.06256172
0.06256172 0.82338359 0.06256172
0.06256172 0.82336862 0.06256172
0.06256172 0.82330487 0.06256172
0.06256172 0.82308228 0.06256172
0.06256172 0.82236573 0.06256172
0.06256172 0.82009928 0.06256172
0.81834447 0.81259894 0.06256172
0.91886608 0.78269769 0.06256172
0.06256172 0.91886608 0.06256172
0.06256172 0.91886608 0.06256172
0.06256172 0.91886608 0.06256172
0.06256172 0.91886608 0.06256172
0.06256172 0.91886608 0.06256172
0.06256172 0.91886608 0.06256172
0.06256172 0.91886608 0.06256172
0.06256172 0.91886608 0.06256172
0.91886608 0.91886608 0.06256172
0.06256172 0.06256172 0.17396691
0.18841084 0.06256172 0.17332228
0.30846969 0.06256172 0.16808874
0.42307926 0.06256172 0.13602212
0.53475198 0.06256172 0.06256172
0.64430035 0.06256172 0.06256172
0.75215719 0.06256172 0.06256172
0.85860086 0.06256172 0.06256172
0.91886608 0.06256172 0.06256172
0.06256172 0.17417199 0.17029104
0.16959922 0.16959922 0.16959922
0.30571917 0.09176677 0.16395126
0.42239251 0.06256172 0.12720733
0.53455070 0.06256172 0.06256172
0.64423745 0.06256172 0.06256172
0.75213723 0.06256172 0.06256172
0.85859464 0.06256172 0.06256172
0.91886608 0.06256172 0.06256172
0.06256172 0.28425685 0.12503794
0.06256172 0.28346508 0.12310189
0.28045798 0.27708544 0.10289829
0.41693300 0.24095031 0.06256172
0.53299054 0.06256172 0.06256172
0.64375304 0.06256172 0.06256172
0.75198378 0.06256172 0.06256172
0.85854689 0.06256172 0.06256172
0.91886608 0.06256172 0.06256172
0.06256172 0.39318324 0.06256172
0.06256172 0.39297878 0.06256172
0.06256172 0.39139237 0.06256172
0.38889957 0.38429065 0.06256172
0.52604053 0.35349236 0.06256172
0.64166268 0.06256172 0.06256172
0.75132774 0.06256172 0.06256172
0.85834331 0.06256172 0.06256172
0.91886608 0.06256172 0.06256172
0.06256172 0.50141983 0.06256172
0.06256172 0.50135879 0.06256172
0.06256172 0.50088880 0.06256172
0.06256172 0.49886080 0.06256172
0.49670050 0.49141986 0.06256172
0.63399126 0.46246901 0.06256172
0.74900375 0.06256172 0.06256172
0.85762995 0.06256172 0.06256172
0.91886608 0.06256172 0.06256172
0.06256172 0.60913975 0.06256172
0.06256172 0.60912042 0.06256172
0.06256172 0.60897186 0.06256172
0.06256172 0.60833681 0.06256172
0.06256172 0.60608891 0.06256172
0.60415214 0.59850766 0.06256172
0.74114505 0.57005850 0.06256172
0.85530627 0.06256172 0.06256172
0.91886608 0.06256172 0.06256172
0.06256172 0.71644022 0.06256172
0.06256172 0.71643402 0.06256172
0.06256172 0.71638638 0.06256172
0.06256172 0.71618334 0.06256172
0.06256172 0.71547201 0.06256172
0.06256172 0.71315701 0.06256172
0.71135067 0.70556544 0.06256172
0.84766382 0.67677656 0.06256172
0.91886608 0.06256172 0.06256172
0.06256172 0.82338540 0.06256172
0.06256172 0.82338345 0.06256172
0.06256172 0.82336849 0.06256172
0.06256172 0.82330474 0.06256172
0.06256172 0.82308215 0.06256172
0.06256172 0.82236560 0.06256172
0.06256172 0.82009915 0.06256172
0.81834327 0.81259879 0.06256172
0.91886608 0.78269749 0.06256172
0.06256172 0.91886608 0.06256172
0.06256172 0.91886608 0.06256172
0.06256172 0.91886608 0.06256172
0.06256172 0.91886608 0.06256172
0.06256172 0.91886608 0.06256172
0.06256172 0.91886608 0.06256172
0.06256172 0.91886608 0.06256172
0.06256172 0.91886608 0.06256172
0.91886608 0.91886608 0.06256172
0.06256172 0.06256172 0.28352846
0.17067206 0.06256172 0.28341246
0.30585366 0.06256172 0.28251570
0.42242565 0.06256172 0.27857169
0.53456039 0.06256172 0.26286929
0.64424048 0.06256172 0.12705054
0.75213819 0.06256172 0.06256172
0.85859494 0.06256172 0.06256172
0.91886608 0.06256172 0.06256172
0.06256172 0.17186803 0.28288341
0.14139286 0.16707851 0.28276640
0.30300667 0.06256172 0.28186174
0.42173377 0.06256172 0.27788167
0.53435870 0.06256172 0.26201090
0.64417753 0.06256172 0.11550397
0.75211822 0.06256172 0.06256172
0.85858872 0.06256172 0.06256172
0.91886608 0.06256172 0.06256172
0.06256172 0.28385034 0.27773347
0.06256172 0.28305420 0.27760800
0.27663734 0.27663734 0.27663734
0.41623197 0.24020003 0.27235470
0.53279530 0.06256172 0.25504754
0.64369281 0.06256172 0.06256172
0.75196474 0.06256172 0.06256172
0.85854096 0.06256172 0.06256172
0.91886608 0.06256172 0.06256172
0.06256172 0.39307805 0.25045965
0.06256172 0.39287334 0.25027563
0.06256172 0.39128497 0.24884601
0.38793005 0.38417396 0.24240276
0.52583016 0.35332401 0.21325620
0.64160110 0.06256172 0.06256172
0.75130857 0.06256172 0.06256172
0.85833738 0.06256172 0.06256172
0.91886608 0.06256172 0.06256172
0.06256172 0.50138842 0.06256172
0.06256172 0.50132736 0.06256172
0.06256172 0.50085720 0.06256172
0.06256172 0.49882850 0.06256172
0.49641164 0.49138484 0.06256172
0.63392448 0.46242092 0.06256172
0.74898409 0.06256172 0.06256172
0.85762397 0.06256172 0.06256172
0.91886608 0.06256172 0.06256172
0.06256172 0.60912980 0.06256172
0.06256172 0.60911047 0.06256172
0.06256172 0.60896189 0.06256172
0.06256172 0.60832678 0.06256172
0.06256172 0.60607863 0.06256172
0.60406059 0.59849652 0.06256172
0.74112366 0.57004344 0.06256172
0.85530013 0.06256172 0.06256172
0.91886608 0.06256172 0.06256172
0.06256172 0.71643703 0.06256172
0.06256172 0.71643083 0.06256172
0.06256172 0.71638319 0.06256172
0.06256172 0.71618014 0.06256172
0.06256172 0.71546878 0.06256172
0.06256172 0.71315370 0.06256172
0.71132126 0.70556186 0.06256172
0.84765713 0.67677169 0.06256172
0.91886608 0.06256172 0.06256172
0.06256172 0.82338440 0.06256172
0.06256172 0.82338245 0.06256172
0.06256172 0.82336748 0.06256172
0.06256172 0.82330373 0.06256172
0.06256172 0.82308114 0.06256172
0.06256172 0.82236459 0.06256172
0.06256172 0.82009811 0.06256172
0.81833401 0.81259766 0.06256172
0.91886608 0.78269592 0.06256172
0.06256172 0.91886608 0.06256172
0.06256172 0.91886608 0.06256172
0.06256172 0.91886608 0.06256172
0.06256172 0.91886608 0.06256172
0.06256172 0.91886608 0.06256172
0.06256172 0.91886608 0.06256172
0.06256172 0.91886608 0.06256172
0.06256172 0.91886608 0.06256172
0.91886608 0.91886608 0.06256172
0.06256172 0.06256172 0.39223055
0.06256172 0.06256172 0.39220045
0.29359884 0.06256172 0.39196899
0.41958775 0.06256172 0.39097664
0.53374037 0.06256172 0.38742460
0.64398515 0.06256172 0.37494057
0.75205724 0.06256172 0.31669093
0.85856974 0.06256172 0.06256172
0.91886608 0.06256172 0.06256172
0.06256172 0.16071454 0.39206364
0.06256172 0.15465510 0.39203348
0.29024464 0.06256172 0.39180157
0.41887315 0.06256172 0.39080728
0.53353690 0.06256172 0.38724808
0.64392204 0.06256172 0.37473615
0.75203726 0.06256172 0.31627351
0.85856352 0.06256172 0.06256172
0.91886608 0.06256172 0.06256172
0.06256172 0.28209450 0.39077107
0.06256172 0.28127917 0.39074046
0.25765628 0.27469848 0.39050503
0.41318347 0.23690889 0.38949554
0.53195955 0.06256172 0.38588032
0.64343600 0.06256172 0.37314974
0.75188365 0.06256172 0.31299203
0.85851575 0.06256172 0.06256172
0.91886608 0.06256172 0.06256172
0.06256172 0.39262883 0.38503993
0.06256172 0.39242305 0.38500720
0.06256172 0.39082627 0.38475546
0.38367546 0.38367546 0.38367546
0.52492926 0.35260346 0.37979967
0.64133854 0.06256172 0.36604118
0.75122690 0.06256172 0.29722652
0.85831211 0.06256172 0.06256172
0.91886608 0.06256172 0.06256172
0.06256172 0.50125458 0.36135866
0.06256172 0.50119344 0.36131534
0.06256172 0.50072259 0.36098194
0.06256172 0.49869090 0.35954753
0.49517173 0.49123564 0.35434390
0.63363969 0.46221596 0.33504453
0.74890035 0.06256172 0.15133332
0.85759849 0.06256172 0.06256172
0.91886608 0.06256172 0.06256172
0.06256172 0.60908743 0.06256172
0.06256172 0.60906809 0.06256172
0.06256172 0.60891945 0.06256172
0.06256172 0.60828405 0.06256172
0.06256172 0.60603488 0.06256172
0.60366984 0.59844911 0.06256172
0.74103255 0.56997932 0.06256172
0.85527399 0.06256172 0.06256172
0.91886608 0.06256172 0.06256172
0.06256172 0.71642344 0.06256172
0.06256172 0.71641723 0.06256172
0.06256172 0.71636959 0.06256172
0.06256172 0.71616651 0.06256172
0.06256172 0.71545505 0.06256172
0.06256172 0.71313963 0.06256172
0.71119596 0.70554660 0.06256172
0.84762865 0.67675098 0.06256172
0.91886608 0.06256172 0.06256172
0.06256172 0.82338013 0.06256172
0.06256172 0.82337818 0.06256172
0.06256172 0.82336321 0.06256172
0.06256172 0.82329946 0.06256172
0.06256172 0.82307685 0.06256172
0.06256172 0.82236027 0.06256172
0.06256172 0.82009368 0.06256172
0.81829461 0.81259285 0.06256172
0.91886608 0.78268926 0.06256172
0.06256172 0.91886608 0.06256172
0.06256172 0.91886608 0.06256172
0.06256172 0.91886608 0.06256172
0.06256172 0.91886608 0.06256172
0.06256172 0.91886608 0.06256172
0.06256172 0.91886608 0.06256172
0.06256172 0.91886608 0.06256172
0.06256172 0.91886608 0.06256172
0.91886608 0.91886608 0.06256172
0.06256172 0.06256172 0.50033944
0.06256172 0.06256172 0.50033044
0.21947133 0.06256172 0.50026133
0.40890982 0.06256172 0.49996655
0.53082389 0.06256172 0.49893144
0.64308959 0.06256172 0.49553609
0.75177450 0.06256172 0.48409055
0.85848184 0.06256172 0.43446834
0.91886608 0.06256172 0.06256172
0.06256172 0.06256172 0.50028958
0.06256172 0.06256172 0.50028058
0.20917456 0.06256172 0.50021143
0.40810228 0.06256172 0.49991649
0.53061395 0.06256172 0.49888081
0.64302588 0.06256172 0.49548355
0.75175445 0.06256172 0.48403105
0.85847561 0.06256172 0.43436531
0.91886608 0.06256172 0.06256172
0.06256172 0.27562450 0.49990579
0.06256172 0.27473373 0.49989675
0.06256172 0.26750374 0.49982732
0.40163879 0.22395528 0.49953114
0.52898595 0.06256172 0.49849111
0.64253520 0.06256172 0.49507918
0.75160038 0.06256172 0.48357286
0.85842779 0.06256172 0.43357011
0.91886608 0.06256172 0.06256172
0.06256172 0.39104414 0.49825393
0.06256172 0.39083452 0.49824473
0.06256172 0.38920769 0.49817404
0.36691809 0.38191444 0.49787250
0.52171850 0.35004109 0.49681348
0.64041745 0.06256172 0.49333764
0.75094162 0.06256172 0.48159626
0.85822395 0.06256172 0.43010312
0.91886608 0.06256172 0.06256172
0.06256172 0.50078646 0.49225190
0.06256172 0.50072501 0.49224208
0.06256172 0.50025176 0.49216662
0.06256172 0.49820956 0.49184472
0.49071359 0.49071359 0.49071359
0.63264010 0.46149774 0.48699449
0.74860783 0.06256172 0.47435076
0.85750963 0.06256172 0.41683015
0.91886608 0.06256172 0.06256172
0.06256172 0.60893958 0.46986602
0.06256172 0.60892021 0.46985348
0.06256172 0.60877133 0.46975709
0.06256172 0.60813493 0.46934563
0.06256172 0.60588217 0.46789645
0.60229483 0.59828363 0.46309348
0.74071422 0.56975546 0.44627375
0.85518278 0.06256172 0.35141344
0.91886608 0.06256172 0.06256172
0.06256172 0.71637604 0.26565867
0.06256172 0.71636984 0.26551044
0.06256172 0.71632217 0.26436190
0.06256172 0.71611898 0.25925399
0.06256172 0.71540717 0.23778612
0.06256172 0.71309054 0.06256172
0.71075783 0.70549338 0.06256172
0.84752930 0.67667872 0.06256172
0.91886608 0.06256172 0.06256172
0.06256172 0.82336524 0.06256172
0.06256172 0.82336329 0.06256172
0.06256172 0.82334832 0.06256172
0.06256172 0.82328455 0.06256172
0.06256172 0.82306191 0.06256172
0.06256172 0.82234521 0.06256172
0.06256172 0.82007824 0.06256172
0.81815709 0.81257608 0.06256172
0.91886608 0.78266601 0.06256172
0.06256172 0.91886608 0.06256172
0.06256172 0.91886608 0.06256172
0.06256172 0.91886608 0.06256172
0.06256172 0.91886608 0.06256172
0.06256172 0.91886608 0.06256172
0.06256172 0.91886608 0.06256172
0.06256172 0.91886608 0.06256172
0.06256172 0.91886608 0.06256172
0.91886608 0.91886608 0.06256172
0.06256172 0.06256172 0.60799001
0.06256172 0.06256172 0.60798716
0.06256172 0.06256172 0.60796526
0.36167136 0.06256172 0.60787199
0.52081782 0.06256172 0.60754611
0.64016315 0.06256172 0.60649486
0.75086319 0.06256172 0.60314701
0.85819975 0.06256172 0.59180213
0.91886608 0.06256172 0.54090157
0.06256172 0.06256172 0.60797421
0.06256172 0.06256172 0.60797136
0.06256172 0.06256172 0.60794946
0.36026258 0.06256172 0.60785617
0.52058404 0.06256172 0.60753024
0.64009743 0.06256172 0.60647881
0.75084294 0.06256172 0.60313038
0.85819350 0.06256172 0.59178338
0.91886608 0.06256172 0.54086935
0.06256172 0.24984531 0.60785279
0.06256172 0.24856110 0.60784994
0.06256172 0.23780136 0.60782801
0.34856567 0.13341835 0.60773461
0.51876903 0.06256172 0.60740825
0.63959129 0.06256172 0.60635546
0.75068735 0.06256172 0.60300258
0.85814553 0.06256172 0.59163925
0.91886608 0.06256172 0.54062152
0.06256172 0.38576302 0.60733418
0.06256172 0.38554008 0.60733131
0.06256172 0.38380852 0.60730926
0.25928861 0.37601640 0.60721535
0.51061914 0.34125154 0.60688719
0.63740582 0.06256172 0.60582855
0.75002207 0.06256172 0.60245658
0.85794104 0.06256172 0.59102323
0.91886608 0.06256172 0.53955911
0.06256172 0.49927115 0.60550360
0.06256172 0.49920868 0.60550067
0.06256172 0.49872757 0.60547819
0.06256172 0.49665094 0.60538243
0.47477657 0.48902147 0.60504784
0.62936592 0.45915857 0.60396828
0.74766482 0.06256172 0.60052805
0.85722444 0.06256172 0.58884363
0.91886608 0.06256172 0.53575791
0.06256172 0.60846453 0.59939053
0.06256172 0.60844506 0.59938741
0.06256172 0.60829543 0.59936343
0.06256172 0.60765581 0.59926127
0.06256172 0.60539146 0.59890424
0.59775171 0.59775171 0.59775171
0.73968739 0.56903493 0.59407289
0.85489005 0.06256172 0.58150403
0.91886608 0.06256172 0.52242451
0.06256172 0.71622410 0.57735890
0.06256172 0.71621788 0.57735495
0.06256172 0.71617014 0.57732466
0.06256172 0.71596662 0.57719561
0.06256172 0.71525364 0.57674430
0.06256172 0.71293318 0.57528428
0.70934082 0.70532275 0.57059097
0.84721040 0.67644696 0.55413603
0.91886608 0.06256172 0.46150495
0.06256172 0.82331753 0.40870989
0.06256172 0.82331558 0.40868500
0.06256172 0.82330060 0.40849366
0.06256172 0.82323680 0.40767437
0.06256172 0.82301404 0.40475642
0.06256172 0.82229696 0.39469195
0.06256172 0.82002877 0.35260317
0.81771528 0.81252235 0.06256172
0.91886608 0.78259154 0.06256172
0.06256172 0.91886608 0.06256172
0.06256172 0.91886608 0.06256172
0.06256172 0.91886608 0.06256172
0.06256172 0.91886608 0.06256172
0.06256172 0.91886608 0.06256172
0.06256172 0.91886608 0.06256172
0.06256172 0.91886608 0.06256172
0.06256172 0.91886608 0.06256172
0.91886608 0.91886608 0.06256172
0.06256172 0.06256172 0.71526505
0.06256172 0.06256172 0.71526414
0.06256172 0.06256172 0.71525711
0.06256172 0.06256172 0.71522719
0.48021069 0.06256172 0.71512281
0.63043132 0.06256172 0.71478773
0.74796914 0.06256172 0.71373740
0.85731626 0.06256172 0.71036419
0.91886608 0.06256172 0.69843409
0.06256172 0.06256172 0.71525998
0.06256172 0.06256172 0.71525907
0.06256172 0.06256172 0.71525204
0.06256172 0.06256172 0.71522212
0.47984739 0.06256172 0.71511773
0.63035849 0.06256172 0.71478263
0.74794826 0.06256172 0.71373225
0.85730995 0.06256172 0.71035885
0.91886608 0.06256172 0.69842802
0.06256172 0.06256172 0.71522103
0.06256172 0.06256172 0.71522012
0.06256172 0.06256172 0.71521309
0.06256172 0.06256172 0.71518315
0.47700851 0.06256172 0.71507872
0.62979730 0.06256172 0.71474348
0.74778774 0.06256172 0.71369266
0.85726150 0.06256172 0.71031781
0.91886608 0.06256172 0.69838143
0.06256172 0.36686058 0.71505505
0.06256172 0.36658184 0.71505413
0.06256172 0.36441001 0.71504709
0.06256172 0.35447467 0.71501710
0.46382432 0.30544631 0.71491248
0.62737039 0.06256172 0.71457665
0.74710133 0.06256172 0.71352395
0.85705497 0.06256172 0.71014292
0.91886608 0.06256172 0.69818283
0.06256172 0.49439029 0.71447408
0.06256172 0.49432442 0.71447316
0.06256172 0.49381705 0.71446607
0.06256172 0.49162531 0.71443590
0.39179070 0.48354753 0.71433063
0.61838676 0.45146684 0.71399270
0.74466798 0.06256172 0.71293339
0.85633119 0.06256172 0.70953064
0.91886608 0.06256172 0.69748718
0.06256172 0.60697092 0.71258896
0.06256172 0.60695114 0.71258801
0.06256172 0.60679913 0.71258078
0.06256172 0.60614926 0.71255000
0.06256172 0.60384809 0.71244259
0.58203116 0.59607721 0.71209779
0.73641812 0.56675702 0.71101674
0.85397303 0.06256172 0.70754251
0.91886608 0.06256172 0.69522412
0.06256172 0.71574974 0.70646884
0.06256172 0.71574349 0.70646784
0.06256172 0.71569551 0.70646012
0.06256172 0.71549096 0.70642726
0.06256172 0.71477434 0.70631261
0.06256172 0.71244185 0.70594451
0.70478983 0.70478983 0.70478983
0.84621081 0.67572215 0.70107284
0.91886608 0.06256172 0.68781312
0.06256172 0.82316892 0.68418993
0.06256172 0.82316697 0.68418866
0.06256172 0.82315196 0.68417888
0.06256172 0.82308806 0.68413724
0.06256172 0.82286494 0.68399194
0.06256172 0.82214667 0.68352511
0.06256172 0.81987467 0.68205759
0.81632669 0.81235499 0.67730008
0.91886608 0.78235942 0.65986816
0.06256172 0.91886608 0.49263828
0.06256172 0.91886608 0.49262849
0.06256172 0.91886608 0.49255336
0.06256172 0.91886608 0.49223281
0.06256172 0.91886608 0.49110647
0.06256172 0.91886608 0.48740356
0.06256172 0.91886608 0.47482030
0.06256172 0.91886608 0.41771984
0.91886608 0.91886608 0.06256172
0.06256172 0.06256172 0.82222097
0.06256172 0.06256172 0.82222068
0.06256172 0.06256172 0.82221847
0.06256172 0.06256172 0.82220907
0.06256172 0.06256172 0.82217627
0.59113712 0.06256172 0.82207115
0.73825930 0.06256172 0.82174330
0.85448668 0.06256172 0.82070710
0.91886608 0.06256172 0.81724224
0.06256172 0.06256172 0.82221938
0.06256172 0.06256172 0.82221909
0.06256172 0.06256172 0.82221688
0.06256172 0.06256172 0.82220747
0.06256172 0.06256172 0.82217468
0.59102672 0.06256172 0.82206956
0.73823612 0.06256172 0.82174170
0.85448017 0.06256172 0.82070548
0.91886608 0.06256172 0.81724055
0.06256172 0.06256172 0.82220713
0.06256172 0.06256172 0.82220685
0.06256172 0.06256172 0.82220464
0.06256172 0.06256172 0.82219523
0.06256172 0.06256172 0.82216243
0.59017468 0.06256172 0.82205729
0.73805797 0.06256172 0.82172939
0.85443016 0.06256172 0.82069303
0.91886608 0.06256172 0.81722762
0.06256172 0.22264779 0.82215500
0.06256172 0.22070381 0.82215471
0.06256172 0.20334307 0.82215250
0.06256172 0.06256172 0.82214308
0.06256172 0.06256172 0.82211026
0.58645894 0.06256172 0.82200507
0.73729574 0.06256172 0.82167698
0.85421697 0.06256172 0.82064001
0.91886608 0.06256172 0.81717254
0.06256172 0.47714364 0.82197299
0.06256172 0.47706413 0.82197270
0.06256172 0.47645130 0.82197049
0.06256172 0.47379547 0.82196106
0.06256172 0.46387940 0.82192817
0.57222410 0.42188839 0.82182277
0.73458869 0.06256172 0.82149401
0.85346973 0.06256172 0.82045494
0.91886608 0.06256172 0.81698026
0.06256172 0.60212630 0.82138766
0.06256172 0.60210548 0.82138737
0.06256172 0.60194547 0.82138514
0.06256172 0.60126123 0.82137565
0.06256172 0.59883632 0.82134255
0.50243698 0.59062307 0.82123646
0.72535078 0.55923082 0.82090557
0.85103382 0.06256172 0.81985971
0.91886608 0.06256172 0.81636175
0.06256172 0.71424595 0.81954186
0.06256172 0.71423961 0.81954156
0.06256172 0.71419085 0.81953929
0.06256172 0.71398299 0.81952960
0.06256172 0.71325471 0.81949582
0.06256172 0.71088366 0.81938755
0.68889167 0.70309823 0.81904984
0.84300091 0.67341168 0.81798226
0.91886608 0.06256172 0.81440985
0.06256172 0.82270116 0.81349573
0.06256172 0.82269920 0.81349542
0.06256172 0.82268411 0.81349298
0.06256172 0.82261988 0.81348263
0.06256172 0.82239560 0.81344653
0.06256172 0.82167359 0.81333081
0.06256172 0.81938957 0.81296980
0.81182796 0.81182796 0.81182796
0.91886608 0.78162745 0.80800045
0.06256172 0.91886608 0.79041696
0.06256172 0.91886608 0.79041655
0.06256172 0.91886608 0.79041342
0.06256172 0.91886608 0.79040010
0.06256172 0.91886608 0.79035363
0.06256172 0.91886608 0.79020464
0.06256172 0.91886608 0.78973953
0.06256172 0.91886608 0.78826502
0.91886608 0.91886608 0.78328373
0.06256172 0.06256172 0.91886608
0.06256172 0.06256172 0.91886608
0.06256172 0.06256172 0.91886608
0.06256172 0.06256172 0.91886608
0.06256172 0.06256172 0.91886608
0.06256172 0.06256172 0.91886608
0.69697735 0.06256172 0.91886608
0.84458002 0.06256172 0.91886608
0.91886608 0.06256172 0.91886608
0.06256172 0.06256172 0.91886608
0.06256172 0.06256172 0.91886608
0.06256172 0.06256172 0.91886608
0.06256172 0.06256172 0.91886608
0.06256172 0.06256172 0.91886608
0.06256172 0.06256172 0.91886608
0.69694135 0.06256172 0.91886608
0.84457275 0.06256172 0.91886608
0.91886608 0.06256172 0.91886608
0.06256172 0.06256172 0.91886608
0.06256172 0.06256172 0.91886608
0.06256172 0.06256172 0.91886608
0.06256172 0.06256172 0.91886608
0.06256172 0.06256172 0.91886608
0.06256172 0.06256172 0.91886608
0.69666446 0.06256172 0.91886608
0.84451690 0.06256172 0.91886608
0.91886608 0.06256172 0.91886608
0.06256172 0.06256172 0.91886608
0.06256172 0.06256172 0.91886608
0.06256172 0.06256172 0.91886608
0.06256172 0.06256172 0.91886608
0.06256172 0.06256172 0.91886608
0.06256172 0.06256172 0.91886608
0.69547656 0.06256172 0.91886608
0.84427873 0.06256172 0.91886608
0.91886608 0.06256172 0.91886608
0.06256172 0.37193171 0.91886608
0.06256172 0.37166929 0.91886608
0.06256172 0.36962662 0.91886608
0.06256172 0.36032791 0.91886608
0.06256172 0.31589745 0.91886608
0.06256172 0.06256172 0.91886608
0.69121397 0.06256172 0.91886608
0.84344345 0.06256172 0.91886608
0.91886608 0.06256172 0.91886608
0.06256172 0.58433536 0.91886608
0.06256172 0.58431022 0.91886608
0.06256172 0.58411698 0.91886608
0.06256172 0.58328991 0.91886608
0.06256172 0.58034846 0.91886608
0.06256172 0.57025859 0.91886608
0.67610010 0.52938391 0.91886608
0.84071502 0.06256172 0.91886608
0.91886608 0.06256172 0.91886608
0.06256172 0.70916588 0.91886608
0.06256172 0.70915918 0.91886608
0.06256172 0.70910771 0.91886608
0.06256172 0.70888827 0.91886608
0.06256172 0.70811922 0.91886608
0.06256172 0.70561312 0.91886608
0.60278333 0.69735845 0.91886608
0.83165461 0.66545572 0.91886608
0.91886608 0.06256172 0.91886608
0.06256172 0.82115828 0.91886608
0.06256172 0.82115628 0.91886608
0.06256172 0.82114094 0.91886608
0.06256172 0.82107561 0.91886608
0.06256172 0.82084747 0.91886608
0.06256172 0.82011299 0.91886608
0.06256172 0.81778886 0.91886608
0.79538902 0.81008722 0.91886608
0.91886608 0.77919845 0.91886608
0.06256172 0.91886608 0.91886608
0.06256172 0.91886608 0.91886608
0.06256172 0.91886608 0.91886608
0.06256172 0.91886608 0.91886608
0.06256172 0.91886608 0.91886608
0.06256172 0.91886608 0.91886608
0.06256172 0.91886608 0.91886608
0.06256172 0.91886608 0.91886608
0.91886608 0.91886608 0.91886608
