src/ffmpeg_scripts/luts/rec2020-sRGB_-3p33.cube
TITLE "rec2020-srgb_-3p33"
LUT_3D_SIZE 5
# PQ (EOTF Only)/Rec2020 -> PQ (EOTF Only)/Rec709, CineEI Shift -3.33, Black Level 0.00% IRE, Input 100% -> Output 109% - Created with LUTCalc v4.01 by Ben Turley October 2020
0.06256172 0.06256172 0.06256172
0.18395752 0.06256172 0.06256172
0.34829086 0.06256172 0.06256172
0.53972901 0.06256172 0.06256172
0.75298680 0.06256172 0.06256172
0.06256172 0.16864908 0.06256172
0.16658741 0.16427582 0.06256172
0.34686474 0.06256172 0.06256172
0.53956473 0.06256172 0.06256172
0.75296976 0.06256172 0.06256172
0.06256172 0.32164273 0.06256172
0.06256172 0.32122473 0.06256172
0.31796092 0.31380459 0.06256172
0.53674423 0.06256172 0.06256172
0.75268141 0.06256172 0.06256172
0.06256172 0.50626386 0.06256172
0.06256172 0.50621399 0.06256172
0.06256172 0.50536733 0.06256172
0.50156054 0.49622659 0.06256172
0.74967844 0.06256172 0.06256172
0.06256172 0.71726783 0.06256172
0.06256172 0.71726254 0.06256172
0.06256172 0.71717306 0.06256172
0.06256172 0.71625255 0.06256172
0.71218148 0.70639259 0.06256172
0.06256172 0.06256172 0.16817000
0.18208466 0.06256172 0.16754974
0.34811540 0.06256172 0.15571106
0.53970866 0.06256172 0.06256172
0.75298469 0.06256172 0.06256172
0.06256172 0.16836734 0.16463397
0.16396870 0.16396870 0.16396870
0.34668620 0.06256172 0.15110241
0.53954434 0.06256172 0.06256172
0.75296765 0.06256172 0.06256172
0.06256172 0.32161478 0.06256172
0.06256172 0.32119662 0.06256172
0.31770502 0.31377371 0.06256172
0.53672322 0.06256172 0.06256172
0.75267930 0.06256172 0.06256172
0.06256172 0.50626052 0.06256172
0.06256172 0.50621065 0.06256172
0.06256172 0.50536396 0.06256172
0.50152986 0.49622287 0.06256172
0.74967626 0.06256172 0.06256172
0.06256172 0.71726748 0.06256172
0.06256172 0.71726219 0.06256172
0.06256172 0.71717271 0.06256172
0.06256172 0.71625219 0.06256172
0.71217822 0.70639219 0.06256172
0.06256172 0.06256172 0.32078925
0.13093055 0.06256172 0.32072781
0.34509245 0.06256172 0.31968240
0.53936412 0.06256172 0.30810095
0.75294900 0.06256172 0.06256172
0.06256172 0.16335501 0.32044820
0.06256172 0.15847014 0.32038650
0.34360901 0.06256172 0.31933653
0.53919919 0.06256172 0.30769977
0.75293195 0.06256172 0.06256172
0.06256172 0.32114096 0.31445053
0.06256172 0.32072029 0.31438394
0.31325009 0.31325009 0.31325009
0.53636747 0.06256172 0.30058560
0.75264349 0.06256172 0.06256172
0.06256172 0.50620403 0.15736918
0.06256172 0.50615413 0.15659738
0.06256172 0.50530692 0.14114997
0.50100981 0.49615989 0.06256172
0.74963927 0.06256172 0.06256172
0.06256172 0.71726148 0.06256172
0.06256172 0.71725619 0.06256172
0.06256172 0.71716671 0.06256172
0.06256172 0.71624613 0.06256172
0.71212297 0.70638546 0.06256172
0.06256172 0.06256172 0.50517538
0.06256172 0.06256172 0.50516803
0.30509905 0.06256172 0.50504373
0.53576378 0.06256172 0.50376215
0.75258300 0.06256172 0.48968272
0.06256172 0.06256172 0.50513464
0.06256172 0.06256172 0.50512728
0.30262960 0.06256172 0.50500293
0.53559237 0.06256172 0.50372078
0.75256589 0.06256172 0.48963452
0.06256172 0.31612203 0.50444348
0.06256172 0.31567363 0.50443607
0.23970059 0.30768016 0.50431078
0.53264739 0.06256172 0.50301893
0.75227628 0.06256172 0.48881620
0.06256172 0.50562405 0.49705728
0.06256172 0.50557384 0.49704925
0.06256172 0.50472127 0.49691351
0.49551300 0.49551300 0.49551300
0.74925999 0.06256172 0.47999457
0.06256172 0.71720012 0.31475231
0.06256172 0.71719482 0.31468597
0.06256172 0.71710528 0.31355652
0.06256172 0.71618410 0.30094635
0.71155586 0.70631655 0.06256172
0.06256172 0.06256172 0.71609221
0.06256172 0.06256172 0.71609143
0.06256172 0.06256172 0.71607823
0.48834987 0.06256172 0.71594308
0.74879642 0.06256172 0.71456449
0.06256172 0.06256172 0.71608788
0.06256172 0.06256172 0.71608710
0.06256172 0.06256172 0.71607390
0.48806376 0.06256172 0.71593874
0.74877860 0.06256172 0.71456009
0.06256172 0.22584060 0.71601472
0.06256172 0.22425242 0.71601394
0.06256172 0.18849233 0.71600073
0.48308926 0.06256172 0.71586546
0.74847694 0.06256172 0.71448573
0.06256172 0.49954145 0.71526281
0.06256172 0.49948782 0.71526203
0.06256172 0.49857688 0.71524871
0.40495493 0.48869844 0.71511235
0.74533284 0.06256172 0.71372142
0.06256172 0.71657691 0.70729557
0.06256172 0.71657158 0.70729471
0.06256172 0.71648144 0.70728022
0.06256172 0.71555408 0.70713178
0.70561646 0.70561646 0.70561646
