src/ffmpeg_scripts/luts/rec2020-sRGB_3p33.cube
TITLE "rec2020-srgb_3p33"
LUT_3D_SIZE 33
# PQ (EOTF Only)/Rec2020 -> PQ (EOTF Only)/Rec709, CineEI Shift 3.33, Black Level 0.00% IRE, Input 100% -> Output 109% - Created with LUTCalc v4.01 by Ben Turley October 2020
0.06256172 0.06256172 0.06256172
0.15164667 0.06256172 0.06256172
0.21512624 0.06256172 0.06256172
0.26965625 0.06256172 0.06256172
0.31878715 0.06256172 0.06256172
0.36412667 0.06256172 0.06256172
0.40658451 0.06256172 0.06256172
0.44674129 0.06256172 0.06256172
0.48499719 0.06256172 0.06256172
0.52164330 0.06256172 0.06256172
0.55689997 0.06256172 0.06256172
0.59093923 0.06256172 0.06256172
0.62389871 0.06256172 0.06256172
0.65589078 0.06256172 0.06256172
0.68700868 0.06256172 0.06256172
0.71733095 0.06256172 0.06256172
0.74692448 0.06256172 0.06256172
0.77584689 0.06256172 0.06256172
0.80414826 0.06256172 0.06256172
0.83187244 0.06256172 0.06256172
0.85905816 0.06256172 0.06256172
0.88573980 0.06256172 0.06256172
0.91194808 0.06256172 0.06256172
0.91886608 0.06256172 0.06256172
0.91886608 0.06256172 0.06256172
0.91886608 0.06256172 0.06256172
0.91886608 0.06256172 0.06256172
0.91886608 0.06256172 0.06256172
0.91886608 0.06256172 0.06256172
0.91886608 0.06256172 0.06256172
0.91886608 0.06256172 0.06256172
0.91886608 0.06256172 0.06256172
0.91886608 0.06256172 0.06256172
0.06256172 0.13950245 0.06256172
0.13788051 0.13606595 0.06256172
0.21129289 0.12008800 0.06256172
0.26797992 0.06256172 0.06256172
0.31791692 0.06256172 0.06256172
0.36362953 0.06256172 0.06256172
0.40628234 0.06256172 0.06256172
0.44654943 0.06256172 0.06256172
0.48487136 0.06256172 0.06256172
0.52155870 0.06256172 0.06256172
0.55684196 0.06256172 0.06256172
0.59089882 0.06256172 0.06256172
0.62387020 0.06256172 0.06256172
0.65587045 0.06256172 0.06256172
0.68699406 0.06256172 0.06256172
0.71732036 0.06256172 0.06256172
0.74691676 0.06256172 0.06256172
0.77584124 0.06256172 0.06256172
0.80414410 0.06256172 0.06256172
0.83186938 0.06256172 0.06256172
0.85905590 0.06256172 0.06256172
0.88573813 0.06256172 0.06256172
0.91194684 0.06256172 0.06256172
0.91886608 0.06256172 0.06256172
0.91886608 0.06256172 0.06256172
0.91886608 0.06256172 0.06256172
0.91886608 0.06256172 0.06256172
0.91886608 0.06256172 0.06256172
0.91886608 0.06256172 0.06256172
0.91886608 0.06256172 0.06256172
0.91886608 0.06256172 0.06256172
0.91886608 0.06256172 0.06256172
0.91886608 0.06256172 0.06256172
0.06256172 0.19712241 0.06256172
0.06256172 0.19605193 0.06256172
0.19468200 0.19194107 0.06256172
0.26146192 0.18171615 0.06256172
0.31463485 0.15549327 0.06256172
0.36177747 0.06256172 0.06256172
0.40516323 0.06256172 0.06256172
0.44584109 0.06256172 0.06256172
0.48440764 0.06256172 0.06256172
0.52124725 0.06256172 0.06256172
0.55662855 0.06256172 0.06256172
0.59075023 0.06256172 0.06256172
0.62376539 0.06256172 0.06256172
0.65579573 0.06256172 0.06256172
0.68694033 0.06256172 0.06256172
0.71728144 0.06256172 0.06256172
0.74688841 0.06256172 0.06256172
0.77582049 0.06256172 0.06256172
0.80412885 0.06256172 0.06256172
0.83185814 0.06256172 0.06256172
0.85904760 0.06256172 0.06256172
0.88573198 0.06256172 0.06256172
0.91194229 0.06256172 0.06256172
0.91886608 0.06256172 0.06256172
0.91886608 0.06256172 0.06256172
0.91886608 0.06256172 0.06256172
0.91886608 0.06256172 0.06256172
0.91886608 0.06256172 0.06256172
0.91886608 0.06256172 0.06256172
0.91886608 0.06256172 0.06256172
0.91886608 0.06256172 0.06256172
0.91886608 0.06256172 0.06256172
0.91886608 0.06256172 0.06256172
0.06256172 0.24761557 0.06256172
0.06256172 0.24713366 0.06256172
0.10524779 0.24533366 0.06256172
0.24460077 0.24120657 0.06256172
0.30690620 0.23287644 0.06256172
0.35756100 0.21598218 0.06256172
0.40265460 0.17314602 0.06256172
0.44426606 0.06256172 0.06256172
0.48338126 0.06256172 0.06256172
0.52055980 0.06256172 0.06256172
0.55615830 0.06256172 0.06256172
0.59042318 0.06256172 0.06256172
0.62353487 0.06256172 0.06256172
0.65563148 0.06256172 0.06256172
0.68682226 0.06256172 0.06256172
0.71719595 0.06256172 0.06256172
0.74682614 0.06256172 0.06256172
0.77577491 0.06256172 0.06256172
0.80409536 0.06256172 0.06256172
0.83183346 0.06256172 0.06256172
0.85902936 0.06256172 0.06256172
0.88571849 0.06256172 0.06256172
0.91193230 0.06256172 0.06256172
0.91886608 0.06256172 0.06256172
0.91886608 0.06256172 0.06256172
0.91886608 0.06256172 0.06256172
0.91886608 0.06256172 0.06256172
0.91886608 0.06256172 0.06256172
0.91886608 0.06256172 0.06256172
0.91886608 0.06256172 0.06256172
0.91886608 0.06256172 0.06256172
0.91886608 0.06256172 0.06256172
0.91886608 0.06256172 0.06256172
0.06256172 0.29371937 0.06256172
0.06256172 0.29346526 0.06256172
0.06256172 0.29252439 0.06256172
0.19404443 0.29041664 0.06256172
0.29026787 0.28637514 0.06256172
0.34919010 0.27906694 0.06256172
0.39783837 0.26578997 0.06256172
0.44129238 0.23922634 0.06256172
0.48146134 0.14681819 0.06256172
0.51928091 0.06256172 0.06256172
0.55528649 0.06256172 0.06256172
0.58981817 0.06256172 0.06256172
0.62310907 0.06256172 0.06256172
0.65532840 0.06256172 0.06256172
0.68660454 0.06256172 0.06256172
0.71703837 0.06256172 0.06256172
0.74671139 0.06256172 0.06256172
0.77569094 0.06256172 0.06256172
0.80403368 0.06256172 0.06256172
0.83178801 0.06256172 0.06256172
0.85899579 0.06256172 0.06256172
0.88569366 0.06256172 0.06256172
0.91191391 0.06256172 0.06256172
0.91886608 0.06256172 0.06256172
0.91886608 0.06256172 0.06256172
0.91886608 0.06256172 0.06256172
0.91886608 0.06256172 0.06256172
0.91886608 0.06256172 0.06256172
0.91886608 0.06256172 0.06256172
0.91886608 0.06256172 0.06256172
0.91886608 0.06256172 0.06256172
0.91886608 0.06256172 0.06256172
0.91886608 0.06256172 0.06256172
0.06256172 0.33669711 0.06256172
0.06256172 0.33655038 0.06256172
0.06256172 0.33600905 0.06256172
0.06256172 0.33480773 0.06256172
0.24966447 0.33254848 0.06256172
0.33290075 0.32861312 0.06256172
0.38911015 0.32196953 0.06256172
0.43607490 0.31068359 0.06256172
0.47815000 0.29033363 0.06256172
0.51709700 0.24533488 0.06256172
0.55380676 0.06256172 0.06256172
0.58879530 0.06256172 0.06256172
0.62239103 0.06256172 0.06256172
0.65481818 0.06256172 0.06256172
0.68623846 0.06256172 0.06256172
0.71677364 0.06256172 0.06256172
0.74651875 0.06256172 0.06256172
0.77555003 0.06256172 0.06256172
0.80393020 0.06256172 0.06256172
0.83171177 0.06256172 0.06256172
0.85893950 0.06256172 0.06256172
0.88565202 0.06256172 0.06256172
0.91188308 0.06256172 0.06256172
0.91886608 0.06256172 0.06256172
0.91886608 0.06256172 0.06256172
0.91886608 0.06256172 0.06256172
0.91886608 0.06256172 0.06256172
0.91886608 0.06256172 0.06256172
0.91886608 0.06256172 0.06256172
0.91886608 0.06256172 0.06256172
0.91886608 0.06256172 0.06256172
0.91886608 0.06256172 0.06256172
0.91886608 0.06256172 0.06256172
0.06256172 0.37727300 0.06256172
0.06256172 0.37718307 0.06256172
0.06256172 0.37685189 0.06256172
0.06256172 0.37612024 0.06256172
0.06256172 0.37475670 0.06256172
0.29755392 0.37242070 0.06256172
0.37319870 0.36859185 0.06256172
0.42715072 0.36242615 0.06256172
0.47265911 0.35242134 0.06256172
0.51353735 0.33546415 0.06256172
0.55141960 0.30295678 0.06256172
0.58715584 0.19367232 0.06256172
0.62124503 0.06256172 0.06256172
0.65400620 0.06256172 0.06256172
0.68565701 0.06256172 0.06256172
0.71635376 0.06256172 0.06256172
0.74621348 0.06256172 0.06256172
0.77532691 0.06256172 0.06256172
0.80376642 0.06256172 0.06256172
0.83159115 0.06256172 0.06256172
0.85885046 0.06256172 0.06256172
0.88558617 0.06256172 0.06256172
0.91183434 0.06256172 0.06256172
0.91886608 0.06256172 0.06256172
0.91886608 0.06256172 0.06256172
0.91886608 0.06256172 0.06256172
0.91886608 0.06256172 0.06256172
0.91886608 0.06256172 0.06256172
0.91886608 0.06256172 0.06256172
0.91886608 0.06256172 0.06256172
0.91886608 0.06256172 0.06256172
0.91886608 0.06256172 0.06256172
0.91886608 0.06256172 0.06256172
0.06256172 0.41591396 0.06256172
0.06256172 0.41585648 0.06256172
0.06256172 0.41564497 0.06256172
0.06256172 0.41517881 0.06256172
0.06256172 0.41431421 0.06256172
0.06256172 0.41284559 0.06256172
0.34124067 0.41047327 0.06256172
0.41161323 0.40674554 0.06256172
0.46363764 0.40094567 0.06256172
0.50786009 0.39184337 0.06256172
0.54767677 0.37704780 0.06256172
0.58461217 0.35078768 0.06256172
0.61947896 0.29003115 0.06256172
0.65276051 0.06256172 0.06256172
0.68476773 0.06256172 0.06256172
0.71571295 0.06256172 0.06256172
0.74574831 0.06256172 0.06256172
0.77498727 0.06256172 0.06256172
0.80351731 0.06256172 0.06256172
0.83140781 0.06256172 0.06256172
0.85871516 0.06256172 0.06256172
0.88548616 0.06256172 0.06256172
0.91176031 0.06256172 0.06256172
0.91886608 0.06256172 0.06256172
0.91886608 0.06256172 0.06256172
0.91886608 0.06256172 0.06256172
0.91886608 0.06256172 0.06256172
0.91886608 0.06256172 0.06256172
0.91886608 0.06256172 0.06256172
0.91886608 0.06256172 0.06256172
0.91886608 0.06256172 0.06256172
0.91886608 0.06256172 0.06256172
0.91886608 0.06256172 0.06256172
0.06256172 0.45294457 0.06256172
0.06256172 0.45290664 0.06256172
0.06256172 0.45276720 0.06256172
0.06256172 0.45246029 0.06256172
0.06256172 0.45189261 0.06256172
0.06256172 0.45093296 0.06256172
0.23637759 0.44939521 0.06256172
0.38207581 0.44701018 0.06256172
0.44845854 0.44337676 0.06256172
0.49880495 0.43786912 0.06256172
0.54187490 0.42944146 0.06256172
0.58073508 0.41615126 0.06256172
0.61681549 0.39369675 0.06256172
0.65089486 0.34849906 0.06256172
0.68344212 0.06256172 0.06256172
0.71476082 0.06256172 0.06256172
0.74505873 0.06256172 0.06256172
0.77448461 0.06256172 0.06256172
0.80314907 0.06256172 0.06256172
0.83113702 0.06256172 0.06256172
0.85851546 0.06256172 0.06256172
0.88533859 0.06256172 0.06256172
0.91165114 0.06256172 0.06256172
0.91886608 0.06256172 0.06256172
0.91886608 0.06256172 0.06256172
0.91886608 0.06256172 0.06256172
0.91886608 0.06256172 0.06256172
0.91886608 0.06256172 0.06256172
0.91886608 0.06256172 0.06256172
0.91886608 0.06256172 0.06256172
0.91886608 0.06256172 0.06256172
0.91886608 0.06256172 0.06256172
0.91886608 0.06256172 0.06256172
0.06256172 0.48860255 0.06256172
0.06256172 0.48857693 0.06256172
0.06256172 0.48848272 0.06256172
0.06256172 0.48827556 0.06256172
0.06256172 0.48789300 0.06256172
0.06256172 0.48724817 0.06256172
0.06256172 0.48621977 0.06256172
0.30356900 0.48463676 0.06256172
0.42076295 0.48225359 0.06256172
0.48396507 0.47870767 0.06256172
0.53282873 0.47344078 0.06256172
0.57485385 0.46553890 0.06256172
0.61284181 0.45335980 0.06256172
0.64814092 0.43347764 0.06256172
0.68149916 0.39645787 0.06256172
0.71337203 0.28203385 0.06256172
0.74405631 0.06256172 0.06256172
0.77375567 0.06256172 0.06256172
0.80261599 0.06256172 0.06256172
0.83074550 0.06256172 0.06256172
0.85822700 0.06256172 0.06256172
0.88512559 0.06256172 0.06256172
0.91149363 0.06256172 0.06256172
0.91886608 0.06256172 0.06256172
0.91886608 0.06256172 0.06256172
0.91886608 0.06256172 0.06256172
0.91886608 0.06256172 0.06256172
0.91886608 0.06256172 0.06256172
0.91886608 0.06256172 0.06256172
0.91886608 0.06256172 0.06256172
0.91886608 0.06256172 0.06256172
0.91886608 0.06256172 0.06256172
0.91886608 0.06256172 0.06256172
0.06256172 0.52306902 0.06256172
0.06256172 0.52305137 0.06256172
0.06256172 0.52298649 0.06256172
0.06256172 0.52284390 0.06256172
0.06256172 0.52258086 0.06256172
0.06256172 0.52213828 0.06256172
0.06256172 0.52143452 0.06256172
0.06256172 0.52035625 0.06256172
0.35516876 0.51874454 0.06256172
0.45773230 0.51637254 0.06256172
0.51830846 0.51290780 0.06256172
0.56584612 0.50784389 0.06256172
0.60691527 0.50036459 0.06256172
0.64410029 0.48903976 0.06256172
0.67867860 0.47101291 0.06256172
0.71137037 0.43909462 0.06256172
0.74261867 0.36159590 0.06256172
0.77271391 0.06256172 0.06256172
0.80185606 0.06256172 0.06256172
0.83018838 0.06256172 0.06256172
0.85781708 0.06256172 0.06256172
0.88482319 0.06256172 0.06256172
0.91127018 0.06256172 0.06256172
0.91886608 0.06256172 0.06256172
0.91886608 0.06256172 0.06256172
0.91886608 0.06256172 0.06256172
0.91886608 0.06256172 0.06256172
0.91886608 0.06256172 0.06256172
0.91886608 0.06256172 0.06256172
0.91886608 0.06256172 0.06256172
0.91886608 0.06256172 0.06256172
0.91886608 0.06256172 0.06256172
0.91886608 0.06256172 0.06256172
0.06256172 0.55648613 0.06256172
0.06256172 0.55647378 0.06256172
0.06256172 0.55642841 0.06256172
0.06256172 0.55632872 0.06256172
0.06256172 0.55614495 0.06256172
0.06256172 0.55583611 0.06256172
0.06256172 0.55534594 0.06256172
0.06256172 0.55459717 0.06256172
0.06256172 0.55348303 0.06256172
0.40012532 0.55185446 0.06256172
0.49327403 0.54949973 0.06256172
0.55162673 0.54611048 0.06256172
0.59796677 0.54122083 0.06256172
0.63815458 0.53408920 0.06256172
0.67459471 0.52344115 0.06256172
0.70850283 0.50681276 0.06256172
0.74057401 0.47838382 0.06256172
0.77123976 0.41694728 0.06256172
0.80078456 0.06256172 0.06256172
0.82940489 0.06256172 0.06256172
0.85724168 0.06256172 0.06256172
0.88439931 0.06256172 0.06256172
0.91095729 0.06256172 0.06256172
0.91886608 0.06256172 0.06256172
0.91886608 0.06256172 0.06256172
0.91886608 0.06256172 0.06256172
0.91886608 0.06256172 0.06256172
0.91886608 0.06256172 0.06256172
0.91886608 0.06256172 0.06256172
0.91886608 0.06256172 0.06256172
0.91886608 0.06256172 0.06256172
0.91886608 0.06256172 0.06256172
0.91886608 0.06256172 0.06256172
0.06256172 0.58896818 0.06256172
0.06256172 0.58895943 0.06256172
0.06256172 0.58892731 0.06256172
0.06256172 0.58885673 0.06256172
0.06256172 0.58872668 0.06256172
0.06256172 0.58850829 0.06256172
0.06256172 0.58816213 0.06256172
0.06256172 0.58763437 0.06256172
0.06256172 0.58685142 0.06256172
0.06256172 0.58571202 0.06256172
0.44117874 0.58407528 0.06256172
0.52759710 0.58174192 0.06256172
0.58403093 0.57842306 0.06256172
0.62928032 0.57368518 0.06256172
0.66865036 0.56684487 0.06256172
0.70439496 0.55674525 0.06256172
0.73767586 0.54120457 0.06256172
0.76916545 0.51530335 0.06256172
0.79928456 0.46313975 0.06256172
0.82831209 0.06256172 0.06256172
0.85644126 0.06256172 0.06256172
0.88381082 0.06256172 0.06256172
0.91052351 0.06256172 0.06256172
0.91886608 0.06256172 0.06256172
0.91886608 0.06256172 0.06256172
0.91886608 0.06256172 0.06256172
0.91886608 0.06256172 0.06256172
0.91886608 0.06256172 0.06256172
0.91886608 0.06256172 0.06256172
0.91886608 0.06256172 0.06256172
0.91886608 0.06256172 0.06256172
0.91886608 0.06256172 0.06256172
0.91886608 0.06256172 0.06256172
0.06256172 0.62060891 0.06256172
0.06256172 0.62060266 0.06256172
0.06256172 0.62057967 0.06256172
0.06256172 0.62052919 0.06256172
0.06256172 0.62043619 0.06256172
0.06256172 0.62028010 0.06256172
0.06256172 0.62003290 0.06256172
0.06256172 0.61965653 0.06256172
0.06256172 0.61909928 0.06256172
0.06256172 0.61829074 0.06256172
0.06256172 0.61713429 0.06256172
0.47956185 0.61549594 0.06256172
0.56085916 0.61318670 0.06256172
0.61561218 0.60993370 0.06256172
0.65986127 0.60532955 0.06256172
0.69846830 0.59873691 0.06256172
0.73355990 0.58908944 0.06256172
0.76625052 0.57441435 0.06256172
0.79719207 0.55041573 0.06256172
0.82679555 0.50430110 0.06256172
0.85533462 0.31073986 0.06256172
0.88299941 0.06256172 0.06256172
0.90992660 0.06256172 0.06256172
0.91886608 0.06256172 0.06256172
0.91886608 0.06256172 0.06256172
0.91886608 0.06256172 0.06256172
0.91886608 0.06256172 0.06256172
0.91886608 0.06256172 0.06256172
0.91886608 0.06256172 0.06256172
0.91886608 0.06256172 0.06256172
0.91886608 0.06256172 0.06256172
0.91886608 0.06256172 0.06256172
0.91886608 0.06256172 0.06256172
0.06256172 0.65148645 0.06256172
0.06256172 0.65148194 0.06256172
0.06256172 0.65146536 0.06256172
0.06256172 0.65142894 0.06256172
0.06256172 0.65136186 0.06256172
0.06256172 0.65124933 0.06256172
0.06256172 0.65107121 0.06256172
0.06256172 0.65080026 0.06256172
0.06256172 0.65039966 0.06256172
0.06256172 0.64981958 0.06256172
0.06256172 0.64899235 0.06256172
0.06256172 0.64782534 0.06256172
0.51594767 0.64619038 0.06256172
0.59318342 0.64390715 0.06256172
0.64644646 0.64071599 0.06256172
0.68977253 0.63623082 0.06256172
0.72766415 0.62985116 0.06256172
0.76213974 0.62058142 0.06256172
0.79427215 0.60660673 0.06256172
0.82469485 0.58407807 0.06256172
0.85380972 0.54218726 0.06256172
0.88188554 0.41062746 0.06256172
0.90910948 0.06256172 0.06256172
0.91886608 0.06256172 0.06256172
0.91886608 0.06256172 0.06256172
0.91886608 0.06256172 0.06256172
0.91886608 0.06256172 0.06256172
0.91886608 0.06256172 0.06256172
0.91886608 0.06256172 0.06256172
0.91886608 0.06256172 0.06256172
0.91886608 0.06256172 0.06256172
0.91886608 0.06256172 0.06256172
0.91886608 0.06256172 0.06256172
0.06256172 0.68166683 0.06256172
0.06256172 0.68166355 0.06256172
0.06256172 0.68165150 0.06256172
0.06256172 0.68162505 0.06256172
0.06256172 0.68157633 0.06256172
0.06256172 0.68149461 0.06256172
0.06256172 0.68136533 0.06256172
0.06256172 0.68116879 0.06256172
0.06256172 0.68087849 0.06256172
0.06256172 0.68045873 0.06256172
0.06256172 0.67986134 0.06256172
0.06256172 0.67902105 0.06256172
0.33795320 0.67784868 0.06256172
0.55075051 0.67622104 0.06256172
0.62466874 0.67396508 0.06256172
0.67659805 0.67083217 0.06256172
0.71906780 0.66645370 0.06256172
0.75628577 0.66025889 0.06256172
0.79017778 0.65130788 0.06256172
0.82178007 0.63790660 0.06256172
0.85170947 0.61653351 0.06256172
0.88035949 0.57771513 0.06256172
0.90799428 0.47080150 0.06256172
0.91886608 0.06256172 0.06256172
0.91886608 0.06256172 0.06256172
0.91886608 0.06256172 0.06256172
0.91886608 0.06256172 0.06256172
0.91886608 0.06256172 0.06256172
0.91886608 0.06256172 0.06256172
0.91886608 0.06256172 0.06256172
0.91886608 0.06256172 0.06256172
0.91886608 0.06256172 0.06256172
0.91886608 0.06256172 0.06256172
0.06256172 0.71120650 0.06256172
0.06256172 0.71120410 0.06256172
0.06256172 0.71119530 0.06256172
0.06256172 0.71117597 0.06256172
0.06256172 0.71114039 0.06256172
0.06256172 0.71108070 0.06256172
0.06256172 0.71098631 0.06256172
0.06256172 0.71084287 0.06256172
0.06256172 0.71063116 0.06256172
0.06256172 0.71032533 0.06256172
0.06256172 0.70989072 0.06256172
0.06256172 0.70928065 0.06256172
0.06256172 0.70843195 0.06256172
0.41120095 0.70725845 0.06256172
0.58424737 0.70564122 0.06256172
0.65539618 0.70341340 0.06256172
0.70612192 0.70033555 0.06256172
0.74779347 0.69605342 0.06256172
0.78437464 0.69002020 0.06256172
0.81771171 0.68134004 0.06256172
0.84880867 0.66841176 0.06256172
0.87826732 0.64795641 0.06256172
0.90647348 0.61142617 0.06256172
0.91886608 0.51826824 0.06256172
0.91886608 0.06256172 0.06256172
0.91886608 0.06256172 0.06256172
0.91886608 0.06256172 0.06256172
0.91886608 0.06256172 0.06256172
0.91886608 0.06256172 0.06256172
0.91886608 0.06256172 0.06256172
0.91886608 0.06256172 0.06256172
0.91886608 0.06256172 0.06256172
0.91886608 0.06256172 0.06256172
0.06256172 0.74015425 0.06256172
0.06256172 0.74015249 0.06256172
0.06256172 0.74014603 0.06256172
0.06256172 0.74013184 0.06256172
0.06256172 0.74010572 0.06256172
0.06256172 0.74006193 0.06256172
0.06256172 0.73999268 0.06256172
0.06256172 0.73988748 0.06256172
0.06256172 0.73973229 0.06256172
0.06256172 0.73950827 0.06256172
0.06256172 0.73919025 0.06256172
0.06256172 0.73874449 0.06256172
0.06256172 0.73812564 0.06256172
0.06256172 0.73727243 0.06256172
0.46473031 0.73610129 0.06256172
0.61663490 0.73449698 0.06256172
0.68543338 0.73229786 0.06256172
0.73506560 0.72927221 0.06256172
0.77598998 0.72507756 0.06256172
0.81196703 0.71918640 0.06256172
0.84477461 0.71073749 0.06256172
0.87538823 0.69820077 0.06256172
0.90439617 0.67847687 0.06256172
0.91886608 0.64366760 0.06256172
0.91886608 0.55911868 0.06256172
0.91886608 0.06256172 0.06256172
0.91886608 0.06256172 0.06256172
0.91886608 0.06256172 0.06256172
0.91886608 0.06256172 0.06256172
0.91886608 0.06256172 0.06256172
0.91886608 0.06256172 0.06256172
0.91886608 0.06256172 0.06256172
0.91886608 0.06256172 0.06256172
0.06256172 0.76855260 0.06256172
0.06256172 0.76855130 0.06256172
0.06256172 0.76854654 0.06256172
0.06256172 0.76853609 0.06256172
0.06256172 0.76851686 0.06256172
0.06256172 0.76848460 0.06256172
0.06256172 0.76843360 0.06256172
0.06256172 0.76835615 0.06256172
0.06256172 0.76824193 0.06256172
0.06256172 0.76807714 0.06256172
0.06256172 0.76784338 0.06256172
0.06256172 0.76751607 0.06256172
0.06256172 0.76706235 0.06256172
0.06256172 0.76643808 0.06256172
0.06256172 0.76558365 0.06256172
0.50981518 0.76441779 0.06256172
0.64805914 0.76282843 0.06256172
0.71483759 0.76065840 0.06256172
0.76347053 0.75768238 0.06256172
0.80369283 0.75356755 0.06256172
0.83909493 0.74780177 0.06256172
0.87139573 0.73955072 0.06256172
0.90154562 0.72733795 0.06256172
0.91886608 0.70819494 0.06256172
0.91886608 0.67467519 0.06256172
0.91886608 0.59574815 0.06256172
0.91886608 0.06256172 0.06256172
0.91886608 0.06256172 0.06256172
0.91886608 0.06256172 0.06256172
0.91886608 0.06256172 0.06256172
0.91886608 0.06256172 0.06256172
0.91886608 0.06256172 0.06256172
0.91886608 0.06256172 0.06256172
0.06256172 0.79643892 0.06256172
0.06256172 0.79643797 0.06256172
0.06256172 0.79643445 0.06256172
0.06256172 0.79642673 0.06256172
0.06256172 0.79641252 0.06256172
0.06256172 0.79638869 0.06256172
0.06256172 0.79635102 0.06256172
0.06256172 0.79629383 0.06256172
0.06256172 0.79620950 0.06256172
0.06256172 0.79608789 0.06256172
0.06256172 0.79591548 0.06256172
0.06256172 0.79567425 0.06256172
0.06256172 0.79534021 0.06256172
0.06256172 0.79488130 0.06256172
0.06256172 0.79425449 0.06256172
0.06256172 0.79340165 0.06256172
0.55003866 0.79224354 0.06256172
0.67863247 0.79067083 0.06256172
0.74365787 0.78853013 0.06256172
0.79137315 0.78560144 0.06256172
0.83093345 0.78155973 0.06256172
0.86578672 0.77590492 0.06256172
0.89760107 0.76782308 0.06256172
0.91886608 0.75587690 0.06256172
0.91886608 0.73718945 0.06256172
0.91886608 0.70461566 0.06256172
0.91886608 0.62933267 0.06256172
0.91886608 0.06256172 0.06256172
0.91886608 0.06256172 0.06256172
0.91886608 0.06256172 0.06256172
0.91886608 0.06256172 0.06256172
0.91886608 0.06256172 0.06256172
0.91886608 0.06256172 0.06256172
0.06256172 0.82384629 0.06256172
0.06256172 0.82384558 0.06256172
0.06256172 0.82384298 0.06256172
0.06256172 0.82383726 0.06256172
0.06256172 0.82382674 0.06256172
0.06256172 0.82380910 0.06256172
0.06256172 0.82378122 0.06256172
0.06256172 0.82373889 0.06256172
0.06256172 0.82367649 0.06256172
0.06256172 0.82358653 0.06256172
0.06256172 0.82345904 0.06256172
0.06256172 0.82328076 0.06256172
0.06256172 0.82303409 0.06256172
0.06256172 0.82269558 0.06256172
0.06256172 0.82223392 0.06256172
0.06256172 0.82160707 0.06256172
0.06256172 0.82075825 0.06256172
0.58701611 0.81961001 0.06256172
0.70844373 0.81805538 0.06256172
0.77193668 0.81594416 0.06256172
0.81880573 0.81306072 0.06256172
0.85773984 0.80908621 0.06256172
0.89206774 0.80352974 0.06256172
0.91886608 0.79559213 0.06256172
0.91886608 0.78386282 0.06256172
0.91886608 0.76552359 0.06256172
0.91886608 0.73361005 0.06256172
0.91886608 0.66051724 0.06256172
0.91886608 0.06256172 0.06256172
0.91886608 0.06256172 0.06256172
0.91886608 0.06256172 0.06256172
0.91886608 0.06256172 0.06256172
0.91886608 0.06256172 0.06256172
0.06256172 0.85080415 0.06256172
0.06256172 0.85080362 0.06256172
0.06256172 0.85080169 0.06256172
0.06256172 0.85079745 0.06256172
0.06256172 0.85078965 0.06256172
0.06256172 0.85077658 0.06256172
0.06256172 0.85075591 0.06256172
0.06256172 0.85072453 0.06256172
0.06256172 0.85067828 0.06256172
0.06256172 0.85061162 0.06256172
0.06256172 0.85051718 0.06256172
0.06256172 0.85038518 0.06256172
0.06256172 0.85020264 0.06256172
0.06256172 0.84995234 0.06256172
0.06256172 0.84961136 0.06256172
0.06256172 0.84914908 0.06256172
0.06256172 0.84852439 0.06256172
0.06256172 0.84768171 0.06256172
0.62161668 0.84654517 0.06256172
0.73756477 0.84500984 0.06256172
0.79971113 0.84292820 0.06256172
0.84579699 0.84008815 0.06256172
0.88413705 0.83617557 0.06256172
0.91796074 0.83070623 0.06256172
0.91886608 0.82289071 0.06256172
0.91886608 0.81133424 0.06256172
0.91886608 0.79324865 0.06256172
