src/ffmpeg_scripts/luts/rec2020-sRGB_3p00.cube
TITLE "rec2020-srgb_3p00"
LUT_3D_SIZE 5
# PQ (EOTF Only)/Rec2020 -> PQ (EOTF Only)/Rec709, CineEI Shift 3.00, Black Level 0.00% IRE, Input 100% -> Output 109% - Created with LUTCalc v4.01 by Ben Turley October 2020
0.06256172 0.06256172 0.06256172
0.46551259 0.06256172 0.06256172
0.72533724 0.06256172 0.06256172
0.91886608 0.06256172 0.06256172
0.91886608 0.06256172 0.06256172
0.06256172 0.43405842 0.06256172
0.42966319 0.42468640 0.06256172
0.72347135 0.06256172 0.06256172
0.91886608 0.06256172 0.06256172
0.91886608 0.06256172 0.06256172
0.06256172 0.68965043 0.06256172
0.06256172 0.68907618 0.06256172
0.68457619 0.67880342 0.06256172
0.91886608 0.06256172 0.06256172
0.91886608 0.06256172 0.06256172
0.06256172 0.90852462 0.06256172
0.06256172 0.90847273 0.06256172
0.06256172 0.90759118 0.06256172
0.90361655 0.89801685 0.06256172
0.91886608 0.06256172 0.06256172
0.06256172 0.91886608 0.06256172
0.06256172 0.91886608 0.06256172
0.06256172 0.91886608 0.06256172
0.06256172 0.91886608 0.06256172
0.91886608 0.91886608 0.06256172
0.06256172 0.06256172 0.43304068
0.46176935 0.06256172 0.43171979
0.72510793 0.06256172 0.40576980
0.91886608 0.06256172 0.06256172
0.91886608 0.06256172 0.06256172
0.06256172 0.43346015 0.42546092
0.42402122 0.42402122 0.42402122
0.72323742 0.06256172 0.39525643
0.91886608 0.06256172 0.06256172
0.91886608 0.06256172 0.06256172
0.06256172 0.68961204 0.06256172
0.06256172 0.68903756 0.06256172
0.68422215 0.67876035 0.06256172
0.91886608 0.06256172 0.06256172
0.91886608 0.06256172 0.06256172
0.06256172 0.90852114 0.06256172
0.06256172 0.90846925 0.06256172
0.06256172 0.90758766 0.06256172
0.90358443 0.89801293 0.06256172
0.91886608 0.06256172 0.06256172
0.06256172 0.91886608 0.06256172
0.06256172 0.91886608 0.06256172
0.06256172 0.91886608 0.06256172
0.06256172 0.91886608 0.06256172
0.91886608 0.91886608 0.06256172
0.06256172 0.06256172 0.68847743
0.34595390 0.06256172 0.68839292
0.72114591 0.06256172 0.68695329
0.91886608 0.06256172 0.67080263
0.91886608 0.06256172 0.06256172
0.06256172 0.42268920 0.68800816
0.06256172 0.41194880 0.68792323
0.71919374 0.06256172 0.68647635
0.91886608 0.06256172 0.67023638
0.91886608 0.06256172 0.06256172
0.06256172 0.68896104 0.67970372
0.06256172 0.68838257 0.67961097
0.67802964 0.67802964 0.67802964
0.91886608 0.06256172 0.66011631
0.91886608 0.06256172 0.06256172
0.06256172 0.90846236 0.40949320
0.06256172 0.90841043 0.40776387
0.06256172 0.90752824 0.37165508
0.90304003 0.89794660 0.06256172
0.91886608 0.06256172 0.06256172
0.06256172 0.91886608 0.06256172
0.06256172 0.91886608 0.06256172
0.06256172 0.91886608 0.06256172
0.06256172 0.91886608 0.06256172
0.91886608 0.91886608 0.06256172
0.06256172 0.06256172 0.90739119
0.06256172 0.06256172 0.90738353
0.66655413 0.06256172 0.90725401
0.91886608 0.06256172 0.90591742
0.91886608 0.06256172 0.89109737
0.06256172 0.06256172 0.90734874
0.06256172 0.06256172 0.90734108
0.66303932 0.06256172 0.90721149
0.91886608 0.06256172 0.90587425
0.91886608 0.06256172 0.89104620
0.06256172 0.68202804 0.90662825
0.06256172 0.68140527 0.90662052
0.56645196 0.67020868 0.90648985
0.91886608 0.06256172 0.90514137
0.91886608 0.06256172 0.89017695
0.06256172 0.90785857 0.89889129
0.06256172 0.90780628 0.89888284
0.06256172 0.90691790 0.89874001
0.89726498 0.89726498 0.89726498
0.91886608 0.06256172 0.88075033
0.06256172 0.91886608 0.68012393
0.06256172 0.91886608 0.68003159
0.06256172 0.91886608 0.67845736
0.06256172 0.91886608 0.66063311
0.91886608 0.91886608 0.06256172
0.06256172 0.06256172 0.91886608
0.06256172 0.06256172 0.91886608
0.06256172 0.06256172 0.91886608
0.88968121 0.06256172 0.91886608
0.91886608 0.06256172 0.91886608
0.06256172 0.06256172 0.91886608
0.06256172 0.06256172 0.91886608
0.06256172 0.06256172 0.91886608
0.88937692 0.06256172 0.91886608
0.91886608 0.06256172 0.91886608
0.06256172 0.54299468 0.91886608
0.06256172 0.54024571 0.91886608
0.06256172 0.47446420 0.91886608
0.88406903 0.06256172 0.91886608
0.91886608 0.06256172 0.91886608
0.06256172 0.90150108 0.91886608
0.06256172 0.90144482 0.91886608
0.06256172 0.90048866 0.91886608
0.79595986 0.89005180 0.91886608
0.91886608 0.06256172 0.91886608
0.06256172 0.91886608 0.91886608
0.06256172 0.91886608 0.91886608
0.06256172 0.91886608 0.91886608
0.06256172 0.91886608 0.91886608
0.91886608 0.91886608 0.91886608
