src/ffmpeg_scripts/luts/smpte2084-srgb-grading.cube
TITLE "smpte2084-srgb-grading"
LUT_3D_SIZE 9
# PQ (EOTF Only)/Rec2020 -> Rec709 - γ1.90 (exp2.22)/sRGB, CineEI Shift 0.00, Black Level 0.00% IRE, Input 109% -> Output 109% - Created with LUTCalc v4.01 by Ben Turley October 2020
0.06256109 0.06256109 0.06256109
0.06414685 0.06244215 0.06254376
0.09811202 0.05989448 0.06217249
0.24667574 0.04469859 0.05995799
0.51706943 0.00000000 0.05033904
0.98956893 0.00000000 0.01308308
1.83023635 0.00000000 0.00000000
3.37902747 0.00000000 0.00000000
6.39062062 0.00000000 0.00000000
0.06199990 0.06364301 0.06246504
0.06358566 0.06352406 0.06244771
0.09755083 0.06097640 0.06207644
0.24639041 0.04578051 0.05986194
0.51694761 0.00000000 0.05024299
0.98951248 0.00000000 0.01298703
1.83020939 0.00000000 0.00000000
3.37901465 0.00000000 0.00000000
6.39061471 0.00000000 0.00000000
0.04997976 0.08681636 0.06040771
0.05156552 0.08669741 0.06039038
0.08553069 0.08414974 0.06001911
0.24018762 0.06895385 0.05780461
0.51433026 0.00294866 0.04818566
0.98830243 0.00000000 0.01092970
1.82963194 0.00000000 0.00000000
3.37873991 0.00000000 0.00000000
6.39048815 0.00000000 0.00000000
0.00000000 0.20417444 0.04813649
0.00000000 0.20409985 0.04811916
0.01383502 0.20249483 0.04774789
0.19869359 0.19261511 0.04553339
0.49838315 0.14107623 0.03591444
0.98104786 0.00000000 0.00000000
1.82618306 0.00000000 0.00000000
3.37710064 0.00000000 0.00000000
6.38973323 0.00000000 0.00000000
0.00000000 0.43182898 0.00000000
0.00000000 0.43179712 0.00000000
0.00000000 0.43111408 0.00000000
0.00000000 0.42701359 0.00000000
0.42083660 0.40864562 0.00000000
0.94876408 0.32612873 0.00000000
1.81111028 0.00000000 0.00000000
3.36996905 0.00000000 0.00000000
6.38645286 0.00000000 0.00000000
0.00000000 0.82964394 0.00000000
0.00000000 0.82962918 0.00000000
0.00000000 0.82931286 0.00000000
0.00000000 0.82742316 0.00000000
0.00000000 0.81915474 0.00000000
0.80902043 0.78614818 0.00000000
1.75124543 0.64365600 0.00000000
3.34217246 0.00000000 0.00000000
6.37372797 0.00000000 0.00000000
0.00000000 1.53743320 0.00000000
0.00000000 1.53742615 0.00000000
0.00000000 1.53727514 0.00000000
0.00000000 1.53637403 0.00000000
0.00000000 1.53245256 0.00000000
0.00000000 1.51714857 0.00000000
1.49967407 1.45779776 0.00000000
3.23492986 1.19438140 0.00000000
6.32554998 0.00000000 0.00000000
0.00000000 2.84141824 0.00000000
0.00000000 2.84141488 0.00000000
0.00000000 2.84134303 0.00000000
0.00000000 2.84091439 0.00000000
0.00000000 2.83905165 0.00000000
0.00000000 2.83182287 0.00000000
0.00000000 2.80440992 0.00000000
2.77208955 2.69520140 0.00000000
6.13488405 2.16600992 0.00000000
0.00000000 5.37699086 0.00000000
0.00000000 5.37698932 0.00000000
0.00000000 5.37695622 0.00000000
0.00000000 5.37675878 0.00000000
0.00000000 5.37590108 0.00000000
0.00000000 5.37257746 0.00000000
0.00000000 5.36004447 0.00000000
0.00000000 5.31123882 0.00000000
5.24627580 5.10130785 0.00000000
0.06249152 0.06255312 0.06362948
0.06407728 0.06243418 0.06361214
0.09804245 0.05988651 0.06324087
0.24664038 0.04469062 0.06102637
0.51705433 0.00000000 0.05140742
0.98956193 0.00000000 0.01415146
1.83023300 0.00000000 0.00000000
3.37902588 0.00000000 0.00000000
6.39061989 0.00000000 0.00000000
0.06193033 0.06363503 0.06353342
0.06351609 0.06351609 0.06351609
0.09748126 0.06096842 0.06314482
0.24635501 0.04577253 0.06093032
0.51693251 0.00000000 0.05131137
0.98950548 0.00000000 0.01405541
1.83020605 0.00000000 0.00000000
3.37901306 0.00000000 0.00000000
6.39061398 0.00000000 0.00000000
0.04991019 0.08680838 0.06147609
0.05149595 0.08668944 0.06145876
0.08546112 0.08414177 0.06108749
0.24015120 0.06894588 0.05887299
0.51431506 0.00294069 0.04925404
0.98829543 0.00000000 0.01199808
1.82962859 0.00000000 0.00000000
3.37873832 0.00000000 0.00000000
6.39048742 0.00000000 0.00000000
0.00000000 0.20416944 0.04920488
0.00000000 0.20409485 0.04918754
0.01376545 0.20248979 0.04881627
0.19864863 0.19260978 0.04660177
0.49836738 0.14106878 0.03698282
0.98104079 0.00000000 0.00000000
1.82617971 0.00000000 0.00000000
3.37709905 0.00000000 0.00000000
6.38973250 0.00000000 0.00000000
0.00000000 0.43182685 0.00000000
0.00000000 0.43179499 0.00000000
0.00000000 0.43111194 0.00000000
0.00000000 0.42701143 0.00000000
0.42081739 0.40864335 0.00000000
0.94875673 0.32612577 0.00000000
1.81110689 0.00000000 0.00000000
3.36996745 0.00000000 0.00000000
6.38645213 0.00000000 0.00000000
0.00000000 0.82964295 0.00000000
0.00000000 0.82962819 0.00000000
0.00000000 0.82931187 0.00000000
0.00000000 0.82742217 0.00000000
0.00000000 0.81915374 0.00000000
0.80901153 0.78614712 0.00000000
1.75124191 0.64365466 0.00000000
3.34217085 0.00000000 0.00000000
6.37372724 0.00000000 0.00000000
0.00000000 1.53743273 0.00000000
0.00000000 1.53742568 0.00000000
0.00000000 1.53727467 0.00000000
0.00000000 1.53637356 0.00000000
0.00000000 1.53245209 0.00000000
0.00000000 1.51714809 0.00000000
1.49966982 1.45779726 0.00000000
3.23492818 1.19438076 0.00000000
6.32554924 0.00000000 0.00000000
0.00000000 2.84141801 0.00000000
0.00000000 2.84141466 0.00000000
0.00000000 2.84134280 0.00000000
0.00000000 2.84091417 0.00000000
0.00000000 2.83905142 0.00000000
0.00000000 2.83182265 0.00000000
0.00000000 2.80440969 0.00000000
2.77208752 2.69520116 0.00000000
6.13488328 2.16600961 0.00000000
0.00000000 5.37699076 0.00000000
0.00000000 5.37698921 0.00000000
0.00000000 5.37695611 0.00000000
0.00000000 5.37675867 0.00000000
0.00000000 5.37590097 0.00000000
0.00000000 5.37257736 0.00000000
0.00000000 5.36004437 0.00000000
0.00000000 5.31123871 0.00000000
5.24627487 5.10130774 0.00000000
0.06100139 0.06238233 0.08651297
0.06258715 0.06226339 0.08649564
0.09655232 0.05971572 0.08612437
0.24588181 0.04451983 0.08390987
0.51673078 0.00000000 0.07429092
0.98941203 0.00000000 0.03703496
1.83016143 0.00000000 0.00000000
3.37899183 0.00000000 0.00000000
6.39060420 0.00000000 0.00000000
0.06044019 0.06346425 0.08641692
0.06202595 0.06334530 0.08639959
0.09599112 0.06079764 0.08602831
0.24559545 0.04560175 0.08381381
0.51660887 0.00000000 0.07419487
0.98935557 0.00000000 0.03693891
1.83013447 0.00000000 0.00000000
3.37897900 0.00000000 0.00000000
6.39059829 0.00000000 0.00000000
0.04842006 0.08663760 0.08435959
0.05000582 0.08651865 0.08434226
0.08397098 0.08397098 0.08397098
0.23936956 0.06877509 0.08175648
0.51398949 0.00276990 0.07213754
0.98814529 0.00000000 0.03488158
1.82955699 0.00000000 0.00000000
3.37870426 0.00000000 0.00000000
6.39047173 0.00000000 0.00000000
0.00000000 0.20406232 0.07208837
0.00000000 0.20398768 0.07207104
0.01227531 0.20238169 0.07169977
0.19768307 0.19249557 0.06948527
0.49802957 0.14090903 0.05986632
0.98088933 0.00000000 0.02261036
1.82610794 0.00000000 0.00000000
3.37706497 0.00000000 0.00000000
6.38971680 0.00000000 0.00000000
0.00000000 0.43178110 0.01878685
0.00000000 0.43174924 0.01876952
0.00000000 0.43106611 0.01839825
0.00000000 0.42696508 0.01618375
0.42040589 0.40859457 0.00656480
0.94859908 0.32606253 0.00000000
1.81103440 0.00000000 0.00000000
3.36993328 0.00000000 0.00000000
6.38643642 0.00000000 0.00000000
0.00000000 0.82962175 0.00000000
0.00000000 0.82960699 0.00000000
0.00000000 0.82929066 0.00000000
0.00000000 0.82740090 0.00000000
0.00000000 0.81913221 0.00000000
0.80882091 0.78612452 0.00000000
1.75116642 0.64362601 0.00000000
3.34213633 0.00000000 0.00000000
6.37371150 0.00000000 0.00000000
0.00000000 1.53742261 0.00000000
0.00000000 1.53741556 0.00000000
0.00000000 1.53726454 0.00000000
0.00000000 1.53636343 0.00000000
0.00000000 1.53244193 0.00000000
0.00000000 1.51713780 0.00000000
1.49957881 1.45778646 0.00000000
3.23489228 1.19436704 0.00000000
6.32553336 0.00000000 0.00000000
0.00000000 2.84141319 0.00000000
0.00000000 2.84140984 0.00000000
0.00000000 2.84133798 0.00000000
0.00000000 2.84090935 0.00000000
0.00000000 2.83904660 0.00000000
0.00000000 2.83181781 0.00000000
0.00000000 2.80440480 0.00000000
2.77204422 2.69519603 0.00000000
6.13486679 2.16600292 0.00000000
0.00000000 5.37698854 0.00000000
0.00000000 5.37698699 0.00000000
0.00000000 5.37695389 0.00000000
0.00000000 5.37675645 0.00000000
0.00000000 5.37589875 0.00000000
0.00000000 5.37257514 0.00000000
0.00000000 5.36004214 0.00000000
0.00000000 5.31123646 0.00000000
5.24625492 5.10130537 0.00000000
0.05211328 0.06136366 0.20289579
0.05369904 0.06124471 0.20288485
0.08766420 0.05869704 0.20265028
0.24130162 0.04350115 0.20124488
0.51479596 0.00000000 0.19501083
0.98851734 0.00000000 0.16847880
1.82973445 0.00000000 0.03329039
3.37878868 0.00000000 0.00000000
6.39051062 0.00000000 0.00000000
0.05155208 0.06244557 0.20283514
0.05313784 0.06232662 0.20282419
0.08710301 0.05977896 0.20258954
0.24100916 0.04458307 0.20118368
0.51467351 0.00000000 0.19494747
0.98846082 0.00000000 0.16840451
1.82970748 0.00000000 0.03319434
3.37877585 0.00000000 0.00000000
6.39050471 0.00000000 0.00000000
0.03953194 0.08561892 0.20153116
0.04111770 0.08549997 0.20152013
0.07508287 0.08295231 0.20128381
0.23464680 0.06775641 0.19986783
0.51204253 0.00175122 0.19358497
0.98724923 0.00000000 0.16680458
1.82912984 0.00000000 0.03113701
3.37850109 0.00000000 0.00000000
6.39037815 0.00000000 0.00000000
0.00000000 0.20342211 0.19355229
0.00000000 0.20334721 0.19354076
0.00338720 0.20173559 0.19329370
0.19181280 0.19181280 0.19181280
0.49600905 0.13995218 0.18522968
0.97998533 0.00000000 0.15689604
1.82567981 0.00000000 0.01886579
3.37686168 0.00000000 0.00000000
6.38962321 0.00000000 0.00000000
0.00000000 0.43150813 0.15366841
0.00000000 0.43147624 0.15365362
0.00000000 0.43079261 0.15333630
0.00000000 0.42668852 0.15142890
0.41794166 0.40830352 0.14282890
0.94765816 0.32568499 0.10580044
1.81060197 0.00000000 0.00000000
3.36972947 0.00000000 0.00000000
6.38634277 0.00000000 0.00000000
0.00000000 0.82949529 0.00000000
0.00000000 0.82948052 0.00000000
0.00000000 0.82916414 0.00000000
0.00000000 0.82727404 0.00000000
0.00000000 0.81900382 0.00000000
0.80768281 0.78598969 0.00000000
1.75071607 0.64345511 0.00000000
3.34193046 0.00000000 0.00000000
6.37361762 0.00000000 0.00000000
0.00000000 1.53736223 0.00000000
0.00000000 1.53735518 0.00000000
0.00000000 1.53720415 0.00000000
0.00000000 1.53630300 0.00000000
0.00000000 1.53238131 0.00000000
0.00000000 1.51707645 0.00000000
1.49903582 1.45772209 0.00000000
3.23467809 1.19428524 0.00000000
6.32543860 0.00000000 0.00000000
0.00000000 2.84138446 0.00000000
0.00000000 2.84138111 0.00000000
0.00000000 2.84130925 0.00000000
0.00000000 2.84088061 0.00000000
0.00000000 2.83901784 0.00000000
0.00000000 2.83178896 0.00000000
0.00000000 2.80437561 0.00000000
2.77178590 2.69516539 0.00000000
6.13476843 2.16596300 0.00000000
0.00000000 5.37697530 0.00000000
0.00000000 5.37697376 0.00000000
0.00000000 5.37694066 0.00000000
0.00000000 5.37674322 0.00000000
0.00000000 5.37588551 0.00000000
0.00000000 5.37256189 0.00000000
0.00000000 5.36002885 0.00000000
0.00000000 5.31122302 0.00000000
5.24613593 5.10129126 0.00000000
0.01350668 0.05693890 0.42926453
0.01509244 0.05681996 0.42925985
0.04905761 0.05427229 0.42915971
0.22016570 0.03907640 0.42856181
0.50629113 0.00000000 0.42595346
0.98461987 0.00000000 0.41567095
1.82787840 0.00000000 0.37400440
3.37790610 0.00000000 0.08385024
6.39010412 0.00000000 0.00000000
0.01294549 0.05802082 0.42923862
0.01453125 0.05790187 0.42923395
0.04849642 0.05535420 0.42913379
0.21984172 0.04015831 0.42853586
0.50616627 0.00000000 0.42592732
0.98456308 0.00000000 0.41564406
1.82785141 0.00000000 0.37397402
3.37789327 0.00000000 0.08375419
6.39009821 0.00000000 0.00000000
0.00092535 0.08119416 0.42868331
0.00251111 0.08107522 0.42867863
0.03647628 0.07852755 0.42857833
0.21277086 0.06333166 0.42797949
0.50348313 0.00000000 0.42536698
0.98334574 0.00000000 0.41506757
1.82727305 0.00000000 0.37332245
3.37761842 0.00000000 0.08169686
6.38997164 0.00000000 0.00000000
0.00000000 0.20061510 0.42535358
0.00000000 0.20053904 0.42534886
0.00000000 0.19890235 0.42524764
0.16364326 0.18881571 0.42464334
0.48711866 0.13571342 0.42200682
0.97604708 0.00000000 0.41160958
1.82381878 0.00000000 0.36940853
3.37597850 0.00000000 0.06942564
6.38921664 0.00000000 0.00000000
0.00000000 0.43032010 0.41052522
0.00000000 0.43028811 0.41052030
0.00000000 0.42960228 0.41041483
0.00000000 0.42548484 0.40978507
0.40703652 0.40703652 0.40703652
0.94355814 0.32403927 0.39618177
1.80872219 0.00000000 0.35182310
3.36884401 0.00000000 0.01612412
6.38593595 0.00000000 0.00000000
0.00000000 0.82894572 0.34608988
0.00000000 0.82893094 0.34608388
0.00000000 0.82861431 0.34595543
0.00000000 0.82672271 0.34518810
0.00000000 0.81844586 0.34183216
0.80271705 0.78540372 0.32846141
1.74875830 0.64271215 0.27134126
3.34103605 0.00000000 0.00000000
6.37320981 0.00000000 0.00000000
0.00000000 1.53709992 0.00000000
0.00000000 1.53709287 0.00000000
0.00000000 1.53694182 0.00000000
0.00000000 1.53604048 0.00000000
0.00000000 1.53211798 0.00000000
0.00000000 1.51680991 0.00000000
1.49667454 1.45744243 0.00000000
3.23374754 1.19392985 0.00000000
6.32502701 0.00000000 0.00000000
0.00000000 2.84125966 0.00000000
0.00000000 2.84125631 0.00000000
0.00000000 2.84118445 0.00000000
0.00000000 2.84075578 0.00000000
0.00000000 2.83889291 0.00000000
0.00000000 2.83166365 0.00000000
0.00000000 2.80424881 0.00000000
2.77066351 2.69503234 0.00000000
6.13434121 2.16578962 0.00000000
0.00000000 5.37691782 0.00000000
0.00000000 5.37691627 0.00000000
0.00000000 5.37688317 0.00000000
0.00000000 5.37668573 0.00000000
0.00000000 5.37582801 0.00000000
0.00000000 5.37250434 0.00000000
0.00000000 5.35997114 0.00000000
0.00000000 5.31116467 0.00000000
5.24561903 5.10122997 0.00000000
0.00000000 0.03980101 0.82483261
0.00000000 0.03968207 0.82483044
0.00000000 0.03713440 0.82478403
0.10211685 0.02193851 0.82450717
0.47164487 0.00000000 0.82330328
0.96934709 0.00000000 0.81862050
1.82066802 0.00000000 0.80070090
3.37448508 0.00000000 0.72640952
6.38852939 0.00000000 0.11608621
0.00000000 0.04088293 0.82482060
0.00000000 0.04076398 0.82481843
0.00000000 0.03821632 0.82477203
0.10155566 0.02302043 0.82449515
0.47150922 0.00000000 0.82329125
0.96928923 0.00000000 0.81860839
1.82064089 0.00000000 0.80068846
3.37447223 0.00000000 0.72639556
6.38852348 0.00000000 0.11599016
0.00000000 0.06405628 0.82456340
0.00000000 0.06393733 0.82456123
0.00000000 0.06138966 0.82451481
0.08953552 0.04619377 0.82423783
0.46859263 0.00000000 0.82303348
0.96804890 0.00000000 0.81834886
1.82005977 0.00000000 0.80042201
3.37419705 0.00000000 0.72609643
6.38839687 0.00000000 0.11393283
0.00000000 0.18931008 0.82302732
0.00000000 0.18922903 0.82302514
0.00000000 0.18748374 0.82297862
0.01783985 0.17668207 0.82270103
0.45073719 0.11840903 0.82149399
0.96061106 0.00000000 0.81679886
1.81658893 0.00000000 0.79883054
3.37255510 0.00000000 0.72430918
6.38764165 0.00000000 0.10166161
0.00000000 0.42568223 0.81631519
0.00000000 0.42564983 0.81631299
0.00000000 0.42495530 0.81626601
0.00000000 0.42078495 0.81598570
0.36117126 0.40208544 0.81476681
0.92747330 0.31757287 0.81002523
1.80141909 0.00000000 0.79187358
3.36541180 0.00000000 0.71648459
6.38435997 0.00000000 0.04836009
0.00000000 0.82681303 0.78967461
0.00000000 0.82679820 0.78967233
0.00000000 0.82648060 0.78962345
0.00000000 0.82458317 0.78933186
0.00000000 0.81628047 0.78806378
0.78312923 0.78312923 0.78312923
1.74115041 0.63982489 0.76421436
3.33756908 0.00000000 0.68517375
6.37162999 0.00000000 0.00000000
0.00000000 1.53608347 0.67810974
0.00000000 1.53607642 0.67810701
0.00000000 1.53592524 0.67804846
0.00000000 1.53502318 0.67769908
0.00000000 1.53109754 0.67617902
0.00000000 1.51577705 0.67025304
1.48748623 1.45635865 0.64736915
3.23014026 1.19255216 0.54813622
6.32343252 0.00000000 0.00000000
0.00000000 2.84077623 0.00000000
0.00000000 2.84077287 0.00000000
0.00000000 2.84070100 0.00000000
0.00000000 2.84027224 0.00000000
0.00000000 2.83840899 0.00000000
0.00000000 2.83117822 0.00000000
0.00000000 2.80375762 0.00000000
2.76631108 2.69451691 0.00000000
6.13268613 2.16511790 0.00000000
0.00000000 5.37669514 0.00000000
0.00000000 5.37669360 0.00000000
0.00000000 5.37666049 0.00000000
0.00000000 5.37646304 0.00000000
0.00000000 5.37560528 0.00000000
0.00000000 5.37228145 0.00000000
0.00000000 5.35974761 0.00000000
0.00000000 5.31093863 0.00000000
5.24361641 5.10099256 0.00000000
0.00000000 0.00000000 1.52862423
0.00000000 0.00000000 1.52862320
0.00000000 0.00000000 1.52860104
0.00000000 0.00000000 1.52846886
0.30028079 0.00000000 1.52789458
0.90908900 0.00000000 1.52566780
1.79321261 0.00000000 1.51725062
3.36157000 0.00000000 1.48415766
6.38259766 0.00000000 1.33520878
0.00000000 0.00000000 1.52861850
0.00000000 0.00000000 1.52861746
0.00000000 0.00000000 1.52859530
0.00000000 0.00000000 1.52846313
0.30005236 0.00000000 1.52788884
0.90902653 0.00000000 1.52566206
1.79318499 0.00000000 1.51724484
3.36155709 0.00000000 1.48415172
6.38259175 0.00000000 1.33520203
0.00000000 0.00000000 1.52849570
0.00000000 0.00000000 1.52849467
0.00000000 0.00000000 1.52847251
0.00000000 0.00000000 1.52834032
0.29511121 0.00000000 1.52776598
0.90768726 0.00000000 1.52553898
1.79259310 0.00000000 1.51712094
3.36128062 0.00000000 1.48402448
6.38246500 0.00000000 1.33505753
0.00000000 0.13785784 1.52776304
0.00000000 0.13774386 1.52776200
0.00000000 0.13527842 1.52773983
0.00000000 0.11990503 1.52760756
0.26344128 0.05389984 1.52703289
0.89964955 0.00000000 1.52480460
1.78905781 0.00000000 1.51638164
3.35963100 0.00000000 1.48326528
6.38170891 0.00000000 1.33419520
0.00000000 0.40767295 1.52457569
0.00000000 0.40763889 1.52457466
0.00000000 0.40690855 1.52455243
0.00000000 0.40252044 1.52441983
0.02354219 0.38278102 1.52384370
0.86369623 0.29175726 1.52160979
1.77360299 0.00000000 1.51316539
3.35245425 0.00000000 1.47996214
6.37842352 0.00000000 1.33044178
0.00000000 0.81872593 1.51215405
0.00000000 0.81871093 1.51215300
0.00000000 0.81838959 1.51213055
0.00000000 0.81646976 1.51199663
0.00000000 0.80806768 1.51141480
0.70352804 0.77449648 1.50915870
1.71214664 0.62881620 1.50062979
3.32447959 0.00000000 1.46708383
6.36567907 0.00000000 1.31578244
0.00000000 1.53225014 1.46425423
0.00000000 1.53224306 1.46425314
0.00000000 1.53209143 1.46422980
0.00000000 1.53118665 1.46409060
0.00000000 1.52724912 1.46348575
0.00000000 1.51188159 1.46114023
1.45227044 1.45227044 1.45227044
3.21651797 1.18734916 1.41733906
6.31742625 0.00000000 1.25875226
0.00000000 2.83895561 1.25807192
0.00000000 2.83895225 1.25807062
0.00000000 2.83888032 1.25804261
0.00000000 2.83845123 1.25787552
0.00000000 2.83658653 1.25714947
0.00000000 2.82935011 1.25433256
0.00000000 2.80190779 1.24366055
2.74985300 2.69257570 1.20131450
6.12645133 2.16258720 1.00098447
0.00000000 5.37585687 0.00000000
0.00000000 5.37585532 0.00000000
0.00000000 5.37582221 0.00000000
0.00000000 5.37562472 0.00000000
0.00000000 5.37476680 0.00000000
0.00000000 5.37144234 0.00000000
0.00000000 5.35890611 0.00000000
0.00000000 5.31008771 0.00000000
5.23606993 5.10009882 0.00000000
0.00000000 0.00000000 2.82524428
0.00000000 0.00000000 2.82524379
0.00000000 0.00000000 2.82523325
0.00000000 0.00000000 2.82517036
0.00000000 0.00000000 2.82489716
0.60936295 0.00000000 2.82383870
1.68190605 0.00000000 2.81985020
3.31104904 0.00000000 2.80436146
6.35959560 0.00000000 2.73854695
0.00000000 0.00000000 2.82524156
0.00000000 0.00000000 2.82524106
0.00000000 0.00000000 2.82523052
0.00000000 0.00000000 2.82516763
0.00000000 0.00000000 2.82489443
0.60926253 0.00000000 2.82383597
1.68187620 0.00000000 2.81984746
3.31103589 0.00000000 2.80435871
6.35958965 0.00000000 2.73854411
0.00000000 0.00000000 2.82518313
0.00000000 0.00000000 2.82518264
0.00000000 0.00000000 2.82517209
0.00000000 0.00000000 2.82510920
0.00000000 0.00000000 2.82483599
0.60710683 0.00000000 2.82377750
1.68123671 0.00000000 2.81978890
3.31075429 0.00000000 2.80429975
6.35946234 0.00000000 2.73848343
0.00000000 0.00000000 2.82483459
0.00000000 0.00000000 2.82483410
0.00000000 0.00000000 2.82482355
0.00000000 0.00000000 2.82476065
0.00000000 0.00000000 2.82448740
0.59405685 0.00000000 2.82342876
1.67741625 0.00000000 2.81943955
3.30907404 0.00000000 2.80394807
6.35870293 0.00000000 2.73812147
0.00000000 0.32715806 2.82332008
0.00000000 0.32711417 2.82331959
0.00000000 0.32617252 2.82330904
0.00000000 0.32049003 2.82324609
0.00000000 0.29434509 2.82297267
0.53296472 0.14835007 2.82191333
1.66069840 0.00000000 2.81792153
3.30176361 0.00000000 2.80241986
6.35540304 0.00000000 2.73654857
0.00000000 0.78651662 2.81744478
0.00000000 0.78650089 2.81744429
0.00000000 0.78616383 2.81743371
0.00000000 0.78414979 2.81737061
0.00000000 0.77532931 2.81709649
0.04905012 0.73998063 2.81603447
1.59394019 0.58392183 2.81203254
3.27326168 0.00000000 2.79649125
6.34260223 0.00000000 2.73044608
0.00000000 1.51731628 2.79519496
0.00000000 1.51730912 2.79519446
0.00000000 1.51715569 2.79518378
0.00000000 1.51624016 2.79512007
0.00000000 1.51225569 2.79484330
0.00000000 1.49670236 2.79377102
1.30519895 1.43632884 2.78973032
3.16316730 1.16696605 2.77403731
6.29413367 0.00000000 2.70732579
0.00000000 2.83190174 2.70705598
0.00000000 2.83189837 2.70705546
0.00000000 2.83182622 2.70704436
0.00000000 2.83139584 2.70697812
0.00000000 2.82952549 2.70669039
0.00000000 2.82226711 2.70557560
0.00000000 2.79474034 2.70137439
2.68505281 2.68505281 2.68505281
6.10226766 2.15276682 2.61557404
0.00000000 5.37261368 2.29406064
0.00000000 5.37261214 2.29406001
0.00000000 5.37257900 2.29404644
0.00000000 5.37238137 2.29396549
0.00000000 5.37152282 2.29361385
0.00000000 5.36819591 2.29225127
0.00000000 5.35565043 2.28711352
0.00000000 5.30679553 2.26711249
5.20676150 5.09664082 2.18120052
0.00000000 0.00000000 5.34649585
0.00000000 0.00000000 5.34649563
0.00000000 0.00000000 5.34649077
0.00000000 0.00000000 5.34646180
0.00000000 0.00000000 5.34633595
0.00000000 0.00000000 5.34584850
1.06683872 0.00000000 5.34401316
3.08919782 0.00000000 5.33690851
6.26245138 0.00000000 5.30712255
0.00000000 0.00000000 5.34649460
0.00000000 0.00000000 5.34649437
0.00000000 0.00000000 5.34648951
0.00000000 0.00000000 5.34646054
0.00000000 0.00000000 5.34633470
0.00000000 0.00000000 5.34584724
1.06678713 0.00000000 5.34401191
3.08918352 0.00000000 5.33690725
6.26244532 0.00000000 5.30712128
0.00000000 0.00000000 5.34646768
0.00000000 0.00000000 5.34646746
0.00000000 0.00000000 5.34646260
0.00000000 0.00000000 5.34643363
0.00000000 0.00000000 5.34630778
0.00000000 0.00000000 5.34582032
1.06568130 0.00000000 5.34398498
3.08887718 0.00000000 5.33688028
6.26231560 0.00000000 5.30709412
0.00000000 0.00000000 5.34630714
0.00000000 0.00000000 5.34630691
0.00000000 0.00000000 5.34630205
0.00000000 0.00000000 5.34627308
0.00000000 0.00000000 5.34614723
0.00000000 0.00000000 5.34565975
1.05905674 0.00000000 5.34382434
3.08704923 0.00000000 5.33671938
6.26154182 0.00000000 5.30693213
0.00000000 0.00000000 5.34560972
0.00000000 0.00000000 5.34560949
0.00000000 0.00000000 5.34560463
0.00000000 0.00000000 5.34557566
0.00000000 0.00000000 5.34544979
0.00000000 0.00000000 5.34496223
1.02968787 0.00000000 5.34312653
3.07909404 0.00000000 5.33602044
6.25817942 0.00000000 5.30622841
0.00000000 0.63068922 5.34290745
0.00000000 0.63066878 5.34290722
0.00000000 0.63023086 5.34290236
0.00000000 0.62761132 5.34287337
0.00000000 0.61608011 5.34274742
0.00000000 0.56879513 5.34225956
0.90504784 0.32046892 5.34042273
3.04804398 0.00000000 5.33331225
6.24513543 0.00000000 5.30350169
0.00000000 1.45296107 5.33272081
0.00000000 1.45295352 5.33272058
0.00000000 1.45279187 5.33271571
0.00000000 1.45182724 5.33268665
0.00000000 1.44762828 5.33256041
0.00000000 1.43122476 5.33207142
0.00000000 1.36734341 5.33023031
2.92756401 1.07682555 5.32310326
6.19573594 0.00000000 5.29322266
0.00000000 2.80221995 5.29310319
0.00000000 2.80221654 5.29310296
0.00000000 2.80214346 5.29309804
0.00000000 2.80170755 5.29306872
0.00000000 2.79981312 5.29294132
0.00000000 2.79246095 5.29244787
0.00000000 2.76457355 5.29058997
2.39123060 2.65336615 5.28339777
6.00001905 2.11116965 5.25324191
0.00000000 5.35904808 5.12365895
0.00000000 5.35904653 5.12365871
0.00000000 5.35901329 5.12365359
0.00000000 5.35881505 5.12362308
0.00000000 5.35795385 5.12349054
0.00000000 5.35461667 5.12297716
0.00000000 5.34203236 5.12104416
0.00000000 5.29302428 5.11356067
5.08217329 5.08217329 5.08217329
