src/ffmpeg_scripts/luts/smpte2084-srgb-grading.cube
TITLE "smpte2084-srgb-grading"
LUT_3D_SIZE 33
# PQ (EOTF Only)/Rec2020 -> Rec709 - γ1.90 (exp2.22)/sRGB, CineEI Shift 0.00, Black Level 0.00% IRE, Input 109% -> Output 109% - Created with LUTCalc v4.01 by Ben Turley October 2020
0.06256109 0.06256109 0.06256109
0.06256109 0.06256109 0.06256109
0.06256109 0.06256109 0.06256109
0.06288539 0.06253677 0.06255755
0.06414685 0.06244215 0.06254376
0.06704592 0.06222470 0.06251207
0.07260199 0.06180795 0.06245134
0.08227117 0.06108268 0.06234564
0.09811202 0.05989448 0.06217249
0.12301181 0.05802679 0.06190031
0.15846854 0.05517770 0.06148511
0.19948322 0.05092819 0.06086583
0.24667574 0.04469859 0.05995799
0.30092407 0.03568866 0.05864497
0.36324784 0.02279483 0.05676595
0.43483425 0.00449581 0.05409923
0.51706943 0.00000000 0.05033904
0.61157654 0.00000000 0.04506319
0.72026226 0.00000000 0.03768772
0.84537375 0.00000000 0.02740298
0.98956893 0.00000000 0.01308308
1.15600343 0.00000000 0.00000000
1.34843881 0.00000000 0.00000000
1.57137807 0.00000000 0.00000000
1.83023635 0.00000000 0.00000000
2.13155715 0.00000000 0.00000000
2.48328835 0.00000000 0.00000000
2.89513680 0.00000000 0.00000000
3.37902747 0.00000000 0.00000000
3.94970294 0.00000000 0.00000000
4.62551262 0.00000000 0.00000000
5.42946194 0.00000000 0.00000000
6.39062062 0.00000000 0.00000000
0.06256109 0.06256109 0.06256109
0.06256109 0.06256109 0.06256109
0.06256109 0.06256109 0.06256109
0.06288539 0.06253677 0.06255755
0.06414685 0.06244215 0.06254376
0.06704592 0.06222470 0.06251207
0.07260199 0.06180795 0.06245134
0.08227117 0.06108268 0.06234564
0.09811202 0.05989448 0.06217249
0.12301181 0.05802679 0.06190031
0.15846854 0.05517770 0.06148511
0.19948322 0.05092819 0.06086583
0.24667574 0.04469859 0.05995799
0.30092407 0.03568866 0.05864497
0.36324784 0.02279483 0.05676595
0.43483425 0.00449581 0.05409923
0.51706943 0.00000000 0.05033904
0.61157654 0.00000000 0.04506319
0.72026226 0.00000000 0.03768772
0.84537375 0.00000000 0.02740298
0.98956893 0.00000000 0.01308308
1.15600343 0.00000000 0.00000000
1.34843881 0.00000000 0.00000000
1.57137807 0.00000000 0.00000000
1.83023635 0.00000000 0.00000000
2.13155715 0.00000000 0.00000000
2.48328835 0.00000000 0.00000000
2.89513680 0.00000000 0.00000000
3.37902747 0.00000000 0.00000000
3.94970294 0.00000000 0.00000000
4.62551262 0.00000000 0.00000000
5.42946194 0.00000000 0.00000000
6.39062062 0.00000000 0.00000000
0.06256109 0.06256109 0.06256109
0.06256109 0.06256109 0.06256109
0.06256109 0.06256109 0.06256109
0.06288539 0.06253677 0.06255755
0.06414685 0.06244215 0.06254376
0.06704592 0.06222470 0.06251207
0.07260199 0.06180795 0.06245134
0.08227117 0.06108268 0.06234564
0.09811202 0.05989448 0.06217249
0.12301181 0.05802679 0.06190031
0.15846854 0.05517770 0.06148511
0.19948322 0.05092819 0.06086583
0.24667574 0.04469859 0.05995799
0.30092407 0.03568866 0.05864497
0.36324784 0.02279483 0.05676595
0.43483425 0.00449581 0.05409923
0.51706943 0.00000000 0.05033904
0.61157654 0.00000000 0.04506319
0.72026226 0.00000000 0.03768772
0.84537375 0.00000000 0.02740298
0.98956893 0.00000000 0.01308308
1.15600343 0.00000000 0.00000000
1.34843881 0.00000000 0.00000000
1.57137807 0.00000000 0.00000000
1.83023635 0.00000000 0.00000000
2.13155715 0.00000000 0.00000000
2.48328835 0.00000000 0.00000000
2.89513680 0.00000000 0.00000000
3.37902747 0.00000000 0.00000000
3.94970294 0.00000000 0.00000000
4.62551262 0.00000000 0.00000000
5.42946194 0.00000000 0.00000000
6.39062062 0.00000000 0.00000000
0.06244633 0.06278235 0.06254145
0.06244633 0.06278235 0.06254145
0.06244633 0.06278235 0.06254145
0.06277062 0.06275803 0.06253791
0.06403209 0.06266340 0.06252412
0.06693115 0.06244595 0.06249243
0.07248722 0.06202920 0.06243170
0.08215640 0.06130393 0.06232600
0.09799726 0.06011574 0.06215285
0.12289704 0.05824805 0.06188067
0.15837372 0.05539895 0.06146547
0.19940938 0.05114944 0.06084619
0.24661741 0.04491985 0.05993835
0.30087748 0.03590991 0.05862533
0.36321028 0.02301609 0.05674631
0.43480375 0.00471706 0.05407959
0.51704452 0.00000000 0.05031940
0.61155610 0.00000000 0.04504355
0.72024540 0.00000000 0.03766808
0.84535981 0.00000000 0.02738334
0.98955739 0.00000000 0.01306344
1.15599385 0.00000000 0.00000000
1.34843084 0.00000000 0.00000000
1.57137145 0.00000000 0.00000000
1.83023083 0.00000000 0.00000000
2.13155256 0.00000000 0.00000000
2.48328454 0.00000000 0.00000000
2.89513363 0.00000000 0.00000000
3.37902485 0.00000000 0.00000000
3.94970077 0.00000000 0.00000000
4.62551083 0.00000000 0.00000000
5.42946047 0.00000000 0.00000000
6.39061941 0.00000000 0.00000000
0.06199990 0.06364301 0.06246504
0.06199990 0.06364301 0.06246504
0.06199990 0.06364301 0.06246504
0.06232419 0.06361868 0.06246150
0.06358566 0.06352406 0.06244771
0.06648472 0.06330661 0.06241602
0.07204079 0.06288986 0.06235529
0.08170997 0.06216459 0.06224959
0.09755083 0.06097640 0.06207644
0.12245062 0.05910871 0.06180426
0.15800427 0.05625961 0.06138906
0.19912186 0.05201010 0.06076978
0.24639041 0.04578051 0.05986194
0.30069619 0.03677057 0.05854892
0.36306417 0.02387675 0.05666990
0.43468512 0.00557772 0.05400318
0.51694761 0.00000000 0.05024299
0.61147655 0.00000000 0.04496714
0.72017985 0.00000000 0.03759167
0.84530562 0.00000000 0.02730693
0.98951248 0.00000000 0.01298703
1.15595657 0.00000000 0.00000000
1.34839986 0.00000000 0.00000000
1.57134567 0.00000000 0.00000000
1.83020939 0.00000000 0.00000000
2.13153473 0.00000000 0.00000000
2.48326972 0.00000000 0.00000000
2.89512133 0.00000000 0.00000000
3.37901465 0.00000000 0.00000000
3.94969233 0.00000000 0.00000000
4.62550387 0.00000000 0.00000000
5.42945473 0.00000000 0.00000000
6.39061471 0.00000000 0.00000000
0.06097393 0.06562095 0.06228944
0.06097393 0.06562095 0.06228944
0.06097393 0.06562095 0.06228944
0.06129823 0.06559662 0.06228590
0.06255969 0.06550200 0.06227211
0.06545876 0.06528455 0.06224042
0.07101483 0.06486780 0.06217968
0.08068401 0.06414253 0.06207399
0.09652486 0.06295434 0.06190084
0.12142465 0.06108665 0.06162866
0.15715169 0.05823755 0.06121346
0.19845936 0.05398804 0.06059418
0.24586781 0.04775844 0.05968634
0.30027908 0.03874851 0.05837332
0.36272812 0.02585469 0.05649430
0.43441232 0.00755566 0.05382758
0.51672482 0.00000000 0.05006739
0.61129369 0.00000000 0.04479154
0.72002917 0.00000000 0.03741607
0.84518106 0.00000000 0.02713133
0.98940927 0.00000000 0.01281143
1.15587089 0.00000000 0.00000000
1.34832864 0.00000000 0.00000000
1.57128644 0.00000000 0.00000000
1.83016011 0.00000000 0.00000000
2.13149374 0.00000000 0.00000000
2.48323565 0.00000000 0.00000000
2.89509304 0.00000000 0.00000000
3.37899120 0.00000000 0.00000000
3.94967293 0.00000000 0.00000000
4.62548786 0.00000000 0.00000000
5.42944156 0.00000000 0.00000000
6.39060391 0.00000000 0.00000000
0.05900766 0.06941168 0.06195290
0.05900766 0.06941168 0.06195290
0.05900766 0.06941168 0.06195290
0.05933196 0.06938735 0.06194936
0.06059342 0.06929273 0.06193557
0.06349249 0.06907528 0.06190388
0.06904856 0.06865853 0.06184314
0.07871773 0.06793326 0.06173745
0.09455859 0.06674506 0.06156429
0.11945838 0.06487737 0.06129212
0.15550372 0.06202828 0.06087692
0.19718283 0.05777877 0.06025763
0.24486276 0.05154917 0.05934979
0.29947783 0.04253924 0.05803677
0.36208307 0.02964542 0.05615776
0.43388896 0.01134639 0.05349104
0.51629751 0.00000000 0.04973085
0.61094305 0.00000000 0.04445500
0.71974028 0.00000000 0.03707953
0.84494229 0.00000000 0.02679479
0.98921142 0.00000000 0.01247489
1.15570666 0.00000000 0.00000000
1.34819215 0.00000000 0.00000000
1.57117291 0.00000000 0.00000000
1.83006566 0.00000000 0.00000000
2.13141518 0.00000000 0.00000000
2.48317035 0.00000000 0.00000000
2.89503883 0.00000000 0.00000000
3.37894626 0.00000000 0.00000000
3.94963575 0.00000000 0.00000000
4.62545717 0.00000000 0.00000000
5.42941631 0.00000000 0.00000000
6.39058321 0.00000000 0.00000000
0.05558578 0.07600865 0.06136722
0.05558578 0.07600865 0.06136722
0.05558578 0.07600865 0.06136722
0.05591007 0.07598432 0.06136368
0.05717154 0.07588970 0.06134989
0.06007060 0.07567225 0.06131820
0.06562667 0.07525550 0.06125746
0.07529585 0.07453023 0.06115177
0.09113671 0.07334203 0.06097861
0.11603649 0.07147435 0.06070644
0.15259036 0.06862525 0.06029124
0.19493940 0.06437574 0.05967195
0.24310257 0.05814614 0.05876411
0.29807759 0.04913621 0.05745110
0.36095734 0.03624239 0.05557208
0.43297640 0.01794336 0.05290536
0.51555289 0.00000000 0.04914517
0.61033227 0.00000000 0.04386932
0.71923720 0.00000000 0.03649385
0.84452655 0.00000000 0.02620911
0.98886700 0.00000000 0.01188921
1.15542079 0.00000000 0.00000000
1.34795457 0.00000000 0.00000000
1.57097531 0.00000000 0.00000000
1.82990128 0.00000000 0.00000000
2.13127846 0.00000000 0.00000000
2.48305671 0.00000000 0.00000000
2.89494448 0.00000000 0.00000000
3.37886805 0.00000000 0.00000000
3.94957104 0.00000000 0.00000000
4.62540378 0.00000000 0.00000000
5.42937238 0.00000000 0.00000000
6.39054718 0.00000000 0.00000000
0.04997976 0.08681636 0.06040771
0.04997976 0.08681636 0.06040771
0.04997976 0.08681636 0.06040771
0.05030406 0.08679203 0.06040417
0.05156552 0.08669741 0.06039038
0.05446459 0.08647996 0.06035869
0.06002066 0.08606321 0.06029796
0.06968983 0.08533794 0.06019226
0.08553069 0.08414974 0.06001911
0.11043048 0.08228206 0.05974693
0.14768483 0.07943296 0.05933173
0.19120152 0.07518345 0.05871245
0.24018762 0.06895385 0.05780461
0.29576728 0.05994392 0.05649159
0.35910428 0.04705010 0.05461257
0.43147652 0.02875107 0.05194585
0.51433026 0.00294866 0.04818566
0.60933009 0.00000000 0.04290981
0.71841211 0.00000000 0.03553434
0.84384494 0.00000000 0.02524960
0.98830243 0.00000000 0.01092970
1.15495226 0.00000000 0.00000000
1.34756523 0.00000000 0.00000000
1.57065153 0.00000000 0.00000000
1.82963194 0.00000000 0.00000000
2.13105445 0.00000000 0.00000000
2.48287053 0.00000000 0.00000000
2.89478990 0.00000000 0.00000000
3.37873991 0.00000000 0.00000000
3.94946504 0.00000000 0.00000000
4.62531629 0.00000000 0.00000000
5.42930039 0.00000000 0.00000000
6.39048815 0.00000000 0.00000000
0.04116783 0.10380468 0.05889949
0.04116783 0.10380468 0.05889949
0.04116783 0.10380468 0.05889949
0.04149212 0.10378036 0.05889594
0.04275359 0.10368574 0.05888215
0.04565265 0.10346829 0.05885046
0.05120872 0.10305153 0.05878973
0.06087790 0.10232627 0.05868404
0.07671876 0.10113807 0.05851088
0.10161854 0.09927038 0.05823870
0.13960354 0.09642129 0.05782350
0.18515876 0.09217178 0.05720422
0.23552399 0.08594218 0.05629638
0.29209373 0.07693225 0.05498336
0.35616905 0.06403842 0.05310434
0.42910657 0.04573940 0.05043762
0.51240153 0.01993699 0.04667743
0.60775084 0.00000000 0.04140159
0.71711290 0.00000000 0.03402612
0.84277220 0.00000000 0.02374137
0.98741423 0.00000000 0.00942148
1.15421534 0.00000000 0.00000000
1.34695297 0.00000000 0.00000000
1.57014242 0.00000000 0.00000000
1.82920847 0.00000000 0.00000000
2.13070227 0.00000000 0.00000000
2.48257783 0.00000000 0.00000000
2.89454690 0.00000000 0.00000000
3.37853849 0.00000000 0.00000000
3.94929840 0.00000000 0.00000000
4.62517878 0.00000000 0.00000000
5.42918725 0.00000000 0.00000000
6.39039537 0.00000000 0.00000000
0.02772552 0.12971981 0.05659874
0.02772552 0.12971981 0.05659874
0.02772552 0.12971981 0.05659874
0.02804981 0.12969548 0.05659520
0.02931128 0.12960086 0.05658141
0.03221034 0.12938341 0.05654972
0.03776641 0.12896666 0.05648899
0.04743559 0.12824139 0.05638329
0.06327645 0.12705320 0.05621014
0.08817623 0.12518551 0.05593796
0.12616002 0.12233641 0.05552276
0.17550238 0.11808690 0.05490348
0.22820422 0.11185730 0.05399564
0.28638655 0.10284737 0.05268262
0.35163708 0.08995355 0.05080360
0.42546170 0.07165452 0.04813688
0.50944282 0.04585211 0.04437669
0.60533239 0.00964927 0.03910084
0.71512560 0.00000000 0.03172537
0.84113263 0.00000000 0.02144063
0.98605745 0.00000000 0.00712073
1.15309010 0.00000000 0.00000000
1.34601834 0.00000000 0.00000000
1.56936541 0.00000000 0.00000000
1.82856225 0.00000000 0.00000000
2.13016491 0.00000000 0.00000000
2.48213125 0.00000000 0.00000000
2.89417617 0.00000000 0.00000000
3.37823119 0.00000000 0.00000000
3.94904419 0.00000000 0.00000000
4.62496900 0.00000000 0.00000000
5.42901463 0.00000000 0.00000000
6.39025384 0.00000000 0.00000000
0.00767591 0.16444130 0.05316711
0.00767591 0.16444130 0.05316711
0.00767591 0.16444130 0.05316711
0.00800021 0.16442199 0.05316357
0.00926167 0.16434685 0.05314978
0.01216074 0.16417403 0.05311809
0.01771681 0.16384227 0.05305735
0.02738598 0.16326318 0.05295166
0.04322684 0.16230965 0.05277851
0.06812663 0.16079855 0.05250633
0.10611041 0.15846358 0.05209113
0.15992239 0.15491074 0.05147185
0.21677336 0.14953917 0.05056401
0.27762613 0.14138568 0.04925099
0.34474996 0.12860672 0.04737197
0.41995688 0.11030770 0.04470525
0.50499205 0.08450529 0.04094506
0.60170388 0.04830244 0.03566921
0.71214927 0.00000000 0.02829374
0.83868007 0.00000000 0.01800900
0.98402962 0.00000000 0.00368910
1.15140933 0.00000000 0.00000000
1.34462287 0.00000000 0.00000000
1.56820561 0.00000000 0.00000000
1.82759788 0.00000000 0.00000000
2.12936311 0.00000000 0.00000000
2.48146499 0.00000000 0.00000000
2.89362311 0.00000000 0.00000000
3.37777278 0.00000000 0.00000000
3.94866499 0.00000000 0.00000000
4.62465608 0.00000000 0.00000000
5.42875717 0.00000000 0.00000000
6.39004272 0.00000000 0.00000000
0.00000000 0.20417444 0.04813649
0.00000000 0.20417444 0.04813649
0.00000000 0.20417444 0.04813649
0.00000000 0.20415919 0.04813295
0.00000000 0.20409985 0.04811916
0.00000000 0.20396340 0.04808747
0.00000000 0.20370160 0.04802674
0.00000000 0.20324513 0.04792104
0.01383502 0.20249483 0.04774789
0.03873480 0.20130924 0.04747571
0.07671859 0.19948570 0.04706051
0.13357858 0.19673127 0.04644123
0.19869359 0.19261511 0.04553339
0.26418707 0.18648539 0.04422037
0.33435834 0.17730984 0.04234135
0.41173226 0.16332473 0.03967463
0.49838315 0.14107623 0.03591444
0.59633755 0.10496627 0.03063859
0.70775926 0.05435583 0.02326312
0.83506921 0.00000000 0.01297838
0.98104786 0.00000000 0.00000000
1.14894006 0.00000000 0.00000000
1.34257401 0.00000000 0.00000000
1.56650352 0.00000000 0.00000000
1.82618306 0.00000000 0.00000000
2.12818704 0.00000000 0.00000000
2.48048788 0.00000000 0.00000000
2.89281211 0.00000000 0.00000000
3.37710064 0.00000000 0.00000000
3.94810901 0.00000000 0.00000000
4.62419730 0.00000000 0.00000000
5.42837970 0.00000000 0.00000000
6.38973323 0.00000000 0.00000000
0.00000000 0.24984814 0.04086065
0.00000000 0.24984814 0.04086065
0.00000000 0.24984814 0.04086065
0.00000000 0.24983595 0.04085711
0.00000000 0.24978855 0.04084332
0.00000000 0.24967958 0.04081163
0.00000000 0.24947059 0.04075090
0.00000000 0.24910641 0.04064520
0.00000000 0.24850848 0.04047205
0.00000000 0.24756534 0.04019987
0.03420885 0.24611880 0.03978467
0.09086279 0.24394336 0.03916539
0.16877886 0.24071440 0.03825755
0.24326152 0.23595671 0.03694453
0.31863846 0.22895555 0.03506551
0.39948823 0.21858919 0.03239879
0.48863910 0.20297034 0.02863860
0.58847395 0.17851217 0.02336275
0.70135224 0.13645372 0.01598728
0.82981366 0.06573552 0.00570254
0.97671604 0.00000000 0.00000000
1.14535742 0.00000000 0.00000000
1.33960405 0.00000000 0.00000000
1.56403782 0.00000000 0.00000000
1.82413443 0.00000000 0.00000000
2.12648469 0.00000000 0.00000000
2.47907386 0.00000000 0.00000000
2.89163867 0.00000000 0.00000000
3.37612823 0.00000000 0.00000000
3.94730473 0.00000000 0.00000000
4.62353368 0.00000000 0.00000000
5.42783372 0.00000000 0.00000000
6.38928557 0.00000000 0.00000000
0.00000000 0.30232084 0.03044844
0.00000000 0.30232084 0.03044844
0.00000000 0.30232084 0.03044844
0.00000000 0.30231102 0.03044489
0.00000000 0.30227282 0.03043110
0.00000000 0.30218499 0.03039941
0.00000000 0.30201659 0.03033868
0.00000000 0.30172326 0.03023299
0.00000000 0.30124201 0.03005983
0.00000000 0.30048377 0.02978765
0.00000000 0.29932289 0.02937245
0.03002850 0.29758182 0.02875317
0.11308065 0.29500835 0.02784533
0.20922390 0.29124052 0.02653231
0.29446386 0.28575016 0.02465329
0.38116994 0.27774632 0.02198657
0.47428602 0.26599569 0.01822638
0.57700043 0.24844655 0.01295054
0.69206089 0.22128342 0.00557507
0.82222295 0.17565221 0.00000000
0.97047668 0.08475347 0.00000000
1.14020693 0.00000000 0.00000000
1.33534002 0.00000000 0.00000000
1.56050107 0.00000000 0.00000000
1.82119787 0.00000000 0.00000000
2.12404564 0.00000000 0.00000000
2.47704859 0.00000000 0.00000000
2.88995839 0.00000000 0.00000000
3.37473606 0.00000000 0.00000000
3.94615341 0.00000000 0.00000000
4.62258378 0.00000000 0.00000000
5.42705226 0.00000000 0.00000000
6.38864487 0.00000000 0.00000000
0.00000000 0.36259211 0.01567133
0.00000000 0.36259211 0.01567133
0.00000000 0.36259211 0.01567133
0.00000000 0.36258414 0.01566779
0.00000000 0.36255311 0.01565400
0.00000000 0.36248180 0.01562231
0.00000000 0.36234509 0.01556157
0.00000000 0.36210702 0.01545588
0.00000000 0.36171662 0.01528272
0.00000000 0.36110196 0.01501055
0.00000000 0.36016201 0.01459535
0.00000000 0.35875476 0.01397606
0.02674408 0.35668024 0.01306822
0.14629681 0.35365504 0.01175520
0.25566809 0.34927329 0.00987619
0.35327595 0.34294398 0.00720947
0.45299943 0.33378460 0.00344928
0.56024042 0.32042529 0.00000000
0.67861513 0.30060555 0.00000000
0.81130474 0.27018710 0.00000000
0.96153854 0.21990739 0.00000000
1.13284906 0.11446616 0.00000000
1.32926022 0.00000000 0.00000000
1.55546503 0.00000000 0.00000000
1.81702043 0.00000000 0.00000000
2.12057829 0.00000000 0.00000000
2.47417087 0.00000000 0.00000000
2.88757168 0.00000000 0.00000000
3.37275907 0.00000000 0.00000000
3.94451874 0.00000000 0.00000000
4.62123528 0.00000000 0.00000000
5.42594298 0.00000000 0.00000000
6.38773545 0.00000000 0.00000000
0.00000000 0.43182898 0.00000000
0.00000000 0.43182898 0.00000000
0.00000000 0.43182898 0.00000000
0.00000000 0.43182247 0.00000000
0.00000000 0.43179712 0.00000000
0.00000000 0.43173887 0.00000000
0.00000000 0.43162721 0.00000000
0.00000000 0.43143280 0.00000000
0.00000000 0.43111408 0.00000000
0.00000000 0.43061255 0.00000000
0.00000000 0.42984616 0.00000000
0.00000000 0.42870011 0.00000000
0.00000000 0.42701359 0.00000000
0.02512513 0.42456057 0.00000000
0.18569372 0.42102124 0.00000000
0.30898487 0.41593806 0.00000000
0.42083660 0.40864562 0.00000000
0.53555428 0.39815188 0.00000000
0.65910211 0.38292144 0.00000000
0.79560580 0.36043445 0.00000000
0.94876408 0.32612873 0.00000000
1.12237575 0.27004933 0.00000000
1.32063021 0.15668673 0.00000000
1.54833044 0.00000000 0.00000000
1.81111028 0.00000000 0.00000000
2.11567750 0.00000000 0.00000000
2.47010625 0.00000000 0.00000000
2.88420225 0.00000000 0.00000000
3.36996905 0.00000000 0.00000000
3.94221238 0.00000000 0.00000000
4.61933301 0.00000000 0.00000000
5.42437837 0.00000000 0.00000000
6.38645286 0.00000000 0.00000000
0.00000000 0.51139805 0.00000000
0.00000000 0.51139805 0.00000000
0.00000000 0.51139805 0.00000000
0.00000000 0.51139270 0.00000000
0.00000000 0.51137190 0.00000000
0.00000000 0.51132408 0.00000000
0.00000000 0.51123243 0.00000000
0.00000000 0.51107288 0.00000000
0.00000000 0.51081136 0.00000000
0.00000000 0.51039998 0.00000000
0.00000000 0.50977167 0.00000000
0.00000000 0.50883285 0.00000000
0.00000000 0.50745291 0.00000000
0.00000000 0.50544926 0.00000000
0.02621543 0.50256563 0.00000000
0.23057916 0.49843960 0.00000000
0.37018946 0.49255288 0.00000000
0.49847929 0.48415190 0.00000000
0.63051275 0.47211377 0.00000000
0.77293698 0.45470316 0.00000000
0.93048629 0.42908151 0.00000000
1.10748029 0.39014742 0.00000000
1.30840607 0.32696179 0.00000000
1.53825274 0.20288856 0.00000000
1.80277839 0.00000000 0.00000000
2.10877805 0.00000000 0.00000000
2.46438957 0.00000000 0.00000000
2.87946661 0.00000000 0.00000000
3.36604968 0.00000000 0.00000000
3.93897361 0.00000000 0.00000000
4.61666237 0.00000000 0.00000000
5.42218217 0.00000000 0.00000000
6.38465275 0.00000000 0.00000000
0.00000000 0.60290460 0.00000000
0.00000000 0.60290460 0.00000000
0.00000000 0.60290460 0.00000000
0.00000000 0.60290020 0.00000000
0.00000000 0.60288305 0.00000000
0.00000000 0.60284365 0.00000000
0.00000000 0.60276812 0.00000000
0.00000000 0.60263665 0.00000000
0.00000000 0.60242120 0.00000000
0.00000000 0.60208236 0.00000000
0.00000000 0.60156502 0.00000000
0.00000000 0.60079243 0.00000000
0.00000000 0.59965773 0.00000000
0.00000000 0.59801210 0.00000000
0.00000000 0.59564777 0.00000000
0.03139075 0.59227319 0.00000000
0.28179335 0.58747603 0.00000000
0.44046596 0.58066641 0.00000000
0.58777047 0.57098613 0.00000000
0.73985489 0.55715596 0.00000000
0.90419192 0.53719919 0.00000000
1.08624535 0.50788733 0.00000000
1.29108343 0.46344296 0.00000000
1.52402964 0.39161475 0.00000000
1.79105214 0.25295760 0.00000000
2.09908683 0.00000000 0.00000000
2.45637081 0.00000000 0.00000000
2.87283045 0.00000000 0.00000000
3.36056122 0.00000000 0.00000000
3.93444048 0.00000000 0.00000000
4.61292575 0.00000000 0.00000000
5.41911014 0.00000000 0.00000000
6.38213523 0.00000000 0.00000000
0.00000000 0.70824063 0.00000000
0.00000000 0.70824063 0.00000000
0.00000000 0.70824063 0.00000000
0.00000000 0.70823699 0.00000000
0.00000000 0.70822282 0.00000000
0.00000000 0.70819024 0.00000000
0.00000000 0.70812781 0.00000000
0.00000000 0.70801914 0.00000000
0.00000000 0.70784107 0.00000000
0.00000000 0.70756105 0.00000000
0.00000000 0.70713365 0.00000000
0.00000000 0.70649559 0.00000000
0.00000000 0.70555899 0.00000000
0.00000000 0.70420177 0.00000000
0.00000000 0.70225408 0.00000000
0.00000000 0.69947886 0.00000000
0.04241085 0.69554338 0.00000000
0.34027905 0.68997671 0.00000000
0.52119992 0.68210434 0.00000000
0.69055630 0.67094371 0.00000000
0.86592537 0.65502825 0.00000000
1.05577631 0.63208960 0.00000000
1.26645097 0.59842234 0.00000000
1.50392503 0.54740648 0.00000000
1.77454401 0.46508695 0.00000000
2.08548185 0.30752469 0.00000000
2.44513579 0.00000000 0.00000000
2.86354548 0.00000000 0.00000000
3.35288961 0.00000000 0.00000000
3.92810862 0.00000000 0.00000000
4.60770905 0.00000000 0.00000000
5.41482280 0.00000000 0.00000000
6.37862264 0.00000000 0.00000000
0.00000000 0.82964394 0.00000000
0.00000000 0.82964394 0.00000000
0.00000000 0.82964394 0.00000000
0.00000000 0.82964092 0.00000000
0.00000000 0.82962918 0.00000000
0.00000000 0.82960218 0.00000000
0.00000000 0.82955045 0.00000000
0.00000000 0.82946040 0.00000000
0.00000000 0.82931286 0.00000000
0.00000000 0.82908088 0.00000000
0.00000000 0.82872685 0.00000000
0.00000000 0.82819847 0.00000000
0.00000000 0.82742316 0.00000000
0.00000000 0.82630030 0.00000000
0.00000000 0.82469023 0.00000000
0.00000000 0.82239877 0.00000000
0.00000000 0.81915474 0.00000000
0.06144778 0.81457717 0.00000000
0.40710982 0.80812609 0.00000000
0.61401801 0.79902673 0.00000000
0.80902043 0.78614818 0.00000000
1.01151126 0.76779880 0.00000000
1.23116363 0.74135681 0.00000000
1.47538113 0.70253237 0.00000000
1.75124543 0.64365600 0.00000000
2.06635831 0.54858324 0.00000000
2.42938785 0.36691991 0.00000000
2.85055647 0.00000000 0.00000000
3.34217246 0.00000000 0.00000000
3.91927179 0.00000000 0.00000000
4.60043362 0.00000000 0.00000000
5.40884645 0.00000000 0.00000000
6.37372797 0.00000000 0.00000000
0.00000000 0.96977136 0.00000000
0.00000000 0.96977136 0.00000000
0.00000000 0.96977136 0.00000000
0.00000000 0.96976885 0.00000000
0.00000000 0.96975910 0.00000000
0.00000000 0.96973669 0.00000000
0.00000000 0.96969375 0.00000000
0.00000000 0.96961900 0.00000000
0.00000000 0.96949653 0.00000000
0.00000000 0.96930398 0.00000000
0.00000000 0.96901017 0.00000000
0.00000000 0.96857174 0.00000000
0.00000000 0.96792859 0.00000000
0.00000000 0.96699750 0.00000000
0.00000000 0.96566318 0.00000000
0.00000000 0.96376570 0.00000000
0.00000000 0.96108258 0.00000000
0.00000000 0.95730278 0.00000000
0.09105744 0.95198867 0.00000000
0.48351801 0.94451869 0.00000000
0.72083640 0.93399888 0.00000000
0.94575535 0.91912069 0.00000000
1.17993908 0.89792114 0.00000000
1.43451890 0.86734848 0.00000000
1.71818877 0.82239423 0.00000000
2.03938614 0.75407832 0.00000000
2.40726655 0.64344754 0.00000000
