src/ffmpeg_scripts/luts/smpte2084-srgb-grading.cube
TITLE "smpte2084-srgb-grading"
LUT_3D_SIZE 5
# PQ (EOTF Only)/Rec2020 -> Rec709 - γ1.90 (exp2.22)/sRGB, CineEI Shift 0.00, Black Level 0.00% IRE, Input 109% -> Output 109% - Created with LUTCalc v4.01 by Ben Turley October 2020
0.06256109 0.06256109 0.06256109
0.09811202 0.05989448 0.06217249
0.51706943 0.00000000 0.05033904
1.83023635 0.00000000 0.00000000
6.39062062 0.00000000 0.00000000
0.04997976 0.08681636 0.06040771
0.08553069 0.08414974 0.06001911
0.51433026 0.00294866 0.04818566
1.82963194 0.00000000 0.00000000
6.39048815 0.00000000 0.00000000
0.00000000 0.43182898 0.00000000
0.00000000 0.43111408 0.00000000
0.42083660 0.40864562 0.00000000
1.81111028 0.00000000 0.00000000
6.38645286 0.00000000 0.00000000
0.00000000 1.53743320 0.00000000
0.00000000 1.53727514 0.00000000
0.00000000 1.53245256 0.00000000
1.49967407 1.45779776 0.00000000
6.32554998 0.00000000 0.00000000
0.00000000 5.37699086 0.00000000
0.00000000 5.37695622 0.00000000
0.00000000 5.37590108 0.00000000
0.00000000 5.36004447 0.00000000
5.24627580 5.10130785 0.00000000
0.06100139 0.06238233 0.08651297
0.09655232 0.05971572 0.08612437
0.51673078 0.00000000 0.07429092
1.83016143 0.00000000 0.00000000
6.39060420 0.00000000 0.00000000
0.04842006 0.08663760 0.08435959
0.08397098 0.08397098 0.08397098
0.51398949 0.00276990 0.07213754
1.82955699 0.00000000 0.00000000
6.39047173 0.00000000 0.00000000
0.00000000 0.43178110 0.01878685
0.00000000 0.43106611 0.01839825
0.42040589 0.40859457 0.00656480
1.81103440 0.00000000 0.00000000
6.38643642 0.00000000 0.00000000
0.00000000 1.53742261 0.00000000
0.00000000 1.53726454 0.00000000
0.00000000 1.53244193 0.00000000
1.49957881 1.45778646 0.00000000
6.32553336 0.00000000 0.00000000
0.00000000 5.37698854 0.00000000
0.00000000 5.37695389 0.00000000
0.00000000 5.37589875 0.00000000
0.00000000 5.36004214 0.00000000
5.24625492 5.10130537 0.00000000
0.01350668 0.05693890 0.42926453
0.04905761 0.05427229 0.42915971
0.50629113 0.00000000 0.42595346
1.82787840 0.00000000 0.37400440
6.39010412 0.00000000 0.00000000
0.00092535 0.08119416 0.42868331
0.03647628 0.07852755 0.42857833
0.50348313 0.00000000 0.42536698
1.82727305 0.00000000 0.37332245
6.38997164 0.00000000 0.00000000
0.00000000 0.43032010 0.41052522
0.00000000 0.42960228 0.41041483
0.40703652 0.40703652 0.40703652
1.80872219 0.00000000 0.35182310
6.38593595 0.00000000 0.00000000
0.00000000 1.53709992 0.00000000
0.00000000 1.53694182 0.00000000
0.00000000 1.53211798 0.00000000
1.49667454 1.45744243 0.00000000
6.32502701 0.00000000 0.00000000
0.00000000 5.37691782 0.00000000
0.00000000 5.37688317 0.00000000
0.00000000 5.37582801 0.00000000
0.00000000 5.35997114 0.00000000
5.24561903 5.10122997 0.00000000
0.00000000 0.00000000 1.52862423
0.00000000 0.00000000 1.52860104
0.30028079 0.00000000 1.52789458
1.79321261 0.00000000 1.51725062
6.38259766 0.00000000 1.33520878
0.00000000 0.00000000 1.52849570
0.00000000 0.00000000 1.52847251
0.29511121 0.00000000 1.52776598
1.79259310 0.00000000 1.51712094
6.38246500 0.00000000 1.33505753
0.00000000 0.40767295 1.52457569
0.00000000 0.40690855 1.52455243
0.02354219 0.38278102 1.52384370
1.77360299 0.00000000 1.51316539
6.37842352 0.00000000 1.33044178
0.00000000 1.53225014 1.46425423
0.00000000 1.53209143 1.46422980
0.00000000 1.52724912 1.46348575
1.45227044 1.45227044 1.45227044
6.31742625 0.00000000 1.25875226
0.00000000 5.37585687 0.00000000
0.00000000 5.37582221 0.00000000
0.00000000 5.37476680 0.00000000
0.00000000 5.35890611 0.00000000
5.23606993 5.10009882 0.00000000
0.00000000 0.00000000 5.34649585
0.00000000 0.00000000 5.34649077
0.00000000 0.00000000 5.34633595
1.06683872 0.00000000 5.34401316
6.26245138 0.00000000 5.30712255
0.00000000 0.00000000 5.34646768
0.00000000 0.00000000 5.34646260
0.00000000 0.00000000 5.34630778
1.06568130 0.00000000 5.34398498
6.26231560 0.00000000 5.30709412
0.00000000 0.00000000 5.34560972
0.00000000 0.00000000 5.34560463
0.00000000 0.00000000 5.34544979
1.02968787 0.00000000 5.34312653
6.25817942 0.00000000 5.30622841
0.00000000 1.45296107 5.33272081
0.00000000 1.45279187 5.33271571
0.00000000 1.44762828 5.33256041
0.00000000 1.36734341 5.33023031
6.19573594 0.00000000 5.29322266
0.00000000 5.35904808 5.12365895
0.00000000 5.35901329 5.12365359
0.00000000 5.35795385 5.12349054
0.00000000 5.34203236 5.12104416
5.08217329 5.08217329 5.08217329
