src/ffmpeg_scripts/luts/sRGB-rec2020_-2p67.cube
TITLE "sRGB-rec2020_-2p67"
LUT_3D_SIZE 5
# PQ (EOTF Only)/sRGB -> PQ (EOTF Only)/Rec2020, CineEI Shift -2.67, Black Level 0.00% IRE, Input 100% -> Output 109% - Created with LUTCalc v4.01 by Ben Turley October 2020
0.06256172 0.06256172 0.06256172
0.16381874 0.10411895 0.08376101
0.31297914 0.19112736 0.13854941
0.49516414 0.32379327 0.23616358
0.70523688 0.50491707 0.38743999
0.14204430 0.17863180 0.10877535
0.18025011 0.18160464 0.11231045
0.31490840 0.21702694 0.14666244
0.49539979 0.32841200 0.23765049
0.70526213 0.50550798 0.38765061
0.27212825 0.33915221 0.20200337
0.27825853 0.33944682 0.20248226
0.34194344 0.34427004 0.21004740
0.49929304 0.38209706 0.25883459
0.70568768 0.51496143 0.39113353
0.44118473 0.52836311 0.34057069
0.44199540 0.52839771 0.34063947
0.45469014 0.52898038 0.34179285
0.53184650 0.53474201 0.35274459
0.70993473 0.57897989 0.42048431
0.64529766 0.74094598 0.52598931
0.64538842 0.74094960 0.52599773
0.64690896 0.74101072 0.52613989
0.66120567 0.74163383 0.52758220
0.74464589 0.74771485 0.54104375
0.09622045 0.08022799 0.17756240
0.16630097 0.10700136 0.17829673
0.31323565 0.19152741 0.18941679
0.49519517 0.32385201 0.24995268
0.70524021 0.50492439 0.38955944
0.14591694 0.17913194 0.18139364
0.18207838 0.18207838 0.18207838
0.31515867 0.21728725 0.19253444
0.49543074 0.32846743 0.25116888
0.70526545 0.50551526 0.38976492
0.27256842 0.33920073 0.22386662
0.27866339 0.33949516 0.22420366
0.34212201 0.34431561 0.22964817
0.49932271 0.38212604 0.26905580
0.70569099 0.51496800 0.39316486
0.44124093 0.52836880 0.34424576
0.44205110 0.52840340 0.34431151
0.45473850 0.52898603 0.34541447
0.53186739 0.53474732 0.35592303
0.70993789 0.57898321 0.42193977
0.64530393 0.74094657 0.52644826
0.64539468 0.74095019 0.52645664
0.64691512 0.74101131 0.52659810
0.66121097 0.74163442 0.52803339
0.74464807 0.74771540 0.54143449
0.17183459 0.12823711 0.33730072
0.19671085 0.13637452 0.33737232
0.31744752 0.19789915 0.33857269
0.49571793 0.32483800 0.34993465
0.70529631 0.50504807 0.41922416
0.18625390 0.18695898 0.33768443
0.20643174 0.18952718 0.33775569
0.31927134 0.22153112 0.33895045
0.49595217 0.32939833 0.35026347
0.70532153 0.50563815 0.41937033
0.27963081 0.34001620 0.34390820
0.28518873 0.34030770 0.34397421
0.34508170 0.34508170 0.34508170
0.49982264 0.38261415 0.35563021
0.70574682 0.51507898 0.42180435
0.44218529 0.52846490 0.38984681
0.44298700 0.52849946 0.38988499
0.45555177 0.52908149 0.39052756
0.53221973 0.53483707 0.39684078
0.70999125 0.57903924 0.44348926
0.64540978 0.74095663 0.53387994
0.64550043 0.74096025 0.53388768
0.64701919 0.74102136 0.53401832
0.66130044 0.74164440 0.53534462
0.74468490 0.74772475 0.54780153
0.29302554 0.21729384 0.52604665
0.29770235 0.21885398 0.52605506
0.35118499 0.24073803 0.52619714
0.50090310 0.33428386 0.52763856
0.70586841 0.50630417 0.54109255
0.29551597 0.23547706 0.52609182
0.30004656 0.23665919 0.52610023
0.35239024 0.25402768 0.52624224
0.50112454 0.33835104 0.52768297
0.70589348 0.50688631 0.54113100
0.32867653 0.34792255 0.52685187
0.33167168 0.34818720 0.52686021
0.37048702 0.35253494 0.52700106
0.50478818 0.38745462 0.52843020
0.70631620 0.51620696 0.54177835
0.45131638 0.52944249 0.53429216
0.45204089 0.52947669 0.53429986
0.46347798 0.53005267 0.53442993
0.53575043 0.53575043 0.53575043
0.71053555 0.57961063 0.54815685
0.64648615 0.74105944 0.58792230
0.64657578 0.74106305 0.58792665
0.64807750 0.74112410 0.58800016
0.66221110 0.74174646 0.58874904
0.74506090 0.74782036 0.59600985
0.46520210 0.36009755 0.73848073
0.46582383 0.36032603 0.73848161
0.47573339 0.36409492 0.73849650
0.54155623 0.39527959 0.73864874
0.71146915 0.51813843 0.74017530
0.46552894 0.36308798 0.73848546
0.46614843 0.36330842 0.73848634
0.47602457 0.36694811 0.73850123
0.54169930 0.39726785 0.73865346
0.71149278 0.51865100 0.74017995
0.47088084 0.40215989 0.73856539
0.47146504 0.40229938 0.73856627
0.48080937 0.40462301 0.73858115
0.54408423 0.42540909 0.73873325
0.71189108 0.52691034 0.74025844
0.51282081 0.53879725 0.73937933
0.51319144 0.53882818 0.73938021
0.51924017 0.53934942 0.73939496
0.56552858 0.54452225 0.73954574
0.71587228 0.58520527 0.74105781
0.65673890 0.74209337 0.74723844
0.65681932 0.74209694 0.74723924
0.65816796 0.74215732 0.74725280
0.67096285 0.74277284 0.74739140
0.74878230 0.74878230 0.74878230
