src/ffmpeg_scripts/luts/sRGB-rec2020_-1p33.cube
TITLE "sRGB-rec2020_-1p33"
LUT_3D_SIZE 5
# PQ (EOTF Only)/sRGB -> PQ (EOTF Only)/Rec2020, CineEI Shift -1.33, Black Level 0.00% IRE, Input 100% -> Output 109% - Created with LUTCalc v4.01 by Ben Turley October 2020
0.06256172 0.06256172 0.06256172
0.20217210 0.12421204 0.09549263
0.37859386 0.23597210 0.16999591
0.57665480 0.39077068 0.29001891
0.79149990 0.58690200 0.46124061
0.17450653 0.22061689 0.13057355
0.22261560 0.22428617 0.13536218
0.38077095 0.26728041 0.18043518
0.57690275 0.39595212 0.29177294
0.79152507 0.58752188 0.46147069
0.33197862 0.40795761 0.24919988
0.33904022 0.40828609 0.24977956
0.41106799 0.41365762 0.25890717
0.58099668 0.45539752 0.31657817
0.79194928 0.59742388 0.46527267
0.51936157 0.61141413 0.40953878
0.52022964 0.61145018 0.40961541
0.53379179 0.61205719 0.41090028
0.61504159 0.61805409 0.42306761
0.79618075 0.66377884 0.49711148
0.73134458 0.82696230 0.60894006
0.73143629 0.82696588 0.60894884
0.73297257 0.82702635 0.60909705
0.74739034 0.82764279 0.61060042
0.83062145 0.83365448 0.62460189
0.11326380 0.09030991 0.21929442
0.20528251 0.12815745 0.22020268
0.37888344 0.23646085 0.23388034
0.57668746 0.39083665 0.30621899
0.79150321 0.58690968 0.46355503
0.17948050 0.22123493 0.22402608
0.22486994 0.22486994 0.22486994
0.38105322 0.26759185 0.23769038
0.57693532 0.39601424 0.30764088
0.79152838 0.58752951 0.46377932
0.33248649 0.40801171 0.27544334
0.33950571 0.40833998 0.27584453
0.41126684 0.41370831 0.28231188
0.58102786 0.45542924 0.32843000
0.79195257 0.59743076 0.46748770
0.51942176 0.61142006 0.41363061
0.52028927 0.61145610 0.41370375
0.53384335 0.61206308 0.41493044
0.61506333 0.61805962 0.42658788
0.79618390 0.66378225 0.49868129
0.73135091 0.82696289 0.60941853
0.73144262 0.82696647 0.60942726
0.73297879 0.82702694 0.60957473
0.74739567 0.82764338 0.61107058
0.83062361 0.83365502 0.62500749
0.21218755 0.15655663 0.40589224
0.24277819 0.16717806 0.40597214
0.38363309 0.24422248 0.40731133
0.57723748 0.39194368 0.41995141
0.79155913 0.58703943 0.49575166
0.23000419 0.23086924 0.40632042
0.25455163 0.23401542 0.40639993
0.38568673 0.27266063 0.40773262
0.57748390 0.39705715 0.42031627
0.79158429 0.58765842 0.49590943
0.34061761 0.40892081 0.41325505
0.34699392 0.40924569 0.41332850
0.41456041 0.41456041 0.41456041
0.58155320 0.45596356 0.42626376
0.79200822 0.59754684 0.49853526
0.52043294 0.61152018 0.46386869
0.52129111 0.61155618 0.46391036
0.53471018 0.61216252 0.46461157
0.61543004 0.61815295 0.47149158
0.79623704 0.66383981 0.52182862
0.73145788 0.82697284 0.61715746
0.73154949 0.82697642 0.61716550
0.73308392 0.82703688 0.61730139
0.74748575 0.82765325 0.61868074
0.83066002 0.83366426 0.63161061
0.35595176 0.26759973 0.60899984
0.36127971 0.26946498 0.60900861
0.42133850 0.29540955 0.60915673
0.58268829 0.40252312 0.61065916
0.79212942 0.58835693 0.62465255
0.35879056 0.28920846 0.60904694
0.36394537 0.29060376 0.60905571
0.42267485 0.31097889 0.60920376
0.58292089 0.40706411 0.61070544
0.79215441 0.58896735 0.62469246
0.39624854 0.41771763 0.60983925
0.39960214 0.41801155 0.60984794
0.44265709 0.42283524 0.60999476
0.58676678 0.46125658 0.61148403
0.79257573 0.59872644 0.62536441
0.53019321 0.61253854 0.61758623
0.53096634 0.61257416 0.61759424
0.54314618 0.61317402 0.61772952
0.61910268 0.61910268 0.61910268
0.79677905 0.66442683 0.63197875
0.73254544 0.82707455 0.67295581
0.73263598 0.82707813 0.67296027
0.73415282 0.82713853 0.67303562
0.74840247 0.82775420 0.67380316
0.83103171 0.83375872 0.68123716
0.54497827 0.43120401 0.82452265
0.54563867 0.43145642 0.82452352
0.55614669 0.43561654 0.82453827
0.62513387 0.46979181 0.82468896
0.79770859 0.60074538 0.82619977
0.54532545 0.43450573 0.82452734
0.54598342 0.43474895 0.82452821
0.55645494 0.43876150 0.82454295
0.62528236 0.47195639 0.82469364
0.79773211 0.60128097 0.82620436
0.55100530 0.47727523 0.82460646
0.55162470 0.47742673 0.82460733
0.56151624 0.47994948 0.82462206
0.62775691 0.50241983 0.82477261
0.79812862 0.60990020 0.82628203
0.59518414 0.62226901 0.82541207
0.59557203 0.62230115 0.82541294
0.60189650 0.62284255 0.82542753
0.64993375 0.62821121 0.82557676
0.80209003 0.67016978 0.82707295
0.74289091 0.82809735 0.83318378
0.74297196 0.82810089 0.83318457
0.74433093 0.82816060 0.83319796
0.75720271 0.82876939 0.83333491
0.83470898 0.83470898 0.83470898
