src/ffmpeg_scripts/luts/sRGB-rec2020_1p67.cube
TITLE "sRGB-rec2020_1p67"
LUT_3D_SIZE 9
# PQ (EOTF Only)/sRGB -> PQ (EOTF Only)/Rec2020, CineEI Shift 1.67, Black Level 0.00% IRE, Input 100% -> Output 109% - Created with LUTCalc v4.01 by Ben Turley October 2020
0.06256172 0.06256172 0.06256172
0.19844116 0.12217970 0.09427565
0.32097415 0.19639961 0.14215143
0.43782535 0.27936179 0.20199708
0.55090857 0.36914101 0.27233732
0.66116149 0.46467182 0.35234273
0.76914604 0.56525674 0.44146849
0.87523776 0.67039547 0.53932524
0.91886608 0.77970767 0.64561937
0.17131299 0.21655930 0.12837824
0.21852399 0.22016634 0.13304769
0.32497023 0.24269312 0.15806148
0.43885024 0.29685876 0.20771391
0.55120905 0.37526143 0.27438611
0.66125504 0.46678335 0.35308268
0.76917560 0.56597535 0.44173262
0.87524693 0.67063222 0.53941623
0.91886608 0.77978129 0.64564885
0.27934945 0.34758295 0.20757544
0.29171834 0.34819891 0.20858531
0.35041810 0.35278094 0.21583273
0.44635166 0.36987096 0.23985019
0.55348481 0.41165188 0.28846325
0.66197032 0.48154616 0.35855427
0.76940230 0.57131774 0.44373519
0.87531731 0.67243056 0.54011200
0.91886608 0.78034466 0.64587493
0.38704895 0.46939907 0.29449530
0.39048685 0.46955133 0.29478188
0.41312687 0.47071207 0.29694709
0.47272638 0.47549420 0.30553391
0.56259896 0.49044509 0.32970866
0.66495608 0.52655103 0.37851625
0.77036120 0.59117869 0.45179279
0.87561630 0.67972443 0.54301728
0.91886608 0.78270510 0.64683134
0.49451477 0.58526283 0.38732434
0.49556045 0.58530666 0.38741564
0.50321749 0.58564249 0.38811347
0.53017042 0.58705888 0.39102225
0.58885384 0.59183688 0.40045778
0.67468387 0.60569008 0.42521899
0.77362846 0.63911535 0.47531970
0.87665081 0.70147935 0.55249413
0.91886608 0.79049084 0.65009197
0.60179942 0.69673442 0.48507039
0.60213290 0.69674789 0.48510084
0.60465511 0.69685126 0.48533427
0.61469730 0.69729002 0.48632141
0.64316462 0.69880387 0.48968209
0.70042874 0.70349425 0.49968587
0.78337569 0.71674983 0.52529083
0.87988456 0.74919329 0.57766566
0.91886608 0.81173329 0.65983634
0.70893523 0.80473435 0.58708943
0.70904260 0.80473856 0.58709963
0.70986300 0.80477091 0.58717791
0.71327736 0.80490849 0.58751039
0.72429368 0.80538651 0.58866044
0.75276422 0.80690074 0.59225189
0.80841029 0.81145775 0.60262574
0.88924830 0.82443069 0.62930163
0.91886608 0.85714392 0.68498114
0.81594427 0.90987032 0.69292265
0.81597810 0.90987161 0.69292598
0.81623743 0.90988156 0.69295153
0.81733319 0.90992390 0.69306021
0.82105315 0.91007134 0.69343810
0.83203269 0.91054184 0.69463821
0.85953537 0.91198969 0.69827744
0.91343088 0.91638037 0.70885751
0.91886608 0.91886608 0.73686588
0.91886608 0.91886608 0.80222319
0.91886608 0.91886608 0.80222421
0.91886608 0.91886608 0.80223210
0.91886608 0.91886608 0.80226568
0.91886608 0.91886608 0.80238263
0.91886608 0.91886608 0.80275617
0.91886608 0.91886608 0.80390880
0.91886608 0.91886608 0.80743294
0.91886608 0.91886608 0.81806510
0.11152556 0.08925753 0.21525948
0.20149481 0.12602339 0.21615216
0.32151143 0.19724471 0.22261583
0.43796083 0.27960508 0.24462554
0.55094815 0.36921942 0.29092269
0.66117380 0.46469822 0.35958023
0.76914993 0.56526565 0.44412044
0.87523896 0.67039840 0.54024704
0.91886608 0.77970858 0.64591894
0.17618577 0.21716679 0.21991063
0.22074029 0.22074029 0.22074029
0.32548122 0.24310102 0.22677598
0.43898419 0.29705144 0.24763832
0.55124851 0.37533435 0.29252194
0.66126734 0.46680914 0.36025859
0.76917949 0.56598420 0.44437687
0.87524813 0.67063514 0.54033714
0.91886608 0.77978220 0.64594833
0.28027275 0.34768456 0.24756355
0.29250134 0.34829976 0.24811089
0.35079167 0.35287633 0.25217485
0.44647484 0.36994869 0.26723935
0.55352332 0.41169969 0.30379439
0.66198253 0.48156809 0.36529149
0.76940618 0.57132609 0.44632186
0.87531851 0.67243343 0.54102612
0.91886608 0.78034556 0.64617370
0.38729077 0.46942412 0.30876420
0.39071919 0.46957634 0.30900224
0.41330593 0.47073677 0.31080614
0.47281843 0.47551764 0.31805084
0.56263391 0.49046499 0.33912508
0.66496791 0.52656451 0.38387759
0.77036504 0.59118546 0.45416061
0.87561750 0.67972708 0.54390359
0.91886608 0.78270598 0.64712711
0.49458734 0.58527004 0.39217570
0.49563220 0.58531386 0.39226199
0.50328353 0.58564967 0.39292170
0.53021983 0.58706595 0.39567494
0.58888028 0.59184361 0.40464129
0.67469454 0.60569589 0.42839230
0.77363216 0.63911942 0.47715206
0.87665200 0.70148146 0.55329554
0.91886608 0.79049165 0.65037773
0.60182248 0.69673663 0.48671919
0.60215588 0.69675010 0.48674909
0.60467748 0.69685347 0.48697837
0.61471742 0.69729222 0.48794807
0.64317952 0.69880603 0.49125079
0.70043686 0.70349631 0.50109432
0.78337902 0.71675162 0.52636138
0.87988570 0.74919456 0.57827948
0.91886608 0.81173393 0.66009416
0.70894265 0.80473504 0.58764505
0.70905001 0.80473926 0.58765519
0.70987034 0.80477161 0.58773300
0.71328444 0.80490918 0.58806354
0.72429998 0.80538720 0.58920690
0.75276886 0.80690142 0.59277801
0.80841282 0.81145839 0.60309728
0.88924933 0.82443125 0.62965749
0.91886608 0.85714430 0.68517873
0.81594661 0.90987053 0.69310429
0.81598043 0.90987183 0.69310761
0.81623976 0.90988177 0.69313311
0.81733549 0.90992411 0.69324158
0.82105536 0.91007156 0.69361875
0.83203465 0.91054206 0.69481658
0.85953681 0.91198990 0.69844905
0.91343166 0.91638057 0.70901087
0.91886608 0.91886608 0.73697963
0.91886608 0.91886608 0.80227930
0.91886608 0.91886608 0.80228033
0.91886608 0.91886608 0.80228822
0.91886608 0.91886608 0.80232177
0.91886608 0.91886608 0.80243865
0.91886608 0.91886608 0.80281197
0.91886608 0.91886608 0.80396389
0.91886608 0.91886608 0.80748595
0.91886608 0.91886608 0.81811227
0.17653973 0.13145874 0.34570207
0.22090621 0.14734555 0.34585201
0.32552007 0.20335967 0.34699426
0.43899439 0.28144697 0.35168648
0.55125152 0.36981902 0.36623370
0.66126828 0.46490063 0.40085878
0.76917979 0.56533406 0.46223351
0.87524823 0.67042089 0.54703801
0.91886608 0.77971557 0.64818819
0.20381755 0.22164652 0.34650394
0.23561390 0.22498364 0.34665242
0.32929958 0.24615414 0.34778365
0.44000604 0.29851500 0.35243231
0.55155090 0.37589221 0.36686035
0.66136173 0.46700690 0.40127702
0.76920934 0.56605209 0.46244331
0.87525739 0.67065757 0.54712181
0.91886608 0.77978918 0.64821689
0.28700332 0.34846059 0.35241348
0.29825834 0.34907003 0.35255168
0.35360517 0.35360517 0.35360517
0.44741515 0.37054314 0.35794562
0.55381848 0.41206592 0.37152255
0.66207620 0.48173633 0.40442316
0.76943596 0.57139024 0.46403833
0.87532777 0.67245544 0.54776278
0.91886608 0.78035250 0.64843692
0.38912521 0.46961628 0.37371500
0.39248260 0.46976818 0.37382212
0.41466887 0.47092618 0.37464014
0.47352216 0.47569738 0.37803665
0.56290182 0.49061769 0.38891858
0.66505867 0.52666792 0.41667561
0.77039451 0.59123743 0.47053119
0.87562672 0.67974745 0.55044335
0.91886608 0.78271275 0.64936789
0.49514270 0.58532537 0.42245078
0.49618131 0.58536916 0.42251178
0.50378905 0.58570477 0.42297872
0.53059831 0.58712024 0.42493932
0.58908311 0.59189521 0.43145378
0.67477642 0.60574046 0.44959377
0.77366061 0.63915073 0.49011839
0.87666111 0.70149763 0.55923136
0.91886608 0.79049787 0.65254367
0.60199936 0.69675364 0.49848085
0.60233214 0.69676711 0.49850717
0.60484910 0.69687045 0.49870897
0.61487177 0.69730913 0.49956313
0.64329378 0.69882267 0.50248061
0.70049918 0.70351214 0.51124854
0.78340461 0.71676536 0.53419605
0.87989449 0.74920427 0.58286413
0.91886608 0.81173886 0.66205072
0.70899957 0.80474036 0.59180580
0.70910687 0.80474458 0.59181550
0.70992671 0.80477692 0.59188996
0.71333879 0.80491449 0.59220628
0.72434831 0.80539248 0.59330084
0.75280449 0.80690662 0.59672313
0.80843230 0.81146333 0.60664177
0.88925723 0.82443553 0.63234635
0.91886608 0.85714728 0.68668236
0.81596454 0.90987217 0.69448750
0.81599836 0.90987346 0.69449077
0.81625763 0.90988341 0.69451590
0.81735315 0.90992575 0.69462278
0.82107231 0.91007319 0.69499448
0.83204966 0.91054368 0.69617503
0.85954787 0.91199150 0.69975643
0.91343764 0.91638209 0.71018017
0.91886608 0.91886608 0.73784843
0.91886608 0.91886608 0.80270908
0.91886608 0.91886608 0.80271011
0.91886608 0.91886608 0.80271795
0.91886608 0.91886608 0.80275135
0.91886608 0.91886608 0.80286769
0.91886608 0.91886608 0.80323926
0.91886608 0.91886608 0.80438584
0.91886608 0.91886608 0.80789198
0.91886608 0.91886608 0.81847367
0.25186122 0.18576223 0.46718788
0.26927817 0.19167598 0.46722492
0.34064271 0.22415208 0.46750877
0.44326522 0.28881353 0.46870732
0.55253205 0.37232484 0.47276644
0.66166941 0.46575726 0.48466955
0.76930679 0.56562474 0.51413618
0.87528764 0.67051656 0.57145326
0.91886608 0.77974531 0.65728178
0.26153266 0.23785536 0.46738655
0.27696575 0.24047677 0.46742350
0.34378878 0.25782096 0.46770674
0.44422997 0.30444992 0.46890270
0.55282738 0.37822676 0.47295331
0.66176246 0.46784398 0.48483361
0.76933630 0.56634056 0.51425541
0.87529681 0.67075300 0.57151788
0.91886608 0.77981890 0.65730784
0.31039127 0.35168456 0.46889775
0.31885268 0.35227068 0.46893409
0.36461674 0.35663791 0.46921267
0.45131147 0.37302785 0.47038911
0.55506467 0.41360804 0.47437556
0.66247393 0.48244907 0.48608375
0.76956261 0.57166282 0.51516587
0.87536715 0.67254907 0.57201262
0.91886608 0.78038204 0.65750773
0.39652406 0.47042979 0.47506407
0.39961038 0.47058034 0.47509804
0.42024529 0.47172812 0.47535842
0.47645860 0.47645860 0.47645860
0.56403383 0.49126489 0.48019367
0.66544406 0.52710685 0.49122283
0.77051985 0.59145833 0.51894475
0.87566597 0.67983412 0.57409012
0.91886608 0.78274154 0.65835393
0.49747006 0.58556053 0.49379548
0.49848291 0.58560422 0.49382317
0.50591065 0.58593899 0.49403548
0.53219253 0.58735098 0.49493387
0.58994172 0.59211458 0.49799906
0.67512420 0.60592995 0.50718159
0.77378161 0.63928387 0.53103394
0.87669990 0.70156644 0.58099423
0.91886608 0.79052432 0.66124612
0.60274866 0.69682601 0.53649901
0.60307881 0.69683946 0.53651648
0.60557623 0.69694273 0.53665055
0.61552601 0.69738107 0.53721911
0.64377868 0.69889346 0.53917466
0.70076400 0.70357949 0.54517552
0.78351349 0.71682385 0.56171316
0.87993189 0.74924561 0.60021627
0.91886608 0.81175983 0.66995416
0.70924153 0.80476301 0.60771504
0.70934855 0.80476722 0.60772324
0.71016629 0.80479956 0.60778616
0.71356983 0.80493710 0.60805357
0.72455378 0.80541497 0.60897994
0.75295600 0.80692873 0.61188698
0.80851518 0.81148437 0.62039983
0.88929085 0.82445377 0.64300766
0.91886608 0.85715996 0.69282766
0.81604084 0.90987913 0.70015841
0.81607463 0.90988043 0.70016149
0.81633369 0.90989037 0.70018515
0.81742829 0.90993271 0.70028579
0.82114444 0.91008014 0.70063582
0.83211356 0.91055059 0.70174808
0.85959491 0.91199829 0.70512711
0.91346312 0.91638855 0.71500108
0.91886608 0.91886608 0.74145899
0.91886608 0.91886608 0.80451637
0.91886608 0.91886608 0.80451737
0.91886608 0.91886608 0.80452506
0.91886608 0.91886608 0.80455781
0.91886608 0.91886608 0.80467187
0.91886608 0.91886608 0.80503619
0.91886608 0.91886608 0.80616058
0.91886608 0.91886608 0.80960046
0.91886608 0.91886608 0.81999621
0.33552484 0.25100978 0.58287340
0.34178648 0.25317899 0.58288407
0.37853959 0.26792090 0.58296592
0.45674153 0.31001594 0.58331355
0.55686439 0.38052226 0.58451558
0.66305469 0.46868204 0.58826513
0.76974820 0.56663114 0.59906163
0.87542492 0.67084932 0.62662609
0.91886608 0.77984892 0.68350608
0.33887133 0.27553347 0.58293065
0.34488955 0.27707837 0.58294131
0.38054968 0.28797262 0.58302311
0.45757271 0.32218058 0.58337054
0.55714642 0.38589849 0.58457184
0.66314639 0.47070343 0.58831920
0.76977757 0.56733937 0.59910986
0.87543407 0.67108493 0.62666213
0.91886608 0.77992243 0.68352583
0.36082226 0.36203267 0.58336909
0.36547385 0.36255030 0.58337970
0.39458618 0.36642172 0.58346112
0.46371273 0.38116074 0.58380694
0.55928424 0.41878180 0.58500274
0.66384755 0.48489138 0.58873335
0.77000281 0.57260700 0.59947938
0.87550431 0.67287476 0.62693838
0.91886608 0.78048494 0.68367729
0.41828033 0.47321036 0.58521304
0.42069542 0.47335638 0.58522345
0.43732430 0.47446993 0.58530329
0.48601549 0.47906385 0.58564244
0.56787703 0.49348624 0.58681534
0.66677547 0.52862113 0.59047633
0.77095553 0.59222443 0.60103643
0.87580266 0.68013566 0.62810543
0.91886608 0.78284183 0.68431936
0.50515326 0.58637582 0.59137355
0.50608565 0.58641913 0.59138330
0.51294839 0.58675103 0.59145810
0.53754663 0.58815100 0.59177587
0.59287539 0.59287539 0.59287539
0.67632672 0.60658762 0.59631286
0.77420221 0.63974659 0.60627246
0.87683501 0.70180593 0.63206505
0.91886608 0.79061648 0.68652418
0.60531538 0.69707786 0.60876782
0.60563670 0.69709128 0.60877593
0.60806829 0.69719427 0.60883815
0.61777211 0.69763144 0.60910260
0.64544998 0.69913985 0.61001880
0.70168145 0.70381392 0.61289456
0.78389206 0.71702748 0.62132111
0.88006214 0.74938958 0.64373386
0.91886608 0.81183291 0.69325682
0.71008020 0.80484191 0.64853602
0.71018627 0.80484612 0.64854134
0.71099678 0.80487843 0.64858222
0.71437088 0.80501585 0.64875603
0.72526658 0.80549331 0.64935950
0.75348227 0.80700579 0.65126658
0.80880351 0.81155767 0.65696585
0.88940797 0.82451733 0.67289472
0.91886608 0.85720415 0.71157063
0.81630634 0.90990341 0.71761763
0.81634004 0.90990470 0.71762019
0.81659834 0.90991465 0.71763984
0.81768978 0.90995697 0.71772342
0.82139546 0.91010435 0.71801423
0.83233597 0.91057468 0.71893951
0.85975870 0.91202198 0.72176150
0.91355187 0.91641106 0.73009943
0.91886608 0.91886608 0.75305346
0.91886608 0.91886608 0.81055121
0.91886608 0.91886608 0.81055215
0.91886608 0.91886608 0.81055935
0.91886608 0.91886608 0.81059000
0.91886608 0.91886608 0.81069677
0.91886608 0.91886608 0.81103785
0.91886608 0.91886608 0.81209107
0.91886608 0.91886608 0.81531805
0.91886608 0.91886608 0.82511293
0.42642282 0.32657772 0.69427377
0.42862794 0.32737520 0.69427705
0.44395319 0.33324766 0.69430223
0.48994875 0.35435986 0.69440936
0.56953003 0.40247938 0.69478190
0.66735912 0.47746232 0.69596511
0.77114780 0.56978355 0.69955435
0.87586313 0.67190717 0.70999932
0.91886608 0.78017994 0.73771388
0.42758698 0.33659139 0.69429138
0.42976369 0.33729588 0.69429466
0.44491061 0.34251075 0.69431984
0.49052696 0.36161179 0.69442695
0.56977655 0.40667573 0.69479941
0.66744674 0.47929999 0.69598240
0.77117674 0.57046853 0.69957100
0.87587223 0.67214016 0.71001422
0.91886608 0.78025319 0.73772496
0.43605124 0.38854869 0.69442650
0.43803257 0.38892747 0.69442978
0.45194070 0.39178162 0.69445492
0.49484966 0.40297448 0.69456188
0.57164832 0.43356447 0.69493381
0.66811681 0.49230208 0.69611512
0.77139859 0.57556853 0.69969876
0.87594212 0.67391028 0.71012856
0.91886608 0.78081369 0.73781002
0.46515017 0.48158440 0.69499956
0.46658863 0.48171765 0.69500281
0.47693586 0.48273435 0.69502780
0.51127349 0.48694045 0.69513411
0.57922461 0.50025960 0.69550379
0.67091725 0.53331142 0.69667802
0.77233711 0.59463684 0.70024068
0.87623901 0.68109488 0.71061371
0.91886608 0.78316230 0.73817125
0.52618584 0.58894036 0.69697053
0.52692994 0.58898251 0.69697371
0.53245391 0.58930553 0.69699819
0.55288259 0.59066838 0.69710229
0.60170052 0.59527144 0.69746434
0.68007778 0.60866353 0.69861451
0.77553643 0.64121339 0.70210592
0.87726629 0.70256882 0.71228574
0.91886608 0.79091102 0.73941975
0.61309556 0.69787990 0.70301831
0.61339154 0.69789321 0.70302130
0.61563392 0.69799533 0.70304425
0.62462606 0.69842881 0.70314188
0.65061182 0.69992459 0.70348145
0.70456076 0.70456076 0.70456076
0.78509405 0.71767661 0.70784189
0.88047797 0.74984915 0.71744835
0.91886608 0.81206656 0.74330919
0.71271672 0.80509414 0.71967572
0.71281986 0.80509834 0.71967823
0.71360804 0.80513056 0.71969745
0.71689114 0.80526760 0.71977921
0.72751348 0.80574375 0.72006372
0.75514788 0.80725212 0.72096910
0.80972081 0.81179202 0.72373150
0.88978197 0.82472056 0.73190311
0.91886608 0.85734551 0.75446648
0.81715143 0.90998110 0.75833160
0.81718482 0.90998239 0.75833326
0.81744073 0.90999233 0.75834596
0.81852217 0.91003462 0.75840000
0.82219471 0.91018187 0.75858817
0.83304458 0.91065177 0.75918823
0.86028124 0.91209780 0.76103088
0.91383548 0.91648313 0.76658442
0.91886608 0.91886608 0.78268179
0.91886608 0.91886608 0.82755813
0.91886608 0.91886608 0.82755891
0.91886608 0.91886608 0.82756488
0.91886608 0.91886608 0.82759029
0.91886608 0.91886608 0.82767885
0.91886608 0.91886608 0.82796186
0.91886608 0.91886608 0.82883683
0.91886608 0.91886608 0.83152789
0.91886608 0.91886608 0.83978725
0.52382035 0.41207639 0.80228390
0.52458351 0.41236531 0.80228493
0.53024412 0.41455270 0.80229281
0.55111047 0.42329952 0.80232636
0.60064915 0.44842020 0.80244324
0.67962032 0.50038754 0.80281654
0.77537191 0.57896714 0.80396840
0.87721289 0.67512488 0.80749030
0.91886608 0.78120241 0.81811614
0.52422166 0.41584554 0.80228941
0.52498156 0.41612233 0.80229044
0.53061875 0.41821919 0.80229832
0.55141030 0.42662620 0.80233187
0.60082646 0.45094196 0.80244874
0.67969727 0.50182250 0.80282202
0.77539955 0.57958870 0.80397382
0.87722186 0.67535007 0.80749550
0.91886608 0.78127485 0.81812077
0.52724692 0.44041962 0.80233173
0.52798263 0.44062948 0.80233276
0.53344637 0.44222479 0.80234064
0.55368124 0.44871508 0.80237418
0.60217701 0.46826442 0.80249099
0.68028605 0.51215625 0.80286409
0.77561150 0.58422962 0.80401537
0.87729068 0.67706154 0.80753548
0.91886608 0.78182919 0.81815635
0.53912853 0.50361535 0.80251167
0.53977661 0.50372023 0.80251270
0.54460877 0.50452160 0.80252056
0.56277724 0.50785739 0.80255403
0.60771959 0.51862871 0.80267062
0.68275212 0.54655957 0.80304299
0.77650839 0.60177169 0.80419203
0.87758308 0.68401864 0.80770547
0.91886608 0.78415237 0.81830764
0.57166369 0.59650149 0.80313624
0.57212236 0.59654040 0.80313725
0.57557184 0.59683861 0.80314506
0.58898878 0.59809766 0.80317831
0.62483930 0.60236027 0.80329410
0.69087762 0.61484581 0.80366394
0.77956869 0.64563711 0.80480525
0.87859494 0.70490376 0.80829562
0.91886608 0.79182147 0.81883311
0.63387542 0.70033265 0.80510814
0.63411311 0.70034561 0.80510914
0.63591856 0.70044511 0.80511678
0.64324063 0.70086747 0.80514931
0.66507734 0.70232526 0.80526264
0.71299397 0.70684732 0.80562462
0.78873668 0.71966815 0.80674183
0.88175946 0.75126478 0.81016028
0.91886608 0.81278974 0.82049575
0.72047628 0.80587453 0.81098477
0.72057123 0.80587869 0.81098571
0.72129713 0.80591064 0.81099287
0.72432582 0.80604651 0.81102338
0.73417831 0.80651863 0.81112964
0.76014729 0.80801435 0.81146912
0.81251739 0.81251739 0.81251739
0.89093561 0.82535005 0.81572955
0.91886608 0.85778394 0.82548243
0.81973180 0.91022241 0.82728564
0.81976425 0.91022370 0.82728642
0.82001301 0.91023361 0.82729241
0.82106442 0.91027577 0.82731790
0.82463747 0.91042262 0.82740672
0.83521451 0.91089122 0.82769058
0.86188781 0.91233329 0.82856817
0.91471205 0.91670699 0.83126712
0.91886608 0.91886608 0.83954933
0.91886608 0.91886608 0.86618946
0.91886608 0.91886608 0.86618997
0.91886608 0.91886608 0.86619385
0.91886608 0.91886608 0.86621037
0.91886608 0.91886608 0.86626795
0.91886608 0.91886608 0.86645210
0.91886608 0.91886608 0.86702267
0.91886608 0.91886608 0.86878906
0.91886608 0.91886608 0.87431819
0.62718483 0.50724288 0.90749507
0.62743990 0.50734372 0.90749539
0.62937596 0.50811444 0.90749781
0.63720119 0.51132540 0.90750814
0.66031522 0.52172288 0.90754413
0.71015892 0.54886334 0.90765928
0.78749171 0.60306036 0.90801660
0.88131786 0.68456064 0.90912802
0.91886608 0.78433811 0.91265764
0.62731879 0.50857599 0.90749677
0.62757350 0.50867540 0.90749709
0.62950685 0.50943515 0.90749951
0.63732170 0.51260143 0.90750984
0.66040961 0.52286457 0.90754582
0.71021456 0.54971842 0.90766097
0.78751594 0.60354226 0.90801828
0.88132642 0.68476442 0.90912969
0.91886608 0.78440813 0.91265924
0.62834113 0.51821965 0.90750979
0.62859311 0.51830924 0.90751011
0.63050595 0.51899432 0.90751253
0.63824197 0.52185545 0.90752286
0.66113129 0.53119379 0.90755884
0.71064069 0.55603672 0.90767397
0.78770181 0.60716295 0.90803123
0.88139212 0.68631466 0.90914247
0.91886608 0.78494398 0.91267151
0.63257369 0.55079446 0.90756521
0.63281466 0.55085767 0.90756553
0.63464482 0.55134163 0.90756795
0.64206235 0.55337431 0.90757827
0.66414326 0.56013507 0.90761423
0.71243337 0.57900033 0.90772929
0.78848886 0.62119072 0.90808632
0.88167126 0.69264272 0.90919686
0.91886608 0.78719080 0.91272373
0.64600419 0.61692157 0.90775815
0.64621331 0.61695292 0.90775846
0.64780379 0.61719329 0.90776088
0.65429022 0.61820974 0.90777117
0.67395091 0.62167031 0.90780705
0.71842815 0.63197078 0.90792185
0.79118116 0.65830671 0.90827810
0.88263753 0.71187310 0.90938620
0.91886608 0.79462028 0.91290552
0.67942918 0.70763620 0.90837314
0.67957604 0.70764820 0.90837345
0.68069615 0.70774026 0.90837586
0.68532096 0.70813114 0.90838608
0.69987150 0.70948130 0.90842170
0.73539201 0.71367899 0.90853569
0.79930735 0.72565422 0.90888943
0.88566252 0.75557064 0.90998980
0.91886608 0.81502177 0.91348516
0.74133083 0.80828016 0.91025929
0.74140681 0.80828421 0.91025960
0.74198814 0.80831533 0.91026195
0.74442305 0.80844767 0.91027195
0.75244610 0.80890756 0.91030681
0.77428030 0.81036494 0.91041835
0.82077084 0.81475601 0.91076450
0.89445897 0.82729677 0.91184146
0.91886608 0.85914544 0.91526427
0.82738063 0.91097504 0.91592274
0.82741045 0.91097632 0.91592303
0.82763911 0.91098614 0.91592523
0.82860613 0.91102794 0.91593460
0.83189875 0.91117352 0.91596725
0.84170107 0.91163809 0.91607173
0.86674718 0.91306787 0.91639602
0.91740546 0.91740546 0.91740546
0.91886608 0.91886608 0.91886608
0.91886608 0.91886608 0.91886608
0.91886608 0.91886608 0.91886608
0.91886608 0.91886608 0.91886608
0.91886608 0.91886608 0.91886608
0.91886608 0.91886608 0.91886608
0.91886608 0.91886608 0.91886608
0.91886608 0.91886608 0.91886608
0.91886608 0.91886608 0.91886608
0.91886608 0.91886608 0.91886608
0.73610780 0.61189171 0.91886608
0.73618815 0.61192477 0.91886608
0.73680280 0.61217825 0.91886608
0.73937501 0.61324974 0.91886608
0.74782517 0.61689308 0.91886608
0.77064796 0.62769769 0.91886608
0.81860094 0.65508998 0.91886608
0.89351538 0.71006422 0.91886608
0.91886608 0.79388209 0.91886608
0.73614998 0.61233073 0.91886608
0.73623029 0.61236364 0.91886608
0.73684467 0.61261594 0.91886608
0.73941573 0.61368252 0.91886608
0.74786237 0.61730953 0.91886608
0.77067705 0.62806929 0.91886608
0.81861818 0.65536829 0.91886608
0.89352283 0.71021966 0.91886608
0.91886608 0.79394520 0.91886608
0.73647321 0.61563558 0.91886608
0.73655324 0.61566736 0.91886608
0.73716550 0.61591101 0.91886608
0.73972787 0.61694127 0.91886608
0.74814750 0.62044770 0.91886608
0.77090011 0.63087503 0.91886608
0.81875049 0.65747843 0.91886608
0.89358001 0.71140477 0.91886608
0.91886608 0.79442837 0.91886608
0.73783679 0.62853965 0.91886608
0.73791567 0.62856738 0.91886608
0.73851909 0.62878001 0.91886608
0.74104505 0.62967984 0.91886608
0.74935162 0.63275162 0.91886608
0.77184367 0.64196719 0.91886608
0.81931155 0.66596871 0.91886608
0.89382303 0.71628875 0.91886608
0.91886608 0.79645717 0.91886608
0.74244058 0.66333237 0.91886608
0.74251566 0.66335156 0.91886608
0.74309014 0.66349881 0.91886608
0.74549680 0.66412307 0.91886608
0.75343164 0.66626770 0.91886608
0.77505983 0.67282546 0.91886608
0.82124086 0.69072691 0.91886608
0.89466499 0.73156425 0.91886608
0.91886608 0.80319811 0.91886608
0.75581770 0.72814505 0.91886608
0.75588273 0.72815469 0.91886608
0.75638055 0.72822867 0.91886608
0.75847038 0.72854296 0.91886608
0.76540858 0.72963046 0.91886608
0.78466449 0.73303043 0.91886608
0.82715702 0.74288113 0.91886608
0.89730808 0.76837141 0.91886608
0.91886608 0.82194396 0.91886608
0.78820063 0.81571357 0.91886608
0.78824644 0.81571731 0.91886608
0.78859746 0.81574599 0.91886608
0.79007694 0.81586797 0.91886608
0.79505598 0.81629197 0.91886608
0.80939268 0.81763665 0.91886608
0.84342055 0.82169772 0.91886608
0.90505450 0.83337081 0.91886608
0.91886608 0.86344755 0.91886608
0.84860382 0.91338570 0.91886608
0.84862738 0.91338695 0.91886608
0.84880811 0.91339650 0.91886608
0.84957340 0.91343715 0.91886608
0.85219139 0.91357874 0.91886608
0.86009407 0.91403061 0.91886608
0.88096852 0.91542169 0.91886608
0.91886608 0.91886608 0.91886608
0.91886608 0.91886608 0.91886608
0.91886608 0.91886608 0.91886608
0.91886608 0.91886608 0.91886608
0.91886608 0.91886608 0.91886608
0.91886608 0.91886608 0.91886608
0.91886608 0.91886608 0.91886608
0.91886608 0.91886608 0.91886608
0.91886608 0.91886608 0.91886608
0.91886608 0.91886608 0.91886608
0.91886608 0.91886608 0.91886608
