src/ffmpeg_scripts/luts/sRGB-rec2020_1p33.cube
TITLE "sRGB-rec2020_1p33"
LUT_3D_SIZE 5
# PQ (EOTF Only)/sRGB -> PQ (EOTF Only)/Rec2020, CineEI Shift 1.33, Black Level 0.00% IRE, Input 100% -> Output 109% - Created with LUTCalc v4.01 by Ben Turley October 2020
0.06256172 0.06256172 0.06256172
0.30557732 0.18629576 0.13527233
0.53045276 0.35226130 0.25872689
0.74757513 0.54463271 0.42281815
0.91886608 0.75815388 0.62431474
0.26546173 0.33133437 0.19689097
0.33408359 0.33637550 0.20473495
0.53299770 0.39367010 0.27422546
0.74783174 0.55062707 0.42503735
0.91886608 0.75879209 0.62456881
0.47486893 0.56442862 0.36995088
0.48343060 0.56480456 0.37071936
0.56798484 0.57093967 0.38274867
0.75206409 0.61785002 0.45600667
0.91886608 0.76896063 0.62876186
0.68738360 0.78324462 0.56623742
0.68830952 0.78328130 0.56632504
0.70271782 0.78389889 0.56779329
0.78693271 0.78999078 0.58163150
0.91886608 0.83589208 0.66349462
0.90207758 0.91886608 0.78072556
0.90216618 0.91886608 0.78073450
0.90364983 0.91886608 0.78088549
0.91753014 0.91886608 0.78241644
0.91886608 0.91886608 0.79662276
0.16753270 0.12531164 0.32951100
0.30997178 0.19289129 0.33076363
0.53079150 0.35292028 0.34943615
0.74760893 0.54470917 0.44316494
0.91886608 0.75816179 0.62686878
0.27282083 0.33218531 0.33601903
0.33717514 0.33717514 0.33717514
0.53332735 0.39407428 0.35457621
0.74786544 0.55069879 0.44493519
0.91886608 0.75879995 0.62711609
0.47548648 0.56449055 0.40421733
0.48399311 0.56486623 0.40473325
0.56821193 0.57099745 0.41301885
0.75209629 0.61788518 0.47054612
0.91886608 0.76896767 0.63120012
0.68744781 0.78325066 0.57090888
0.68837310 0.78328733 0.57099225
0.70277239 0.78390488 0.57238999
0.78695481 0.78999639 0.58561340
0.91886608 0.83589547 0.66519010
0.90208369 0.91886608 0.78121296
0.90217229 0.91886608 0.78122186
0.90365584 0.91886608 0.78137205
0.91753526 0.91886608 0.78289500
0.91886608 0.91886608 0.79703292
0.31965196 0.23828727 0.56206283
0.36140038 0.25448875 0.56215442
0.53633695 0.36332949 0.56368872
0.74817811 0.54599177 0.57809857
0.91886608 0.75829539 0.66202469
0.34418006 0.34535546 0.56255358
0.37702501 0.34961883 0.56264470
0.53872843 0.40063262 0.56417108
0.74843307 0.55190249 0.57851262
0.91886608 0.75893264 0.66219529
0.48533582 0.56553074 0.57048068
0.49301088 0.56590230 0.57056443
0.57196849 0.57196849 0.57196849
0.75263875 0.61847733 0.58524718
0.91886608 0.76908658 0.66503245
0.68852629 0.78335253 0.62721463
0.68944111 0.78338917 0.62726057
0.70368964 0.78400604 0.62803347
0.78732728 0.79009106 0.63559902
0.91886608 0.83595266 0.69001388
0.90218703 0.91886608 0.78908104
0.90227552 0.91886608 0.78908920
0.90375733 0.91886608 0.78922711
0.91762174 0.91886608 0.79062636
0.91886608 0.91886608 0.80369930
0.50372326 0.39408450 0.78078646
0.51005700 0.39650223 0.78079540
0.57967209 0.42962564 0.78094629
0.75381037 0.55819606 0.78247623
0.91886608 0.75965152 0.79667399
0.50710142 0.42179141 0.78083444
0.51321553 0.42355855 0.78084337
0.58118664 0.44908139 0.78099419
0.75405037 0.56340559 0.78252334
0.91886608 0.76027955 0.79671436
0.55096930 0.57556136 0.78164144
0.55483595 0.57589543 0.78165030
0.60366971 0.58136831 0.78179980
0.75801463 0.62433238 0.78331575
0.91886608 0.77029459 0.79739377
0.69890518 0.78438850 0.78951613
0.69972493 0.78442473 0.78952426
0.71259395 0.78503472 0.78966151
0.79105422 0.79105422 0.79105422
0.91886608 0.83653585 0.80407037
0.90323742 0.91886608 0.84499245
0.90332485 0.91886608 0.84499687
0.90478905 0.91886608 0.84507144
0.91850161 0.91886608 0.84583091
0.91886608 0.91886608 0.85317383
0.71452243 0.59082036 0.91886608
0.71521711 0.59110460 0.91886608
0.72623807 0.59578248 0.91886608
0.79716069 0.63373288 0.91886608
0.91886608 0.77236056 0.91886608
0.71488766 0.59453470 0.91886608
0.71557966 0.59480799 0.91886608
0.72656046 0.59931019 0.91886608
0.79731082 0.63610897 0.91886608
0.91886608 0.77290829 0.91886608
0.72085333 0.64193413 0.91886608
0.72150281 0.64209978 0.91886608
0.73184639 0.64485582 0.91886608
0.79981114 0.66922169 0.91886608
0.91886608 0.78170351 0.91886608
0.76666490 0.79426221 0.91886608
0.76706267 0.79429475 0.91886608
0.77353759 0.79484279 0.91886608
0.82209316 0.80026986 0.91886608
0.91886608 0.84223351 0.91886608
0.91320686 0.91886608 0.91886608
0.91328480 0.91886608 0.91886608
0.91459133 0.91886608 0.91886608
0.91886608 0.91886608 0.91886608
0.91886608 0.91886608 0.91886608
