src/ffmpeg_scripts/luts/sRGB-rec2020_2p33.cube
TITLE "sRGB-rec2020_2p33"
LUT_3D_SIZE 5
# PQ (EOTF Only)/sRGB -> PQ (EOTF Only)/Rec2020, CineEI Shift 2.33, Black Level 0.00% IRE, Input 100% -> Output 109% - Created with LUTCalc v4.01 by Ben Turley October 2020
0.06256172 0.06256172 0.06256172
0.35331171 0.21827532 0.15737399
0.59250577 0.40429662 0.30120920
0.81214032 0.60713158 0.47989883
0.91886608 0.82263242 0.68853303
0.30876389 0.38154637 0.23062647
0.38454450 0.38704171 0.23971636
0.59513403 0.44885956 0.31856033
0.81239503 0.61330110 0.48225163
0.91886608 0.82326486 0.68879057
0.53472330 0.62747651 0.42340435
0.54367257 0.62786206 0.42423199
0.63112251 0.63414992 0.43716163
0.81659461 0.68197587 0.51494055
0.91886608 0.83333301 0.69303915
0.75210292 0.84744974 0.62933130
0.75303099 0.84748595 0.62942113
0.76745411 0.84809562 0.63092619
0.85108973 0.85410639 0.64508930
0.91886608 0.89922502 0.72810754
0.91886608 0.91886608 0.84496238
0.91886608 0.91886608 0.84497121
0.91886608 0.91886608 0.84512033
0.91886608 0.91886608 0.84663208
0.91886608 0.91886608 0.86064389
0.19617678 0.14513944 0.37955631
0.35814807 0.22597406 0.38092360
0.59285569 0.40501040 0.40123475
0.81217386 0.60721032 0.50141803
0.91886608 0.82264027 0.69112141
0.31699272 0.38247467 0.38665344
0.38791250 0.38791250 0.38791250
0.59547437 0.44929175 0.40680336
0.81242848 0.61337487 0.50328480
0.91886608 0.82327265 0.69137198
0.53536943 0.62754002 0.46012094
0.54425990 0.62792531 0.46067091
0.63135524 0.63420911 0.46949229
0.81662656 0.68201156 0.53019771
0.91886608 0.83333998 0.69550819
0.75216729 0.84745570 0.63411839
0.75309472 0.84749191 0.63420378
0.76750867 0.84810153 0.63563521
0.85111152 0.85411192 0.64915741
0.91886608 0.89922834 0.72981384
0.91886608 0.91886608 0.84544372
0.91886608 0.91886608 0.84545250
0.91886608 0.91886608 0.84560083
0.91886608 0.91886608 0.84710457
0.91886608 0.91886608 0.86104800
0.36877340 0.27813349 0.62504951
0.41418199 0.29644307 0.62514349
0.59858041 0.41626488 0.62671759
0.81273882 0.60853105 0.64147717
0.91886608 0.82277267 0.72662780
0.39553053 0.39680701 0.62555306
0.43101557 0.40143282 0.62564654
0.60104708 0.45629739 0.62721236
0.81299187 0.61461278 0.64190064
0.91886608 0.82340413 0.72679956
0.54566153 0.62860673 0.63367978
0.55366484 0.62898771 0.63376557
0.63520360 0.63520360 0.63520360
0.81716462 0.68261250 0.64878340
0.91886608 0.83345762 0.72965520
0.75324825 0.84755627 0.69147181
0.75416501 0.84759244 0.69151836
0.76842568 0.84820139 0.69230136
0.85147903 0.85420529 0.69995981
0.91886608 0.89928438 0.75473893
0.91886608 0.91886608 0.85320911
0.91886608 0.91886608 0.85321716
0.91886608 0.91886608 0.85335319
0.91886608 0.91886608 0.85473320
0.91886608 0.91886608 0.86761259
0.56481133 0.44930268 0.84502252
0.57138879 0.45188686 0.84503135
0.64308629 0.48711166 0.84518037
0.81832658 0.62108015 0.84669112
0.91886608 0.82411641 0.86069437
0.56832066 0.47880979 0.84506991
0.57466531 0.48068396 0.84507873
0.64463461 0.50765370 0.84522767
0.81856457 0.62642715 0.84673763
0.91886608 0.82473862 0.86073414
0.61365309 0.63888151 0.84586684
0.61762831 0.63922336 0.84587559
0.66756474 0.64482030 0.84602321
0.82249443 0.68855091 0.84751996
0.91886608 0.83465265 0.86140350
0.76364093 0.84857891 0.85363826
0.76446101 0.84861467 0.85364628
0.77732045 0.84921674 0.85378165
0.85515511 0.85515511 0.85515511
0.91886608 0.89985572 0.86797781
0.91886608 0.91886608 0.90813522
0.91886608 0.91886608 0.90813954
0.91886608 0.91886608 0.90821250
0.91886608 0.91886608 0.90895558
0.91886608 0.91886608 0.91613599
0.77924515 0.65447227 0.91886608
0.77993833 0.65476225 0.91886608
0.79092487 0.65953215 0.91886608
0.86117388 0.69807175 0.91886608
0.91886608 0.83669589 0.91886608
0.77960960 0.65826025 0.91886608
0.78030005 0.65853885 0.91886608
0.79124596 0.66312640 0.91886608
0.86132179 0.70047565 0.91886608
0.91886608 0.83723749 0.91886608
0.78555940 0.70636458 0.91886608
0.78620680 0.70653196 0.91886608
0.79650820 0.70931591 0.91886608
0.86378459 0.73386915 0.91886608
0.91886608 0.84592813 0.91886608
0.83106131 0.85831771 0.91886608
0.83145498 0.85834977 0.91886608
0.83785969 0.85888991 0.91886608
0.88569268 0.86423632 0.91886608
0.91886608 0.90543512 0.91886608
0.91886608 0.91886608 0.91886608
0.91886608 0.91886608 0.91886608
0.91886608 0.91886608 0.91886608
0.91886608 0.91886608 0.91886608
0.91886608 0.91886608 0.91886608
