src/ffmpeg_scripts/luts/sRGB-rec2020_-1p67.cube
TITLE "sRGB-rec2020_-1p67"
LUT_3D_SIZE 9
# PQ (EOTF Only)/sRGB -> PQ (EOTF Only)/Rec2020, CineEI Shift -1.67, Black Level 0.00% IRE, Input 100% -> Output 109% - Created with LUTCalc v4.01 by Ben Turley October 2020
0.06256172 0.06256172 0.06256172
0.11965138 0.08346093 0.07253357
0.19176523 0.11858347 0.09213806
0.27301695 0.16562434 0.12152309
0.36145319 0.22391840 0.16137003
0.45598786 0.29318497 0.21248305
0.55590760 0.37330747 0.27572249
0.66069937 0.46425592 0.35198413
0.76997221 0.56605180 0.44219119
0.10587390 0.12933909 0.08608472
0.13041180 0.13131176 0.08810332
0.19435738 0.14394817 0.09948558
0.27377708 0.17642329 0.12456285
0.36170002 0.22814235 0.16260598
0.45607136 0.29479368 0.21298185
0.55593590 0.37390480 0.27591903
0.66070870 0.46446859 0.35205816
0.76997512 0.56612274 0.44221722
0.16561682 0.20928549 0.12448878
0.17322115 0.20969821 0.12502947
0.21118782 0.21277839 0.12894347
0.27936445 0.22442057 0.14232396
0.36357149 0.25387436 0.17120607
0.45670997 0.30613110 0.21668436
0.55615297 0.37835622 0.27741083
0.66078032 0.46608521 0.35262441
0.76999744 0.56666568 0.44241683
0.23636256 0.29679100 0.17494799
0.23878095 0.29690742 0.17512661
0.25493922 0.29779546 0.17647853
0.29933885 0.30146437 0.18188215
0.37110127 0.31304074 0.19744912
0.45937912 0.34164728 0.23040099
0.55707143 0.39506995 0.28344338
0.66108460 0.47266245 0.35499242
0.77009241 0.56894255 0.44326162
0.31621943 0.39006447 0.23655593
0.31703807 0.39010147 0.23662006
0.32305607 0.39038502 0.23711039
0.34456476 0.39158171 0.23915842
0.39310013 0.39562826 0.24584785
0.46811364 0.40744460 0.26373197
0.56020494 0.43646248 0.30133019
0.66213779 0.49247317 0.36275638
0.77042272 0.57647544 0.44614604
0.40411344 0.48812772 0.30886076
0.40439858 0.48814004 0.30888438
0.40655751 0.48823456 0.30906551
0.41519394 0.48863584 0.30983186
0.44002594 0.49002126 0.31244609
0.49150983 0.49432255 0.32027529
0.56958998 0.50655028 0.34063359
0.66543374 0.53692105 0.38367004
0.77147269 0.59720515 0.45480566
0.49932883 0.59034662 0.39160754
0.49942780 0.59035074 0.39161616
0.50018425 0.59038237 0.39168233
0.50333685 0.59051693 0.39196346
0.51355628 0.59098451 0.39293643
0.54030191 0.59246656 0.39598044
0.59394532 0.59693461 0.40482011
0.67501010 0.60971901 0.42786906
0.77466545 0.64237849 0.47742292
0.60134511 0.69626987 0.48464678
0.60137841 0.69627121 0.48464981
0.60163370 0.69628153 0.48467312
0.60271282 0.69632541 0.48477224
0.60638136 0.69647826 0.48511698
0.61725483 0.69696607 0.48621236
0.64478953 0.69846794 0.48953934
0.69996403 0.70302942 0.49925719
0.78401923 0.71653544 0.52530758
0.70976210 0.80555662 0.58789265
0.70977266 0.80555703 0.58789365
0.70985374 0.80556021 0.58790136
0.71019813 0.80557375 0.58793414
0.71138895 0.80562095 0.58804836
0.71510398 0.80577192 0.58841320
0.72580316 0.80624008 0.58953947
0.75310949 0.80769327 0.59298776
0.80923201 0.81227900 0.60343399
0.07910868 0.07074559 0.12863175
0.12125783 0.08508030 0.12911733
0.19211293 0.11902493 0.13265951
0.27311739 0.16577253 0.14505695
0.36148570 0.22397232 0.17272769
0.45599884 0.29320506 0.21738137
0.55591132 0.37331488 0.27769817
0.66070060 0.46425855 0.35273435
0.76997259 0.56605268 0.44245569
0.10828111 0.12967032 0.13117145
0.13162697 0.13162697 0.13162697
0.19468986 0.14418189 0.13496340
0.27387647 0.17654380 0.14679324
0.36173244 0.22819286 0.17372013
0.45608233 0.29481334 0.21784270
0.55593963 0.37391215 0.27788948
0.66070993 0.46447121 0.35280771
0.76997550 0.56612362 0.44248164
0.16617950 0.20935354 0.14675004
0.17370733 0.20976581 0.14706643
0.21143898 0.21284271 0.14942510
0.27945655 0.22447407 0.15831218
0.36360319 0.25390885 0.18078208
0.45672087 0.30614806 0.22127733
0.55615668 0.37836320 0.27934217
0.66078155 0.46608779 0.35336887
0.76999782 0.56666656 0.44268067
0.23653236 0.29681016 0.18393222
0.23894472 0.29692654 0.18408366
0.25506860 0.29781436 0.18523295
0.29940945 0.30148239 0.18987782
0.37113025 0.31305626 0.20365071
0.45938971 0.34165813 0.23414001
0.55707511 0.39507569 0.28522525
0.66108582 0.47266485 0.35571596
0.77009279 0.56894340 0.44352299
0.31627622 0.39007056 0.23997240
0.31709427 0.39010755 0.24003334
0.32310816 0.39039108 0.24049942
0.34460465 0.39158769 0.24244824
0.39312252 0.39563397 0.24883614
0.46812325 0.40744958 0.26605792
0.56020850 0.43646606 0.30274014
0.66213900 0.49247510 0.36341571
0.77042310 0.57647622 0.44639914
0.40413315 0.48812975 0.31014087
0.40441823 0.48814207 0.31016410
0.40657668 0.48823658 0.31034227
0.41521131 0.48863786 0.31109622
0.44003906 0.49002325 0.31366911
0.49151728 0.49432444 0.32138325
0.56959320 0.50655194 0.34149466
0.66543491 0.53692225 0.38418527
0.77147307 0.59720578 0.45503557
0.49933566 0.59034729 0.39207734
0.49943463 0.59035142 0.39208592
0.50019103 0.59038305 0.39215173
0.50334339 0.59051760 0.39243133
0.51356215 0.59098519 0.39339906
0.54030631 0.59246723 0.39642707
0.59394781 0.59693524 0.40522357
0.67501115 0.60971956 0.42817961
0.77466581 0.64237888 0.47760219
0.60134741 0.69627009 0.48481245
0.60138071 0.69627143 0.48481548
0.60163599 0.69628175 0.48483874
0.60271508 0.69632563 0.48493769
0.60638354 0.69647848 0.48528181
0.61725678 0.69696629 0.48637523
0.64479098 0.69846816 0.48969642
0.69996484 0.70302963 0.49939855
0.78401956 0.71653562 0.52541432
0.70976283 0.80555669 0.58794745
0.70977339 0.80555710 0.58794845
0.70985447 0.80556028 0.58795615
0.71019885 0.80557382 0.58798892
0.71138967 0.80562102 0.58810307
0.71510466 0.80577199 0.58846770
0.72580378 0.80624014 0.58959332
0.75310995 0.80769334 0.59303969
0.80923226 0.81227906 0.60348048
0.10845715 0.08741245 0.20802718
0.13171816 0.09449649 0.20812737
0.19471514 0.12224420 0.20889133
0.27388405 0.16689625 0.21204107
0.36173491 0.22438482 0.22192264
0.45608317 0.29335913 0.24613369
0.55593991 0.37337173 0.29133133
0.66071003 0.46427875 0.35827902
0.76997553 0.56605941 0.44446112
0.12248700 0.13212540 0.20856327
0.13991928 0.13396850 0.20866259
0.19718144 0.14593674 0.20941993
0.27463523 0.17746019 0.21254342
0.36198092 0.22857940 0.22235222
0.45616658 0.29496418 0.24643196
0.55596821 0.37396860 0.29149066
0.66071936 0.46449137 0.35834764
0.76997843 0.56613034 0.44448649
0.17030549 0.20987364 0.21253073
0.17729934 0.21028244 0.21262386
0.21333433 0.21333433 0.21333433
0.28015997 0.22488338 0.21627127
0.36384617 0.25417310 0.22555838
0.45680453 0.30627817 0.24867999
0.55618520 0.37841676 0.29270297
0.66079097 0.46610759 0.35887262
0.77000076 0.56667325 0.44468112
0.23782198 0.29695709 0.22707223
0.24018916 0.29707325 0.22714629
0.25605424 0.29795937 0.22771219
0.29994939 0.30162061 0.23006764
0.37135243 0.31317531 0.23767658
0.45947093 0.34174136 0.25750806
0.55710335 0.39511976 0.29765701
0.66109521 0.47268326 0.36107113
0.77009572 0.56894993 0.44550493
0.31671093 0.39011726 0.26170922
0.31752449 0.39015424 0.26175372
0.32350694 0.39043761 0.26209454
0.34491026 0.39163358 0.26352736
0.39329424 0.39567775 0.26830911
0.46819702 0.40748780 0.28179226
0.56023581 0.43649357 0.31278608
0.66214828 0.49248993 0.36831261
0.77042603 0.57648225 0.44831924
0.40428439 0.48814530 0.31932848
0.40456897 0.48815761 0.31934914
0.40672373 0.48825212 0.31950764
0.41534456 0.48865332 0.32017881
0.44013977 0.49003848 0.32247513
0.49157440 0.49433898 0.32941221
0.56961792 0.50656467 0.34782022
0.66544387 0.53693143 0.38804143
0.77147596 0.59721062 0.45678177
0.49938814 0.59035250 0.39560189
0.49948705 0.59035662 0.39561012
0.50024302 0.59038825 0.39567330
0.50339364 0.59052280 0.39594173
0.51360714 0.59099036 0.39687109
0.54034008 0.59247231 0.39978187
0.59396690 0.59694010 0.40826091
0.67501925 0.60972380 0.43052866
0.77466860 0.64238188 0.47896717
0.60136506 0.69627179 0.48607474
0.60139835 0.69627313 0.48607773
0.60165359 0.69628344 0.48610067
0.60273248 0.69632733 0.48619827
0.60640027 0.69648017 0.48653769
0.61727170 0.69696797 0.48761634
0.64480213 0.69846981 0.49089373
0.69997106 0.70303121 0.50047682
0.78402208 0.71653699 0.52622992
0.70976843 0.80555721 0.58836720
0.70977899 0.80555762 0.58836820
0.70986007 0.80556080 0.58837586
0.71020443 0.80557435 0.58840848
0.71139517 0.80562154 0.58852213
0.71510996 0.80577251 0.58888514
0.72580850 0.80624066 0.59000583
0.75311347 0.80769385 0.59343744
0.80923417 0.81227955 0.60383669
0.14924248 0.11309954 0.29510225
0.15953208 0.11613149 0.29513050
0.20465731 0.13350810 0.29534710
0.27706046 0.17142244 0.29626231
0.36278756 0.22611189 0.29936957
0.45644127 0.29401152 0.30854984
0.55606151 0.37361332 0.33170860
0.66075013 0.46436469 0.37846939
0.76998803 0.56608807 0.45252975
0.15491922 0.14118928 0.29525383
0.16416790 0.14268121 0.29528203
0.20675025 0.15272959 0.29549820
0.27777988 0.18119632 0.29641160
0.36303049 0.23019976 0.29951290
0.45652435 0.29560296 0.30867709
0.55608977 0.37420849 0.33180354
0.66075946 0.46457710 0.37852336
0.76999093 0.56615898 0.45255295
0.18496837 0.21203977 0.29640782
0.19039477 0.21243451 0.29643559
0.22081565 0.21538477 0.29664850
0.28308168 0.22659734 0.29754828
0.36487273 0.25528695 0.30060465
0.45715978 0.30682960 0.30964729
0.55630648 0.37864441 0.33252886
0.66083104 0.46619181 0.37893661
0.77001325 0.56670172 0.45273089
0.24305048 0.29757941 0.30113369
0.24524421 0.29769463 0.30115980
0.26010182 0.29857360 0.30135996
0.30220626 0.30220626 0.30220626
0.37229176 0.31368012 0.30508590
0.45981588 0.34209473 0.31364730
0.55722345 0.39530712 0.33554546
0.66113516 0.47276161 0.38067370
0.77010820 0.56897772 0.45348445
0.31853505 0.39031581 0.31565677
0.31933009 0.39035270 0.31567842
0.32518253 0.39063542 0.31584447
0.34619862 0.39182866 0.31654744
0.39402144 0.39586391 0.31895020
0.46851039 0.40765030 0.32618781
0.56035198 0.43661058 0.34526214
0.66218779 0.49255305 0.38646699
0.77043847 0.57650790 0.45606339
0.40492527 0.48821147 0.34968756
0.40520776 0.48822378 0.34970175
0.40734698 0.48831821 0.34981056
0.41590954 0.48871913 0.35027220
0.44056722 0.49010330 0.35186163
0.49181717 0.49440084 0.35675524
0.56972306 0.50661886 0.37036702
0.66548202 0.53697053 0.40276075
0.77148826 0.59723121 0.46385957
0.49961119 0.59037464 0.40918222
0.49970986 0.59037876 0.40918926
0.50046401 0.59041039 0.40924330
0.50360723 0.59054490 0.40947297
0.51379844 0.59101235 0.41026897
0.54048369 0.59249397 0.41277050
0.59404813 0.59696075 0.42012700
0.67505373 0.60974184 0.43988762
0.77468048 0.64239466 0.48456014
0.60144017 0.69627901 0.49126207
0.60147343 0.69628035 0.49126489
0.60172847 0.69629066 0.49128657
0.60280651 0.69633454 0.49137881
0.60647149 0.69648737 0.49169965
0.61733518 0.69697514 0.49271968
0.64484959 0.69847686 0.49582308
0.69999751 0.70303792 0.50493108
0.78403282 0.71654281 0.52962418
0.70979226 0.80555944 0.59013346
0.70980282 0.80555985 0.59013444
0.70988388 0.80556303 0.59014196
0.71022815 0.80557657 0.59017398
0.71141860 0.80562376 0.59028551
0.71513247 0.80577473 0.59064182
0.72582859 0.80624287 0.59174197
0.75312846 0.80769603 0.59511215
0.80924233 0.81228162 0.60533823
0.20127063 0.14874720 0.38804924
0.20541724 0.15001046 0.38805822
0.23041722 0.15871952 0.38812719
0.28717218 0.18472914 0.38842018
0.36635709 0.23179729 0.38943384
0.45767872 0.29624300 0.39260189
0.55648422 0.37445020 0.40177523
0.66088983 0.46466365 0.42553680
0.77003159 0.56618791 0.47608541
0.20348259 0.16329990 0.38809748
0.20748453 0.16423624 0.38810646
0.23181640 0.17090319 0.38817539
0.28780023 0.19254633 0.38846821
0.36658990 0.23555536 0.38948131
0.45776067 0.29778884 0.39264764
0.55651235 0.37503954 0.40181637
0.66089915 0.46487537 0.42556818
0.77003450 0.56625874 0.47610330
0.21822633 0.21905102 0.38846699
0.22140216 0.21940406 0.38847593
0.24167687 0.22205149 0.38854457
0.29245534 0.23224239 0.38883613
0.36835634 0.25903726 0.38984493
0.45838749 0.30872190 0.39299815
0.55672809 0.37943330 0.40213169
0.66097062 0.46648483 0.42580879
0.77005681 0.56680091 0.47624058
0.25867285 0.29971012 0.39002244
0.26042958 0.29982217 0.39003122
0.27264564 0.30067714 0.39009863
0.30959429 0.30421378 0.39038497
0.37548716 0.31541497 0.39137585
0.46100830 0.34331482 0.39447448
0.55764097 0.39595713 0.40346132
0.66127429 0.47303425 0.42682578
0.77015171 0.56907454 0.47682268
0.32458401 0.39100444 0.39523521
0.32532089 0.39104103 0.39524347
0.33076331 0.39132150 0.39530692
0.35053822 0.39250533 0.39557649
0.39650976 0.39650976 0.39650976
0.46959450 0.40821446 0.39943252
0.56075585 0.43701731 0.40794407
0.66232538 0.49277275 0.43028270
0.77048182 0.57659729 0.47882351
0.40712336 0.48844179 0.41008666
0.40739883 0.48845407 0.41009363
0.40948562 0.48854826 0.41014711
0.41785127 0.48894818 0.41037442
0.44204165 0.49032893 0.41116230
0.49265855 0.49461618 0.41363879
0.57008870 0.50680753 0.42092591
0.66561490 0.53710670 0.44052771
0.77153112 0.59730298 0.48495159
0.50038460 0.59045181 0.44476878
0.50048244 0.59045593 0.44477349
0.50123034 0.59048753 0.44480966
0.50434801 0.59062193 0.44496344
0.51446230 0.59108900 0.44549750
0.54098265 0.59256942 0.44718675
0.59433075 0.59703272 0.45224857
0.67517381 0.60980471 0.46650280
0.77472189 0.64243918 0.50176009
0.60170155 0.69630417 0.50735448
0.60173472 0.69630551 0.50735685
0.60198905 0.69631582 0.50737506
0.60306414 0.69635969 0.50745254
0.60671933 0.69651248 0.50772215
0.61755615 0.69700011 0.50858034
0.64501485 0.69850145 0.51120084
0.70008968 0.70306134 0.51897125
0.78407024 0.71656309 0.54057608
0.70987532 0.80556720 0.59604482
0.70988587 0.80556761 0.59604574
0.70996685 0.80557079 0.59605281
0.71031082 0.80558433 0.59608289
0.71150023 0.80563152 0.59618766
0.71521094 0.80578247 0.59652242
0.72589859 0.80625058 0.59755650
0.75318071 0.80770361 0.60072881
0.80927075 0.81228883 0.61039398
0.26461345 0.19540405 0.48587962
0.26623094 0.19592414 0.48588262
0.27757341 0.19977094 0.48590561
0.31265387 0.21384386 0.48600341
0.37686455 0.24729018 0.48634356
0.46153136 0.30297912 0.48742447
0.55782527 0.37707596 0.49070859
0.66133584 0.46561451 0.50030999
0.77017097 0.56650692 0.52610358
0.26546692 0.20197456 0.48589570
0.26706546 0.20244006 0.48589869
0.27828784 0.20589902 0.48592168
0.31310457 0.21876413 0.48601946
0.37707012 0.25029428 0.48635955
0.46160990 0.30439599 0.48744028
0.55785301 0.37764737 0.49072385
0.66134510 0.46582402 0.50032374
0.77017388 0.56657752 0.52611399
0.27170303 0.23741639 0.48601906
0.27317058 0.23768284 0.48602205
0.28355457 0.23969419 0.48604500
0.31648153 0.24764390 0.48614265
0.37863229 0.26986528 0.48648229
0.46221071 0.31448972 0.48756158
0.55806569 0.38191160 0.49084089
0.66141624 0.46741690 0.50042920
0.77019615 0.56711785 0.52619386
0.29354912 0.30616067 0.48654234
0.29464519 0.30626372 0.48654531
0.30257366 0.30705041 0.48656813
0.32943202 0.31031280 0.48666523
0.38497909 0.32072645 0.48700294
0.46472469 0.34710388 0.48807616
0.55896572 0.39800650 0.49133747
0.66171848 0.47390190 0.50087681
0.77029091 0.56938393 0.52653309
0.34135341 0.39317338 0.48834363
0.34195229 0.39320906 0.48834655
0.34641002 0.39348257 0.48836893
0.36307592 0.39463727 0.48846414
0.40402889 0.39854623 0.48879530
0.47298191 0.40999704 0.48984789
0.56203769 0.43830752 0.49304801
0.66276467 0.49347284 0.50242053
0.77062053 0.57688296 0.52770615
0.41381208 0.48917552 0.49388548
0.41406730 0.48918770 0.49388823
0.41600275 0.48928114 0.49390930
0.42379635 0.48967789 0.49399895
0.44660652 0.49104780 0.49431080
0.49530244 0.49530244 0.49530244
0.57125019 0.50740915 0.49832141
0.66603920 0.53754144 0.50719757
0.77166826 0.59753243 0.53136652
0.50281871 0.59069851 0.50926353
0.50291401 0.59070261 0.50926585
0.50364255 0.59073413 0.50928369
0.50668120 0.59086818 0.50935959
0.51655688 0.59133404 0.50962371
0.54256287 0.59281065 0.51046453
0.59523019 0.59726283 0.51303301
0.67555734 0.61000576 0.52065762
0.77485438 0.64258161 0.54191621
0.60253378 0.69638471 0.54558791
0.60256666 0.69638605 0.54558948
0.60281876 0.69639635 0.54560156
0.60388451 0.69644018 0.54565296
0.60750871 0.69659284 0.54583195
0.61826038 0.69708006 0.54640285
0.64554215 0.69858013 0.54815730
0.70038426 0.70313630 0.55345700
0.78418996 0.71662801 0.56892005
0.71014080 0.80559206 0.61281527
0.71015133 0.80559247 0.61281604
0.71023208 0.80559565 0.61282196
0.71057508 0.80560919 0.61284714
0.71176117 0.80565636 0.61293489
0.71546177 0.80580727 0.61321538
0.72612242 0.80627525 0.61408282
0.75334784 0.80772789 0.61675342
0.80936170 0.81231192 0.62497548
0.33945212 0.25418066 0.58795194
0.34006510 0.25438921 0.58795294
0.34462426 0.25597018 0.58796064
0.36161903 0.26232878 0.58799341
0.40313046 0.28091255 0.58810755
0.47256834 0.32082709 0.58847216
0.56187957 0.38476279 0.58959773
0.66271027 0.46851100 0.59304394
0.77060332 0.56749269 0.60348429
0.33977441 0.25690633 0.58795732
0.34038498 0.25710692 0.58795832
0.34492677 0.25862844 0.58796602
0.36186538 0.26476248 0.58799879
0.40328193 0.28280412 0.58811292
0.47263790 0.32195662 0.58847751
0.56190613 0.38528505 0.58960303
0.66271940 0.46871395 0.59304904
0.77060621 0.56756255 0.60348886
0.34220752 0.27494254 0.58799865
0.34280017 0.27509853 0.58799965
0.34721313 0.27628539 0.58800735
0.36373319 0.28113349 0.58804010
0.40443630 0.29592399 0.58815418
0.47317024 0.33013344 0.58851862
0.56210984 0.38919261 0.58964364
0.66278952 0.47025740 0.59308820
0.77062838 0.56809728 0.60352392
0.35182411 0.32336990 0.58817438
0.35235141 0.32345264 0.58817538
0.35629202 0.32408514 0.58818306
0.37124911 0.32672281 0.58821575
0.40918613 0.33529279 0.58832963
0.47540226 0.35788737 0.58869338
0.56297213 0.40408973 0.58981634
0.66308740 0.47655002 0.59325472
0.77072270 0.57034017 0.60367303
0.37864513 0.39959313 0.58878448
0.37902830 0.39962626 0.58878548
0.38191438 0.39988022 0.58879311
0.39321437 0.40095310 0.58882559
0.42398179 0.40459303 0.58893873
0.48278288 0.41532215 0.58930015
0.56591789 0.44220686 0.59041595
0.66411863 0.49561773 0.59383295
0.77105078 0.57776635 0.60419106
0.43186655 0.49142176 0.59071220
0.43207464 0.49143364 0.59071318
0.43365651 0.49152484 0.59072065
0.44009292 0.49191203 0.59075248
0.45948764 0.49324929 0.59086333
0.50307491 0.49740562 0.59121747
0.57477520 0.50925650 0.59231097
0.66734735 0.53888137 0.59566126
0.77209369 0.59824284 0.60583116
0.51000679 0.59146202 0.59647032
0.51009497 0.59146609 0.59647124
0.51076930 0.59149735 0.59647827
0.51358621 0.59163033 0.59650821
0.52278759 0.59209245 0.59661251
0.54731576 0.59355734 0.59694577
0.59797526 0.59797526 0.59797526
0.67674084 0.61062862 0.60113377
0.77526541 0.64302344 0.61075965
0.60507737 0.69663486 0.61254527
0.60510938 0.69663620 0.61254605
0.60535480 0.69664648 0.61255198
0.60639249 0.69669019 0.61257724
0.60992355 0.69684244 0.61266524
0.62041864 0.69732838 0.61294652
0.64716433 0.69882452 0.61381642
0.70129497 0.70336916 0.61649445
0.78456149 0.71682974 0.62473810
0.71096211 0.80566936 0.65151483
0.71097254 0.80566977 0.65151534
0.71105259 0.80567295 0.65151927
0.71139261 0.80568647 0.65153600
0.71256848 0.80573361 0.65159431
0.71623799 0.80588439 0.65178079
0.72681548 0.80635198 0.65235868
0.75386596 0.80780341 0.65414893
0.80964413 0.81238373 0.65976389
0.42602348 0.32623631 0.69380934
0.42624572 0.32631613 0.69380966
0.42793392 0.32692637 0.69381217
0.43478156 0.32947325 0.69382286
0.45523275 0.33776948 0.69386012
0.50045721 0.35977468 0.69397934
0.57356957 0.40519198 0.69434932
0.66689646 0.47704149 0.69550059
0.77194661 0.57051963 0.69916120
0.42614019 0.32729203 0.69381109
0.42636214 0.32737080 0.69381142
0.42804814 0.32797307 0.69381393
0.43488732 0.33048736 0.69382462
0.45531695 0.33868500 0.69386188
0.50050854 0.36047609 0.69398109
0.57359303 0.40560444 0.69435107
0.66690520 0.47722632 0.69550232
0.77194945 0.57058728 0.69916286
0.42703128 0.33496586 0.69382458
0.42725101 0.33503746 0.69382490
0.42892035 0.33558509 0.69382741
0.43569523 0.33787574 0.69383810
0.45596090 0.34539129 0.69387535
0.50090170 0.36567418 0.69399455
0.57377296 0.40870821 0.69436447
0.66697228 0.47863325 0.69551556
0.77197131 0.57110514 0.69917560
0.43072749 0.36135946 0.69388195
0.43093827 0.36141138 0.69388228
0.43254030 0.36180895 0.69388479
0.43905489 0.36348054 0.69389547
0.45865194 0.36906021 0.69393270
0.50255691 0.38479067 0.69405182
0.57453513 0.42081281 0.69442152
0.66725728 0.48439149 0.69557192
0.77206427 0.57327830 0.69922980
0.44253098 0.41711561 0.69408170
0.44271565 0.41714271 0.69408203
0.44412118 0.41735057 0.69408454
0.44986968 0.41822997 0.69409519
0.46745349 0.42122887 0.69413234
0.50810600 0.43020028 0.69425122
0.57714503 0.45344239 0.69462014
0.66824421 0.50203940 0.69576812
0.77238763 0.58048494 0.69941853
0.47239558 0.49813196 0.69471858
0.47252831 0.49814301 0.69471890
0.47354116 0.49822779 0.69472139
0.47773125 0.49858786 0.69473197
0.49099915 0.49983226 0.69476887
0.52392508 0.50370815 0.69488695
0.58504776 0.51482344 0.69525339
0.67133719 0.54296422 0.69639372
0.77341564 0.60043730 0.70002041
0.52950357 0.59381780 0.69667311
0.52957507 0.59382177 0.69667342
0.53012227 0.59385227 0.69667586
0.53241643 0.59398197 0.69668623
0.54000042 0.59443275 0.69672237
0.56083085 0.59586205 0.69683802
0.60610267 0.60017587 0.69719696
0.68035994 0.61255630 0.69831413
0.77654305 0.64439619 0.70186891
0.61263939 0.69741531 0.70255350
0.61266894 0.69741663 0.70255380
0.61289552 0.69742682 0.70255609
0.61385406 0.69747018 0.70256583
0.61712178 0.69762117 0.70259978
0.62688613 0.69810311 0.70270843
0.65207963 0.69958709 0.70304569
0.70409589 0.70409589 0.70409589
0.78571733 0.71745974 0.70744240
0.71349282 0.80591142 0.71952003
0.71350298 0.80591183 0.71952028
0.71358090 0.80591500 0.71952219
0.71391190 0.80592849 0.71953032
0.71505681 0.80597550 0.71955866
0.71863208 0.80612589 0.71964937
0.72895683 0.80659224 0.71993103
0.75547277 0.80803988 0.72080915
0.81052446 0.81260864 0.72361777
0.52459633 0.41277457 0.80310652
0.52467170 0.41280305 0.80310662
0.52524838 0.41302143 0.80310739
0.52766410 0.41394503 0.80311069
0.53562774 0.41709097 0.80312220
0.55734621 0.42647037 0.80315903
0.60396216 0.45058028 0.80327353
0.67939005 0.50036985 0.80363178
0.77619758 0.57976747 0.80479078
0.52463590 0.41315282 0.80310706
0.52471123 0.41318118 0.80310716
0.52528767 0.41339862 0.80310794
0.52770238 0.41431827 0.80311123
0.53566289 0.41745111 0.80312274
0.55737408 0.42679427 0.80315957
0.60397916 0.45082765 0.80327407
0.67939770 0.50051324 0.80363232
0.77620030 0.57982880 0.80479131
0.52493912 0.41600419 0.80311122
0.52501421 0.41603164 0.80311132
0.52558878 0.41624214 0.80311210
0.52799580 0.41713264 0.80311540
0.53593235 0.42016849 0.80312690
0.55758785 0.42924271 0.80316373
0.60410960 0.45270480 0.80327822
0.67945647 0.50160696 0.80363646
0.77622117 0.58029839 0.80479540
0.52621900 0.42720439 0.80312894
0.52629306 0.42722857 0.80312904
0.52685982 0.42741401 0.80312981
0.52923464 0.42819912 0.80313311
0.53707079 0.43088312 0.80314461
0.55849245 0.43897109 0.80318143
0.60466285 0.46028563 0.80329591
0.67970622 0.50612318 0.80365407
0.77630995 0.58227163 0.80481279
0.53054830 0.45792690 0.80319067
0.53061900 0.45794406 0.80319078
0.53116013 0.45807569 0.80319155
0.53342922 0.45863389 0.80319485
0.54093464 0.46055341 0.80320634
0.56157968 0.46644048 0.80324314
0.60656669 0.48264561 0.80335753
0.68057177 0.52034065 0.80371546
0.77661881 0.58884494 0.80487340
0.54319881 0.51714618 0.80338811
0.54326057 0.51715517 0.80338821
0.54373339 0.51722422 0.80338898
0.54571990 0.51751758 0.80339227
0.55233341 0.51853311 0.80340374
0.57083501 0.52171260 0.80344045
0.61241785 0.53096324 0.80355460
0.68329145 0.55516614 0.80391176
0.77760102 0.60726101 0.80506724
0.57425597 0.60111804 0.80399971
0.57430034 0.60112172 0.80399981
0.57464033 0.60114995 0.80400058
0.57607410 0.60127001 0.80400385
0.58090856 0.60168739 0.80401524
0.59490839 0.60301178 0.80405171
0.62860451 0.60701782 0.80416510
0.69128433 0.61858468 0.80451988
0.78059199 0.64874059 0.80566774
0.63379452 0.69991712 0.80589214
0.63381815 0.69991841 0.80589223
0.63399939 0.69992833 0.80589299
0.63476703 0.69997055 0.80589619
0.63739556 0.70011759 0.80590734
0.64535326 0.70058694 0.80594307
0.66653985 0.70203255 0.80605414
0.71269256 0.70642826 0.80640167
0.78938993 0.71948595 0.80752626
0.72130361 0.80669663 0.81180610
0.72131295 0.80669704 0.81180619
0.72138465 0.80670018 0.81180690
0.72168926 0.80671356 0.81180990
0.72274354 0.80676016 0.81182035
0.72604216 0.80690926 0.81185383
0.73561968 0.80737164 0.81195794
0.76052912 0.80880707 0.81228373
0.81333847 0.81333847 0.81333847
