src/ffmpeg_scripts/luts/sRGB-rec2020_-3p67.cube
TITLE "sRGB-rec2020_-3p67"
LUT_3D_SIZE 33
# PQ (EOTF Only)/sRGB -> PQ (EOTF Only)/Rec2020, CineEI Shift -3.67, Black Level 0.00% IRE, Input 100% -> Output 109% - Created with LUTCalc v4.01 by Ben Turley October 2020
0.06256172 0.06256172 0.06256172
0.06814762 0.06412799 0.06323248
0.07543220 0.06639865 0.06422590
0.08395148 0.06930377 0.06554826
0.09351911 0.07281682 0.06720774
0.10402738 0.07692903 0.06921802
0.11540394 0.08163968 0.07159554
0.12759603 0.08695234 0.07435839
0.14056307 0.09287326 0.07752579
0.15427264 0.09941040 0.08111794
0.16869810 0.10657294 0.08515574
0.18381713 0.11437092 0.08966081
0.19961066 0.12281504 0.09465541
0.21606219 0.13191650 0.10016237
0.23315728 0.14168692 0.10620515
0.25088316 0.15213823 0.11280774
0.26922846 0.16328266 0.11999471
0.28818296 0.17513264 0.12779122
0.30773743 0.18770083 0.13622295
0.32788348 0.20100005 0.14531618
0.34861347 0.21504328 0.15509776
0.36992037 0.22984363 0.16559509
0.39179773 0.24541436 0.17683618
0.41423958 0.26176883 0.18884962
0.43724038 0.27892053 0.20166457
0.46079500 0.29688302 0.21531082
0.48489866 0.31567001 0.22981874
0.50954686 0.33529525 0.24521934
0.53473543 0.35577262 0.26154423
0.56046044 0.37711607 0.27882566
0.58671818 0.39933964 0.29709650
0.61350519 0.42245746 0.31639029
0.64081817 0.44648374 0.33674121
0.06644160 0.06946832 0.06436719
0.06962056 0.06974920 0.06455721
0.07616447 0.07070567 0.06516402
0.08437928 0.07250746 0.06621800
0.09379179 0.07518574 0.06769784
0.10421069 0.07869195 0.06958542
0.11553164 0.08296564 0.07187640
0.12768729 0.08796061 0.07457636
0.14062953 0.09364752 0.07769694
0.15432174 0.10000992 0.08125352
0.16873479 0.10704035 0.08526389
0.18384479 0.11473735 0.08974753
0.19963166 0.12310357 0.09472522
0.21607822 0.13214448 0.10021874
0.23316957 0.14186752 0.10625076
0.25089262 0.15228157 0.11284469
0.26923576 0.16339656 0.12002467
0.28818860 0.17522321 0.12781551
0.30774179 0.18777286 0.13624264
0.32788686 0.20105732 0.14533213
0.34861609 0.21508877 0.15511066
0.36992240 0.22987973 0.16560551
0.39179930 0.24544296 0.17684459
0.41424079 0.26179145 0.18885638
0.43724132 0.27893837 0.20166999
0.46079572 0.29689706 0.21531516
0.48489921 0.31568101 0.22982220
0.50954728 0.33530385 0.24522209
0.53473575 0.35577932 0.26154640
0.56046068 0.37712126 0.27882737
0.58671837 0.39934365 0.29709784
0.61350533 0.42246054 0.31639134
0.64081827 0.44648609 0.33674202
0.07170586 0.07823830 0.06696534
0.07353886 0.07836637 0.06706397
0.07855797 0.07882752 0.06741200
0.08587214 0.07979315 0.06811133
0.09476770 0.08142960 0.06923274
0.10487432 0.08386014 0.07080812
0.11599669 0.08714684 0.07284537
0.12802071 0.09129907 0.07534496
0.14087280 0.09629577 0.07830866
0.15450169 0.10210552 0.08174235
0.16886935 0.10869830 0.08565603
0.18394628 0.11605024 0.09006318
0.19970873 0.12414460 0.09497999
0.21613707 0.13297107 0.10042482
0.23321471 0.14252462 0.10641770
0.25092735 0.15280439 0.11298007
0.26926255 0.16381278 0.12013450
0.28820931 0.17555462 0.12790461
0.30775782 0.18803668 0.13631489
0.32789927 0.20126721 0.14539067
0.34862570 0.21525561 0.15515803
0.36992984 0.23001216 0.16564379
0.39180505 0.24554791 0.17687545
0.41424523 0.26187445 0.18888120
0.43724474 0.27900386 0.20168991
0.46079836 0.29694859 0.21533109
0.48490123 0.31572143 0.22983490
0.50954883 0.33533545 0.24523217
0.53473694 0.35580392 0.26155438
0.56046158 0.37714034 0.27883365
0.58671905 0.39935837 0.29710276
0.61350584 0.42247185 0.31639517
0.64081866 0.44649472 0.33674499
0.07804549 0.08830832 0.07026206
0.07918390 0.08838090 0.07032336
0.08277648 0.08864538 0.07054483
0.08880040 0.08921467 0.07101234
0.09678324 0.09022468 0.07181536
0.10628081 0.09182035 0.07303037
0.11699602 0.09413559 0.07471041
0.12874280 0.09727356 0.07688524
0.14140214 0.10129602 0.07956902
0.15489439 0.10622552 0.08276875
0.16916355 0.11205638 0.08649016
0.18416845 0.11876767 0.09074063
0.19987760 0.12633342 0.09553023
0.21626610 0.13472889 0.10087187
0.23331370 0.14393360 0.10678101
0.25100355 0.15393225 0.11327534
0.26932135 0.16471464 0.12037445
0.28825476 0.17627506 0.12809952
0.30779299 0.18861159 0.13647309
0.32792651 0.20172545 0.14551893
0.34864679 0.21562033 0.15526187
0.36994617 0.23030198 0.16572771
0.39181768 0.24577776 0.17694314
0.41425499 0.26205634 0.18893567
0.43725227 0.27914743 0.20173361
0.46080415 0.29706160 0.21536605
0.48490568 0.31581010 0.22986277
0.50955223 0.33540477 0.24525431
0.53473953 0.35585791 0.26157189
0.56046355 0.37718221 0.27884743
0.58672054 0.39939069 0.29711356
0.61350696 0.42249666 0.31640359
0.64081950 0.44651366 0.33675152
0.08533269 0.09945770 0.07421993
0.08608390 0.09950314 0.07426131
0.08862330 0.09966940 0.07441209
0.09332573 0.10003085 0.07473656
0.10012376 0.10068382 0.07531206
0.10870951 0.10174457 0.07622134
0.11876332 0.10334287 0.07754221
0.13003808 0.10561005 0.07933802
0.14235997 0.10866387 0.08165330
0.15560889 0.11259496 0.08451541
0.16970075 0.11745993 0.08793993
0.18457510 0.12328271 0.09193633
0.20018718 0.13006203 0.09651228
0.21650291 0.13778099 0.10167622
0.23349554 0.14641556 0.10743854
0.25114360 0.15594068 0.11381207
0.26942946 0.16633377 0.12081200
0.28833836 0.17757641 0.12845575
0.30785770 0.18965485 0.13676273
0.32797663 0.20255985 0.14575407
0.34868561 0.21628619 0.15545243
0.36997622 0.23083214 0.16588184
0.39184093 0.24619886 0.17706751
0.41427295 0.26238995 0.18903578
0.43726611 0.27941099 0.20181397
0.46081481 0.29726919 0.21543035
0.48491386 0.31597306 0.22991404
0.50955849 0.33553223 0.24529504
0.53474431 0.35595720 0.26160410
0.56046718 0.37725922 0.27887280
0.58672328 0.39945014 0.29713344
0.61350903 0.42254231 0.31641909
0.64082105 0.44654853 0.33676352
0.09349449 0.11155922 0.07882308
0.09401191 0.11158937 0.07885238
0.09582305 0.11169987 0.07895954
0.09939463 0.11194116 0.07919217
0.10494241 0.11238068 0.07961134
0.11239898 0.11310437 0.08028961
0.12154074 0.11421660 0.08130630
0.13211838 0.11583680 0.08273997
0.14391987 0.11809180 0.08466028
0.15678310 0.12110458 0.08712212
0.17058889 0.12498177 0.09016408
0.18525011 0.12980359 0.09381086
0.20070251 0.13561947 0.09807763
0.21689785 0.14244977 0.10297449
0.23379921 0.15029214 0.10850987
0.25137771 0.15912950 0.11469272
0.26961031 0.16893741 0.12153369
0.28847827 0.17968965 0.12904565
0.30796604 0.19136175 0.13724377
0.32806056 0.20393289 0.14614545
0.34875063 0.21738669 0.15577014
0.37002656 0.23171127 0.16613913
0.39187987 0.24689892 0.17727534
0.41430304 0.26294565 0.18920320
0.43728932 0.27985066 0.20194843
0.46083267 0.29761588 0.21553798
0.48492756 0.31624545 0.22999989
0.50956899 0.33574541 0.24536325
0.53475231 0.35612336 0.26165808
0.56047326 0.37738815 0.27891531
0.58672789 0.39954969 0.29716676
0.61351250 0.42261879 0.31644505
0.64082364 0.44660694 0.33678364
0.10248280 0.12452749 0.08406534
0.10285025 0.12454827 0.08408674
0.10416085 0.12462451 0.08416514
0.10684703 0.12479134 0.08433610
0.11124602 0.12509650 0.08464675
0.11749624 0.12560253 0.08515618
0.12553946 0.12638871 0.08593453
0.13520171 0.12755168 0.08705954
0.14627822 0.12920367 0.08861077
0.15858237 0.13146745 0.09066249
0.17196229 0.13446783 0.09327751
0.18630051 0.13832084 0.09650390
0.20150790 0.14312316 0.10037511
0.21751698 0.14894462 0.10491283
0.23427629 0.15582575 0.11013091
0.25174607 0.16378047 0.11603907
0.26989519 0.17280211 0.12264578
0.28869884 0.18287074 0.12996014
0.30813695 0.19395974 0.13799292
0.32819302 0.20604086 0.14675711
0.34885328 0.21908761 0.15626798
0.37010607 0.23307710 0.16654311
0.39194139 0.24799089 0.17760217
0.41435057 0.26381510 0.18946677
0.43732598 0.28054020 0.20216030
0.46086088 0.29816057 0.21570770
0.48494923 0.31667400 0.23013534
0.50958557 0.33608118 0.24547091
0.53476496 0.35638527 0.26174328
0.56048287 0.37759150 0.27898243
0.58673516 0.39970679 0.29721937
0.61351797 0.42273951 0.31648607
0.64082775 0.44669917 0.33681543
0.11226325 0.13830018 0.08994583
0.11253013 0.13831489 0.08996180
0.11349226 0.13836890 0.09002035
0.11551162 0.13848723 0.09014836
0.11894225 0.13870419 0.09038205
0.12403935 0.13906538 0.09076829
0.13090223 0.13963003 0.09136537
0.13948196 0.14047292 0.09224239
0.14963672 0.14168546 0.09347672
0.16119198 0.14337484 0.09514924
0.17398014 0.14566063 0.09733817
0.18785789 0.14866830 0.10011290
0.20270971 0.15252000 0.10352968
0.21844508 0.15732429 0.10763018
0.23499378 0.16316728 0.11244284
0.25230138 0.17010727 0.11798603
0.27032538 0.17817426 0.12427172
0.28903234 0.18737364 0.13130869
0.30839560 0.19769242 0.13910503
0.32839362 0.20910606 0.14766977
0.34900881 0.22158463 0.15701375
0.37022657 0.23509732 0.16715011
0.39203466 0.24961555 0.17809437
0.41442265 0.26511461 0.18986444
0.43738159 0.28157446 0.20248040
0.46090369 0.29897982 0.21596438
0.48498209 0.31731992 0.23034035
0.50961072 0.33658807 0.24563397
0.53478415 0.35678117 0.26187240
0.56049746 0.37789917 0.27908418
0.58674619 0.39994466 0.29729914
0.61352628 0.42292239 0.31654827
0.64083398 0.44683895 0.33686365
0.12281004 0.15282924 0.09646687
0.12300718 0.15283987 0.09647897
0.12372247 0.15287889 0.09652337
0.12524627 0.15296445 0.09662058
0.12790026 0.15312154 0.09679856
0.13197864 0.15338368 0.09709411
0.13768566 0.15379501 0.09755433
0.14509902 0.15441245 0.09823745
0.15417777 0.15530774 0.09921247
0.16480228 0.15656861 0.10055720
0.17681966 0.15829877 0.10235427
0.19007680 0.16061549 0.10468559
0.20443748 0.16364462 0.10762639
0.21978805 0.16751274 0.11124025
0.23603692 0.17233756 0.11557653
0.25311148 0.17821839 0.12067046
0.27095454 0.18522904 0.12654538
0.28952100 0.19341468 0.13321611
0.30877509 0.20279319 0.14069240
0.32868825 0.21335993 0.14898182
0.34923742 0.22509422 0.15809189
0.37040380 0.23796603 0.16803146
0.39217188 0.25194151 0.17881146
0.41452874 0.26698713 0.19044529
0.43746345 0.28307234 0.20294888
0.46096671 0.30017100 0.21634063
0.48503048 0.31826197 0.23064122
0.50964777 0.33732912 0.24587349
0.53481241 0.35736100 0.26206219
0.56051894 0.37835043 0.27923383
0.58676245 0.40029391 0.29741652
0.61353853 0.42319114 0.31663982
0.64084315 0.44704449 0.33693463
0.13410307 0.16807621 0.10363289
0.13425060 0.16808401 0.10364216
0.13478806 0.16811263 0.10367622
0.13594400 0.16817542 0.10375086
0.13799139 0.16829080 0.10388774
0.14121572 0.16848362 0.10411573
0.14586877 0.16878688 0.10447241
0.15212170 0.16924370 0.10500549
0.16003954 0.16990945 0.10577365
0.16958790 0.17085371 0.10684648
0.18066321 0.17216176 0.10830283
0.19312869 0.17393486 0.11022745
0.20684245 0.17628885 0.11270599
0.22167404 0.17935007 0.11581909
0.23751143 0.18324874 0.11963717
0.25426212 0.18811000 0.12421689
0.27185136 0.19404431 0.12960015
0.29021938 0.20113907 0.13581554
0.30931852 0.20945351 0.14288118
0.32911077 0.21901786 0.15080822
0.34956562 0.22983652 0.15960410
0.37065844 0.24189382 0.16927506
0.39236918 0.25516080 0.17982804
0.41468134 0.26960156 0.19127177
0.43758124 0.28517831 0.20361738
0.46105742 0.30185502 0.21687870
0.48510015 0.31959955 0.23107223
0.50970111 0.33838484 0.24621706
0.53485311 0.35818922 0.26233470
0.56054987 0.37899630 0.27944886
0.58678586 0.40079457 0.29758528
0.61355616 0.42357684 0.31677152
0.64085636 0.44733976 0.33703677
0.14612628 0.18400942 0.11144977
0.14623782 0.18401521 0.11145695
0.14664521 0.18403645 0.11148331
0.14752691 0.18408307 0.11154110
0.14910646 0.18416878 0.11164720
0.15163801 0.18431215 0.11182427
0.15537859 0.18453797 0.11210215
0.16054948 0.18487893 0.11251935
0.16729958 0.18537747 0.11312446
0.17568615 0.18608791 0.11397706
0.18568021 0.18707839 0.11514778
0.19719031 0.18843251 0.11671708
0.21009190 0.19025005 0.11877219
0.22425191 0.19264605 0.12140258
0.23954456 0.19574766 0.12469420
0.25585911 0.19968842 0.12872400
0.27310217 0.20459995 0.13355566
0.29119699 0.21060242 0.13923772
0.31008132 0.21779537 0.14580411
0.32970507 0.22625104 0.15327654
0.35002797 0.23601163 0.16166792
0.37101758 0.24709078 0.17098581
0.39264768 0.25947850 0.18123536
0.41489689 0.27314771 0.19242164
0.43774771 0.28806116 0.20455111
0.46118567 0.30417735 0.21763256
0.48519867 0.32145500 0.23167752
0.50977656 0.33985612 0.24670045
0.53491069 0.35934765 0.26271866
0.56059364 0.37990223 0.27975218
0.58681899 0.40149834 0.29782354
0.61358112 0.42411996 0.31695755
0.64087506 0.44775605 0.33718113
0.15886662 0.20060221 0.11992448
0.15895162 0.20060655 0.11993007
0.15926263 0.20062246 0.11995060
0.15993858 0.20065740 0.11999564
0.16115904 0.20072165 0.12007841
0.16313956 0.20082918 0.12021670
0.16611805 0.20099873 0.12043418
0.17032941 0.20125511 0.12076170
0.17597270 0.20163083 0.12123888
0.18318136 0.20216793 0.12191539
0.19200784 0.20292005 0.12285205
0.20242769 0.20395443 0.12412099
0.21435881 0.20535366 0.12580466
0.22768617 0.20721669 0.12799316
0.24228367 0.20965841 0.13077998
0.25802922 0.21280717 0.13425640
0.27481305 0.21679975 0.13850576
0.29254081 0.22177377 0.14359863
0.31113379 0.22785820 0.14959011
0.33052737 0.23516365 0.15651957
0.35066907 0.24377447 0.16441253
0.37151638 0.25374432 0.17328385
0.39303495 0.26509611 0.18314138
0.41519691 0.27782576 0.19398931
0.43797958 0.29190861 0.20583082
0.46136439 0.30730650 0.21867005
0.48533603 0.32397453 0.23251327
0.50988178 0.34186640 0.24736959
0.53499101 0.36093825 0.26325122
0.56065471 0.38115094 0.28017352
0.58686522 0.40247133 0.29815489
0.61361594 0.42487257 0.31721652
0.64090116 0.44833398 0.33738222
0.17231326 0.21783176 0.12906473
0.17237846 0.21783503 0.12906911
0.17261727 0.21784705 0.12908519
0.17313780 0.21787342 0.12912048
0.17408274 0.21792193 0.12918535
0.17562980 0.21800316 0.12929385
0.17798690 0.21813132 0.12946470
0.18137839 0.21832531 0.12972256
0.18602198 0.21861003 0.13009942
0.19210035 0.21901794 0.13063605
0.19973604 0.21959089 0.13138346
0.20897851 0.22038213 0.13240399
0.21980718 0.22145842 0.13377160
0.23214735 0.22290189 0.13557116
0.24589149 0.22481122 0.13789598
0.26091903 0.22730171 0.14084384
0.27711074 0.23050331 0.14451146
0.29435740 0.23455620 0.14898857
0.31256366 0.23960377 0.15435260
0.33164881 0.24578322 0.16066522
0.35154592 0.25321555 0.16797129
0.37220011 0.26199650 0.17630023
0.39356669 0.27219070 0.18566901
0.41560938 0.28383011 0.19608587
0.43829866 0.29691670 0.20755405
0.46161052 0.31142836 0.22007480
0.48552530 0.32732629 0.23364980
0.51002684 0.34456233 0.24828266
0.53510177 0.36308521 0.26397987
0.56073894 0.38284512 0.28075121
0.58692899 0.40379679 0.29860993
0.61366400 0.42590107 0.31757260
0.64093718 0.44912568 0.33765899
0.18645719 0.23567825 0.13887887
0.18650744 0.23568073 0.13888231
0.18669167 0.23568985 0.13889496
0.18709402 0.23570988 0.13892272
0.18782722 0.23574672 0.13897376
0.18903522 0.23580843 0.13905918
0.19089338 0.23590583 0.13919382
0.19360274 0.23605338 0.13939734
0.19737660 0.23627016 0.13969542
0.20241932 0.23658120 0.14012120
0.20890140 0.23701901 0.14071678
0.21693765 0.23762542 0.14153467
0.22657579 0.23845356 0.14263897
0.23779858 0.23957005 0.14410583
0.25053730 0.24105697 0.14602286
0.26469038 0.24301326 0.14848700
0.28014159 0.24555513 0.15160057
0.29677385 0.24881454 0.15546597
0.31447814 0.25293535 0.16017943
0.33315791 0.25806668 0.16582529
0.35273045 0.26435375 0.17247179
0.37312649 0.27192742 0.18016937
0.39428879 0.28089434 0.18895143
0.41617047 0.29132968 0.19883709
0.43873329 0.30327417 0.20983501
0.46194612 0.31673570 0.22194740
0.48578357 0.33169473 0.23517349
0.51022489 0.34811180 0.24951234
0.53525306 0.36593550 0.26496469
0.56085404 0.38510944 0.28153419
0.58701616 0.40557777 0.29922802
0.61372969 0.42728888 0.31805709
0.64098642 0.45019748 0.33803606
0.20129077 0.25412426 0.14937571
0.20132966 0.25412615 0.14937843
0.20147230 0.25413311 0.14938840
0.20178426 0.25414838 0.14941030
0.20235428 0.25417649 0.14945057
0.20329771 0.25422359 0.14951800
0.20475907 0.25429794 0.14962437
0.20691129 0.25441063 0.14978531
0.20994950 0.25457632 0.15002140
0.21407805 0.25481430 0.15035939
0.21949105 0.25514980 0.15083364
0.22634993 0.25561546 0.15148765
0.23476403 0.25625320 0.15237562
0.24478022 0.25711628 0.15356366
0.25638423 0.25827145 0.15513041
0.26951220 0.25980113 0.15716660
0.28406736 0.26180496 0.15977312
0.29993681 0.26440052 0.16305722
0.31700501 0.26772224 0.16712722
0.33516275 0.27191798 0.17208607
0.35431212 0.27714275 0.17802513
0.37436832 0.28354971 0.18501932
0.39525969 0.29127939 0.19312470
0.41692664 0.30044895 0.20237868
0.43932007 0.31114375 0.21280254
0.46239982 0.32341297 0.22440529
0.48613309 0.33727019 0.23718800
0.51049313 0.35269825 0.25114768
0.53545810 0.36965684 0.26628054
0.56101009 0.38809105 0.28258424
0.58713439 0.40793920 0.30005935
0.61381881 0.42913913 0.31871021
0.64105324 0.45163265 0.33854526
0.21680753 0.27315433 0.16056444
0.21683771 0.27315578 0.16056659
0.21694846 0.27316110 0.16057448
0.21719092 0.27317280 0.16059179
0.21763481 0.27319432 0.16062364
0.21837190 0.27323039 0.16067697
0.21951952 0.27328735 0.16076114
0.22122235 0.27337370 0.16088861
0.22365106 0.27350073 0.16107580
0.22699586 0.27368334 0.16134421
0.23145401 0.27394104 0.16172167
0.23721177 0.27429926 0.16224384
0.24442389 0.27479086 0.16295574
0.25319599 0.27545802 0.16391341
0.26357470 0.27635426 0.16518519
0.27554844 0.27754676 0.16685253
0.28905740 0.27911858 0.16900963
0.30400860 0.28117049 0.17176169
0.32029170 0.28382188 0.17522130
0.33779208 0.28721010 0.17950302
0.35640002 0.29148741 0.18471679
0.37601600 0.29681499 0.19096119
0.39655303 0.30335405 0.19831796
0.41793703 0.31125469 0.20684885
0.44010598 0.32064443 0.21659527
0.46300859 0.33161848 0.22758059
0.48660273 0.34423419 0.23981406
0.51085395 0.35851045 0.25329537
0.53573413 0.37443212 0.26801909
0.56122031 0.39195768 0.28397829
0.58729372 0.41102834 0.30116725
0.61393897 0.43157675 0.31958322
0.64114335 0.45353411 0.33922748
0.23300193 0.29275462 0.17245458
0.23302541 0.29275574 0.17245628
0.23311158 0.29275983 0.17246252
0.23330036 0.29276881 0.17247623
0.23364646 0.29278533 0.17250144
0.23422256 0.29281303 0.17254369
0.23512290 0.29285678 0.17261038
0.23646631 0.29292312 0.17271142
0.23839748 0.29302075 0.17285994
0.24108511 0.29316117 0.17307314
0.24471544 0.29335949 0.17337347
0.24948023 0.29363547 0.17378988
0.25555985 0.29401479 0.17435934
0.26310427 0.29453059 0.17512855
0.27221667 0.29522539 0.17615552
0.28294401 0.29615318 0.17751107
0.29527718 0.29738178 0.17927973
0.30915972 0.29899521 0.18155953
0.32450168 0.30109572 0.18446043
0.34119457 0.30380499 0.18810072
0.35912416 0.30726373 0.19260162
0.37817984 0.31162904 0.19808040
0.39826026 0.31706867 0.20464313
0.41927612 0.32375210 0.21237853
0.44115082 0.33183914 0.22135410
0.46381988 0.34146754 0.23161526
0.48722977 0.35274219 0.24318734
0.51133637 0.36572821 0.25607958
0.53610359 0.38044940 0.27029005
0.56150192 0.39689211 0.28581051
0.58750731 0.41501306 0.30263058
0.61410011 0.43474905 0.32074083
0.64126425 0.45602653 0.34013488
0.24986923 0.31291267 0.18505587
0.24988752 0.31291353 0.18505722
0.24995466 0.31291668 0.18506217
0.25010183 0.31292359 0.18507303
0.25037191 0.31293630 0.18509301
0.25082227 0.31295761 0.18512650
0.25152807 0.31299128 0.18517937
0.25258561 0.31304234 0.18525951
0.25411491 0.31311751 0.18537738
0.25626061 0.31322567 0.18554673
0.25918984 0.31337851 0.18578557
0.26308577 0.31359137 0.18611729
0.26813601 0.31388426 0.18657199
0.27451665 0.31428313 0.18718806
0.28237444 0.31482149 0.18801392
0.29181117 0.31554229 0.18910976
0.30287455 0.31650014 0.19054910
0.31555779 0.31776371 0.19241984
0.32980725 0.31941828 0.19482423
0.34553536 0.32156795 0.19787736
0.36263484 0.32433708 0.20170374
0.38099136 0.32787028 0.20643169
0.40049305 0.33232998 0.21218619
0.42103652 0.33789093 0.21908114
0.44252995 0.34473131 0.22721245
0.46489413 0.35302079 0.23665346
0.48806207 0.36290744 0.24745354
0.51197794 0.37450564 0.25963978
0.53659564 0.38788793 0.27322112
0.56187739 0.40308247 0.28819364
0.58779233 0.42007647 0.30454589
0.61431529 0.43882416 0.32226362
0.64142577 0.45925720 0.34133331
0.26740534 0.33361716 0.19837831
0.26741960 0.33361782 0.19837938
0.26747196 0.33362024 0.19838330
0.26758677 0.33362557 0.19839191
0.26779762 0.33363536 0.19840775
0.26814967 0.33365178 0.19843430
0.26870256 0.33367773 0.19847622
0.26953356 0.33371708 0.19853979
0.27074069 0.33377503 0.19863332
0.27244497 0.33385842 0.19876780
0.27479106 0.33397633 0.19895762
0.27794494 0.33414063 0.19922159
0.28208751 0.33436687 0.19958405
0.28740345 0.33467533 0.20007628
0.29406595 0.33509229 0.20073817
0.30221973 0.33565165 0.20161997
0.31196615 0.33639691 0.20278421
0.32335403 0.33738342 0.20430734
0.33637877 0.33868092 0.20628093
0.35098917 0.34037623 0.20881183
0.36709941 0.34257564 0.21202077
0.38460289 0.34540665 0.21603892
0.40338471 0.34901826 0.22100222
0.42333137 0.35357878 0.22704386
0.44433716 0.35927054 0.23428592
0.46630759 0.36628085 0.24283177
0.48916069 0.37478963 0.25276066
0.51282688 0.38495538 0.26412582
0.53724800 0.39690184 0.27695585
0.56237592 0.41070861 0.29125903
0.58817119 0.42640756 0.30702894
0.61460156 0.44398594 0.32425046
0.64164079 0.46339460 0.34290496
0.28560675 0.35485775 0.21243205
0.28561787 0.35485826 0.21243290
0.28565871 0.35486013 0.21243600
0.28574829 0.35486423 0.21244283
0.28591291 0.35487179 0.21245538
0.28618802 0.35488445 0.21247642
0.28662075 0.35490446 0.21250966
0.28727268 0.35493481 0.21256007
0.28822292 0.35497951 0.21263425
0.28957093 0.35504385 0.21274096
0.29143864 0.35513484 0.21289170
0.29397086 0.35526170 0.21310151
0.29733282 0.35543649 0.21338996
0.30170395 0.35567500 0.21378239
0.30726700 0.35599774 0.21431130
0.31419344 0.35643137 0.21501813
0.32262710 0.35701024 0.21595508
0.33266961 0.35777849 0.21718718
0.34437129 0.35879235 0.21879405
0.35772966 0.36012282 0.22087127
0.37269556 0.36185852 0.22353070
0.38918448 0.36410829 0.22689916
0.40708995 0.36700325 0.23111505
0.42629603 0.37069729 0.23632252
0.44668726 0.37536524 0.24266348
0.46815530 0.38119762 0.25026866
0.49060277 0.38839146 0.25924914
0.51394484 0.39713739 0.26969019
0.53810922 0.40760454 0.28164874
0.56303535 0.41992594 0.29515460
0.58867307 0.43418779 0.31021485
0.61498123 0.45042496 0.32682006
0.64192621 0.46862373 0.34495081
0.30447041 0.37662498 0.22722742
0.30447908 0.37662537 0.22722809
0.30451093 0.37662681 0.22723055
0.30458081 0.37662998 0.22723596
0.30470928 0.37663580 0.22724590
0.30492414 0.37664557 0.22726257
0.30526248 0.37666100 0.22728890
0.30577310 0.37668442 0.22732883
0.30651929 0.37671890 0.22738762
0.30758172 0.37676855 0.22747222
0.30906112 0.37683878 0.22759178
0.31108031 0.37693671 0.22775831
0.31378435 0.37707172 0.22798749
0.31733820 0.37725605 0.22829968
0.32192048 0.37750570 0.22872119
0.32771298 0.37784148 0.22928582
0.33488649 0.37829041 0.23003660
0.34358485 0.37888736 0.23102782
0.35391070 0.37967719 0.23232717
0.36591614 0.38071714 0.23401770
0.37960082 0.38207967 0.23619933
0.39491731 0.38385546 0.23898933
0.41178196 0.38615629 0.24252120
0.43008794 0.38911733 0.24694117
0.44971786 0.39289798 0.25240219
0.47055384 0.39768023 0.25905554
0.49248467 0.40366351 0.26704107
0.51540984 0.41105528 0.27647789
0.53924148 0.42005739 0.28745737
0.56390450 0.43084992 0.30003994
0.58933588 0.44357511 0.31425618
0.61548339 0.45832526 0.33011143
0.64230416 0.47513734 0.34759253
0.32399372 0.39891011 0.24277489
0.32400048 0.39891041 0.24277542
0.32402531 0.39891152 0.24277736
0.32407978 0.39891396 0.24278164
0.32417996 0.39891846 0.24278951
0.32434759 0.39892599 0.24280269
0.32461179 0.39893789 0.24282353
0.32501106 0.39895594 0.24285513
0.32559566 0.39898254 0.24290166
0.32643034 0.39902084 0.24296864
0.32759710 0.39907502 0.24306333
0.32919786 0.39915059 0.24319530
0.33135626 0.39925481 0.24337704
0.33421787 0.39939716 0.24362486
0.33794774 0.39959008 0.24395992
0.34272435 0.39984977 0.24440953
0.34872937 0.40019736 0.24500880
0.35613382 0.40066025 0.24580244
0.36508245 0.40127390 0.24684695
0.37567952 0.40208394 0.24821286
0.38797925 0.40314878 0.24998690
0.40198340 0.40454250 0.25227368
0.41764604 0.40635815 0.25519641
0.43488394 0.40871080 0.25889578
0.45358949 0.41174019 0.26352652
0.47364334 0.41561182 0.26925113
0.49492487 0.42051560 0.27623089
