src/ffmpeg_scripts/luts/sRGB-rec2020_-1p00.cube
TITLE "sRGB-rec2020_-1p00"
LUT_3D_SIZE 5
# PQ (EOTF Only)/sRGB -> PQ (EOTF Only)/Rec2020, CineEI Shift -1.00, Black Level 0.00% IRE, Input 100% -> Output 109% - Created with LUTCalc v4.01 by Ben Turley October 2020
0.06256172 0.06256172 0.06256172
0.21313633 0.13027579 0.09916065
0.39619594 0.24858943 0.17915227
0.59760488 0.40868128 0.30485822
0.81296146 0.60794117 0.48064908
0.18393202 0.23251138 0.13711237
0.23460672 0.23635747 0.14224770
0.39842934 0.28124177 0.19020623
0.59785507 0.41398931 0.30667681
0.81298653 0.60856622 0.48088330
0.34824742 0.42627762 0.26240534
0.35552732 0.42661363 0.26301010
0.42945892 0.43210688 0.27252512
0.60198539 0.47469928 0.33234931
0.81340920 0.61854711 0.48475304
0.53967525 0.63263764 0.42789496
0.54055479 0.63267393 0.42797334
0.55428857 0.63328500 0.42928741
0.63628900 0.63932070 0.44172331
0.81762481 0.68526633 0.51711117
0.75293006 0.84826408 0.63014677
0.75302173 0.84826764 0.63015561
0.75455723 0.84832779 0.63030485
0.76896149 0.84894090 0.63181845
0.85190323 0.85491919 0.64590820
0.11846720 0.09348990 0.23112453
0.21640863 0.13451784 0.23207703
0.39649303 0.24910046 0.24640181
0.59763782 0.40874888 0.32163810
0.81296476 0.60794892 0.48300494
0.18919652 0.23315938 0.23608494
0.23696914 0.23696914 0.23696914
0.39871887 0.28156577 0.25038586
0.59788793 0.41405293 0.32310916
0.81298983 0.60857391 0.48323322
0.34877120 0.42633296 0.28972885
0.35600699 0.42666876 0.29014571
0.42966228 0.43215870 0.29686228
0.60201684 0.47473159 0.34458679
0.81341249 0.61855403 0.48700696
0.53973624 0.63264361 0.43207927
0.54061520 0.63267990 0.43215404
0.55434075 0.63329093 0.43340812
0.63631089 0.63932626 0.44531863
0.81762794 0.68526975 0.51870442
0.75293639 0.84826467 0.63062852
0.75302806 0.84826823 0.63063732
0.75456345 0.84832837 0.63078579
0.76896681 0.84894148 0.63229178
0.85190538 0.85491973 0.64631618
0.22366567 0.16487703 0.42416462
0.25570198 0.17616345 0.42424638
0.40136474 0.25721025 0.42561649
0.59819281 0.40988319 0.43853969
0.81302048 0.60807976 0.51573088
0.24234587 0.24325128 0.42460271
0.26798644 0.24654310 0.42468406
0.40347042 0.28683679 0.42604746
0.59844145 0.41512098 0.43891249
0.81304554 0.60870389 0.51589103
0.35715264 0.42726289 0.43169528
0.36371969 0.42759519 0.43177038
0.43302985 0.43302985 0.43302985
0.60254676 0.47527579 0.44498765
0.81346793 0.61867100 0.51855622
0.54076076 0.63274440 0.48332418
0.54163019 0.63278064 0.48336659
0.55521808 0.63339103 0.48408024
0.63667996 0.63942018 0.49108008
0.81768088 0.68532751 0.54217473
0.75304331 0.84827456 0.63841841
0.75313487 0.84827812 0.63842651
0.75466852 0.84833826 0.63856326
0.76905677 0.84895130 0.63995127
0.85194158 0.85492892 0.65295638
0.37293741 0.28157396 0.63020696
0.37841555 0.28351410 0.63021580
0.43995690 0.31044586 0.63036494
0.60369170 0.42071690 0.63187759
0.81358869 0.60940817 0.64595916
0.37585664 0.30401779 0.63025439
0.38115515 0.30546464 0.63026322
0.44132211 0.32656152 0.63041228
0.60392630 0.42536357 0.63192418
0.81361359 0.61002362 0.64599931
0.41429289 0.43625701 0.63105211
0.41772685 0.43655739 0.63106087
0.46171568 0.44148595 0.63120868
0.60780482 0.48066534 0.63270801
0.81403336 0.61985954 0.64667516
0.55064581 0.63376955 0.63884990
0.55142852 0.63380540 0.63885796
0.56375327 0.63440923 0.63899409
0.64037583 0.64037583 0.64037583
0.81822079 0.68591652 0.65332651
0.75413033 0.84837573 0.69447216
0.75422083 0.84837929 0.69447664
0.75573680 0.84843936 0.69455220
0.76997225 0.84905171 0.69532193
0.85231121 0.85502284 0.70277526
0.56560621 0.45003140 0.84583741
0.56627407 0.45028903 0.84583827
0.57689640 0.45453444 0.84585294
0.64644328 0.48935108 0.84600284
0.81914670 0.62189358 0.84750563
0.56595732 0.45340101 0.84584207
0.56662269 0.45364919 0.84584293
0.57720789 0.45774280 0.84585760
0.64659264 0.49155283 0.84600749
0.81917012 0.62243314 0.84751020
0.57170009 0.49696133 0.84592077
0.57232620 0.49711536 0.84592164
0.58232129 0.49967976 0.84593629
0.64908137 0.52249799 0.84608605
0.81956507 0.63111348 0.84758746
0.61629009 0.64356149 0.84672213
0.61668101 0.64359382 0.84672299
0.62305319 0.64413847 0.84673751
0.67136807 0.64953823 0.84688594
0.82351042 0.69167790 0.84837413
0.76446748 0.84939300 0.85445117
0.76454844 0.84939651 0.85445195
0.76590588 0.84945590 0.85446527
0.77875828 0.85006137 0.85460144
0.85596766 0.85596766 0.85596766
