src/ffmpeg_scripts/luts/sRGB-rec2020_3p00.cube
TITLE "sRGB-rec2020_3p00"
LUT_3D_SIZE 33
# PQ (EOTF Only)/sRGB -> PQ (EOTF Only)/Rec2020, CineEI Shift 3.00, Black Level 0.00% IRE, Input 100% -> Output 109% - Created with LUTCalc v4.01 by Ben Turley October 2020
0.06256172 0.06256172 0.06256172
0.11771306 0.08262577 0.07210220
0.16351050 0.10396498 0.08367388
0.20544208 0.12600637 0.09657233
0.24488078 0.14856360 0.11053401
0.28248703 0.17153665 0.12540909
0.31865055 0.19486165 0.14109792
0.35362836 0.21849379 0.15752819
0.38760249 0.24239965 0.17464446
0.42070839 0.26655321 0.19240252
0.45305071 0.29093355 0.21076608
0.48471262 0.31552346 0.22970467
0.51576174 0.34030847 0.24919226
0.54625410 0.36527626 0.26920630
0.57623683 0.39041616 0.28972697
0.60575012 0.41571885 0.31073672
0.63482859 0.44117610 0.33221987
0.66350241 0.46678058 0.35416226
0.69179804 0.49252573 0.37655108
0.71973890 0.51840563 0.39937463
0.74734586 0.54441489 0.42262219
0.77463758 0.57054863 0.44628386
0.80163092 0.59680233 0.47035053
0.82834108 0.62317187 0.49481369
0.85478194 0.64965343 0.51966545
0.88096613 0.67624348 0.54489842
0.90690523 0.70293872 0.57050568
0.91886608 0.72973609 0.59648073
0.91886608 0.75663272 0.62281743
0.91886608 0.78362593 0.64951001
0.91886608 0.81071318 0.67655299
0.91886608 0.83789211 0.70394118
0.91886608 0.86516047 0.73166967
0.10432414 0.12714520 0.08515918
0.12819041 0.12906742 0.08710966
0.16747991 0.13542262 0.09302909
0.20734732 0.14670518 0.10244054
0.24592159 0.16215493 0.11433203
0.28310289 0.18057966 0.12794983
0.31903518 0.20099071 0.14284618
0.35387809 0.22272592 0.15875887
0.38776941 0.24537139 0.17552670
0.42082251 0.26867033 0.19304426
0.45313014 0.29246039 0.21123838
0.48476870 0.31663593 0.23005558
0.51580180 0.34112598 0.24945500
0.54628299 0.36588128 0.26940423
0.57625783 0.39086654 0.28987683
0.60576548 0.41605571 0.31085065
0.63483989 0.44142902 0.33230673
0.66351075 0.46697105 0.35422865
0.69180422 0.49266950 0.37660191
0.71974349 0.51851431 0.39941358
0.74734927 0.54449714 0.42265205
0.77464013 0.57061090 0.44630676
0.80163281 0.59684947 0.47036807
0.82834250 0.62320754 0.49482712
0.85478300 0.64968040 0.51967572
0.88096691 0.67626383 0.54490626
0.90690582 0.70295405 0.57051165
0.91886608 0.72974761 0.59648526
0.91886608 0.75664135 0.62282086
0.91886608 0.78363237 0.64951259
0.91886608 0.81071798 0.67655493
0.91886608 0.83789567 0.70394263
0.91886608 0.86516309 0.73167075
0.14178694 0.17829169 0.10860743
0.15282149 0.17894024 0.10939540
0.17990664 0.18125838 0.11213220
0.21387729 0.18602904 0.11744373
0.24961471 0.19387480 0.12551177
0.28532243 0.20503328 0.13608705
0.32043227 0.21931585 0.14873410
0.35478905 0.23625487 0.16303180
0.38837985 0.25530107 0.17864826
0.42124049 0.27595540 0.19534234
0.45342132 0.29781885 0.21294303
0.48497441 0.32059278 0.23132876
0.51594881 0.34406061 0.25041165
0.54638904 0.36806712 0.27012673
0.57633492 0.39250107 0.29042483
0.60582188 0.41728222 0.31126772
0.63488136 0.44235205 0.33262505
0.66354138 0.46766733 0.35447209
0.69182691 0.49319569 0.37678836
0.71976035 0.51891248 0.39955652
0.74736182 0.54479867 0.42276167
0.77464948 0.57083930 0.44639082
0.80163978 0.59702246 0.47043250
0.82834770 0.62333847 0.49487645
0.85478687 0.64977938 0.51971343
0.88096980 0.67633855 0.54493504
0.90690796 0.70301035 0.57053356
0.91886608 0.72978992 0.59650189
0.91886608 0.75667306 0.62283345
0.91886608 0.78365606 0.64952209
0.91886608 0.81073560 0.67656206
0.91886608 0.83790872 0.70394797
0.91886608 0.86517272 0.73167472
0.17731134 0.22416889 0.13251016
0.18303197 0.22446903 0.13291610
0.20012657 0.22555978 0.13437341
0.22619692 0.22789183 0.13740275
0.25709131 0.23197780 0.14246791
0.28997554 0.23830532 0.14983434
0.32341566 0.24722824 0.15951151
0.35675455 0.25888080 0.17130662
0.38970501 0.27316206 0.18493150
0.42215126 0.28979391 0.20009118
0.45405733 0.30841179 0.21652927
0.48542444 0.32864350 0.23404045
0.51627074 0.35015640 0.25246665
0.54662144 0.37267563 0.27168809
0.57650396 0.39598444 0.29161411
0.60594559 0.41991646 0.31217565
0.63497237 0.44434575 0.33331950
0.66360860 0.46917754 0.35500405
0.69187673 0.49434049 0.37719628
0.71979736 0.51978071 0.39986951
0.74738936 0.54545727 0.42300186
0.77467000 0.57133882 0.44657510
0.80165509 0.59740113 0.47057378
0.82835911 0.62362528 0.49498465
0.85479537 0.64999634 0.51979617
0.88097613 0.67650239 0.54499818
0.90691267 0.70313382 0.57058164
0.91886608 0.72988274 0.59653840
0.91886608 0.75674263 0.62286109
0.91886608 0.78370803 0.64954293
0.91886608 0.81077428 0.67657772
0.91886608 0.83793738 0.70395967
0.91886608 0.86519386 0.73168343
0.21153835 0.26672079 0.15674194
0.21478927 0.26688169 0.15697731
0.22546889 0.26746967 0.15783223
0.24414024 0.26874395 0.15965798
0.26907064 0.27103230 0.16285100
0.29785479 0.27471304 0.16778471
0.32863076 0.28017643 0.17472924
0.36025520 0.28776498 0.18379423
0.39209211 0.29770846 0.19492547
0.42380359 0.31007993 0.20795030
0.45521647 0.32479204 0.22263982
0.48624710 0.34163263 0.23875940
0.51686044 0.36031963 0.25609761
0.54704772 0.38055306 0.27447720
0.57681431 0.40205109 0.29375545
0.60617289 0.42456879 0.31381982
0.63513965 0.44790366 0.33458238
0.66373221 0.47189357 0.35597442
0.69196835 0.49641126 0.37794207
0.71986544 0.52135800 0.40044270
0.74744004 0.54665762 0.42344229
0.77470777 0.57225145 0.44691332
0.80168325 0.59809423 0.47083327
0.82838011 0.62415096 0.49518348
0.85481102 0.65039440 0.51994828
0.88098778 0.67680324 0.54511431
0.90692133 0.70336068 0.57067008
0.91886608 0.73005335 0.59660557
0.91886608 0.75687056 0.62291194
0.91886608 0.78380362 0.64958129
0.91886608 0.81084543 0.67660653
0.91886608 0.83799011 0.70398122
0.91886608 0.86523274 0.73169946
0.24478661 0.30686457 0.18123618
0.24675892 0.30695859 0.18138261
0.25355418 0.30730301 0.18191718
0.26649731 0.30805384 0.18307292
0.28554928 0.30941723 0.18513921
0.30947389 0.31165022 0.18843995
0.33667604 0.31505386 0.19329353
0.36581207 0.31995255 0.19995940
0.39595063 0.32665820 0.20859031
0.42650574 0.33542443 0.21921149
0.45712660 0.34640383 0.23173443
0.48760969 0.35962382 0.24599421
0.51784056 0.37499023 0.26179157
0.54775794 0.39231521 0.27892582
0.57733225 0.41135686 0.29721428
0.60655266 0.43185693 0.31650061
0.63541939 0.45356853 0.33665584
0.66393903 0.47627200 0.35757588
0.69212173 0.49978115 0.37917763
0.71997945 0.52394326 0.40139507
0.74752493 0.54863574 0.42417564
0.77477104 0.57376160 0.44747739
0.80173043 0.59924470 0.47126657
0.82841529 0.62502560 0.49551581
0.85483725 0.65105789 0.52020268
0.88100731 0.67730537 0.54530863
0.90693585 0.70373971 0.57081814
0.91886608 0.73033864 0.59671806
0.91886608 0.75708460 0.62299711
0.91886608 0.78396362 0.64964555
0.91886608 0.81096456 0.67665481
0.91886608 0.83807842 0.70401733
0.91886608 0.86529789 0.73172633
0.27724858 0.34513414 0.20595071
0.27850288 0.34519231 0.20604618
0.28293558 0.34540566 0.20639559
0.29182977 0.34587210 0.20715573
0.30588618 0.34672382 0.20853060
0.32489955 0.34813191 0.21076802
0.34795668 0.35030912 0.21414633
0.37390616 0.35350694 0.21894722
0.40171765 0.35800376 0.22541733
0.43061485 0.36408183 0.23372910
0.46006532 0.37199457 0.24395528
0.48972266 0.38193053 0.25606680
0.51936871 0.39398438 0.26995260
0.54886947 0.40814496 0.28545077
0.57814501 0.42430388 0.30237935
0.60714974 0.44228046 0.32055930
0.63585980 0.46185338 0.33982807
0.66426497 0.48278999 0.36004545
0.69236362 0.50486792 0.38109439
0.72015934 0.52788790 0.40287916
0.74765892 0.55167916 0.42532234
0.77487094 0.57609987 0.44836168
0.80180495 0.60103477 0.47194717
0.82847087 0.62639156 0.49603856
0.85487868 0.65209704 0.52060331
0.88103817 0.67809351 0.54561492
0.90695879 0.70433562 0.57105166
0.91886608 0.73078772 0.59689555
0.91886608 0.75742184 0.62313156
0.91886608 0.78421592 0.64974701
0.91886608 0.81115252 0.67673105
0.91886608 0.83821781 0.70407436
0.91886608 0.86540074 0.73176877
0.30905349 0.38187791 0.23085616
0.30987957 0.38191539 0.23092052
0.31284109 0.38205294 0.23115639
0.31897490 0.38235416 0.23167128
0.32915450 0.38290585 0.23260866
0.34376497 0.38382267 0.23415060
0.36257314 0.38525180 0.23651654
0.38487752 0.38737595 0.23995396
0.40979761 0.39041253 0.24471860
0.43650875 0.39460651 0.25104534
0.46435030 0.40021503 0.25911579
0.49283914 0.40748336 0.26903248
0.52164078 0.41661547 0.28080876
0.55053147 0.42774566 0.29437686
0.57936516 0.44091976 0.30960959
0.60804869 0.45609173 0.32634650
0.63652424 0.47313625 0.34441735
0.66475747 0.49187218 0.36365864
0.69272951 0.51208937 0.38392319
0.72043168 0.53357224 0.40508402
0.74786189 0.55611689 0.42703460
0.77502234 0.57954103 0.44968721
0.80191792 0.60368810 0.47297039
0.82855515 0.62842750 0.49682625
0.85494152 0.65365250 0.52120801
0.88108497 0.67927711 0.54607781
0.90699360 0.70523277 0.57140492
0.91886608 0.73146514 0.59716426
0.91886608 0.75793131 0.62333523
0.91886608 0.78459748 0.64990077
0.91886608 0.81143702 0.67684664
0.91886608 0.83842893 0.70416084
0.91886608 0.86555660 0.73183314
0.34029429 0.41734042 0.25593072
0.34085307 0.41736532 0.25597520
0.34287343 0.41745671 0.25613835
0.34714114 0.41765702 0.25649521
0.35446020 0.41802455 0.25714739
0.36544127 0.41863719 0.25822716
0.38030934 0.41959675 0.25990054
0.39884395 0.42103326 0.26236666
0.42048782 0.42310790 0.26585091
0.44453903 0.42601337 0.27058994
0.47031603 0.42996965 0.27680864
0.49724639 0.43521329 0.28469283
0.52489017 0.44197935 0.29436459
0.55292759 0.45047732 0.30586814
0.58113449 0.46086513 0.31917028
0.60935770 0.47322786 0.33417434
0.63749472 0.48756722 0.35074148
0.66547839 0.50380491 0.36871278
0.69326599 0.52179825 0.38792726
0.72083146 0.54136267 0.40823395
0.74816011 0.56229492 0.42949843
0.77524493 0.58439235 0.45160517
0.80208409 0.60746627 0.47445724
0.82867918 0.63134936 0.49797459
0.85503402 0.65589847 0.52209179
0.88115388 0.68099426 0.54675564
0.90704485 0.70653912 0.57192297
0.91886608 0.73245429 0.59755876
0.91886608 0.75867682 0.62363449
0.91886608 0.78515675 0.65012685
0.91886608 0.81185455 0.67701668
0.91886608 0.83873907 0.70428811
0.91886608 0.86578573 0.73192790
0.37104103 0.45170236 0.28115750
0.37142699 0.45171929 0.28118884
0.37282982 0.45178143 0.28130384
0.37583036 0.45191772 0.28155569
0.38109046 0.45216806 0.28201706
0.38923880 0.45258611 0.28278401
0.40072204 0.45324286 0.28398012
0.41567999 0.45423045 0.28575930
0.43391538 0.45566602 0.28830557
0.45497319 0.45769468 0.29182796
0.47827599 0.46049060 0.29654869
0.50324626 0.46425457 0.30268443
0.52938028 0.46920641 0.31042280
0.55627513 0.47557106 0.31989938
0.58362628 0.48355879 0.33118145
0.61121208 0.49334183 0.34426351
0.63887545 0.50503267 0.35907520
0.66650733 0.51866944 0.37549802
0.69403347 0.53421277 0.39338534
0.72140438 0.55155469 0.41258070
0.74858804 0.57053635 0.43293161
0.77556465 0.59096947 0.45429818
0.80232295 0.61265642 0.47655737
0.82885754 0.63540585 0.49960406
0.85516710 0.65904287 0.52335032
0.88125305 0.68341419 0.54772352
0.90711863 0.70838960 0.57266427
0.91886608 0.73386104 0.59812417
0.91886608 0.75974034 0.62406393
0.91886608 0.78595647 0.65045158
0.91886608 0.81245268 0.67726108
0.91886608 0.83918396 0.70447114
0.91886608 0.86611476 0.73206423
0.40134847 0.48510235 0.30652300
0.40161953 0.48511407 0.30654541
0.40260804 0.48515712 0.30662769
0.40473964 0.48525155 0.30680803
0.40853199 0.48542511 0.30713889
0.41454123 0.48571531 0.30769032
0.42327167 0.48617206 0.30855387
0.43506474 0.48686088 0.30984626
0.45001304 0.48786637 0.31171202
0.46794340 0.48929572 0.31432367
0.48847595 0.49128169 0.31787776
0.51112382 0.49398417 0.32258545
0.53538772 0.49758890 0.32865674
0.56081840 0.50230209 0.33628003
0.58704457 0.50833954 0.34560060
0.61377633 0.51591006 0.35670351
0.64079608 0.52519469 0.36960573
0.66794492 0.53632546 0.38425940
0.69510927 0.54936852 0.40056458
0.72220941 0.56431645 0.41838689
0.74919043 0.58109166 0.43757547
0.77601533 0.59955962 0.45797777
0.80265998 0.61954786 0.47944990
0.82910942 0.64086588 0.50186249
0.85535514 0.66332224 0.52510318
0.88139323 0.68673681 0.54907671
0.90722295 0.71094817 0.57370370
0.91886608 0.73581679 0.59891877
0.91886608 0.76122523 0.62466849
0.91886608 0.78707673 0.65090934
0.91886608 0.81329267 0.67760596
0.91886608 0.83980998 0.70472961
0.91886608 0.86657843 0.73225687
0.43126057 0.51764994 0.33201611
0.43145350 0.51765818 0.33203234
0.43215866 0.51768843 0.33209192
0.43368748 0.51775483 0.33222257
0.43643481 0.51787691 0.33246251
0.44085815 0.51808120 0.33286310
0.44743121 0.51840312 0.33349214
0.45656933 0.51888954 0.33443744
0.46854430 0.51960156 0.33581026
0.48342184 0.52061774 0.33774774
0.50105091 0.52203744 0.34041344
0.52110848 0.52398371 0.34399430
0.54317589 0.52660516 0.34869286
0.56681426 0.53007560 0.35471387
0.59161824 0.53459017 0.36224606
0.61724344 0.54035668 0.37144216
0.64341358 0.54758162 0.38240130
0.66991580 0.55645160 0.39515894
0.69659076 0.56711294 0.40968651
0.72332175 0.57965366 0.42590072
0.75002487 0.59409256 0.44367886
0.77664080 0.61037831 0.46287604
0.80312840 0.62839856 0.48334056
0.82945985 0.64799638 0.50492553
0.85561697 0.66898935 0.52749617
0.88158855 0.69118746 0.55093359
0.90736837 0.71440708 0.57513577
0.91886608 0.73848017 0.60001694
0.91886608 0.76325909 0.62550601
0.91886608 0.78861807 0.65154466
0.91886608 0.81445244 0.67808529
0.91886608 0.84067665 0.70508924
0.91886608 0.86722166 0.73252512
0.46081338 0.54943372 0.35762758
0.46095222 0.54943958 0.35763944
0.46146041 0.54946111 0.35768300
0.46256623 0.54950835 0.35777856
0.46456715 0.54959525 0.35795418
0.46782516 0.54974072 0.35824771
0.47274714 0.54997016 0.35870949
0.47974294 0.55031728 0.35940540
0.48916325 0.55082634 0.36042019
0.50123246 0.55155484 0.36186063
0.51600088 0.55257646 0.36385801
0.53333689 0.55398424 0.36656883
0.55296164 0.55589345 0.37017255
0.57450919 0.55844372 0.37486501
0.59758840 0.56179927 0.38084687
0.62182973 0.56614621 0.38830721
0.64691174 0.57168556 0.39740471
0.67257054 0.57862134 0.40825009
0.69859822 0.58714381 0.42089422
0.72483582 0.59741012 0.43532519
0.75116456 0.60952566 0.45147449
0.77749728 0.62353092 0.46923022
0.80377108 0.63939709 0.48845340
0.82994137 0.65703168 0.50899362
0.85597715 0.67629231 0.53070161
0.88185746 0.69700482 0.55343786
0.90756871 0.71898143 0.57707748
0.91886608 0.74203608 0.60151216
0.91886608 0.76599523 0.62665008
0.91886608 0.79070413 0.65241470
0.91886608 0.81602948 0.67874298
0.91886608 0.84185943 0.70558342
0.91886608 0.86810199 0.73289416
0.49003706 0.58052675 0.38334950
0.49013787 0.58053096 0.38335824
0.49050723 0.58054642 0.38339035
0.49131298 0.58058037 0.38346079
0.49277796 0.58064282 0.38359029
0.49518237 0.58074741 0.38380693
0.49885868 0.58091245 0.38414819
0.50417192 0.58116237 0.38466346
0.51148225 0.58152936 0.38541699
0.52109268 0.58205553 0.38649093
0.53319456 0.58279534 0.38798845
0.54782946 0.58381847 0.39003612
0.56488264 0.58521279 0.39278486
0.58411030 0.58708731 0.39640825
0.60518821 0.58957438 0.40109700
0.62776361 0.59283048 0.40704871
0.65149652 0.59703435 0.41445297
0.67608514 0.60238141 0.42347357
0.70127665 0.60907335 0.43423097
0.72686805 0.61730311 0.44678926
0.75270127 0.62723628 0.46115090
0.77865613 0.63899241 0.47726049
0.80464295 0.65263007 0.49501596
0.83059591 0.66813980 0.51428389
0.85646748 0.68544660 0.53491522
0.88222397 0.70442137 0.55675866
0.90784201 0.72489775 0.57967037
0.91886608 0.74669050 0.60351990
0.91886608 0.76961170 0.62819297
0.91886608 0.79348302 0.65359201
0.91886608 0.81814335 0.67963528
0.91886608 0.84345257 0.70625523
0.91886608 0.86929223 0.73339661
0.51895716 0.61099020 0.40917509
0.51903089 0.61099325 0.40918157
0.51930124 0.61100445 0.40920538
0.51989204 0.61102904 0.40925764
0.52096984 0.61107428 0.40935374
0.52274886 0.61115007 0.40951458
0.52549279 0.61126972 0.40976817
0.52950824 0.61145100 0.41015161
0.53512585 0.61171744 0.41071346
0.54266686 0.61209995 0.41151655
0.55239858 0.61263876 0.41264087
0.56448892 0.61338582 0.41418663
0.57897474 0.61440744 0.41627661
0.59575595 0.61578728 0.41905731
0.61461713 0.61762920 0.42269775
0.63526765 0.62005967 0.42738473
0.65738605 0.62322886 0.43331372
0.68065701 0.62730957 0.44067511
0.70479552 0.63249264 0.44963730
0.72955865 0.63897789 0.46032927
0.75474800 0.64696034 0.47282656
0.78020670 0.65661260 0.48714423
0.80581363 0.66806595 0.50323845
0.83147714 0.68139429 0.52101593
0.85712899 0.69660476 0.54034824
0.88271920 0.71363767 0.56108756
0.90821173 0.73237569 0.58308063
0.91886608 0.75265954 0.60617951
0.91886608 0.77430628 0.63024845
0.91886608 0.79712637 0.65516747
0.91886608 0.82093709 0.68083350
0.91886608 0.84557151 0.70715981
0.91886608 0.87088320 0.73407455
0.54759560 0.64087603 0.43509842
0.54764985 0.64087825 0.43510325
0.54784888 0.64088642 0.43512100
0.54828437 0.64090435 0.43515996
0.54908074 0.64093734 0.43523163
0.55040061 0.64099262 0.43535163
0.55244931 0.64107991 0.43554095
0.55547525 0.64121222 0.43582749
0.55976275 0.64140682 0.43624796
0.56561417 0.64168644 0.43685019
0.57332010 0.64208085 0.43769578
0.58312075 0.64262868 0.43886293
0.59516717 0.64337972 0.44044940
0.60949410 0.64439751 0.44257494
0.62601417 0.64576218 0.44538258
0.64453533 0.64757338 0.44903785
0.66479444 0.64995275 0.45372468
0.68649594 0.65304541 0.45963721
0.70934517 0.65701938 0.46696702
0.73307154 0.66206188 0.47588689
0.75744083 0.66837137 0.48653343
0.78225894 0.67614481 0.49899234
0.80737024 0.68556081 0.51328979
0.83265304 0.69676073 0.52939217
0.85801412 0.70983162 0.54721390
0.88338322 0.72479493 0.56663089
0.90870824 0.74160423 0.58749617
0.91886608 0.76015241 0.60965446
0.91886608 0.78028628 0.63295372
0.91886608 0.80182468 0.65725305
0.91886608 0.82457633 0.68242695
0.91886608 0.84835432 0.70836704
0.91886608 0.87298619 0.73498182
0.57597144 0.67022883 0.46111426
0.57601155 0.67023046 0.46111787
0.57615877 0.67023645 0.46113116
0.57648118 0.67024959 0.46116033
0.57707179 0.67027378 0.46121400
0.57805353 0.67031431 0.46130388
0.57958446 0.67037833 0.46144575
0.58186124 0.67047541 0.46166062
0.58511847 0.67061824 0.46197626
0.58962134 0.67082361 0.46242901
0.59564896 0.67111356 0.46306605
0.60346757 0.67151683 0.46394790
0.61329665 0.67207068 0.46515128
0.62527503 0.67282307 0.46677197
0.63943700 0.67383518 0.46892728
0.65570636 0.67518422 0.47175757
0.67391055 0.67696636 0.47542575
0.69380928 0.67929933 0.48011380
0.71512855 0.68232419 0.48601527
0.73759120 0.68620519 0.49332334
0.76093901 0.69112683 0.50221509
0.78494537 0.69728675 0.51283423
0.80942007 0.70488394 0.52527561
0.83420874 0.71410243 0.53957530
0.85918931 0.72509247 0.55570868
0.88426728 0.73795253 0.57359687
0.90937069 0.75271649 0.59311935
0.91886608 0.76934931 0.61412949
0.91886608 0.78775251 0.63646969
0.91886608 0.80777781 0.65998378
0.91886608 0.82924513 0.68452568
0.91886608 0.85196105 0.70996450
0.91886608 0.87573442 0.73618671
0.60410134 0.69908730 0.48721798
0.60413112 0.69908850 0.48722070
0.60424043 0.69909291 0.48723068
0.60447998 0.69910259 0.48725259
0.60491934 0.69912041 0.48729290
0.60565123 0.69915026 0.48736044
0.60679646 0.69919741 0.48746707
0.60850831 0.69926893 0.48762865
0.61097516 0.69937419 0.48786618
0.61441929 0.69952561 0.48820727
0.61908957 0.69973954 0.48868793
0.62524594 0.70003737 0.48935474
0.63313522 0.70044693 0.49026730
0.64296091 0.70100431 0.49150110
0.65485301 0.70175588 0.49315031
0.66884644 0.70276082 0.49533035
0.68487493 0.70409392 0.49817955
0.70278240 0.70584849 0.50185897
0.72234773 0.70813912 0.50654942
0.74331509 0.71110361 0.51244457
0.76542213 0.71490336 0.51973962
0.78842127 0.71972097 0.52861606
0.81209252 0.72575387 0.53922431
0.83624911 0.73320327 0.55166763
0.86073783 0.74225836 0.56599099
0.88543638 0.75307743 0.58217771
0.91024917 0.76576908 0.60015457
0.91886608 0.78037796 0.61980376
0.91886608 0.79687873 0.64097841
0.91886608 0.81517999 0.66351820
0.91886608 0.83513704 0.68726256
0.91886608 0.85656996 0.71206020
0.91886608 0.87928266 0.73777487
0.63200005 0.72748531 0.51340545
0.63202223 0.72748620 0.51340749
0.63210363 0.72748946 0.51341501
0.63228211 0.72749661 0.51343150
0.63260976 0.72750977 0.51346186
0.63315644 0.72753183 0.51351273
0.63401399 0.72756668 0.51359305
0.63530069 0.72761954 0.51371482
0.63716502 0.72769737 0.51389392
0.63978767 0.72780937 0.51415131
0.64338001 0.72796767 0.51451444
0.64817697 0.72818821 0.51501898
0.65442269 0.72849179 0.51571097
0.66234844 0.72890547 0.51664927
0.67214534 0.72946425 0.51790831
0.68393711 0.73021318 0.51958099
0.69776008 0.73120975 0.52178131
0.71355686 0.73252672 0.52464611
0.73118551 0.73425506 0.52833530
0.75044114 0.73650684 0.53302920
0.77108330 0.73941739 0.53892226
0.79286227 0.74314604 0.54621217
0.81553954 0.74787422 0.55508500
0.83890086 0.75379977 0.56569770
0.86276242 0.76112649 0.57816140
0.88697208 0.77004866 0.59252915
0.91140732 0.78073201 0.60879119
0.91886608 0.79329428 0.62687898
0.91886608 0.80778951 0.64667655
0.91886608 0.82420046 0.66803604
0.91886608 0.84244124 0.69079389
0.91886608 0.86236937 0.71478482
0.91886608 0.88380397 0.73985216
0.65968067 0.75545271 0.53967292
0.65969721 0.75545336 0.53967446
0.65975797 0.75545578 0.53968013
0.65989123 0.75546107 0.53969258
0.66013604 0.75547083 0.53971548
0.66054497 0.75548717 0.53975385
0.66118764 0.75551300 0.53981446
0.66215464 0.75555217 0.53990636
0.66356151 0.75560986 0.54004160
0.66555201 0.75569290 0.54023606
0.66829978 0.75581031 0.54051064
0.67200656 0.75597397 0.54089259
0.67689544 0.75619941 0.54141729
0.68319746 0.75650690 0.54213029
0.69113146 0.75692279 0.54308979
0.70087902 0.75748118 0.54436941
0.71255946 0.75822593 0.54606106
0.72621114 0.75921312 0.54827765
0.74178469 0.76051383 0.55115511
0.75915041 0.76221715 0.55485273
0.77811729 0.76443318 0.55955105
0.79845800 0.76729541 0.56544585
0.81993354 0.77096182 0.57273787
0.84231317 0.77561341 0.58161798
0.86538747 0.78144909 0.59224962
0.88897520 0.78867562 0.60475141
0.91292507 0.79749246 0.61918375
0.91886608 0.80807250 0.63554292
0.91886608 0.82054178 0.65376407
0.91886608 0.83496253 0.67373212
0.91886608 0.85132414 0.69529742
0.91886608 0.86954462 0.71829252
0.91886608 0.88948225 0.74254700
0.68715491 0.78301599 0.56601703
0.68716728 0.78301648 0.56601819
0.68721271 0.78301827 0.56602247
0.68731236 0.78302221 0.56603187
0.68749551 0.78302945 0.56604916
0.68780171 0.78304158 0.56607814
0.68828361 0.78306076 0.56612393
0.68901022 0.78308984 0.56619336
0.69007062 0.78313268 0.56629556
0.69157748 0.78319436 0.56644259
0.69367006 0.78328159 0.56665032
0.69651555 0.78340323 0.56693953
0.70030725 0.78357087 0.56733730
0.70525815 0.78379969 0.56787870
0.71158853 0.78410948 0.56860887
0.71950721 0.78452595 0.56958546
0.72918850 0.78508238 0.57088143
0.74074887 0.78582164 0.57258793
0.75422911 0.78679860 0.57481720
0.76958720 0.78808297 0.57770462
0.78670419 0.78976235 0.58140948
0.80540101 0.79194536 0.58611307
0.82546152 0.79476425 0.59201319
0.84665587 0.79837629 0.59931407
0.86875983 0.80296277 0.60821175
0.89156811 0.80872427 0.61887624
0.91490154 0.81587106 0.63143332
0.91886608 0.82460799 0.64595019
0.91886608 0.83511493 0.66242832
0.91886608 0.84752560 0.68080555
0.91886608 0.86190934 0.70096667
0.91886608 0.87826072 0.72275933
0.91886608 0.89650009 0.74601150
0.71443336 0.81019886 0.59243469
0.71444262 0.81019922 0.59243557
0.71447661 0.81020056 0.59243880
0.71455119 0.81020348 0.59244590
0.71468833 0.81020886 0.59245897
0.71491774 0.81021788 0.59248087
0.71527916 0.81023214 0.59251547
0.71582498 0.81025376 0.59256795
0.71662337 0.81028561 0.59264521
0.71776167 0.81033148 0.59275641
0.71934968 0.81039636 0.59291358
0.72152241 0.81048685 0.59313254
0.72444117 0.81061162 0.59343396
0.72829187 0.81078202 0.59384473
0.73327895 0.81101288 0.59439962
0.73961376 0.81132354 0.59514343
0.74749718 0.81173915 0.59613333
0.75709807 0.81229226 0.59744176
0.76853125 0.81302489 0.59915937
0.78184031 0.81399090 0.60139798
0.79699008 0.81525888 0.60429291
0.81387106 0.81691530 0.60800390
0.83231457 0.81906773 0.61271359
0.85211404 0.82184772 0.61862236
0.87304736 0.82541248 0.62593853
0.89489579 0.82994422 0.63486368
0.91745736 0.83564591 0.64557451
