src/ffmpeg_scripts/luts/sRGB-rec2020_-0p33.cube
TITLE "sRGB-rec2020_-0p33"
LUT_3D_SIZE 5
# PQ (EOTF Only)/sRGB -> PQ (EOTF Only)/Rec2020, CineEI Shift -0.33, Black Level 0.00% IRE, Input 100% -> Output 109% - Created with LUTCalc v4.01 by Ben Turley October 2020
0.06256172 0.06256172 0.06256172
0.23675131 0.14378012 0.10751639
0.43270128 0.27550498 0.19909553
0.64000031 0.44575772 0.33612190
0.85559458 0.65047322 0.52043925
0.20442604 0.25799038 0.15161975
0.26027840 0.26218885 0.15748373
0.43503917 0.31080002 0.21140523
0.64025397 0.45129903 0.33806520
0.85561939 0.65110607 0.52068081
0.38224921 0.46410624 0.29048192
0.38994261 0.46445603 0.29113602
0.46741715 0.47017152 0.30141173
0.64444043 0.51430012 0.36540364
0.85603765 0.66120482 0.52467035
0.58103428 0.67544004 0.46578971
0.58193314 0.67547667 0.46587128
0.59595383 0.67609344 0.46723870
0.67912480 0.68218298 0.48016337
0.86020838 0.72839360 0.55793490
0.79600883 0.89047078 0.67292542
0.79610010 0.89047429 0.67293434
0.79762875 0.89053361 0.67308502
0.81195688 0.89113828 0.67461312
0.89405934 0.89703244 0.68882410
0.13014084 0.10077539 0.25647508
0.24034924 0.14864913 0.25751589
0.43301233 0.27606013 0.27312744
0.64003371 0.44582832 0.35401841
0.85559784 0.65048107 0.52286844
0.21028341 0.25869815 0.26189153
0.26285604 0.26285604 0.26285604
0.43534217 0.31114853 0.27745611
0.64028729 0.45136541 0.35558379
0.85562265 0.65111387 0.52310377
0.38280316 0.46416385 0.31991875
0.39044909 0.46451342 0.32036608
0.46762872 0.47022541 0.32756663
0.64447231 0.51433347 0.37837588
0.85604090 0.66121183 0.52699290
0.58109661 0.67544606 0.47014280
0.58199488 0.67548269 0.47022056
0.59600705 0.67609942 0.47152457
0.67914689 0.68218859 0.48389467
0.86021148 0.72839703 0.55956850
0.79601513 0.89047136 0.67341182
0.79610640 0.89047487 0.67342070
0.79763494 0.89053419 0.67357061
0.81196218 0.89113886 0.67509093
0.89406145 0.89703298 0.68923522
0.24831249 0.18310018 0.46190610
0.28322340 0.19575609 0.46199124
0.43811035 0.28485790 0.46341793
0.64059639 0.44701293 0.47685736
0.85565298 0.65061354 0.55651934
0.26871485 0.26970039 0.46236233
0.29651386 0.27328105 0.46244704
0.44031235 0.31681388 0.46386663
0.64084847 0.45247972 0.47724459
0.85567778 0.65124546 0.55668360
0.39165856 0.46513185 0.46974347
0.39858555 0.46547772 0.46982157
0.47113126 0.47113126 0.47113126
0.64500927 0.51489523 0.48355127
0.85609577 0.66133009 0.55941656
0.58214362 0.67554779 0.52319755
0.58303201 0.67558438 0.52324127
0.59690176 0.67620045 0.52397691
0.67951924 0.68228331 0.53118793
0.86026385 0.72845497 0.58358836
0.79612158 0.89048112 0.68127293
0.79621274 0.89048463 0.68128110
0.79773953 0.89054394 0.68141904
0.81205159 0.89114854 0.68281891
0.89409715 0.89704203 0.69592375
0.40829200 0.31115734 0.67298619
0.41405165 0.31324359 0.67299511
0.47832929 0.34208983 0.67314569
0.64616929 0.45831434 0.67467282
0.85621526 0.65195847 0.68887545
0.41136206 0.33522353 0.67303407
0.41692958 0.33677001 0.67304299
0.47974685 0.35925530 0.67319349
0.64640696 0.46315459 0.67471985
0.85623990 0.65258149 0.68891591
0.45161578 0.47448577 0.67383948
0.45519751 0.47479791 0.67384832
0.50088234 0.47991695 0.67399755
0.65033516 0.52045603 0.67551106
0.85665528 0.66253180 0.68959696
0.59223764 0.67658248 0.68170814
0.59303629 0.67661866 0.68171628
0.60560040 0.67722804 0.68185357
0.68324706 0.68324706 0.68324706
0.86079788 0.72904576 0.69629642
0.79720378 0.89058089 0.73762271
0.79729387 0.89058440 0.73762719
0.79880289 0.89064365 0.73770291
0.81296150 0.89124756 0.73847413
0.89446157 0.89713461 0.74593852
0.60748745 0.48878212 0.88807716
0.60816749 0.48904918 0.88807802
0.61897512 0.49344832 0.88809248
0.68936330 0.52940751 0.88824036
0.86171365 0.66458794 0.88972272
0.60784497 0.49227417 0.88808176
0.60852244 0.49253129 0.88808261
0.61929180 0.49677074 0.88809708
0.68951381 0.53167465 0.88824495
0.86173682 0.66513327 0.88972723
0.61369012 0.53724041 0.88815940
0.61432712 0.53739884 0.88816025
0.62448861 0.54003609 0.88817471
0.69202120 0.56345655 0.88832244
0.86212741 0.67390143 0.88980343
0.65892228 0.68645890 0.88894990
0.65931766 0.68649149 0.88895074
0.66575992 0.68704049 0.88896507
0.71444166 0.69248140 0.88911148
0.86602849 0.73482241 0.89057932
0.80748892 0.89158413 0.89657112
0.80756944 0.89158760 0.89657190
0.80891921 0.89164617 0.89658503
0.82168975 0.89224324 0.89671925
0.89806582 0.89806582 0.89806582
