src/ffmpeg_scripts/luts/sRGB-rec2020_4p00.cube
TITLE "sRGB-rec2020_4p00"
LUT_3D_SIZE 33
# PQ (EOTF Only)/sRGB -> PQ (EOTF Only)/Rec2020, CineEI Shift 4.00, Black Level 0.00% IRE, Input 100% -> Output 109% - Created with LUTCalc v4.01 by Ben Turley October 2020
0.06256172 0.06256172 0.06256172
0.13570766 0.09062517 0.07631296
0.19139850 0.11838744 0.09202213
0.24053364 0.14599733 0.10891148
0.28560251 0.17349985 0.12670788
0.32776135 0.20091838 0.14525982
0.36767599 0.22826748 0.16446831
0.40577720 0.25555717 0.18426251
0.44236527 0.28279482 0.20458876
0.47766071 0.30998607 0.22540470
0.51183184 0.33713541 0.24667584
0.54501104 0.36424649 0.26837350
0.57730495 0.39132234 0.29047333
0.60880113 0.41836553 0.31295436
0.63957268 0.44537826 0.33579832
0.66968145 0.47236244 0.35898910
0.69918041 0.49931972 0.38251235
0.72811537 0.52625160 0.40635525
0.75652630 0.55315938 0.43050618
0.78444837 0.58004424 0.45495464
0.81191273 0.60690726 0.47969099
0.83894713 0.63374938 0.50470643
0.86557648 0.66057149 0.52999282
0.89182318 0.68737439 0.55554266
0.91770754 0.71415883 0.58134896
0.91886608 0.74092548 0.60740523
0.91886608 0.76767497 0.63370539
0.91886608 0.79440789 0.66024377
0.91886608 0.82112479 0.68701502
0.91886608 0.84782616 0.71401411
0.91886608 0.87451250 0.74123631
0.91886608 0.90118423 0.76867713
0.91886608 0.91886608 0.79633234
0.11884464 0.14740209 0.09399461
0.14868971 0.14976891 0.09657277
0.19611416 0.15755756 0.10432159
0.24273393 0.17125768 0.11644371
0.28677928 0.18978461 0.13148054
0.32844596 0.21157495 0.14839348
0.36809754 0.23538294 0.16658913
0.40604759 0.26040461 0.18573345
0.44254409 0.28615729 0.20562915
0.47778181 0.31235501 0.22615221
0.51191540 0.33882646 0.24721979
0.54506958 0.36546700 0.26877341
0.57734646 0.39221139 0.29076982
0.60883087 0.41901812 0.31317568
0.63959416 0.44586031 0.33596444
0.66969708 0.47272037 0.35911433
0.69919184 0.49958663 0.38260710
0.72812377 0.52645129 0.40642712
0.75653249 0.55330917 0.43056082
0.78445295 0.58015682 0.45499622
0.81191612 0.60699197 0.47972266
0.83894965 0.63381317 0.50473056
0.86557835 0.66061953 0.53001120
0.89182457 0.68741056 0.55555665
0.91770857 0.71418604 0.58135959
0.91886608 0.74094592 0.60741330
0.91886608 0.76769030 0.63371150
0.91886608 0.79441936 0.66024838
0.91886608 0.82113334 0.68701849
0.91886608 0.84783253 0.71401672
0.91886608 0.87451721 0.74123826
0.91886608 0.90118771 0.76867859
0.91886608 0.91886608 0.79633342
0.16530460 0.20888540 0.12427658
0.17862250 0.20964823 0.12527185
0.21078426 0.21237194 0.12871942
0.25025626 0.21796326 0.13537165
0.29095003 0.22711919 0.14538665
0.33091178 0.24006119 0.15836874
0.36962824 0.25649964 0.17370536
0.40703374 0.27582619 0.19082877
0.44319796 0.29735733 0.20930485
0.47822531 0.32048969 0.22882653
0.51222173 0.34475298 0.24918179
0.54528431 0.36980405 0.27022375
0.57749882 0.39540077 0.29184906
0.60894004 0.42137473 0.31398334
0.63967304 0.44760924 0.33657175
0.66975445 0.47402333 0.35957278
0.69923381 0.50056053 0.38295426
0.72815460 0.52718120 0.40669066
0.75655523 0.55385738 0.43076123
0.78446976 0.58056920 0.45514881
0.81192857 0.60730250 0.47983892
0.83895889 0.63404712 0.50481915
0.86558521 0.66079580 0.53007869
0.89182967 0.68754331 0.55560801
0.91771236 0.71428591 0.58139864
0.91886608 0.74102096 0.60744293
0.91886608 0.76774658 0.63373395
0.91886608 0.79446148 0.66026534
0.91886608 0.82116477 0.68703126
0.91886608 0.84785591 0.71402630
0.91886608 0.87453454 0.74124542
0.91886608 0.90120050 0.76868392
0.91886608 0.91886608 0.79633737
0.20773162 0.26205478 0.15399497
0.21445280 0.26239787 0.15449220
0.23438140 0.26364417 0.15627543
0.26437184 0.26630634 0.15997335
0.29937098 0.27096272 0.16613055
0.33607384 0.27815396 0.17503076
0.37289433 0.28825578 0.18663226
0.40916047 0.30138210 0.20064637
0.44461697 0.31737364 0.21667856
0.47919150 0.33587253 0.23434037
0.51289074 0.35643214 0.25330311
0.54575403 0.37860906 0.27330951
0.57783244 0.40201562 0.29416572
0.60917929 0.42633796 0.31572786
0.63984598 0.45133357 0.33788929
0.66988029 0.47682027 0.36057051
0.69932587 0.50266332 0.38371152
0.72822226 0.52876392 0.40726645
0.75660512 0.55504984 0.43119964
0.78450666 0.58146831 0.45548291
0.81195592 0.60798071 0.48009365
0.83897918 0.63455875 0.50501335
0.86560027 0.66118164 0.53022668
0.89184086 0.68783409 0.55572069
0.91772067 0.71450481 0.58148431
0.91886608 0.74118550 0.60750796
0.91886608 0.76787002 0.63378320
0.91886608 0.79455387 0.66030254
0.91886608 0.82123373 0.68705928
0.91886608 0.84790721 0.71404733
0.91886608 0.87457257 0.74126115
0.91886608 0.90122857 0.76869562
0.91886608 0.91886608 0.79634603
0.24756518 0.31017367 0.18332196
0.25130455 0.31035377 0.18360359
0.26354034 0.31101181 0.18462605
0.28476486 0.31243734 0.18680712
0.31280267 0.31499528 0.19061354
0.34479268 0.31910426 0.19647565
0.37859514 0.32519128 0.20468877
0.41294491 0.33362272 0.21534633
0.44717174 0.34463101 0.22834171
0.48094377 0.35826698 0.24342976
0.51410975 0.37439994 0.26030611
0.54661256 0.39276225 0.27866912
0.57844349 0.41301452 0.29825348
0.60961811 0.43480525 0.31884118
0.64016350 0.45781084 0.34025997
0.67011150 0.48175498 0.36237643
0.69949511 0.50641319 0.38508813
0.72834667 0.53160888 0.40831651
0.75669690 0.55720603 0.43200103
0.78457454 0.58310125 0.45609470
0.81200622 0.60921654 0.48056068
0.83901651 0.63549334 0.50536976
0.86562800 0.66188778 0.53049847
0.89186145 0.68836701 0.55592774
0.91773596 0.71490642 0.58164181
0.91886608 0.74148762 0.60762754
0.91886608 0.76809682 0.63387379
0.91886608 0.79472370 0.66037099
0.91886608 0.82136054 0.68711084
0.91886608 0.84800157 0.71408603
0.91886608 0.87464252 0.74129008
0.91886608 0.90128021 0.76871716
0.91886608 0.91886608 0.79636199
0.28549601 0.35472925 0.21234588
0.28772557 0.35483276 0.21251777
0.29539081 0.35521190 0.21314518
0.30992350 0.35603827 0.21450081
0.33116367 0.35753820 0.21692176
0.35760051 0.35999315 0.22078190
0.38736901 0.36373114 0.22644250
0.41894346 0.36910273 0.23418758
0.45129745 0.37644012 0.24416805
0.48380765 0.38600569 0.25638003
0.51611775 0.39794512 0.27068565
0.54803418 0.41226266 0.28686137
0.57945892 0.42882802 0.30464984
0.61034911 0.44741041 0.32379916
0.64069334 0.46772450 0.34408495
0.67049777 0.48947292 0.36531857
0.69977811 0.51237659 0.38734702
0.72855484 0.53619116 0.41004877
0.75685052 0.56071270 0.43332832
0.78468820 0.58577648 0.45711096
0.81209048 0.61125245 0.48133821
0.83907905 0.63703948 0.50596411
0.86567445 0.66305970 0.53095229
0.89189596 0.68925357 0.55627377
0.91776159 0.71557576 0.58190522
0.91886608 0.74199185 0.60782765
0.91886608 0.76847573 0.63402545
0.91886608 0.79500766 0.66048562
0.91886608 0.82157268 0.68719720
0.91886608 0.84815952 0.71415087
0.91886608 0.87475966 0.74133857
0.91886608 0.90136671 0.76875325
0.91886608 0.91886608 0.79638872
0.32193099 0.39656670 0.24112128
0.32332821 0.39662987 0.24123156
0.32825999 0.39686152 0.24163513
0.33812815 0.39736793 0.24251278
0.35365190 0.39829243 0.24409919
0.37451751 0.39982025 0.24667808
0.39963016 0.40218117 0.25056557
0.42766199 0.40564572 0.25607707
0.45745512 0.41051144 0.26348145
0.48815866 0.41707684 0.27295543
0.51920514 0.42560493 0.28455559
0.55023778 0.43628377 0.29821882
0.58104167 0.44919563 0.31378870
0.61149295 0.46430575 0.33105429
0.64152467 0.48147416 0.34978702
0.67110502 0.50048500 0.36976739
0.70022361 0.52108255 0.39079979
0.72888287 0.54300360 0.41271827
0.75709279 0.56600073 0.43538637
0.78486755 0.58985546 0.45869407
0.81222348 0.61438313 0.48255368
0.83917780 0.63943254 0.50689567
0.86574782 0.66488260 0.53166500
0.89195047 0.69063787 0.55681804
0.91780208 0.71662391 0.58232000
0.91886608 0.74278319 0.60814303
0.91886608 0.76907141 0.63426463
0.91886608 0.79545463 0.66066648
0.91886608 0.82190694 0.68733352
0.91886608 0.84840856 0.71425325
0.91886608 0.87494446 0.74141513
0.91886608 0.90150323 0.76881026
0.91886608 0.91886608 0.79643096
0.35713811 0.43622730 0.26968550
0.35804666 0.43626752 0.26975880
0.36130155 0.43641513 0.27002744
0.36803148 0.43673835 0.27061375
0.37916707 0.43733026 0.27168075
0.39507961 0.43831369 0.27343476
0.41544839 0.43984611 0.27612339
0.43944484 0.44212258 0.28002382
0.46606521 0.44537438 0.28541908
0.49439116 0.44986078 0.29256368
0.52370282 0.45585171 0.30164607
0.55348592 0.46360116 0.31276001
0.58339394 0.47331508 0.32589486
0.61320277 0.48512107 0.34094756
0.64277246 0.49904919 0.35774976
0.67201915 0.51502997 0.37609945
0.70089567 0.53290992 0.39578826
0.72937849 0.55247837 0.41662014
0.75745924 0.57349735 0.43842150
0.78513905 0.59572718 0.46104478
0.81242495 0.61894451 0.48436791
0.83932745 0.64295228 0.50829167
0.86585904 0.66758345 0.53273629
0.89203313 0.69270049 0.55763801
0.91786348 0.71819248 0.58294599
0.91886608 0.74397139 0.60861963
0.91886608 0.76996810 0.63462644
0.91886608 0.79612880 0.66094029
0.91886608 0.82241185 0.68754002
0.91886608 0.84878518 0.71440839
0.91886608 0.87522417 0.74153121
0.91886608 0.90171000 0.76889671
0.91886608 0.91886608 0.79649501
0.39130692 0.47408515 0.29806575
0.39191462 0.47411159 0.29811578
0.39411092 0.47420866 0.29829930
0.39874530 0.47442140 0.29870067
0.40667778 0.47481172 0.29943403
0.41854353 0.47546224 0.30064770
0.43454360 0.47648092 0.30252740
0.45438805 0.47800543 0.30529493
0.47742665 0.48020610 0.30919974
0.50286712 0.48328596 0.31450100
0.52995669 0.48747580 0.32144076
0.55807532 0.49302212 0.33021254
0.58675597 0.50016732 0.34093398
0.61566677 0.50912355 0.35363203
0.64458131 0.52004502 0.36824560
0.67334999 0.53300581 0.38464342
0.70187713 0.54798987 0.40264981
0.73010393 0.56489617 0.42207051
0.75799650 0.58355692 0.44271318
0.78553759 0.60376268 0.46440052
0.81272095 0.62528766 0.48697700
0.83954747 0.64791027 0.51031075
0.86602264 0.67142692 0.53429250
0.89215477 0.69565928 0.55883315
0.91795386 0.72045662 0.58386073
0.91886608 0.74569478 0.60931744
0.91886608 0.77127353 0.63515698
0.91886608 0.79711309 0.66134224
0.91886608 0.82315064 0.68784343
0.91886608 0.84933717 0.71463649
0.91886608 0.87563466 0.74170196
0.91886608 0.90201374 0.76902392
0.91886608 0.91886608 0.79658931
0.42457837 0.51041303 0.32628283
0.42499392 0.51043085 0.32631768
0.42650389 0.51049625 0.32644560
0.42973140 0.51063968 0.32672573
0.43538215 0.51090312 0.32723881
0.44411780 0.51134302 0.32809150
0.45639281 0.51203399 0.32942080
0.47232114 0.51307283 0.33139685
0.49165001 0.51458242 0.33422235
0.51385394 0.51671475 0.33812614
0.53828683 0.51965175 0.34334931
0.56431559 0.52360240 0.35012345
0.59139774 0.52879417 0.35864398
0.61910708 0.53545792 0.36904448
0.64712767 0.54380643 0.38137952
0.67523472 0.55400963 0.39562117
0.70327319 0.56617190 0.41166973
0.73113914 0.58031748 0.42937407
0.75876501 0.59638838 0.44855504
0.78610869 0.61425513 0.46902633
0.81314567 0.63373681 0.49060969
0.83986348 0.65462439 0.51314406
0.86625778 0.67670224 0.53648964
0.89232969 0.69976441 0.56052849
0.91808390 0.72362493 0.58516304
0.91886608 0.74812265 0.61031369
0.91886608 0.77312223 0.63591605
0.91886608 0.79851265 0.66191828
0.91886608 0.82420442 0.68827878
0.91886608 0.85012641 0.71496411
0.91886608 0.87622264 0.74194738
0.91886608 0.90244942 0.76920687
0.91886608 0.91886608 0.79672497
0.45706125 0.54541786 0.35435317
0.45735044 0.54543009 0.35437785
0.45840491 0.54547502 0.35446844
0.46067772 0.54557358 0.35466700
0.46471787 0.54575474 0.35503124
0.47111088 0.54605760 0.35563821
0.48037976 0.54653425 0.35658846
0.49286510 0.54725298 0.35801003
0.50863474 0.54830192 0.36006106
0.52747057 0.54979261 0.36292962
0.54893772 0.55186297 0.36682884
0.57249572 0.55467873 0.37198581
0.59760098 0.55843177 0.37862351
0.62377242 0.56333415 0.38693772
0.65061878 0.56960618 0.39707317
0.67783984 0.57745866 0.40910526
0.70521456 0.58707092 0.42303256
0.73258518 0.59856856 0.43878206
0.75984208 0.61200643 0.45622478
0.78691107 0.62736146 0.47519648
0.81374350 0.64453752 0.49551812
0.84030890 0.66338043 0.51701222
0.86658957 0.68369876 0.53951396
0.89257670 0.70528511 0.56287714
0.91826763 0.72793402 0.58697627
0.91886608 0.75145455 0.61170619
0.91886608 0.77567742 0.63698021
0.91886608 0.80045787 0.66272772
0.91886608 0.82567541 0.68889161
0.91886608 0.85123182 0.71542590
0.91886608 0.87704830 0.74229367
0.91886608 0.90306244 0.76946522
0.91886608 0.91886608 0.79691665
0.48884196 0.57926145 0.38229011
0.48904609 0.57926998 0.38230781
0.48979212 0.57930133 0.38237279
0.49140904 0.57937011 0.38251530
0.49431304 0.57949658 0.38277700
0.49898417 0.57970819 0.38321387
0.50591545 0.58004165 0.38389974
0.51553203 0.58054544 0.38493018
0.52810035 0.58128280 0.38642602
0.54366342 0.58233494 0.38853591
0.56203327 0.58380448 0.39143651
0.58284296 0.58581832 0.39532874
0.60563101 0.58852942 0.40042870
0.62992267 0.59211614 0.40695236
0.65528620 0.59677790 0.41509525
0.68136021 0.60272580 0.42501025
0.70785924 0.61016764 0.43678893
0.73456707 0.61928837 0.45045131
0.76132500 0.63022884 0.46594696
0.78801957 0.64306744 0.48316660
0.81457153 0.65780950 0.50196006
0.84092702 0.67438738 0.52215593
0.86705066 0.69267118 0.54357856
0.89292035 0.71248660 0.56606059
0.91852345 0.73363552 0.58945055
0.91886608 0.75591468 0.61361637
0.91886608 0.77913004 0.63844598
0.91886608 0.80310596 0.66384617
0.91886608 0.82768969 0.68974047
0.91886608 0.85275243 0.71606677
0.91886608 0.87818813 0.74277493
0.91886608 0.90391102 0.76982465
0.91886608 0.91886608 0.79718357
0.51999069 0.61207351 0.41010467
0.52013647 0.61207953 0.41011750
0.52067002 0.61210168 0.41016461
0.52183078 0.61215028 0.41026794
0.52393031 0.61223968 0.41045783
0.52734664 0.61238934 0.41077520
0.53250258 0.61262538 0.41127442
0.53982023 0.61298244 0.41202662
0.54965447 0.61350606 0.41312316
0.56222206 0.61425528 0.41467904
0.57755278 0.61530578 0.41683530
0.59548422 0.61675296 0.41975956
0.61570178 0.61871494 0.42364310
0.63780471 0.62133448 0.42869336
0.66137245 0.62477906 0.43512067
0.68601343 0.62923779 0.44312016
0.71139176 0.63491385 0.45285101
0.73723554 0.64201182 0.46441770
0.76333383 0.65072010 0.47785790
0.78952809 0.66119080 0.49314040
0.81570229 0.67352073 0.51017320
0.84177335 0.68773843 0.52881912
0.86768325 0.70380053 0.54891421
0.89339252 0.72159865 0.57028516
0.91886608 0.74097452 0.59276284
0.91886608 0.76173940 0.61619134
0.91886608 0.78369309 0.64043272
0.91886608 0.80663972 0.66536865
0.91886608 0.83039850 0.69089981
0.91886608 0.85480989 0.71694428
0.91886608 0.87973773 0.74343521
0.91886608 0.90506895 0.77031853
0.91886608 0.91886608 0.79755074
0.55056557 0.64396006 0.43780618
0.55067066 0.64396436 0.43781555
0.55105572 0.64398017 0.43784999
0.55189558 0.64401487 0.43792554
0.55342217 0.64407871 0.43806446
0.55592658 0.64418563 0.43829681
0.55975305 0.64435434 0.43866279
0.56527756 0.64460980 0.43921534
0.57286757 0.64498491 0.44002320
0.58282660 0.64552267 0.44117427
0.59533728 0.64627867 0.44277872
0.61042272 0.64732402 0.44497144
0.62794213 0.64874827 0.44791280
0.64762214 0.65066241 0.45178644
0.66910982 0.65320097 0.45679293
0.69202798 0.65652258 0.46313819
0.71601822 0.66080792 0.47101706
0.74076645 0.66625353 0.48059385
0.76601303 0.67306093 0.49198369
0.79155230 0.68142077 0.50523903
0.81722663 0.69149375 0.52034507
0.84291829 0.70339143 0.53722500
0.86854132 0.71716149 0.55575329
0.89403429 0.73278117 0.57577305
0.91886608 0.75016096 0.59711338
0.91886608 0.76915712 0.61960381
0.91886608 0.78958979 0.64308453
0.91886608 0.81126215 0.66741228
0.91886608 0.83397712 0.69246292
0.91886608 0.85754968 0.71813149
0.91886608 0.88181429 0.74433090
0.91886608 0.90662831 0.77098987
0.91886608 0.91886608 0.79805062
0.58061547 0.67500924 0.46540256
0.58069183 0.67501234 0.46540946
0.58097181 0.67502373 0.46543481
0.58158358 0.67504871 0.46549043
0.58269944 0.67509469 0.46559274
0.58454070 0.67517171 0.46576395
0.58737920 0.67529329 0.46603388
0.59152996 0.67547750 0.46644199
0.59733074 0.67574824 0.46703991
0.60510658 0.67613689 0.46789438
0.61512288 0.67668430 0.46909033
0.62753835 0.67744319 0.47073393
0.64237323 0.67848082 0.47295507
0.65950512 0.67988197 0.47590828
0.67869377 0.68175176 0.47977113
0.69962460 0.68421801 0.48473879
0.72195573 0.68743217 0.49101380
0.74535635 0.69156801 0.49879098
0.76953109 0.69681658 0.50823911
0.79423126 0.70337675 0.51948234
0.81925633 0.71144082 0.53258572
0.84444993 0.72117633 0.54754860
0.86969330 0.73270690 0.56430747
0.89489825 0.74609619 0.58274715
0.91886608 0.76133902 0.60271711
0.91886608 0.77836220 0.62404866
0.91886608 0.79703488 0.64657018
0.91886608 0.81718524 0.67011823
0.91886608 0.83861963 0.69454464
0.91886608 0.86114006 0.71971980
0.91886608 0.88455774 0.74553345
0.91886608 0.90870179 0.77189368
0.91886608 0.91886608 0.79872503
0.61018203 0.70529535 0.49290070
0.61023787 0.70529760 0.49290581
0.61044271 0.70530586 0.49292457
0.61089088 0.70532397 0.49296575
0.61171034 0.70535732 0.49304151
0.61306816 0.70541318 0.49316834
0.61517503 0.70550139 0.49336844
0.61828525 0.70563511 0.49367126
0.62268880 0.70583175 0.49411559
0.62869229 0.70611431 0.49475192
0.63658751 0.70651282 0.49564520
0.64661117 0.70706631 0.49687785
0.65890499 0.70782503 0.49855275
0.67348864 0.70885305 0.50079567
0.69025545 0.71023115 0.50375645
0.70899224 0.71205964 0.50760784
0.72941571 0.71446083 0.51254084
0.75121307 0.71758033 0.51875551
0.77407666 0.72158626 0.52644706
0.79772722 0.72666525 0.53578831
0.82192576 0.73301407 0.54691132
0.84647658 0.74082638 0.55989211
0.87122476 0.75027548 0.57474232
0.89605093 0.76149512 0.59141002
0.91886608 0.77456248 0.60978915
0.91886608 0.78948735 0.62973469
0.91886608 0.80621066 0.65107983
0.91886608 0.82461267 0.67365165
0.91886608 0.84452853 0.69728324
0.91886608 0.86576725 0.72182171
0.91886608 0.88812984 0.74713229
0.91886608 0.91142397 0.77309970
0.91886608 0.91886608 0.79962747
0.63930113 0.73488177 0.52030660
0.63934217 0.73488341 0.52031039
0.63949281 0.73488943 0.52032435
0.63982268 0.73490265 0.52035497
0.64042690 0.73492697 0.52041132
0.64143110 0.73496772 0.52050569
0.64299669 0.73503208 0.52065463
0.64532411 0.73512967 0.52088020
0.64865194 0.73527325 0.52121153
0.65324889 0.73547971 0.52168676
0.65939607 0.73577117 0.52235533
0.66735902 0.73617652 0.52328066
0.67735261 0.73673319 0.52454303
0.68950638 0.73748932 0.52624257
0.70384087 0.73850630 0.52850169
0.72026299 0.73986156 0.53146647
0.73858203 0.74165143 0.53530589
0.75854053 0.74399369 0.54020781
0.77984996 0.74702920 0.54637063
0.80222222 0.75092158 0.55399036
0.82539189 0.75585395 0.56324372
0.84912855 0.76202154 0.57426990
0.87324093 0.76961946 0.58715460
0.89757561 0.77882603 0.60192027
0.91886608 0.78978376 0.61852510
0.91886608 0.80258145 0.63687085
0.91886608 0.81724172 0.65681716
0.91886608 0.83371754 0.67819853
0.91886608 0.85189856 0.70084050
0.91886608 0.87162568 0.72457266
0.91886608 0.89270978 0.74923746
0.91886608 0.91495056 0.77469518
0.91886608 0.91886608 0.80082574
0.66800398 0.76382314 0.54762554
0.66803428 0.76382434 0.54762838
0.66814551 0.76382875 0.54763879
0.66838925 0.76383843 0.54766165
0.66883628 0.76385626 0.54770371
0.66958086 0.76388612 0.54777416
0.67074573 0.76393329 0.54788540
0.67248647 0.76400484 0.54805395
0.67499396 0.76411014 0.54830172
0.67849286 0.76426162 0.54865750
0.68323377 0.76447562 0.54915881
0.68947689 0.76477353 0.54985415
0.69746693 0.76518320 0.55080560
0.70740196 0.76574066 0.55209165
0.71940281 0.76649226 0.55381011
0.73349181 0.76749710 0.55608067
0.74958771 0.76882981 0.55904643
0.76751869 0.77058342 0.56287348
0.78704892 0.77287202 0.56774741
0.80791027 0.77583261 0.57386577
0.82983123 0.77962527 0.58142576
0.85255830 0.78443049 0.59060803
0.87586859 0.79044259 0.60155839
0.89957480 0.79785827 0.61437127
0.91886608 0.80686055 0.62907865
0.91886608 0.81759970 0.64564753
0.91886608 0.83017466 0.66398633
0.91886608 0.84461908 0.68395838
0.91886608 0.86089609 0.70539882
0.91886608 0.87890306 0.72813127
0.91886608 0.89848526 0.75198160
0.91886608 0.91886608 0.77678764
0.91886608 0.91886608 0.80240482
0.69631798 0.79216699 0.57486225
0.69634042 0.79216787 0.57486437
0.69642283 0.79217112 0.57487216
0.69660348 0.79217824 0.57488927
0.69693512 0.79219135 0.57492075
0.69748840 0.79221331 0.57497349
0.69835620 0.79224802 0.57505678
0.69965802 0.79230066 0.57518304
0.70154372 0.79237815 0.57536874
0.70419535 0.79248968 0.57563561
0.70782532 0.79264730 0.57601207
0.71266887 0.79286690 0.57653509
0.71896900 0.79316915 0.57725233
0.72695374 0.79358101 0.57822468
0.73680823 0.79413729 0.57952910
0.74864716 0.79488278 0.58126150
0.76249520 0.79587465 0.58353939
0.77828156 0.79718515 0.58650352
0.79585053 0.79890460 0.59031787
0.81498455 0.80114407 0.59516656
0.83543275 0.80403754 0.60124695
0.85693776 0.80774236 0.60875796
0.87925636 0.81243719 0.61788424
0.90217218 0.81831607 0.62877793
0.91886608 0.82557761 0.64154144
0.91886608 0.83440937 0.65621528
0.91886608 0.84496875 0.67277407
0.91886608 0.85736363 0.69113174
0.91886608 0.87163719 0.71115432
0.91886608 0.88776099 0.73267683
0.91886608 0.90563846 0.75552041
0.91886608 0.91886608 0.77950698
0.91886608 0.91886608 0.80446964
0.72426736 0.81995501 0.60202092
0.72428403 0.81995566 0.60202251
0.72434523 0.81995806 0.60202836
0.72447945 0.81996331 0.60204118
0.72472601 0.81997298 0.60206479
0.72513784 0.81998918 0.60210435
0.72578500 0.82001479 0.60216684
0.72675864 0.82005363 0.60226158
0.72817486 0.82011082 0.60240100
0.73017800 0.82019314 0.60260146
0.73294207 0.82030954 0.60288450
0.73666875 0.82047178 0.60327820
0.74158021 0.82069526 0.60381897
0.74790526 0.82100007 0.60455372
0.75585859 0.82141231 0.60554231
0.76561536 0.82196575 0.60686041
0.77728603 0.82270383 0.60860238
0.79089805 0.82368205 0.61088396
0.80638996 0.82497071 0.61384419
0.82361991 0.82665786 0.61764556
0.84238594 0.82885219 0.62247145
0.86245186 0.83168531 0.62851969
0.88357239 0.83531260 0.63599141
0.90551310 0.83991168 0.64507548
0.91886608 0.84567690 0.65593019
0.91886608 0.85280920 0.66866542
0.91886608 0.86150073 0.68332932
0.91886608 0.87191555 0.69990307
0.91886608 0.88416962 0.71830498
0.91886608 0.89831426 0.73840276
0.91886608 0.91432792 0.76003043
0.91886608 0.91886608 0.78300610
0.91886608 0.91886608 0.80714729
0.75187369 0.84722403 0.62910534
0.75188609 0.84722451 0.62910654
0.75193162 0.84722628 0.62911093
0.75203151 0.84723016 0.62912056
0.75221511 0.84723731 0.62913829
0.75252203 0.84724929 0.62916800
0.75300503 0.84726822 0.62921494
0.75373323 0.84729694 0.62928613
0.75479578 0.84733923 0.62939091
0.75630537 0.84740012 0.62954165
0.75840113 0.84748624 0.62975460
0.76124973 0.84760632 0.63005108
0.76504348 0.84777181 0.63045881
0.76999346 0.84799769 0.63101372
0.77631676 0.84830349 0.63176202
0.78421736 0.84871458 0.63276268
0.79386278 0.84926378 0.63409027
0.80536076 0.84999335 0.63583789
0.81874181 0.85095740 0.63811995
0.83395289 0.85222457 0.64107423
0.85086424 0.85388110 0.64486238
0.86928729 0.85603379 0.64966767
0.88899841 0.85881251 0.65568905
0.90976264 0.86237138 0.66313035
0.91886608 0.86688762 0.67218495
0.91886608 0.87255662 0.68301729
0.91886608 0.87958209 0.69574428
0.91886608 0.88816090 0.71042099
0.91886608 0.89846359 0.72703416
0.91886608 0.91061342 0.74550541
0.91886608 0.91886608 0.76570302
0.91886608 0.91886608 0.78745911
0.91886608 0.91886608 0.81058802
0.77915627 0.87400677 0.65611894
0.77916551 0.87400713 0.65611984
0.77919943 0.87400844 0.65612314
0.77927385 0.87401131 0.65613038
0.77941070 0.87401660 0.65614371
0.77963962 0.87402547 0.65616604
0.78000023 0.87403949 0.65620133
0.78054481 0.87406076 0.65625485
0.78134129 0.87409208 0.65633365
0.78247668 0.87413718 0.65644704
0.78406029 0.87420097 0.65660733
0.78622634 0.87428996 0.65683061
0.78913492 0.87441264 0.65713798
0.79297010 0.87458018 0.65755681
0.79793357 0.87480717 0.65812255
0.80423270 0.87511261 0.65888079
0.81206294 0.87552120 0.65988973
0.82158604 0.87606495 0.66122303
0.83290819 0.87678510 0.66297278
0.84606322 0.87773455 0.66525241
0.86100579 0.87898058 0.66819891
0.87761677 0.88060799 0.67197361
0.89571916 0.88272215 0.67676031
0.91510011 0.88545175 0.68275968
0.91886608 0.88895029 0.69017879
0.91886608 0.89339531 0.69921592
0.91886608 0.89898384 0.71004165
