src/ffmpeg_scripts/luts/sRGB-rec2020_2p00.cube
TITLE "sRGB-rec2020_2p00"
LUT_3D_SIZE 9
# PQ (EOTF Only)/sRGB -> PQ (EOTF Only)/Rec2020, CineEI Shift 2.00, Black Level 0.00% IRE, Input 100% -> Output 109% - Created with LUTCalc v4.01 by Ben Turley October 2020
0.06256172 0.06256172 0.06256172
0.20920839 0.12808799 0.09783095
0.33689043 0.20705773 0.14951355
0.45678787 0.29379928 0.21295214
0.57160231 0.38649263 0.28650071
0.68263982 0.48414156 0.36922479
0.79067579 0.58609913 0.46050365
0.89622454 0.69190428 0.55988806
0.91886608 0.80120840 0.66703472
0.18054850 0.22825515 0.13475504
0.23031643 0.23203892 0.13976677
0.34101629 0.25561314 0.16647814
0.45783333 0.31194733 0.21896514
0.57190605 0.39277631 0.28863021
0.68273371 0.48629029 0.36998610
0.79070528 0.58682480 0.46077299
0.89623364 0.69214174 0.55998012
0.91886608 0.80128180 0.66706434
0.29378646 0.36432609 0.21881957
0.30662020 0.36496018 0.21988106
0.36724431 0.36967566 0.22749267
0.46548227 0.38724227 0.25264316
0.57420633 0.43005602 0.30324494
0.68345153 0.50130253 0.37561369
0.79093142 0.59221852 0.46281492
0.89630348 0.69394540 0.56068402
0.91886608 0.80184345 0.66729144
0.40486691 0.48895155 0.30949849
0.40839044 0.48910645 0.30979547
0.43156423 0.49028720 0.31203884
0.49233596 0.49515055 0.32092924
0.58341493 0.51034300 0.34590598
0.68644756 0.54695792 0.39611631
0.79188790 0.61225293 0.47102722
0.89660018 0.70125886 0.56362290
0.91886608 0.80419655 0.66825214
0.51447524 0.60628824 0.40514920
0.51553678 0.60633244 0.40524279
0.52330725 0.60667110 0.40595808
0.55062274 0.60809937 0.40893906
0.60990917 0.61291641 0.41860282
0.69620510 0.62687413 0.44392069
0.79514660 0.66049992 0.49497312
0.89762673 0.72305376 0.57320502
0.91886608 0.81195603 0.67152696
0.62295540 0.71830243 0.50488360
0.62329133 0.71831592 0.50491453
0.62583178 0.71841944 0.50515170
0.63594248 0.71885885 0.50615455
0.66456867 0.72037483 0.50956812
0.72200184 0.72507098 0.51972390
0.80486499 0.73833612 0.54568166
0.90083529 0.77076196 0.59862484
0.91886608 0.83311130 0.68130988
0.73051708 0.82614358 0.60813017
0.73062454 0.82614777 0.60814046
0.73144556 0.82617998 0.60821938
0.73486210 0.82631697 0.60855463
0.74588102 0.82679293 0.60971418
0.77432747 0.82830057 0.61333474
0.82980342 0.83283704 0.62378777
0.91012340 0.84574592 0.65063475
0.91886608 0.87826159 0.70652775
0.83730234 0.91886608 0.71448460
0.83733600 0.91886608 0.71448793
0.83759408 0.91886608 0.71451353
0.83868449 0.91886608 0.71462239
0.84238586 0.91886608 0.71500092
0.85330658 0.91886608 0.71620300
0.88063662 0.91886608 0.71984768
0.91886608 0.91886608 0.73043930
0.91886608 0.91886608 0.75844801
0.91886608 0.91886608 0.82364302
0.91886608 0.91886608 0.82364404
0.91886608 0.91886608 0.82365189
0.91886608 0.91886608 0.82368533
0.91886608 0.91886608 0.82380180
0.91886608 0.91886608 0.82417378
0.91886608 0.91886608 0.82532154
0.91886608 0.91886608 0.82883042
0.91886608 0.91886608 0.83941280
0.11658692 0.09233575 0.22689100
0.21242351 0.13222416 0.22782790
0.33744527 0.20794811 0.23460697
0.45692608 0.29405193 0.25763110
0.57164232 0.38657315 0.30579532
0.68265218 0.48416843 0.37666851
0.79067967 0.58610813 0.46320771
0.89622573 0.69190722 0.56082064
0.91886608 0.80120930 0.66733565
0.18571007 0.22889259 0.23177078
0.23264076 0.23264076 0.23264076
0.34154373 0.25603914 0.23896578
0.45796995 0.31214694 0.26077595
0.57194593 0.39285116 0.30745323
0.68274605 0.48631653 0.37736589
0.79070916 0.58683373 0.46346914
0.89623483 0.69214467 0.56091179
0.91886608 0.80128270 0.66736517
0.29474524 0.36443069 0.26069791
0.30743188 0.36506399 0.26126908
0.36762876 0.36977381 0.26550840
0.46560783 0.38732209 0.28119905
0.57424525 0.43010491 0.31912903
0.68346378 0.50132482 0.38253831
0.79093529 0.59222696 0.46545189
0.89630468 0.69394827 0.56160878
0.91886608 0.80184436 0.66759155
0.40511479 0.48897704 0.32427113
0.40862852 0.48913189 0.32451733
0.43174731 0.49031232 0.32638289
0.49242957 0.49517438 0.33387088
0.58345023 0.51036321 0.35561476
0.68645942 0.54697156 0.40161546
0.79189173 0.61225976 0.47343941
0.89660137 0.70126152 0.56451933
0.91886608 0.80419743 0.66854922
0.51454892 0.60629551 0.41012090
0.51560962 0.60633970 0.41020931
0.52337424 0.60667834 0.41088519
0.55067276 0.60810650 0.41370543
0.60993583 0.61292319 0.42288462
0.69621580 0.62687997 0.44716107
0.79515029 0.66050402 0.49683611
0.89762791 0.72305586 0.57401503
0.91886608 0.81195684 0.67181393
0.62297863 0.71830465 0.50655863
0.62331447 0.71831814 0.50658901
0.62585432 0.71842166 0.50682192
0.63596273 0.71886106 0.50780693
0.66458363 0.72037700 0.51116119
0.72200997 0.72507304 0.52115310
0.80486831 0.73833791 0.54676586
0.90083642 0.77076323 0.59924416
0.91886608 0.83311194 0.68156863
0.73052450 0.82614427 0.60869041
0.73063195 0.82614846 0.60870063
0.73145291 0.82618067 0.60877909
0.73486918 0.82631766 0.60911236
0.74588732 0.82679362 0.61026513
0.77433211 0.82830124 0.61386505
0.82980595 0.83283768 0.62426274
0.91012442 0.84574648 0.65099258
0.91886608 0.87826198 0.70672577
0.83730467 0.91886608 0.71466655
0.83733833 0.91886608 0.71466988
0.83759640 0.91886608 0.71469542
0.83868678 0.91886608 0.71480407
0.84238805 0.91886608 0.71518187
0.85330853 0.91886608 0.71638165
0.88063805 0.91886608 0.72001952
0.91886608 0.91886608 0.73059278
0.91886608 0.91886608 0.75856167
0.91886608 0.91886608 0.82369890
0.91886608 0.91886608 0.82369992
0.91886608 0.91886608 0.82370778
0.91886608 0.91886608 0.82374119
0.91886608 0.91886608 0.82385759
0.91886608 0.91886608 0.82422934
0.91886608 0.91886608 0.82537641
0.91886608 0.91886608 0.82888320
0.91886608 0.91886608 0.83945974
0.18608476 0.13806233 0.36238958
0.23281472 0.15506116 0.36254397
0.34158382 0.21438596 0.36372003
0.45798036 0.29596440 0.36854955
0.57194897 0.38718893 0.38350632
0.68274699 0.48437442 0.41901332
0.79070946 0.58617721 0.48165981
0.89623492 0.69192977 0.56768910
0.91886608 0.80121627 0.66961498
0.21486769 0.23359089 0.36321522
0.24821487 0.23708826 0.36336809
0.34548396 0.25922690 0.36453270
0.45901219 0.31366294 0.36931696
0.57225161 0.39342369 0.38415008
0.68284077 0.48651775 0.41944145
0.79073894 0.58690229 0.48187337
0.89624402 0.69216717 0.56777383
0.91886608 0.80128966 0.66964380
0.30173061 0.36522955 0.36929759
0.31339710 0.36585685 0.36943978
0.37052364 0.37052364 0.37052364
0.46656627 0.38793253 0.37498785
0.57454356 0.43047940 0.38893819
0.68355778 0.50149580 0.42266141
0.79096499 0.59229171 0.48349684
0.89631386 0.69397035 0.56842193
0.91886608 0.80185127 0.66986479
0.40699504 0.48917252 0.39118902
0.41043533 0.48932705 0.39129898
0.43314072 0.49050498 0.39213864
0.49314525 0.49535714 0.39562423
0.58372082 0.51051828 0.40678326
0.68655049 0.54707629 0.43519201
0.79192113 0.61231214 0.49010321
0.89661052 0.70128194 0.57113202
0.91886608 0.80420417 0.67079979
0.51511270 0.60635131 0.44109321
0.51616701 0.60639547 0.44115552
0.52388709 0.60673391 0.44163251
0.55105593 0.60816123 0.44363507
0.61014033 0.61297521 0.45028633
0.69629791 0.62692486 0.46878657
0.79517866 0.66053548 0.51001122
0.89763695 0.72307206 0.58001312
0.91886608 0.81196303 0.67398890
0.62315681 0.71832169 0.51850100
0.62349202 0.71833517 0.51852771
0.62602716 0.71843867 0.51873251
0.63611808 0.71887799 0.51959934
0.66469843 0.72039366 0.52255965
0.72207237 0.72508889 0.53145225
0.80489383 0.73835166 0.55469773
0.90084514 0.77077293 0.60386906
0.91886608 0.83311685 0.68353221
0.73058148 0.82614956 0.61288508
0.73068886 0.82615376 0.61289486
0.73150932 0.82618597 0.61296992
0.73492357 0.82632295 0.61328877
0.74593565 0.82679888 0.61439202
0.77436768 0.82830642 0.61784099
0.82982534 0.83284260 0.62783252
0.91013226 0.84575074 0.65369608
0.91886608 0.87826494 0.70823256
0.83732251 0.91886608 0.71605204
0.83735617 0.91886608 0.71605532
0.83761418 0.91886608 0.71608048
0.83870435 0.91886608 0.71618754
0.84240492 0.91886608 0.71655983
0.85332346 0.91886608 0.71774221
0.88064903 0.91886608 0.72132866
0.91886608 0.91886608 0.73176296
0.91886608 0.91886608 0.75942979
0.91886608 0.91886608 0.82412689
0.91886608 0.91886608 0.82412791
0.91886608 0.91886608 0.82413572
0.91886608 0.91886608 0.82416898
0.91886608 0.91886608 0.82428482
0.91886608 0.91886608 0.82465483
0.91886608 0.91886608 0.82579656
0.91886608 0.91886608 0.82928742
0.91886608 0.91886608 0.83981934
0.26518134 0.19583614 0.48670190
0.28331982 0.20207796 0.48673958
0.35717851 0.23621697 0.48702840
0.46233575 0.30360822 0.48824782
0.57324334 0.38976190 0.49237670
0.68314955 0.48524617 0.50447634
0.79083615 0.58647075 0.53437961
0.89627404 0.69202573 0.59235532
0.91886608 0.80124592 0.67874578
0.27525950 0.25055832 0.48690404
0.29131058 0.25329785 0.48694164
0.36041927 0.27139353 0.48722982
0.46331938 0.31980748 0.48844658
0.57354185 0.39581929 0.49256674
0.68324293 0.48736946 0.50464304
0.79086559 0.58719358 0.53450047
0.89628313 0.69226288 0.59242055
0.91886608 0.80131929 0.67877194
0.32595388 0.36854758 0.48844155
0.33469923 0.36915066 0.48847852
0.38184502 0.37364308 0.48876193
0.47053683 0.39048363 0.48995868
0.57580299 0.43205619 0.49401308
0.68395690 0.50222011 0.50591311
0.79109133 0.59256686 0.53542331
0.89635294 0.69406425 0.59291994
0.91886608 0.80188072 0.67897258
0.41457506 0.49000006 0.49471320
0.41773529 0.49015320 0.49474773
0.43883997 0.49132066 0.49501249
0.49613109 0.49613109 0.49613109
0.58486412 0.51117551 0.49992796
0.68693716 0.54752078 0.51113281
0.79204616 0.61253482 0.53925290
0.89664947 0.70136882 0.59501675
0.91886608 0.80423287 0.67982197
0.51747512 0.60658846 0.51374499
0.51850309 0.60663251 0.51377310
0.52603918 0.60697010 0.51398866
0.55266979 0.60839389 0.51490071
0.61100595 0.61319633 0.51801203
0.69664664 0.62711569 0.52732823
0.79529933 0.66066928 0.55149695
0.89767544 0.72314095 0.60198292
0.91886608 0.81198939 0.68272475
0.62391158 0.71839416 0.55702839
0.62424413 0.71840764 0.55704607
0.62675946 0.71851105 0.55718173
0.63677655 0.71895003 0.55775707
0.66518559 0.72046455 0.55973571
0.72233752 0.72515631 0.56580569
0.80500235 0.73841017 0.58252021
0.90088224 0.77081421 0.62136055
0.91886608 0.83313772 0.69146162
0.73082362 0.82617211 0.62891329
0.73093072 0.82617631 0.62892154
0.73174907 0.82620851 0.62898491
0.73515473 0.82634545 0.62925417
0.74614110 0.82682126 0.63018692
0.77451894 0.82832843 0.63311366
0.82990784 0.83286354 0.64168098
0.91016560 0.84576889 0.66441097
0.91886608 0.87827753 0.71438944
0.83739844 0.91886608 0.72173116
0.83743207 0.91886608 0.72173425
0.83768987 0.91886608 0.72175794
0.83877913 0.91886608 0.72185871
0.84247668 0.91886608 0.72220918
0.85338700 0.91886608 0.72332281
0.88069574 0.91886608 0.72670555
0.91886608 0.91886608 0.73658667
0.91886608 0.91886608 0.76303706
0.91886608 0.91886608 0.82592653
0.91886608 0.91886608 0.82592752
0.91886608 0.91886608 0.82593518
0.91886608 0.91886608 0.82596779
0.91886608 0.91886608 0.82608136
0.91886608 0.91886608 0.82644412
0.91886608 0.91886608 0.82756364
0.91886608 0.91886608 0.83098825
0.91886608 0.91886608 0.84133427
0.35190403 0.26429335 0.60387841
0.35835684 0.26655544 0.60388916
0.39614025 0.28190806 0.60397172
0.47606810 0.32556573 0.60432235
0.57762162 0.39817424 0.60553465
0.68453969 0.48822210 0.60931562
0.79127646 0.58748700 0.62019727
0.89641027 0.69235950 0.64794412
0.91886608 0.80134922 0.70504944
0.35535328 0.28982250 0.60393615
0.36155291 0.29142758 0.60394690
0.39820237 0.30273606 0.60402940
0.47691455 0.33813625 0.60437982
0.57790659 0.40368752 0.60559139
0.68463170 0.49027841 0.60937013
0.79130575 0.58820212 0.62024586
0.89641935 0.69259581 0.64798036
0.91886608 0.80142251 0.70506922
0.37794533 0.37918948 0.60437836
0.38272567 0.37972149 0.60438906
0.41259027 0.38369948 0.60447118
0.48316545 0.39882916 0.60481996
0.58006654 0.43734454 0.60602594
0.68533527 0.50470173 0.60978770
0.79153042 0.59351987 0.62061815
0.89648904 0.69439088 0.64825819
0.91886608 0.80198330 0.70522103
0.43683207 0.49282816 0.60623803
0.43929988 0.49297666 0.60624852
0.45627674 0.49410904 0.60632904
0.50584377 0.49877957 0.60667105
0.58874499 0.51343103 0.60785379
0.68827294 0.54905412 0.61154490
0.79248072 0.61330705 0.62218679
0.89678511 0.70167110 0.64943186
0.91886608 0.80433285 0.70586452
0.52527095 0.60741060 0.61244936
0.52621669 0.60745427 0.61245918
0.53317556 0.60778895 0.61253459
0.55808847 0.60920055 0.61285490
0.61396320 0.61396320 0.61396320
0.69785241 0.62777800 0.61742756
0.79571879 0.66113427 0.62746061
0.89780951 0.72338073 0.65341327
0.91886608 0.81208122 0.70807405
0.62649676 0.71864638 0.62997335
0.62682036 0.71865982 0.62998151
0.62926899 0.71876296 0.63004417
0.63903695 0.71920077 0.63031044
0.66686456 0.72071127 0.63123289
0.72325610 0.72539099 0.63412793
0.80537970 0.73861386 0.64260787
0.90101147 0.77095797 0.66514056
0.91886608 0.83321046 0.71481933
0.73166292 0.82625068 0.66996432
0.73176907 0.82625487 0.66996966
0.73258014 0.82628704 0.67001072
0.73595618 0.82642387 0.67018529
0.74685383 0.82689927 0.67079136
0.77504435 0.82840515 0.67270653
0.83019489 0.83293650 0.67842864
0.91028174 0.84583211 0.69441090
0.91886608 0.87832141 0.73315436
0.83766266 0.91886608 0.73920420
0.83769619 0.91886608 0.73920676
0.83795323 0.91886608 0.73922642
0.83903933 0.91886608 0.73931002
0.84272642 0.91886608 0.73960091
0.85360816 0.91886608 0.74052644
0.88085840 0.91886608 0.74334884
0.91886608 0.91886608 0.75168544
0.91886608 0.91886608 0.77461624
0.91886608 0.91886608 0.83193466
0.91886608 0.91886608 0.83193560
0.91886608 0.91886608 0.83194277
0.91886608 0.91886608 0.83197328
0.91886608 0.91886608 0.83207956
0.91886608 0.91886608 0.83241908
0.91886608 0.91886608 0.83346742
0.91886608 0.91886608 0.83667914
0.91886608 0.91886608 0.84642457
0.44515008 0.34267541 0.71583796
0.44740165 0.34349838 0.71584125
0.46303719 0.34955614 0.71586647
0.50983894 0.37130000 0.71597378
0.59041386 0.42067214 0.71634691
0.68885847 0.49715154 0.71753197
0.79267250 0.59066979 0.72112632
0.89684511 0.69342048 0.73158198
0.91886608 0.80167924 0.75929534
0.44633882 0.35300348 0.71585560
0.44856114 0.35372962 0.71585889
0.46401327 0.35910291 0.71588411
0.51042614 0.37875689 0.71599139
0.59066273 0.42496623 0.71636445
0.68894637 0.49901960 0.71754929
0.79270136 0.59136129 0.72114299
0.89685415 0.69365415 0.73159689
0.91886608 0.80175226 0.75930642
0.45497795 0.40640415 0.71599094
0.45699926 0.40679237 0.71599423
0.47117792 0.40971714 0.71601941
0.51481522 0.42117886 0.71612654
0.59255221 0.45244050 0.71649906
0.68961857 0.51222870 0.71768221
0.79292264 0.59650873 0.72127092
0.89692350 0.69542934 0.73171131
0.91886608 0.80231105 0.75939141
0.48462837 0.50134140 0.71656492
0.48609216 0.50147681 0.71656818
0.49661632 0.50251000 0.71659321
0.53147755 0.50678340 0.71669968
0.60019771 0.52030610 0.71706994
0.69242762 0.55380235 0.71824595
0.79385870 0.61573853 0.72181354
0.89721810 0.70263265 0.73219680
0.91886608 0.80465229 0.75975234
0.54658808 0.60999640 0.71853889
0.54734163 0.61003890 0.71854208
0.55293438 0.61036456 0.71856659
0.57359766 0.61173850 0.71867085
0.62285577 0.61637808 0.71903342
0.70161308 0.62986835 0.72018521
0.79704931 0.66260818 0.72368108
0.89823746 0.72414451 0.73386992
0.91886608 0.81237470 0.76099976
0.63433025 0.71944958 0.72459451
0.63462818 0.71946291 0.72459750
0.63688515 0.71956517 0.72462048
0.64593252 0.71999925 0.72471822
0.67204902 0.72149704 0.72505817
0.72613862 0.72613862 0.72613862
0.80657777 0.73926320 0.72942285
0.90142403 0.77141688 0.73903487
0.91886608 0.83344303 0.76488530
0.73430115 0.82650182 0.74126280
0.73440434 0.82650600 0.74126530
0.73519296 0.82653808 0.74128452
0.73847748 0.82667453 0.74136631
0.74910031 0.82714862 0.74165087
0.77670714 0.82865039 0.74255636
0.83110805 0.83316977 0.74531887
0.91065264 0.84603428 0.75348833
0.91886608 0.87846181 0.77602691
0.83850363 0.91886608 0.77988506
0.83853685 0.91886608 0.77988671
0.83879151 0.91886608 0.77989938
0.83986760 0.91886608 0.77995332
0.84352157 0.91886608 0.78014113
0.85431276 0.91886608 0.78074003
0.88137731 0.91886608 0.78257899
0.91886608 0.91886608 0.78812034
0.91886608 0.91886608 0.80417331
0.91886608 0.91886608 0.84885669
0.91886608 0.91886608 0.84885747
0.91886608 0.91886608 0.84886341
0.91886608 0.91886608 0.84888869
0.91886608 0.91886608 0.84897676
0.91886608 0.91886608 0.84925824
0.91886608 0.91886608 0.85012845
0.91886608 0.91886608 0.85280462
0.91886608 0.91886608 0.86101610
0.54419230 0.43049011 0.82370348
0.54496528 0.43078555 0.82370450
0.55069735 0.43302196 0.82371235
0.57180639 0.44196020 0.82374576
0.62179665 0.46759060 0.82386215
0.70115449 0.52043593 0.82423389
0.79688525 0.59993795 0.82538090
0.89818447 0.69664732 0.82888752
0.91886608 0.80269857 0.83946358
0.54459878 0.43434356 0.82370897
0.54536844 0.43462649 0.82370999
0.55107663 0.43676959 0.82371784
0.57210948 0.44535776 0.82375125
0.62197527 0.47016034 0.82386764
0.70123163 0.52189194 0.82423935
0.79691281 0.60056502 0.82538629
0.89819336 0.69687313 0.82889271
0.91886608 0.80277078 0.83946819
0.54766262 0.45943399 0.82375111
0.54840760 0.45964802 0.82375214
0.55393895 0.46127487 0.82375998
0.57440485 0.46789111 0.82379338
0.62333576 0.48779722 0.82390971
0.70182185 0.53237252 0.82428125
0.79712417 0.60524626 0.82542766
0.89826166 0.69858918 0.82893251
0.91886608 0.80332340 0.83950359
0.55968904 0.52371087 0.82393030
0.56034471 0.52381727 0.82393132
0.56523253 0.52463021 0.82393915
0.58359500 0.52801361 0.82397248
0.62891787 0.53893267 0.82408858
0.70429376 0.56720531 0.82445939
0.79801851 0.62292747 0.82560357
0.89855179 0.70556314 0.82910174
0.91886608 0.80563917 0.83965413
0.59256773 0.61761765 0.82455225
0.59303070 0.61765685 0.82455326
0.59651207 0.61795735 0.82456104
0.61004522 0.61922601 0.82459414
0.64614700 0.62352036 0.82470945
0.71243597 0.63609195 0.82507773
0.80106983 0.66705255 0.82621417
0.89955577 0.72648197 0.82968926
0.91886608 0.81328186 0.84017699
0.65523328 0.72190563 0.82651576
0.65547221 0.72191861 0.82651675
0.65728703 0.72201823 0.82652436
0.66464503 0.72244112 0.82655676
0.68656922 0.72390067 0.82666959
0.73457855 0.72842741 0.82703001
0.81020806 0.74125522 0.82814235
0.90269537 0.77283039 0.83154552
0.91886608 0.83416284 0.84183128
0.74206348 0.82727884 0.83236624
0.74215845 0.82728298 0.83236717
0.74288443 0.82731479 0.83237431
0.74591316 0.82745007 0.83240467
0.75576227 0.82792013 0.83251044
0.78169720 0.82940925 0.83284835
0.83389175 0.83389175 0.83389175
0.91179666 0.84666043 0.83708866
0.91886608 0.87889724 0.84679212
0.84107119 0.91886608 0.84858567
0.84110347 0.91886608 0.84858645
0.84135098 0.91886608 0.84859241
0.84239707 0.91886608 0.84861776
0.84595162 0.91886608 0.84870610
0.85647027 0.91886608 0.84898843
0.88297264 0.91886608 0.84986125
0.91886608 0.91886608 0.85254530
0.91886608 0.91886608 0.86077961
0.91886608 0.91886608 0.88724359
0.91886608 0.91886608 0.88724409
0.91886608 0.91886608 0.88724795
0.91886608 0.91886608 0.88726435
0.91886608 0.91886608 0.88732152
0.91886608 0.91886608 0.88750433
0.91886608 0.91886608 0.88807075
0.91886608 0.91886608 0.88982423
0.91886608 0.91886608 0.89531198
0.64850605 0.52739039 0.91886608
0.64876257 0.52749266 0.91886608
0.65070949 0.52827428 0.91886608
0.65857620 0.53153017 0.91886608
0.68179050 0.54206761 0.91886608
0.73174170 0.56953467 0.91886608
0.80896738 0.62422555 0.91886608
0.90225727 0.70610633 0.91886608
0.91886608 0.80582431 0.91886608
0.64864077 0.52874235 0.91886608
0.64889693 0.52884315 0.91886608
0.65084111 0.52961357 0.91886608
0.65869732 0.53282383 0.91886608
0.68188523 0.54322416 0.91886608
0.73179737 0.57039915 0.91886608
0.80899153 0.62471094 0.91886608
0.90226577 0.70631055 0.91886608
0.91886608 0.80589410 0.91886608
0.64966889 0.53851816 0.91886608
0.64992228 0.53860895 0.91886608
0.65184571 0.53930313 0.91886608
0.65962221 0.54220191 0.91886608
0.68260952 0.55165877 0.91886608
0.73222380 0.57678528 0.91886608
0.80917676 0.62835735 0.91886608
0.90233094 0.70786410 0.91886608
0.91886608 0.80642819 0.91886608
0.65392464 0.57148695 0.91886608
0.65416690 0.57155085 0.91886608
0.65600671 0.57204006 0.91886608
0.66346120 0.57409464 0.91886608
0.68563199 0.58092608 0.91886608
0.73401763 0.59997144 0.91886608
0.80996109 0.64247669 0.91886608
0.90260786 0.71420419 0.91886608
0.91886608 0.80866750 0.91886608
0.66742128 0.63818103 0.91886608
0.66763134 0.63821258 0.91886608
0.66922889 0.63845447 0.91886608
0.67574253 0.63947733 0.91886608
0.69547009 0.64295918 0.91886608
0.74001495 0.65331849 0.91886608
0.81264387 0.67977458 0.91886608
0.90356644 0.73345702 0.91886608
0.91886608 0.81607029 0.91886608
0.70096288 0.72921698 0.91886608
0.70111010 0.72922899 0.91886608
0.70223295 0.72932113 0.91886608
0.70686830 0.72971234 0.91886608
0.72144388 0.73106358 0.91886608
0.75697519 0.73526395 0.91886608
0.82073910 0.74724141 0.91886608
0.90656705 0.77712916 0.91886608
0.91886608 0.83638428 0.91886608
0.76290903 0.82967388 0.91886608
0.76298493 0.82967791 0.91886608
0.76356567 0.82970889 0.91886608
0.76599790 0.82984064 0.91886608
0.77400987 0.83029847 0.91886608
0.79579667 0.83174924 0.91886608
0.84210498 0.83611980 0.91886608
0.91529026 0.84859675 0.91886608
0.91886608 0.88024939 0.91886608
0.84868015 0.91886608 0.91886608
0.84870981 0.91886608 0.91886608
0.84893724 0.91886608 0.91886608
0.84989900 0.91886608 0.91886608
0.85317339 0.91886608 0.91886608
0.86291836 0.91886608 0.91886608
0.88779727 0.91886608 0.91886608
0.91886608 0.91886608 0.91886608
0.91886608 0.91886608 0.91886608
0.91886608 0.91886608 0.91886608
0.91886608 0.91886608 0.91886608
0.91886608 0.91886608 0.91886608
0.91886608 0.91886608 0.91886608
0.91886608 0.91886608 0.91886608
0.91886608 0.91886608 0.91886608
0.91886608 0.91886608 0.91886608
0.91886608 0.91886608 0.91886608
0.91886608 0.91886608 0.91886608
0.75769049 0.63311842 0.91886608
0.75777077 0.63315170 0.91886608
0.75838498 0.63340686 0.91886608
0.76095506 0.63448546 0.91886608
0.76939574 0.63815236 0.91886608
0.79217394 0.64902182 0.91886608
0.83994598 0.67654547 0.91886608
0.91435470 0.73164692 0.91886608
0.91886608 0.81533488 0.91886608
0.75773263 0.63356036 0.91886608
0.75781288 0.63359349 0.91886608
0.75842681 0.63384747 0.91886608
0.76099575 0.63492107 0.91886608
0.76943289 0.63857145 0.91886608
0.79220295 0.64939551 0.91886608
0.83996314 0.67682487 0.91886608
0.91436209 0.73180248 0.91886608
0.91886608 0.81539776 0.91886608
0.75805563 0.63688683 0.91886608
0.75813560 0.63691881 0.91886608
0.75874740 0.63716403 0.91886608
0.76130760 0.63820085 0.91886608
0.76971763 0.64172914 0.91886608
0.79242544 0.65221680 0.91886608
0.84009478 0.67894317 0.91886608
0.91441878 0.73298840 0.91886608
0.91886608 0.81587911 0.91886608
0.75941816 0.64986852 0.91886608
0.75949696 0.64989640 0.91886608
0.76009988 0.65011022 0.91886608
0.76262353 0.65101506 0.91886608
0.77092006 0.65410352 0.91886608
0.79336656 0.66336558 0.91886608
0.84065304 0.68746354 0.91886608
0.91465973 0.73787487 0.91886608
0.91886608 0.81790016 0.91886608
0.76401764 0.68481833 0.91886608
0.76409264 0.68483759 0.91886608
0.76466649 0.68498534 0.91886608
0.76707036 0.68561173 0.91886608
0.77499380 0.68776351 0.91886608
0.79657405 0.69434144 0.91886608
0.84257261 0.71228498 0.91886608
0.91549453 0.75314963 0.91886608
0.91886608 0.82461386 0.91886608
0.77737579 0.74973171 0.91886608
0.77744070 0.74974135 0.91886608
0.77793762 0.74981531 0.91886608
0.78002356 0.75012951 0.91886608
0.78694722 0.75121665 0.91886608
0.80614962 0.75461507 0.91886608
0.84845775 0.76445771 0.91886608
0.91811491 0.78990307 0.91886608
0.91886608 0.84327211 0.91886608
0.80967386 0.83707276 0.91886608
0.80971952 0.83707648 0.91886608
0.81006932 0.83710502 0.91886608
0.81154360 0.83722641 0.91886608
0.81650434 0.83764835 0.91886608
0.83078140 0.83898646 0.91886608
0.86462731 0.84302714 0.91886608
0.91886608 0.85463713 0.91886608
0.91886608 0.88452135 0.91886608
0.86977798 0.91886608 0.91886608
0.86980139 0.91886608 0.91886608
0.86998095 0.91886608 0.91886608
0.87074132 0.91886608 0.91886608
0.87334224 0.91886608 0.91886608
0.88119144 0.91886608 0.91886608
0.90191070 0.91886608 0.91886608
0.91886608 0.91886608 0.91886608
0.91886608 0.91886608 0.91886608
0.91886608 0.91886608 0.91886608
0.91886608 0.91886608 0.91886608
0.91886608 0.91886608 0.91886608
0.91886608 0.91886608 0.91886608
0.91886608 0.91886608 0.91886608
0.91886608 0.91886608 0.91886608
0.91886608 0.91886608 0.91886608
0.91886608 0.91886608 0.91886608
0.91886608 0.91886608 0.91886608
