src/ffmpeg_scripts/luts/sRGB-rec2020_-3p67.cube
TITLE "sRGB-rec2020_-3p67"
LUT_3D_SIZE 5
# PQ (EOTF Only)/sRGB -> PQ (EOTF Only)/Rec2020, CineEI Shift -3.67, Black Level 0.00% IRE, Input 100% -> Output 109% - Created with LUTCalc v4.01 by Ben Turley October 2020
0.06256172 0.06256172 0.06256172
0.14056307 0.09287326 0.07752579
0.26922846 0.16328266 0.11999471
0.43724038 0.27892053 0.20166457
0.64081817 0.44648374 0.33674121
0.12281004 0.15282924 0.09646687
0.15417777 0.15530774 0.09921247
0.27095454 0.18522904 0.12654538
0.43746345 0.28307234 0.20294888
0.64084315 0.44704449 0.33693463
0.23300193 0.29275462 0.17245458
0.23839748 0.29302075 0.17285994
0.29527718 0.29738178 0.17927973
0.44115082 0.33183914 0.22135410
0.64126425 0.45602653 0.34013488
0.38650069 0.46879504 0.29403625
0.38725725 0.46882806 0.29409840
0.39912689 0.46938412 0.29514102
0.47212050 0.47488681 0.30506250
0.64546862 0.51737816 0.36724105
0.58183536 0.67626389 0.46653042
0.58192417 0.67626749 0.46653845
0.58341221 0.67632835 0.46667404
0.59742472 0.67694884 0.46804990
0.67994911 0.68300764 0.48091380
0.08684253 0.07493708 0.15193900
0.14260847 0.09509463 0.15255023
0.26945787 0.16361885 0.16184620
0.43726976 0.27897328 0.21361327
0.64082146 0.44649069 0.33868810
0.12594124 0.15324584 0.15513165
0.15570320 0.15570320 0.15570320
0.27117855 0.18545141 0.16446552
0.43749275 0.28312221 0.21467121
0.64084643 0.44705140 0.33887693
0.23338885 0.29279845 0.19108295
0.23875434 0.29306442 0.19137201
0.29543865 0.29742301 0.19604907
0.44117893 0.33186570 0.23030341
0.64126752 0.45603278 0.34200298
0.38655313 0.46880047 0.29735981
0.38730923 0.46883348 0.29741930
0.39917218 0.46938952 0.29841765
0.47214046 0.47489189 0.30794913
0.64547175 0.51738136 0.36859145
0.58184150 0.67626448 0.46696816
0.58193030 0.67626809 0.46697615
0.58341824 0.67632895 0.46711109
0.59742992 0.67694943 0.46848040
0.67995128 0.68300820 0.48128779
0.14718304 0.11174865 0.29108277
0.16798307 0.11824786 0.29114740
0.27322825 0.16898568 0.29223121
0.43776464 0.27985900 0.30251322
0.64087697 0.44660805 0.36607234
0.15919462 0.15978521 0.29142916
0.17620768 0.16193884 0.29149349
0.27486283 0.18908146 0.29257238
0.43798640 0.28395990 0.30281141
0.64090193 0.44716803 0.36620788
0.23960733 0.29353518 0.29705435
0.24451494 0.29379858 0.29711408
0.29811641 0.29811641 0.29811641
0.44165269 0.33231320 0.30768305
0.64132277 0.45613835 0.36846577
0.38743449 0.46889217 0.33895218
0.38818289 0.46892515 0.33898726
0.39993401 0.46948062 0.33957784
0.47247697 0.47497766 0.34538655
0.64552459 0.51743544 0.38865184
0.58194507 0.67627449 0.47406302
0.58203378 0.67627810 0.47407041
0.58352010 0.67633895 0.47419524
0.59751773 0.67695937 0.47546276
0.67998798 0.68301752 0.48738668
0.25145500 0.18545704 0.46658510
0.25560771 0.18679049 0.46659313
0.30364726 0.20561897 0.46672864
0.44267678 0.28836104 0.46810368
0.64144309 0.44780017 0.48096051
0.25366533 0.20107194 0.46662819
0.25769227 0.20209255 0.46663621
0.30474088 0.21716053 0.46677165
0.44288670 0.29203105 0.46814605
0.64146791 0.44835279 0.48099731
0.28331035 0.30068932 0.46735316
0.28600685 0.30092914 0.46736111
0.32121640 0.30487221 0.46749548
0.44636144 0.33675464 0.46885906
0.64188625 0.45721149 0.48161694
0.39596835 0.46982519 0.47445691
0.39664639 0.46985783 0.47446427
0.40736771 0.47040766 0.47458856
0.47585068 0.47585068 0.47585068
0.64606366 0.51798701 0.48772729
0.58299839 0.67637687 0.52601798
0.58308611 0.67638046 0.52602219
0.58455607 0.67644125 0.52609328
0.59841161 0.67706100 0.52681758
0.68036262 0.68311283 0.53384606
0.40898680 0.31174523 0.67380973
0.40957083 0.31195315 0.67381060
0.41889258 0.31538533 0.67382543
0.48140433 0.34394906 0.67397695
0.64698841 0.45904972 0.67549657
0.40929380 0.31446792 0.67381444
0.40987579 0.31466874 0.67381531
0.41916685 0.31798655 0.67383014
0.48154127 0.34577991 0.67398165
0.64701181 0.45953770 0.67550120
0.41432483 0.35028949 0.67389399
0.41487443 0.35041817 0.67389487
0.42367683 0.35256262 0.67390968
0.48382485 0.37181264 0.67406107
0.64740638 0.46740894 0.67557934
0.45399084 0.47876423 0.67470417
0.45434323 0.47879383 0.67470504
0.46009867 0.47929248 0.67471972
0.50441349 0.48424439 0.67486982
0.65135184 0.52339114 0.67637525
0.59304260 0.67740647 0.68253275
0.59312146 0.67741003 0.68253355
0.59444417 0.67747016 0.68254707
0.60700995 0.67808321 0.68268522
0.68407185 0.68407185 0.68407185
