src/ffmpeg_scripts/luts/sRGB-rec2020_0p67.cube
TITLE "sRGB-rec2020_0p67"
LUT_3D_SIZE 33
# PQ (EOTF Only)/sRGB -> PQ (EOTF Only)/Rec2020, CineEI Shift 0.67, Black Level 0.00% IRE, Input 100% -> Output 109% - Created with LUTCalc v4.01 by Ben Turley October 2020
0.06256172 0.06256172 0.06256172
0.08926887 0.07122673 0.06644932
0.11598828 0.08188830 0.07172301
0.14271366 0.09388048 0.07807305
0.16944326 0.10695046 0.08537130
0.19617618 0.12095375 0.09354464
0.22291185 0.13579392 0.10254483
0.24964988 0.15140084 0.11233741
0.27639000 0.16772059 0.12289650
0.30313196 0.18471011 0.13420191
0.32987560 0.20233399 0.14623755
0.35662078 0.22056247 0.15899028
0.38336737 0.23937009 0.17244926
0.41011528 0.25873476 0.18660540
0.43686442 0.27863706 0.20145104
0.46361471 0.29905977 0.21697966
0.49036608 0.31998749 0.23318570
0.51711848 0.34140632 0.25006437
0.54387186 0.36330366 0.26761156
0.57062617 0.38566798 0.28582371
0.59738136 0.40848874 0.30469776
0.62413740 0.43175621 0.32423108
0.65089426 0.45546137 0.34442139
0.67765189 0.47959585 0.36526675
0.70441028 0.50415188 0.38676549
0.73116939 0.52912214 0.40891620
0.75792921 0.55449982 0.43171770
0.78468969 0.58027848 0.45516902
0.81145084 0.60645208 0.47926934
0.83821262 0.63301490 0.50401803
0.86497501 0.65996152 0.52941462
0.89173800 0.68728683 0.55545873
0.91850157 0.71498594 0.58215015
0.08207656 0.09452238 0.07243183
0.09511329 0.09561041 0.07337213
0.11843455 0.09924735 0.07628723
0.14397154 0.10584676 0.08109216
0.17016747 0.11515719 0.08742191
0.19662333 0.12663690 0.09497713
0.22320130 0.13978872 0.10356972
0.24984374 0.15425231 0.11308489
0.27652317 0.16978452 0.12345000
0.30322527 0.18622207 0.13461676
0.32994201 0.20345287 0.14655149
0.35666863 0.22139748 0.15922968
0.38340221 0.23999761 0.17263294
0.41014084 0.25920904 0.18674702
0.43688330 0.27899719 0.20156065
0.46362873 0.29933424 0.21706474
0.49037655 0.32019728 0.23325188
0.51712632 0.34156701 0.25011593
0.54387774 0.36342693 0.26765176
0.57063059 0.38576263 0.28585506
0.59738469 0.40856145 0.30472221
0.62413991 0.43181205 0.32425014
0.65089615 0.45550423 0.34443623
0.67765332 0.47962872 0.36527828
0.70441135 0.50417704 0.38677444
0.73117020 0.52914137 0.40892313
0.75792981 0.55451448 0.43172305
0.78469015 0.58028963 0.45517313
0.81145118 0.60646053 0.47927250
0.83821287 0.63302128 0.50402045
0.86497520 0.65996632 0.52941645
0.89173814 0.68729042 0.55546012
0.91850167 0.71498862 0.58215120
0.10294825 0.12519036 0.08434124
0.10949626 0.12559981 0.08476170
0.12621079 0.12706711 0.08623101
0.14830949 0.13010521 0.08912102
0.17274464 0.13515430 0.09360234
0.19823724 0.14244422 0.09963102
0.22425354 0.15195341 0.10705194
0.25055121 0.16347714 0.11569454
0.27701033 0.17673517 0.12541542
0.30356710 0.19145192 0.13610584
0.33018549 0.20739337 0.14768634
0.35684418 0.22437452 0.16009922
0.38353003 0.24225390 0.17330227
0.41023468 0.26092450 0.18726424
0.43695264 0.28030525 0.20196158
0.46368025 0.30033414 0.21737630
0.49041498 0.32096318 0.23349443
0.51715509 0.34215460 0.25030499
0.54389934 0.36387820 0.26779923
0.57064683 0.38610944 0.28597013
0.59739692 0.40882801 0.30481197
0.62414913 0.43201687 0.32432010
0.65090309 0.45566150 0.34449070
0.67765855 0.47974935 0.36532063
0.70441529 0.50426942 0.38680730
0.73117316 0.52921198 0.40894857
0.75793203 0.55456832 0.43174270
0.78469181 0.58033057 0.45518825
0.81145242 0.60649156 0.47928409
0.83821379 0.63304471 0.50402931
0.86497588 0.65998394 0.52942319
0.89173864 0.68730361 0.55546522
0.91850205 0.71499845 0.58215504
0.12457232 0.15522832 0.09757315
0.12819371 0.15543158 0.09780575
0.13922319 0.15617091 0.09864278
0.15660329 0.15775527 0.10039264
0.17799707 0.16054304 0.10334761
0.20163285 0.16488948 0.10770776
0.22650511 0.17107797 0.11354293
0.25207952 0.17926108 0.12081039
0.27806866 0.18944167 0.12940409
0.30431227 0.20150000 0.13920004
0.33071745 0.21524540 0.15008288
0.35722829 0.23046552 0.16195601
0.38381001 0.24695902 0.17474267
0.41044034 0.26455127 0.18838339
0.43710469 0.28309829 0.20283249
0.46379324 0.30248466 0.21805496
0.49049931 0.32261915 0.23402385
0.51721823 0.34342996 0.25071827
0.54394674 0.36486051 0.26812196
0.57068249 0.38686594 0.28622213
0.59742377 0.40941039 0.30500865
0.62416936 0.43246490 0.32447348
0.65091834 0.45600584 0.34461017
0.67767004 0.48001363 0.36541354
0.70442394 0.50447191 0.38687941
0.73117966 0.52936680 0.40900441
0.75793691 0.55468641 0.43178581
0.78469546 0.58042038 0.45522144
0.81145515 0.60655964 0.47930955
0.83821582 0.63309613 0.50404876
0.86497739 0.66002262 0.52943799
0.89173976 0.68733258 0.55547643
0.91850286 0.71502002 0.58216348
0.14675098 0.18482966 0.11186086
0.14891858 0.18494446 0.11200344
0.15610926 0.18536417 0.11252190
0.16892854 0.18627471 0.11363215
0.18650835 0.18791310 0.11558367
0.20741986 0.19055709 0.11862316
0.23045584 0.19450117 0.12294965
0.25480776 0.20001764 0.12867895
0.27997782 0.20731197 0.13583532
0.30566541 0.21648934 0.14437038
0.33168755 0.22754596 0.15419414
0.35793073 0.24038673 0.16520274
0.38432299 0.25485805 0.17729630
0.41081766 0.27078165 0.19038736
0.43738388 0.28798025 0.20440327
0.46400086 0.30629259 0.21928545
0.49065433 0.32557989 0.23498743
0.51733435 0.34572674 0.25147262
0.54403394 0.36663911 0.26871226
0.57074808 0.38824124 0.28668378
0.59747318 0.41047237 0.30536940
0.62420660 0.43328377 0.32475506
0.65094641 0.45663626 0.34482964
0.67769118 0.48049811 0.36558429
0.70443986 0.50484349 0.38701198
0.73119163 0.52965113 0.40910709
0.75794589 0.55490339 0.43186512
0.78470219 0.58058548 0.45528250
0.81146017 0.60668485 0.47935639
0.83821956 0.63319072 0.50408455
0.86498016 0.66009379 0.52946522
0.89174180 0.68738587 0.55549704
0.91850437 0.71505973 0.58217900
0.16937778 0.21409343 0.12705303
0.17075077 0.21416338 0.12714591
0.17550637 0.21441969 0.12748519
0.18467024 0.21497874 0.12821976
0.19840239 0.21599492 0.12953667
0.21603718 0.21766214 0.13164984
0.23658731 0.22021026 0.13477802
0.25915477 0.22389208 0.13911387
0.28307115 0.22895930 0.14479410
0.30788169 0.23563053 0.15188323
0.33328780 0.24405963 0.16037657
0.35909499 0.25431510 0.17021803
0.38517598 0.26637788 0.18132272
0.41144647 0.28015642 0.19359629
0.43784992 0.29551175 0.20694771
0.46434781 0.31228315 0.22129586
0.49091359 0.33030860 0.23657186
0.51752866 0.34943774 0.25271891
0.54417991 0.36953835 0.26969100
0.57085793 0.39049817 0.28745127
0.59755593 0.41222402 0.30597031
0.62426897 0.43463966 0.32522480
0.65099343 0.45768319 0.34519618
0.67772662 0.48130448 0.36586972
0.70446653 0.50546299 0.38723374
0.73121168 0.53012577 0.40927893
0.75796094 0.55526598 0.43199789
0.78471345 0.58086157 0.45538475
0.81146858 0.60689433 0.47943486
0.83822582 0.63334906 0.50414452
0.86498480 0.66021294 0.52951084
0.89174523 0.68747512 0.55553159
0.91850689 0.71512624 0.58220502
0.19238463 0.24308073 0.14304912
0.19329055 0.24312556 0.14311211
0.19650182 0.24328997 0.14334274
0.20299054 0.24364955 0.14384489
0.21336586 0.24430651 0.14475456
0.22762732 0.24539366 0.14623884
0.24525829 0.24707721 0.14848910
0.26552194 0.24955565 0.15170555
0.28771135 0.25305218 0.15607430
0.31126004 0.25779911 0.16174248
0.33575369 0.26401445 0.16880005
0.36090236 0.27187511 0.17727459
0.38650690 0.28149369 0.18713954
0.41243111 0.29290640 0.19833067
0.43858149 0.30607542 0.21076380
0.46489343 0.32090376 0.22434929
0.49132182 0.33725639 0.23900155
0.51783492 0.35498125 0.25464406
0.54441014 0.37392590 0.27121123
0.57103126 0.39394836 0.28864834
0.59768656 0.41492277 0.30691056
0.62436747 0.43674124 0.32596155
0.65106770 0.45931337 0.34577211
0.67778259 0.48256452 0.36631884
0.70450867 0.50643363 0.38758304
0.73124337 0.53087098 0.40954982
0.75798472 0.55583615 0.43220732
0.78473126 0.58129625 0.45554612
0.81148187 0.60722446 0.47955872
0.83823572 0.63359874 0.50423920
0.86499214 0.66040095 0.52958290
0.89175065 0.68761600 0.55558616
0.91851087 0.71523125 0.58224612
0.21572369 0.27183332 0.15977628
0.21633982 0.27186308 0.15982024
0.21855274 0.27197234 0.15998141
0.22315593 0.27221163 0.16033339
0.23085365 0.27265005 0.16097479
0.24202634 0.27337904 0.16203157
0.25661861 0.27451643 0.16365717
0.27421843 0.27620929 0.16602771
0.29424619 0.27863415 0.16933049
0.31612271 0.28199255 0.17374606
0.33935776 0.28650039 0.17942726
0.36357240 0.29237051 0.18648106
0.38848794 0.29979047 0.19495915
0.41390452 0.30890008 0.20485975
0.43968037 0.31977491 0.21613840
0.46571520 0.33242056 0.22872307
0.49193789 0.34677894 0.24252857
0.51829775 0.36274341 0.25746783
0.54475844 0.38017776 0.27345900
0.57129370 0.39893399 0.29042923
0.59788446 0.41886607 0.30831596
0.62451675 0.43983881 0.32706677
0.65118029 0.46173246 0.34663845
0.67786746 0.48444417 0.36699582
0.70457259 0.50788744 0.38811040
0.73129143 0.53199061 0.40995931
0.75802079 0.55669485 0.43252420
0.78475827 0.58195210 0.45579044
0.81150205 0.60772324 0.47974636
0.83825073 0.63397639 0.50438271
0.86500327 0.66068555 0.52969215
0.89175887 0.68782940 0.55566891
0.91851691 0.71539040 0.58230846
0.23935921 0.30038161 0.17717869
0.23978807 0.30040192 0.17721003
0.24134044 0.30047646 0.17732501
0.24462857 0.30063987 0.17757659
0.25029576 0.30093975 0.17803664
0.25886409 0.30143979 0.17879908
0.27058831 0.30222344 0.17998256
0.28539663 0.30339761 0.18173086
0.30295164 0.30509549 0.18420935
0.32277980 0.30747754 0.18759605
0.34439222 0.31072894 0.19206718
0.36735705 0.31505221 0.19777904
0.39132567 0.32065387 0.20485073
0.41603113 0.32772601 0.21335245
0.44127509 0.33642564 0.22330300
0.46691251 0.34685654 0.23467598
0.49283808 0.35905869 0.24741192
0.51897546 0.37300790 0.26143181
0.54526923 0.38862534 0.27664912
0.57167901 0.40579315 0.29297851
0.59817525 0.42437180 0.31034121
0.62473624 0.44421533 0.32866767
0.65134592 0.46518274 0.34789836
0.67799236 0.48714501 0.36798336
0.70466667 0.50998854 0.38888149
0.73136219 0.53361604 0.41055912
0.75807391 0.55794580 0.43298900
0.78479805 0.58291009 0.45614919
0.81153176 0.60845332 0.48002212
0.83827285 0.63453005 0.50459373
0.86501968 0.66110329 0.52985287
0.89177099 0.68814291 0.55579069
0.91852582 0.71562437 0.58240023
0.26326335 0.32874885 0.19521187
0.26356730 0.32876299 0.19523458
0.26467285 0.32881490 0.19531794
0.26704172 0.32892875 0.19550054
0.27120811 0.32913790 0.19583516
0.27769620 0.32948725 0.19639176
0.28690884 0.33003626 0.19726074
0.29902811 0.33086230 0.19855534
0.31398064 0.33206399 0.20041230
0.33148389 0.33376410 0.20298921
0.35113970 0.33611094 0.20645739
0.37252569 0.33927713 0.21098980
0.39525572 0.34345435 0.21674527
0.41900686 0.34884296 0.22385203
0.44352349 0.35563662 0.23239497
0.46860999 0.36400356 0.24241012
0.49411953 0.37406823 0.25388724
0.51994310 0.38589773 0.26677906
0.54600017 0.39949681 0.28101357
0.57223130 0.41481230 0.29650608
0.59859259 0.43174520 0.31316908
0.62505154 0.45016654 0.33091897
0.65158401 0.46993322 0.34967996
0.67817199 0.49090104 0.36938585
0.70480203 0.51293384 0.38998023
0.73146403 0.53590886 0.41141600
0.75815038 0.55971904 0.43365431
0.78485533 0.58427323 0.45666350
0.81157454 0.60949521 0.48041789
0.83830470 0.63532195 0.50489686
0.86504330 0.66170182 0.53008390
0.89178843 0.68859271 0.55596584
0.91853864 0.71596038 0.58253227
0.28741370 0.35695337 0.21383934
0.28763223 0.35696337 0.21385601
0.28842955 0.35700011 0.21391721
0.29015088 0.35708071 0.21405136
0.29322002 0.35722887 0.21429754
0.29810080 0.35747662 0.21470802
0.30522963 0.35786664 0.21535127
0.31492952 0.35845505 0.21631497
0.32733858 0.35931442 0.21770834
0.34238765 0.36053697 0.21966291
0.35983567 0.36223742 0.22233061
0.37934030 0.36455469 0.22587792
0.40052974 0.36765160 0.23047557
0.42305427 0.37171108 0.23628447
0.44661269 0.37692804 0.24344023
0.47095989 0.38349634 0.25203981
0.49590348 0.39159188 0.26213384
0.52129583 0.40135463 0.27372648
0.54702518 0.41287340 0.28678197
0.57300758 0.42617737 0.30123547
0.59918020 0.44123646 0.31700491
0.62549606 0.45796987 0.33400153
0.65192000 0.47626004 0.35213768
0.67842568 0.49596835 0.37133196
0.70499331 0.51694925 0.39151188
0.73160800 0.53906108 0.41261476
0.75825851 0.56217320 0.43458766
0.78493634 0.58616971 0.45738653
0.81163506 0.61095066 0.48097520
0.83834976 0.63643168 0.50532426
0.86507672 0.66254262 0.53040995
0.89181312 0.68922576 0.55621321
0.91855679 0.71643397 0.58271886
0.31179181 0.38501005 0.23303049
0.31195074 0.38501722 0.23304285
0.31253182 0.38504355 0.23308823
0.31379259 0.38510135 0.23318776
0.31606159 0.38520763 0.23337058
0.31972382 0.38538548 0.23367588
0.32518633 0.38566580 0.23415551
0.33282073 0.38608945 0.23487679
0.34289504 0.38670980 0.23592536
0.35551985 0.38759562 0.23740741
0.37063230 0.38883406 0.23945064
0.38802359 0.39053350 0.24220286
0.40739395 0.39282554 0.24582712
0.42841108 0.39586523 0.25049280
0.45075468 0.39982852 0.25636288
0.47414200 0.40490571 0.26357924
0.49833738 0.41129034 0.27224909
0.52315184 0.41916388 0.28243571
0.54843753 0.42867837 0.29415607
0.57408063 0.43994029 0.30738509
0.59999441 0.45299957 0.32206498
0.62611312 0.46784656 0.33811663
0.65238705 0.48441744 0.35545056
0.67877868 0.50260609 0.37397567
0.70525967 0.52227917 0.39360538
0.73180860 0.54329091 0.41426121
0.75840925 0.56549533 0.43587441
0.78504932 0.58875490 0.45838626
0.81171948 0.61294564 0.48174755
0.83841263 0.63795936 0.50591760
0.86512337 0.66370396 0.53086320
0.89184758 0.69010240 0.55655745
0.91858212 0.71709110 0.58297871
0.33638215 0.41293119 0.25275917
0.33649883 0.41293638 0.25276841
0.33692599 0.41295546 0.25280234
0.33785596 0.41299734 0.25287677
0.33954042 0.41307436 0.25301356
0.34228782 0.41320333 0.25324225
0.34644939 0.41340675 0.25360213
0.35238691 0.41371455 0.25414474
0.36042362 0.41416607 0.25493653
0.37078879 0.41481244 0.25606160
0.38357532 0.41571932 0.25762389
0.39872725 0.41696982 0.25974831
0.41606137 0.41866729 0.26257974
0.43531130 0.42093751 0.26627897
0.45617615 0.42392940 0.27101478
0.47835975 0.42781336 0.27695235
0.50159494 0.43277598 0.28423922
0.52565452 0.43901039 0.29299158
0.55035279 0.44670246 0.30328391
0.57554206 0.45601401 0.31514465
0.60110694 0.46706619 0.32855852
0.62695833 0.47992668 0.34347447
0.65302798 0.49460389 0.35981639
0.67926379 0.51104949 0.37749437
0.70562612 0.52916829 0.39641419
0.73208480 0.54883243 0.41648437
0.75861692 0.56989652 0.43762067
0.78520504 0.59221099 0.45974838
0.81183588 0.61563212 0.48280309
0.83849934 0.64002843 0.50673044
0.86518771 0.66528397 0.53148527
0.89189511 0.69129927 0.55703055
0.91861707 0.71799070 0.58333624
0.36117149 0.44072715 0.27300274
0.36125779 0.44073095 0.27300969
0.36157405 0.44074489 0.27303522
0.36226422 0.44077549 0.27309123
0.36351993 0.44083179 0.27319422
0.36558334 0.44092607 0.27336652
0.36874412 0.44107488 0.27363800
0.37332478 0.44130023 0.27404804
0.37965112 0.44163119 0.27464798
0.38800980 0.44210582 0.27550363
0.39860224 0.44277339 0.27669795
0.41150981 0.44369703 0.27833326
0.42668342 0.44495657 0.28053251
0.44396057 0.44665135 0.28343862
0.46310159 0.44890251 0.28721101
0.48383104 0.45185415 0.29201858
0.50587264 0.45567232 0.29802895
0.52897253 0.46054072 0.30539502
0.55291089 0.46665235 0.31424111
0.57750513 0.47419681 0.32465177
0.60260785 0.48334417 0.33666581
0.62810241 0.49422812 0.35027697
0.65389774 0.50693171 0.36544043
0.67992337 0.52147927 0.38208297
0.70612508 0.53783647 0.40011427
0.73246130 0.55591821 0.41943714
0.75890025 0.57560186 0.43995535
0.78541762 0.59674258 0.46157901
0.81199487 0.61918758 0.48422754
0.83861781 0.64278735 0.50783088
0.86527565 0.66740334 0.53232954
0.89196010 0.69291221 0.55767388
0.91866486 0.71920744 0.58382311
0.38614835 0.46840680 0.29374133
0.38621258 0.46840959 0.29374659
0.38644812 0.46841985 0.29376589
0.38696297 0.46844236 0.29380826
0.38790267 0.46848380 0.29388619
0.38945504 0.46855320 0.29401663
0.39185253 0.46866277 0.29422231
0.39536787 0.46882881 0.29453338
0.40029946 0.46907287 0.29498936
0.40694438 0.46942330 0.29564144
0.41556137 0.46991704 0.29655499
0.42633150 0.47060183 0.29781219
0.43932868 0.47153871 0.29951426
0.45451033 0.47280487 0.30178282
0.47173107 0.47449639 0.30475963
0.49077295 0.47673078 0.30860355
0.51138138 0.47964836 0.31348423
0.53329670 0.48341183 0.31957206
0.55627630 0.48820285 0.32702513
0.58010680 0.49421464 0.33597540
0.60460839 0.50164024 0.34651664
0.62963404 0.51065706 0.35869717
0.65506605 0.52140975 0.37251895
0.68081163 0.53399488 0.38794287
0.70679836 0.54845088 0.40489827
0.73297010 0.56475592 0.42329436
0.75928357 0.58283396 0.44303089
0.78570549 0.60256708 0.46400691
0.81221030 0.62381080 0.48612691
0.83877844 0.64640914 0.50930444
0.86539491 0.67020700 0.53346380
0.89204826 0.69505900 0.55854041
0.91872971 0.72083468 0.58448019
0.41130272 0.49597778 0.31495733
0.41135076 0.49597984 0.31496132
0.41152702 0.49598743 0.31497598
0.41191273 0.49600410 0.31500816
0.41261834 0.49603476 0.31506736
0.41378846 0.49608613 0.31516649
0.41560641 0.49616726 0.31532288
0.41829532 0.49629023 0.31555963
0.42211294 0.49647111 0.31590713
0.42733750 0.49673105 0.31640503
0.43424315 0.49709775 0.31710445
0.44306710 0.49760721 0.31807054
0.45397543 0.49830587 0.31938494
0.46703731 0.49925308 0.32114820
0.48221632 0.50052384 0.32348122
0.49938138 0.50221168 0.32652521
0.51833251 0.50443122 0.33043919
0.53883240 0.50731990 0.33539416
0.56063529 0.51103797 0.34156361
0.58350811 0.51576580 0.34911091
0.60724304 0.52169728 0.35817530
0.63166269 0.52902891 0.36885917
0.65662035 0.53794485 0.38121962
0.68199740 0.54859963 0.39526614
0.70769950 0.56110187 0.41096476
0.73365246 0.57550257 0.42824699
0.75979845 0.59179098 0.44702123
0.78609259 0.60989902 0.46718404
0.81250026 0.62971267 0.48862964
0.83899477 0.65108736 0.51125681
0.86555563 0.67386370 0.53497317
0.89216711 0.69788097 0.55969741
0.91881716 0.72298705 0.58535985
0.43662574 0.52344678 0.33663501
0.43666181 0.52344831 0.33663805
0.43679421 0.52345395 0.33664922
0.43708420 0.52346634 0.33667374
0.43761554 0.52348913 0.33671885
0.43849914 0.52352733 0.33679440
0.43987795 0.52358766 0.33691366
0.44193055 0.52367913 0.33709431
0.44487134 0.52381374 0.33735972
0.44894505 0.52400730 0.33774053
0.45441312 0.52428061 0.33827653
0.46153127 0.52466079 0.33901888
0.47052008 0.52518306 0.34003258
0.48153451 0.52589275 0.34139906
0.49464095 0.52684781 0.34321853
0.50980873 0.52812149 0.34561164
0.52691895 0.52980530 0.34871968
0.54578663 0.53201164 0.35270241
0.56618891 0.53487580 0.35773274
0.58789171 0.53855641 0.36398770
0.61067004 0.54323323 0.37163605
0.63432078 0.54910136 0.38082415
0.65866858 0.55636092 0.39166263
0.68356695 0.56520253 0.40421676
0.70889641 0.57578988 0.41850294
0.73456119 0.58824253 0.43449171
0.76048553 0.60262271 0.45211625
0.78660998 0.61892944 0.47128377
0.81288827 0.63710137 0.49188731
0.83928452 0.65702747 0.51381602
0.86577104 0.67856237 0.53696282
0.89232648 0.70154283 0.56122935
0.91886608 0.72580231 0.58652860
0.46210952 0.55081968 0.35876020
0.46213670 0.55082083 0.35876252
0.46223645 0.55082503 0.35877105
0.46245507 0.55083427 0.35878977
0.46285612 0.55085128 0.35882423
0.46352440 0.55087978 0.35888195
0.46457058 0.55092480 0.35897308
0.46613551 0.55099308 0.35911119
0.46839302 0.55109359 0.35931425
0.47154959 0.55123818 0.35960590
0.47583862 0.55144247 0.36001699
0.48150768 0.55172690 0.36058748
0.48879767 0.55211813 0.36136861
0.49791624 0.55265065 0.36242541
0.50901023 0.55336891 0.36383928
0.52214459 0.55432969 0.36571043
0.53729410 0.55560487 0.36815969
0.55435033 0.55728436 0.37132893
0.57314099 0.55947892 0.37537923
0.59345536 0.56232238 0.38048597
0.61506918 0.56597241 0.38683013
0.63776426 0.57060889 0.39458611
0.66134140 0.57642865 0.40390739
0.68562689 0.58363575 0.41491253
0.71047434 0.59242720 0.42767452
0.73576338 0.60297539 0.44221605
0.76139692 0.61540996 0.45851160
0.78729770 0.62980327 0.47649539
0.81340483 0.64616280 0.49607293
0.83967074 0.66443276 0.51713332
0.86605843 0.68450396 0.53956031
0.89253927 0.70622936 0.56324071
0.91886608 0.72944125 0.58807003
0.48774700 0.57810172 0.38132004
0.48776752 0.57810258 0.38132182
0.48784284 0.57810573 0.38132834
0.48800801 0.57811264 0.38134266
0.48831125 0.57812537 0.38136902
0.48881731 0.57814669 0.38141319
0.48961143 0.57818038 0.38148294
0.49080357 0.57823148 0.38158868
0.49253221 0.57830672 0.38174423
0.49496663 0.57841499 0.38196780
0.49830615 0.57856805 0.38228327
0.50277450 0.57878128 0.38272170
0.50860770 0.57907485 0.38332323
0.51603481 0.57947493 0.38413927
0.52525347 0.58001547 0.38523496
0.53640465 0.58074015 0.38669189
0.54955294 0.58170482 0.38861055
0.56467827 0.58298025 0.39111234
0.58168135 0.58465518 0.39434017
0.60040069 0.58683923 0.39845701
0.62063585 0.58966532 0.40364121
0.64217080 0.59329085 0.41007819
0.66479301 0.59789648 0.41794829
0.68830647 0.60368134 0.42741220
0.71253874 0.61085385 0.43859626
0.73734329 0.61961752 0.45158079
0.76259889 0.63015315 0.46639424
0.78820714 0.64259987 0.48301435
0.81408937 0.65703916 0.50137575
0.84018337 0.67348579 0.52138160
0.86644035 0.69188820 0.54291653
0.89282231 0.71213783 0.56585844
0.91886608 0.73408492 0.59008776
0.51353178 0.60529758 0.40430282
0.51354730 0.60529822 0.40430418
0.51360427 0.60530059 0.40430918
0.51372924 0.60530577 0.40432015
0.51395882 0.60531531 0.40434034
0.51434237 0.60533130 0.40437417
0.51494531 0.60535656 0.40442760
0.51585287 0.60539488 0.40450863
0.51717400 0.60545131 0.40462787
0.51904468 0.60553254 0.40479934
0.52162988 0.60564740 0.40504150
0.52512259 0.60580751 0.40537841
0.52973827 0.60602807 0.40584135
0.53570342 0.60632895 0.40647064
0.54323764 0.60673597 0.40731790
0.55253093 0.60728254 0.40844854
0.56372015 0.60801174 0.40994448
0.57687039 0.60897865 0.41190678
0.59196649 0.61025325 0.41445774
0.60891721 0.61192341 0.41774178
0.62757037 0.61409805 0.42192422
0.64773419 0.61690976 0.42718698
0.66919954 0.62051627 0.43372039
0.69175854 0.62509963 0.44171112
0.71521770 0.63086195 0.45132724
0.73940539 0.63801642 0.46270282
0.76417481 0.64677335 0.47592522
0.78940374 0.65732188 0.49102808
0.81499252 0.66981011 0.50799177
0.84086113 0.68432779 0.52675054
0.86694612 0.70089583 0.54720449
0.89319760 0.71946552 0.56923313
0.91886608 0.73992760 0.59270800
0.53945808 0.63241147 0.42769781
0.53946983 0.63241195 0.42769885
0.53951296 0.63241372 0.42770268
0.53960759 0.63241761 0.42771108
0.53978154 0.63242478 0.42772655
0.54007238 0.63243678 0.42775248
0.54053017 0.63245575 0.42779343
0.54122064 0.63248452 0.42785554
0.54222869 0.63252690 0.42794697
0.54366198 0.63258792 0.42807851
0.54565403 0.63267422 0.42826437
0.54836581 0.63279455 0.42852318
0.55198469 0.63296042 0.42887919
0.55671914 0.63318683 0.42936388
0.56278786 0.63349340 0.43001779
0.57040296 0.63390559 0.43089279
0.57974871 0.63445642 0.43205465
0.59095932 0.63518842 0.43358579
0.60410104 0.63615613 0.43558808
0.61916348 0.63742890 0.43818506
0.63606259 0.63909411 0.44152307
0.65465420 0.64126036 0.44577032
0.67475391 0.64406040 0.45111281
0.69615827 0.64765287 0.45774633
0.71866312 0.65222189 0.46586431
0.74207685 0.65797314 0.47564248
0.76622827 0.66512521 0.48722267
0.79097005 0.67389553 0.50069899
0.81617892 0.68448164 0.51610980
0.84175393 0.69704028 0.53343734
0.86761377 0.71166869 0.55261468
0.89369381 0.72839271 0.57353801
0.91886608 0.74716509 0.59608095
0.56552060 0.65944719 0.45149510
0.56552949 0.65944755 0.45149590
0.56556217 0.65944888 0.45149884
0.56563386 0.65945181 0.45150528
0.56576568 0.65945719 0.45151713
0.56598623 0.65946621 0.45153699
0.56633372 0.65948046 0.45156838
0.56685862 0.65950208 0.45161599
0.56762664 0.65953393 0.45168608
0.56872208 0.65957980 0.45178695
0.57025122 0.65964468 0.45192954
0.57234510 0.65973517 0.45212822
0.57516104 0.65985995 0.45240176
0.57888152 0.66003037 0.45277458
0.58370909 0.66026127 0.45327836
0.58985611 0.66057203 0.45395386
0.59752888 0.66098782 0.45485327
0.60690752 0.66154128 0.45604279
0.61812481 0.66227455 0.45760551
0.63124874 0.66324173 0.45964433
0.64627356 0.66451180 0.46228434
0.66312173 0.66617188 0.46567425
0.68165603 0.66833067 0.46998562
0.70169828 0.67112152 0.47540910
0.72304969 0.67470458 0.48214653
0.74550898 0.67926667 0.49039859
0.76888577 0.68501774 0.50034904
