src/ffmpeg_scripts/luts/sRGB-rec2020_-4p00.cube
TITLE "sRGB-rec2020_-4p00"
LUT_3D_SIZE 9
# PQ (EOTF Only)/sRGB -> PQ (EOTF Only)/Rec2020, CineEI Shift -4.00, Black Level 0.00% IRE, Input 100% -> Output 109% - Created with LUTCalc v4.01 by Ben Turley October 2020
0.06256172 0.06256172 0.06256172
0.09033655 0.07162191 0.06663673
0.13379036 0.08974753 0.07584281
0.18933741 0.11728867 0.09137351
0.25574323 0.15505876 0.11467698
0.33233355 0.20398446 0.14737984
0.41867988 0.26504957 0.19128407
0.51448721 0.33927827 0.24837457
0.61954229 0.42772891 0.32082967
0.08289182 0.09576464 0.07287670
0.09637472 0.09688791 0.07385516
0.13546696 0.10421790 0.07956262
0.18988375 0.12401340 0.09306978
0.25593610 0.15792576 0.11543348
0.33240350 0.20516609 0.14771222
0.41870506 0.26552087 0.19142570
0.51449597 0.33945739 0.24843195
0.61954516 0.42779237 0.32085127
0.11728403 0.14525480 0.09302827
0.12200539 0.14552853 0.09333148
0.14651787 0.14757661 0.09554008
0.19391352 0.15539875 0.10326313
0.25739962 0.17573140 0.12074775
0.33293858 0.21354793 0.15018679
0.41889817 0.26904023 0.19250175
0.51456315 0.34081985 0.24887098
0.61956712 0.42827812 0.32101695
0.16355122 0.20663585 0.12308683
0.16521761 0.20672161 0.12319888
0.17648042 0.20737612 0.12404814
0.20851502 0.21008635 0.12746295
0.26331078 0.21870215 0.13747573
0.33517747 0.24039799 0.15946544
0.41971552 0.28236431 0.19687067
0.51484863 0.34637767 0.25070923
0.61966057 0.43031671 0.32171839
0.22108476 0.27835592 0.16368428
0.22169954 0.27838549 0.16372841
0.22623340 0.27861216 0.16406597
0.24264210 0.27956931 0.16547817
0.28078506 0.28281236 0.17011613
0.34253138 0.29233912 0.18270090
0.42250717 0.31608446 0.20998706
0.51583706 0.36325859 0.25676191
0.61998564 0.43707903 0.32411638
0.28964492 0.35953788 0.21558000
0.28987528 0.35954841 0.21559761
0.29162100 0.35962924 0.21573264
0.29863222 0.35997243 0.21630423
0.31903396 0.36115796 0.21825723
0.36243289 0.36484511 0.22413524
0.43089684 0.37537997 0.23961959
0.51893348 0.40187877 0.27325764
0.62101923 0.45582762 0.33134366
0.36914885 0.44960209 0.27958998
0.36923407 0.44960582 0.27959688
0.36988555 0.44963449 0.27964983
0.37260387 0.44975641 0.27987483
0.38145101 0.45018018 0.28065392
0.40485742 0.45152402 0.28309508
0.45286590 0.45558163 0.29021592
0.52795705 0.46724312 0.30900149
0.62416487 0.49737453 0.35041493
0.45959615 0.54813153 0.35656461
0.45962649 0.54813281 0.35656720
0.45985914 0.54814265 0.35658708
0.46084290 0.54818450 0.35667166
0.46419131 0.54833024 0.35696585
0.47415247 0.54879547 0.35790106
0.49961804 0.55022845 0.36074546
0.55165687 0.55458656 0.36908718
0.63340409 0.56754204 0.39169058
0.56103518 0.65480951 0.44737998
0.56104532 0.65480993 0.44738089
0.56112309 0.65481310 0.44738786
0.56145348 0.65482662 0.44741753
0.56259627 0.65487372 0.44752089
0.56616528 0.65502442 0.44785111
0.57647627 0.65549177 0.44887089
0.60300671 0.65694302 0.45199686
0.65848059 0.66152801 0.46150065
0.06958638 0.06586552 0.09536331
0.09122620 0.07239402 0.09563874
0.13401485 0.08999080 0.09765870
0.18940957 0.11738003 0.10487174
0.25576863 0.15509525 0.12169699
0.33234276 0.20399920 0.15065409
0.41868319 0.26505541 0.19270920
0.51448836 0.33928048 0.24895624
0.61954267 0.42772970 0.32104921
0.08416746 0.09595284 0.09680782
0.09706793 0.09706793 0.09706793
0.13568250 0.10435558 0.09898254
0.18995522 0.12408919 0.10589895
0.25596143 0.15796014 0.12231753
0.33241269 0.20518055 0.15096364
0.41870837 0.26552667 0.19284737
0.51449712 0.33945960 0.24901314
0.61954553 0.42779315 0.32107075
0.11763107 0.14529993 0.10587334
0.12230952 0.14557338 0.10606094
0.14668489 0.14761947 0.10746364
0.19398016 0.15543499 0.11281336
0.25742443 0.17575565 0.12676515
0.33294772 0.21356054 0.15327443
0.41890147 0.26904575 0.19389741
0.51456430 0.34082202 0.24944849
0.61956750 0.42827890 0.32123598
0.16366806 0.20664996 0.12876686
0.16533065 0.20673570 0.12886336
0.17657150 0.20739006 0.12959652
0.20856716 0.21009969 0.13257399
0.26333360 0.21871376 0.14153420
0.33518636 0.24040632 0.16202430
0.41971879 0.28236892 0.19816649
0.51484978 0.34637970 0.25127164
0.61966095 0.43031747 0.32193549
0.22112739 0.27836079 0.16604046
0.22174176 0.27839036 0.16608258
0.22627275 0.27861700 0.16640482
0.24267282 0.27957410 0.16775427
0.28080299 0.28281694 0.17220037
0.34253949 0.29234315 0.18435691
0.42251035 0.31608742 0.21103109
0.51583819 0.36326024 0.25727771
0.61998602 0.43707974 0.32432703
0.28966085 0.35953961 0.21653482
0.28989116 0.35955014 0.21655216
0.29163652 0.35963097 0.21668515
0.29864637 0.35997416 0.21724817
0.31904483 0.36115966 0.21917258
0.36243927 0.36484674 0.22497057
0.43089973 0.37538141 0.24028075
0.51893457 0.40187983 0.27366750
0.62101960 0.45582819 0.33153611
0.36915474 0.44960270 0.27996599
0.36923995 0.44960644 0.27997285
0.36989138 0.44963510 0.28002554
0.37260952 0.44975702 0.28024940
0.38145610 0.45018079 0.28102456
0.40486129 0.45152462 0.28345373
0.45286816 0.45558221 0.29054205
0.52795805 0.46724362 0.30925671
0.62416523 0.49737490 0.35056721
0.45959824 0.54813174 0.35670597
0.45962858 0.54813302 0.35670856
0.45986123 0.54814286 0.35672841
0.46084497 0.54818471 0.35681284
0.46419330 0.54833045 0.35710654
0.47415425 0.54879568 0.35804017
0.49961939 0.55022865 0.36087990
0.55165764 0.55458676 0.36920888
0.63340441 0.56754221 0.39178391
0.56103588 0.65480958 0.44742957
0.56104602 0.65481000 0.44743048
0.56112379 0.65481317 0.44743745
0.56145417 0.65482669 0.44746710
0.56259696 0.65487379 0.44757041
0.56616595 0.65502448 0.44790044
0.57647686 0.65549184 0.44891967
0.60300716 0.65694309 0.45204397
0.65848084 0.66152807 0.46154306
0.08426118 0.07351904 0.14442126
0.09712004 0.07702327 0.14448757
0.13569890 0.09177455 0.14499353
0.18996067 0.11807368 0.14708552
0.25596336 0.15537454 0.15370981
0.33241340 0.20411229 0.17031517
0.41870862 0.26510026 0.20262532
0.51449720 0.33929750 0.25326665
0.61954556 0.42773572 0.32271503
0.09190978 0.09735291 0.14477619
0.10185627 0.09840990 0.14484198
0.13730142 0.10539173 0.14534395
0.19050108 0.12466610 0.14742005
0.25615562 0.15822333 0.15399986
0.33248327 0.20529144 0.17052293
0.41873380 0.26557123 0.20274204
0.51450596 0.33947658 0.25332011
0.61954842 0.42779917 0.32273613
0.12018719 0.14564494 0.14741160
0.12456477 0.14591630 0.14747364
0.14794724 0.14794724 0.14794724
0.19448926 0.15571230 0.14991006
0.25761462 0.17594144 0.15616996
0.33301783 0.21365727 0.17209127
0.41892684 0.26908818 0.20363079
0.51457314 0.34083871 0.25372929
0.61957039 0.42828489 0.32289792
0.16455622 0.20675820 0.15719788
0.16619029 0.20684379 0.15724822
0.17726573 0.20749699 0.15763305
0.20896603 0.21020199 0.15923791
0.26350858 0.21880287 0.16445601
0.33525455 0.24047027 0.17829121
0.41974393 0.28240428 0.20727404
0.51485858 0.34639529 0.25544480
0.61966383 0.43032332 0.32358299
0.22145380 0.27839812 0.18126430
0.22206505 0.27842767 0.18129587
0.22657410 0.27865421 0.18153770
0.24290823 0.27961082 0.18255542
0.28094057 0.28285209 0.18596384
0.34260178 0.29237410 0.19567209
0.42253470 0.31611016 0.21851158
0.51584690 0.36327296 0.26111736
0.61998889 0.43708516 0.32592618
0.28978302 0.35955291 0.22342209
0.29001296 0.35956344 0.22343765
0.29175553 0.35964425 0.22355698
0.29875489 0.35998738 0.22406254
0.31912830 0.36117270 0.22579462
0.36248821 0.36485922 0.23104945
0.43092188 0.37539242 0.24515289
0.51894300 0.40188791 0.27674022
0.62102244 0.45583259 0.33299876
0.36919992 0.44960742 0.28279119
0.36928508 0.44961115 0.28279780
0.36993617 0.44963981 0.28284851
0.37265288 0.44976173 0.28306400
0.38149518 0.45018547 0.28381040
0.40489107 0.45152923 0.28615156
0.45288549 0.45558662 0.29300035
0.52796570 0.46724750 0.31118909
0.62416798 0.49737769 0.35172720
0.45961433 0.54813336 0.35778353
0.45964466 0.54813464 0.35778608
0.45987727 0.54814447 0.35780568
0.46086083 0.54818632 0.35788902
0.46420859 0.54833206 0.35817895
0.47416795 0.54879728 0.35910067
0.49962978 0.55023023 0.36190507
0.55166357 0.55458827 0.37013759
0.63340691 0.56754352 0.39249725
0.56104125 0.65481010 0.44780947
0.56105139 0.65481052 0.44781037
0.56112916 0.65481369 0.44781731
0.56145952 0.65482721 0.44784684
0.56260224 0.65487431 0.44794971
0.56617103 0.65502500 0.44827836
0.57648142 0.65549236 0.44929333
0.60301060 0.65694360 0.45240491
0.65848276 0.66152856 0.46186804
0.10735477 0.08675362 0.20539296
0.11355546 0.08840243 0.20541374
0.14219657 0.09814540 0.20557304
0.19224887 0.12088256 0.20624652
0.25678630 0.15654556 0.20853771
0.33271342 0.20459134 0.21534827
0.41881680 0.26529086 0.23279629
0.51453483 0.33936988 0.26912986
0.61955786 0.42776135 0.32944015
0.11075907 0.10259829 0.20550444
0.11639213 0.10347283 0.20552518
0.14357696 0.10944106 0.20568418
0.19276821 0.12702775 0.20635643
0.25697632 0.15932808 0.20864357
0.33278304 0.20576126 0.21544310
0.41884194 0.26576058 0.23286859
0.51454358 0.33954880 0.26917261
0.61956072 0.42782479 0.32945953
0.12942762 0.14708466 0.20635365
0.13290678 0.14734751 0.20637410
0.15296317 0.14931673 0.20653090
0.19660792 0.15687521 0.20719388
0.25841855 0.17672522 0.20945039
0.33331561 0.21406741 0.21616653
0.41903475 0.26926850 0.23342114
0.51461074 0.34090973 0.26950001
0.61958268 0.42831037 0.32960825
0.16817195 0.20721683 0.20984167
0.16969603 0.20730177 0.20986099
0.18012506 0.20795010 0.21000909
0.21063559 0.21063559 0.21063559
0.26424867 0.21918082 0.21277127
0.33554420 0.24074180 0.21915625
0.41985084 0.28255462 0.23572301
0.51489606 0.34646164 0.27087737
0.61967612 0.43034822 0.33023828
0.22282496 0.27855683 0.22066249
0.22342330 0.27858632 0.22067873
0.22784150 0.27881237 0.22080333
0.24390134 0.27976694 0.22133103
0.28152340 0.28300152 0.22313734
0.34286640 0.29250570 0.22860282
0.42263829 0.31620690 0.24317936
0.51588399 0.36332708 0.27548454
0.62000114 0.43710824 0.33239682
0.29030090 0.35960949 0.24659627
0.29052926 0.35962002 0.24660724
0.29226007 0.35970077 0.24669142
0.29921513 0.36004367 0.24704864
0.31948261 0.36122819 0.24827963
0.36269626 0.36491232 0.25208006
0.43101611 0.37543928 0.26273278
0.51897887 0.40192232 0.28855278
0.62103455 0.45585132 0.33894449
0.36939198 0.44962748 0.29374711
0.36947695 0.44963122 0.29375282
0.37012656 0.44965987 0.29379664
0.37283725 0.44978176 0.29398288
0.38166131 0.45020541 0.29462862
0.40501773 0.45154888 0.29666036
0.45295923 0.45560540 0.30265671
0.52799825 0.46726401 0.31891934
0.62417969 0.49738957 0.35649069
0.45968277 0.54814024 0.36222060
0.45971309 0.54814153 0.36222302
0.45994552 0.54815136 0.36224160
0.46092834 0.54819320 0.36232062
0.46427365 0.54833893 0.36259555
0.47422627 0.54880412 0.36346996
0.49967396 0.55023697 0.36613369
0.55168884 0.55459470 0.37398046
0.63341753 0.56754912 0.39546949
0.56106412 0.65481233 0.44940895
0.56107425 0.65481274 0.44940984
0.56115200 0.65481592 0.44941666
0.56148228 0.65482943 0.44944567
0.56262473 0.65487653 0.44954672
0.56619269 0.65502722 0.44986959
0.57650082 0.65549456 0.45086687
0.60302525 0.65694577 0.45392545
0.65849091 0.66153063 0.46323857
0.13997207 0.10705974 0.27674646
0.14269728 0.10781289 0.27675363
0.15947652 0.11306096 0.27680867
0.19958512 0.12927496 0.27704252
0.25958220 0.16041957 0.27785200
0.33375071 0.20623230 0.28038598
0.41919291 0.26595140 0.28775778
0.51466589 0.33962171 0.30708649
0.61960073 0.42785066 0.34927938
0.14142368 0.11585902 0.27678495
0.14406227 0.11643414 0.27679212
0.16043264 0.12055912 0.27684713
0.20004337 0.13429484 0.27708086
0.25976483 0.16299617 0.27788992
0.33381944 0.20737124 0.28042262
0.41921794 0.26641683 0.28779096
0.51467463 0.33980008 0.30711223
0.61960359 0.42791403 0.34929456
0.15122119 0.15177533 0.27707989
0.15335862 0.15201275 0.27708703
0.16721975 0.15379680 0.27714182
0.20344917 0.16072408 0.27737461
0.26115172 0.17937172 0.27818046
0.33434523 0.21547650 0.28070336
0.41940993 0.26989365 0.28804526
0.51474169 0.34115685 0.30730965
0.61962554 0.42839912 0.34941107
0.17911406 0.20878924 0.27832233
0.18035719 0.20887203 0.27832935
0.18907069 0.20950399 0.27838322
0.21612699 0.21212382 0.27861212
0.26677048 0.22048109 0.27940459
0.33654596 0.24167996 0.28188666
0.42022257 0.28307637 0.28911827
0.51502662 0.34669254 0.30814447
0.61971893 0.43043496 0.34990521
0.22738856 0.27910748 0.28249692
0.22794624 0.27913675 0.28250355
0.23207678 0.27936111 0.28255446
0.24725455 0.28030865 0.28277081
0.28352015 0.28352015 0.28352015
0.34378229 0.29296271 0.28587031
0.42299847 0.31654322 0.29274365
0.51601316 0.36351547 0.31098660
0.62004381 0.43718864 0.35160507
0.29207901 0.35980646 0.29448069
0.29230206 0.35981696 0.29448634
0.29399314 0.35989752 0.29452973
0.30079835 0.36023962 0.29471419
0.32070557 0.36142138 0.29535375
0.36341754 0.36509718 0.29736646
0.43134386 0.37560244 0.30330982
0.51910381 0.40204218 0.31944986
0.62107676 0.45591658 0.35682470
0.37005814 0.44969740 0.32297080
0.37014244 0.44970113 0.32297472
0.37078696 0.44972977 0.32300478
0.37347684 0.44985156 0.32313265
0.38223796 0.45027488 0.32357681
0.40545785 0.45161732 0.32498274
0.45321582 0.45567083 0.32920517
0.52811166 0.46732154 0.34117201
0.62422052 0.49743097 0.37124367
0.45992098 0.54816424 0.37607556
0.45995121 0.54816552 0.37607761
0.46018303 0.54817535 0.37609337
0.46116330 0.54821718 0.37616040
0.46450010 0.54836288 0.37639369
0.47442928 0.54882794 0.37713651
0.49982784 0.55026043 0.37940709
0.55177688 0.55461709 0.38616063
0.63345456 0.56756863 0.40509922
0.56114379 0.65482008 0.45477283
0.56115391 0.65482049 0.45477367
0.56123160 0.65482366 0.45478009
0.56156160 0.65483718 0.45480742
0.56270309 0.65488428 0.45490264
0.56626813 0.65503495 0.45520691
0.57656844 0.65550226 0.45614714
0.60307631 0.65695335 0.45903464
0.65851931 0.66153784 0.46786091
0.18332797 0.13614591 0.35761691
0.18448027 0.13648370 0.35761947
0.19261912 0.13899067 0.35763910
0.21841266 0.14828718 0.35772261
0.26785950 0.17112116 0.35801312
0.33698563 0.21120819 0.35893667
0.42038668 0.26802676 0.36174650
0.51508437 0.34042300 0.36999387
0.61973789 0.42813607 0.39238673
0.18393572 0.14043349 0.35763064
0.18507561 0.14073890 0.35763320
0.19313515 0.14301501 0.35765282
0.21874992 0.15158249 0.35773633
0.26802214 0.17322012 0.35802678
0.33705166 0.21225905 0.35895018
0.42041138 0.26847897 0.36175956
0.51509307 0.34059962 0.37000571
0.61974074 0.42819924 0.39239583
0.18839411 0.16427674 0.35773598
0.18944779 0.16446032 0.35773853
0.19695146 0.16584821 0.35775813
0.22128153 0.17136791 0.35784153
0.26925890 0.18707702 0.35813162
0.33755690 0.21978735 0.35905386
0.42060079 0.27186007 0.36185981
0.51515983 0.34194323 0.37009657
0.61976266 0.42868277 0.39246570
0.20425177 0.21356992 0.35818291
0.20505694 0.21364653 0.35818545
0.21090774 0.21423170 0.35820495
0.23106451 0.21666315 0.35828790
0.27429929 0.22447528 0.35857643
0.33967313 0.24459981 0.35949379
0.42140257 0.28472301 0.36228520
0.51544347 0.34742765 0.37048226
0.61985592 0.43071219 0.39276248
0.24017226 0.28084374 0.35972251
0.24063233 0.28087233 0.35972500
0.24406440 0.28109148 0.35974414
0.25701186 0.28201722 0.35982557
0.28957662 0.28515710 0.36010883
0.34664821 0.29440797 0.36100955
0.42414218 0.31761071 0.36375153
0.51642562 0.36411595 0.37181324
0.62018032 0.43744564 0.39378922
0.29750743 0.36043412 0.36447001
0.29771509 0.36044454 0.36447236
0.29929108 0.36052450 0.36449044
0.30565948 0.36086404 0.36456737
0.32449964 0.36203704 0.36483502
0.36568646 0.36568646 0.36568646
0.43238540 0.37612286 0.36828175
0.51950280 0.40242493 0.37593981
0.62121179 0.45612525 0.39699747
0.37215675 0.44992096 0.37772813
0.37223898 0.44992468 0.37773014
0.37286774 0.44995325 0.37774559
0.37549319 0.45007474 0.37781133
0.38405890 0.45049701 0.37804013
0.40685256 0.45183617 0.37876874
0.45403267 0.45588007 0.38099670
0.52847391 0.46750555 0.38763039
0.62435114 0.49756344 0.40628166
0.46067964 0.54824103 0.40952593
0.46070962 0.54824231 0.40952732
0.46093951 0.54825214 0.40953800
0.46191166 0.54829393 0.40958347
0.46522153 0.54843951 0.40974179
0.47507639 0.54890420 0.41024690
0.50031890 0.55033553 0.41180017
0.55205825 0.55468878 0.41650137
0.63357305 0.56763110 0.43029656
0.56139848 0.65484489 0.47007881
0.56140858 0.65484530 0.47007952
0.56148605 0.65484847 0.47008494
0.56181516 0.65486198 0.47010803
0.56295360 0.65490907 0.47018846
0.56650933 0.65505971 0.47044557
0.57678467 0.65552689 0.47124096
0.60323964 0.65697760 0.47369192
0.65861023 0.66156095 0.48125826
0.23871324 0.17594675 0.44743363
0.23918337 0.17609343 0.44743454
0.24268793 0.17720649 0.44744151
0.25587281 0.18170397 0.44747116
0.28885117 0.19503436 0.44757446
0.34629798 0.22455116 0.44790448
0.42400106 0.27412710 0.44892366
0.51637454 0.34286692 0.45204783
0.62016339 0.42901829 0.46154653
0.23896039 0.17786655 0.44743851
0.23942880 0.17800808 0.44743941
0.24292096 0.17908267 0.44744638
0.25606532 0.18343405 0.44747603
0.28897344 0.19640637 0.44757933
0.34635688 0.22540319 0.44790933
0.42402477 0.27454291 0.44892845
0.51638311 0.34303833 0.45205246
0.62016624 0.42908083 0.46155070
0.24082848 0.19072230 0.44747591
0.24128411 0.19083462 0.44747682
0.24468414 0.19168980 0.44748378
0.25752618 0.19519447 0.44751342
0.28990575 0.20599749 0.44761667
0.34680773 0.23159769 0.44794653
0.42420659 0.27765930 0.44896524
0.51644895 0.34434266 0.45208799
0.62018806 0.42955960 0.46158268
0.24825055 0.22647053 0.44763495
0.24865929 0.22653306 0.44763586
0.25171965 0.22701122 0.44764281
0.26342721 0.22900827 0.44767239
0.29375028 0.23552997 0.44777546
0.34869975 0.25296152 0.44810475
0.42497644 0.28962577 0.44912167
0.51672869 0.34967373 0.45223909
0.62028090 0.43156930 0.46171872
0.26926907 0.28599960 0.44818722
0.26957266 0.28602627 0.44818812
0.27186228 0.28623076 0.44819503
0.28087658 0.28709503 0.44822444
0.30581144 0.29003240 0.44832687
0.35497519 0.29873663 0.44865415
0.42760913 0.32084267 0.44966491
0.51769741 0.36595728 0.45276389
0.62060385 0.43824062 0.46219139
0.31229107 0.36235742 0.44993337
0.31246257 0.36236760 0.44993426
0.31376704 0.36244574 0.44994103
0.31908947 0.36277757 0.44996987
0.33526858 0.36392418 0.45007034
0.37237782 0.36749398 0.45039134
0.43555034 0.37772204 0.45138288
0.52073343 0.40360518 0.45442430
0.62163074 0.45677146 0.46368872
0.37837204 0.45061304 0.45515955
0.37844845 0.45061673 0.45516039
0.37903292 0.45064507 0.45516678
0.38147700 0.45076564 0.45519400
0.38948885 0.45118469 0.45528881
0.41105494 0.45251373 0.45559178
0.45652803 0.45652803 0.45652803
0.52959216 0.46807572 0.45940357
0.62475644 0.49797441 0.46819569
0.46300040 0.54847959 0.46983136
0.46302962 0.54848086 0.46983207
0.46325370 0.54849066 0.46983751
0.46420147 0.54853235 0.46986066
0.46743031 0.54867756 0.46994131
0.47706103 0.54914107 0.47019912
0.50183037 0.55056881 0.47099666
0.55292839 0.55491151 0.47345411
0.63394077 0.56782519 0.48103938
0.56218657 0.65492204 0.50588974
0.56219658 0.65492246 0.50589022
0.56227341 0.65492563 0.50589389
0.56259978 0.65493913 0.50590952
0.56372881 0.65498617 0.50596398
0.56725589 0.65513669 0.50613817
0.57745432 0.65560349 0.50667810
0.60374604 0.65705304 0.50835165
0.65889256 0.66163282 0.51360982
0.30748583 0.22863957 0.54578668
0.30766824 0.22870005 0.54578699
0.30905478 0.22916260 0.54578938
0.31469567 0.23109584 0.54579956
0.33170118 0.23742405 0.54583505
0.37012070 0.25443279 0.54594860
0.43446719 0.29051650 0.54630106
0.52030917 0.35009100 0.54739815
0.62148589 0.43173021 0.55089023
0.30758162 0.22943988 0.54578835
0.30776381 0.22949963 0.54578866
0.30914865 0.22995657 0.54579105
0.31478300 0.23186686 0.54580124
0.33177168 0.23812526 0.54583672
0.37016493 0.25498017 0.54595027
0.43448826 0.29085000 0.54630272
0.52031740 0.35024796 0.54739979
0.62148869 0.43179087 0.55089181
0.30831323 0.23528025 0.54580119
0.30849370 0.23533493 0.54580150
0.30986571 0.23575329 0.54580390
0.31545035 0.23750541 0.54581408
0.33231097 0.24327890 0.54584956
0.37050372 0.25904667 0.54596309
0.43464987 0.29336284 0.54631549
0.52038050 0.35144333 0.54741241
0.62151021 0.43225529 0.55090397
0.31135279 0.25567001 0.54585584
0.31152636 0.25571057 0.54585615
0.31284642 0.25602122 0.54585854
0.31822950 0.25732844 0.54586872
0.33456712 0.26170490 0.54590418
0.37193089 0.27414929 0.54601765
0.43533460 0.30321734 0.54636984
0.52064867 0.35634681 0.54746613
0.62160176 0.43420562 0.55095573
0.32111170 0.30019826 0.54604612
0.32126502 0.30022036 0.54604643
0.32243250 0.30038989 0.54604881
0.32721898 0.30110739 0.54605896
0.34197411 0.30355759 0.54609435
0.37672589 0.31091876 0.54620759
0.43768144 0.33020311 0.54655907
0.52157757 0.37148452 0.54765316
0.62192024 0.44068947 0.55113593
0.34615170 0.36811875 0.54665287
0.34626409 0.36812825 0.54665318
0.34712197 0.36820120 0.54665555
0.35067684 0.36851104 0.54666564
0.36199537 0.36958236 0.54670080
0.39048228 0.37292436 0.54681331
0.44480745 0.38255177 0.54716253
0.52449143 0.40720699 0.54824963
0.62293302 0.45876910 0.55171071
0.39536378 0.45275014 0.54851606
0.39542645 0.45275375 0.54851636
0.39590615 0.45278143 0.54851868
0.39791894 0.45289917 0.54852857
0.40459156 0.45330843 0.54856304
0.42306537 0.45460674 0.54867334
0.46393672 0.45853100 0.54901571
0.53301545 0.46984147 0.55008165
0.62601668 0.49925185 0.55347695
0.46991761 0.54922400 0.55413145
0.46994469 0.54922526 0.55413173
0.47015237 0.54923498 0.55413392
0.47103117 0.54927635 0.55414323
0.47403024 0.54942041 0.55417570
0.48302095 0.54988027 0.55427959
0.50641737 0.55129688 0.55460213
0.55560676 0.55560676 0.55560676
0.63508513 0.56843147 0.55881120
0.56461674 0.65516367 0.57041531
0.56462650 0.65516408 0.57041555
0.56470137 0.65516725 0.57041739
0.56501943 0.65518071 0.57042523
0.56611994 0.65522764 0.57045253
0.56956009 0.65537777 0.57053991
0.57952461 0.65584339 0.57081128
0.60531721 0.65728929 0.57165750
0.65977278 0.66185791 0.57436628
0.39106884 0.29666367 0.65236522
0.39113470 0.29668683 0.65236532
0.39163882 0.29686438 0.65236610
0.39375241 0.29761560 0.65236939
0.40074084 0.30017816 0.65238086
0.41996013 0.30785266 0.65241758
0.46198252 0.32781194 0.65253176
0.53209747 0.37004544 0.65288904
0.62567584 0.44004284 0.65404524
0.39110341 0.29697121 0.65236576
0.39116926 0.29699427 0.65236586
0.39167317 0.29717111 0.65236664
0.39378592 0.29791932 0.65236993
0.40077175 0.30047189 0.65238140
0.41998495 0.30811859 0.65241812
0.46199803 0.32801843 0.65253230
0.53210472 0.37016898 0.65288958
0.62567852 0.44009811 0.65404577
0.39136845 0.29929225 0.65236991
0.39143410 0.29931462 0.65237001
0.39193647 0.29948617 0.65237079
0.39404285 0.30021214 0.65237408
0.40100877 0.30269062 0.65238555
0.42017527 0.31013084 0.65242227
0.46211705 0.32958645 0.65253644
0.53216032 0.37111163 0.65289371
0.62569911 0.44052131 0.65404985
0.39248769 0.30845541 0.65238758
0.39255248 0.30847527 0.65238768
0.39304839 0.30862760 0.65238845
0.39512809 0.30927275 0.65239174
0.40201058 0.31148094 0.65240321
0.42098092 0.31816010 0.65243993
0.46262198 0.33593874 0.65255408
0.53239667 0.37501069 0.65291128
0.62578670 0.44230079 0.65406720
0.39627973 0.33395886 0.65244914
0.39634173 0.33397325 0.65244924
0.39681639 0.33408366 0.65245001
0.39880836 0.33455197 0.65245330
0.40541550 0.33616371 0.65246476
0.42373344 0.34111945 0.65250145
0.46436063 0.35485822 0.65261553
0.53321600 0.38735403 0.65297250
0.62609142 0.44824196 0.65412768
0.40741420 0.38457161 0.65264603
0.40746875 0.38457944 0.65264613
0.40788647 0.38463953 0.65264690
0.40964268 0.38489484 0.65265018
0.41550351 0.38577900 0.65266161
0.43201302 0.38855060 0.65269823
0.46971459 0.39664367 0.65281207
0.53579251 0.41802044 0.65316830
0.62706073 0.46499513 0.65432111
0.43508377 0.45938925 0.65325603
0.43512364 0.45939259 0.65325613
0.43542914 0.45941831 0.65325689
0.43671806 0.45952771 0.65326015
0.44107137 0.45990808 0.65327151
0.45374038 0.46111554 0.65330790
0.48460768 0.46477286 0.65342101
0.54338307 0.47537446 0.65377495
0.63001478 0.50330018 0.65492043
0.48940817 0.55161206 0.65514442
0.48943005 0.55161329 0.65514452
0.48959791 0.55162277 0.65514527
0.49030904 0.55166309 0.65514846
0.49274609 0.55180353 0.65515960
0.50014297 0.55225188 0.65519526
0.51997369 0.55363338 0.65530614
0.56384799 0.55783961 0.65565311
0.63872473 0.57038248 0.65677619
0.57213414 0.65594762 0.66105480
0.57214315 0.65594803 0.66105490
0.57221228 0.65595117 0.66105560
0.57250598 0.65596452 0.66105860
0.57352278 0.65601107 0.66106906
0.57670713 0.65615996 0.66110257
0.58597850 0.65662175 0.66120673
0.61026823 0.65805588 0.66153274
0.66258847 0.66258847 0.66258847
