src/ffmpeg_scripts/luts/sRGB-rec2020_1p33.cube
TITLE "sRGB-rec2020_1p33"
LUT_3D_SIZE 33
# PQ (EOTF Only)/sRGB -> PQ (EOTF Only)/Rec2020, CineEI Shift 1.33, Black Level 0.00% IRE, Input 100% -> Output 109% - Created with LUTCalc v4.01 by Ben Turley October 2020
0.06256172 0.06256172 0.06256172
0.09572266 0.07365848 0.06761368
0.12726021 0.08680259 0.07427943
0.15801480 0.10124135 0.08214041
0.18822936 0.11670006 0.09102686
0.21802779 0.13302399 0.10084071
0.24748632 0.15011087 0.11151625
0.27665689 0.16788691 0.12300568
0.30557732 0.18629576 0.13527233
0.33427641 0.20529265 0.14828703
0.36277688 0.22484093 0.16202590
0.39109711 0.24490996 0.17646897
0.41925232 0.26547358 0.19159930
0.44725529 0.28650922 0.20740225
0.47511694 0.30799708 0.22386510
0.50284668 0.32991964 0.24097663
0.53045276 0.35226130 0.25872689
0.55794240 0.37500800 0.27710702
0.58532203 0.39814701 0.29610901
0.61259741 0.42166675 0.31572565
0.63977368 0.44555661 0.33595040
0.66685553 0.46980683 0.35677727
0.69384719 0.49440839 0.37820080
0.72075254 0.51935295 0.40021597
0.74757513 0.54463271 0.42281815
0.77431822 0.57024042 0.44600308
0.80098483 0.59616928 0.46976678
0.82757774 0.62241291 0.49410561
0.85409955 0.64896531 0.51901613
0.88055268 0.67582082 0.54449518
0.90693937 0.70297409 0.57053979
0.91886608 0.73042004 0.59714717
0.91886608 0.75815388 0.62431474
0.08703165 0.10200657 0.07516443
0.10271040 0.10330208 0.07633522
0.13010293 0.10761906 0.07994379
0.15944765 0.11540377 0.08583292
0.18904173 0.12629297 0.09350129
0.21852312 0.13959096 0.10254827
0.24780358 0.15467840 0.11272445
0.27686742 0.17111581 0.12387794
0.30572078 0.18861220 0.13591223
0.33437619 0.20697572 0.14876249
0.36284742 0.22607700 0.16238280
0.39114763 0.24582590 0.17673908
0.41928888 0.26615736 0.19180506
0.44728198 0.28702280 0.20755982
0.47513656 0.30838474 0.22398626
0.50286119 0.33021344 0.24107009
0.53046353 0.35248466 0.25879917
0.55795043 0.37517822 0.27716300
0.58532804 0.39827695 0.29615242
0.61260191 0.42176606 0.31575934
0.63977706 0.44563255 0.33597653
0.66685807 0.46986490 0.35679754
0.69384910 0.49445278 0.37821651
0.72075398 0.51938685 0.40022812
0.74757621 0.54465856 0.42282754
0.77431903 0.57026010 0.44601031
0.80098543 0.59618423 0.46977235
0.82757819 0.62242424 0.49410987
0.85409989 0.64897387 0.51901939
0.88055293 0.67582726 0.54449766
0.90693955 0.70297891 0.57054166
0.91886608 0.73042364 0.59714859
0.91886608 0.75815655 0.62431580
0.11199200 0.13792236 0.08978048
0.11968432 0.13839486 0.09028952
0.13909964 0.14008685 0.09206533
0.16438009 0.14358401 0.09554508
0.19193016 0.14937835 0.10090955
0.22031017 0.15770773 0.10807331
0.24895663 0.16851306 0.11681918
0.27763564 0.18152520 0.12691843
0.30624549 0.19639525 0.13818209
0.33474168 0.21278854 0.15046797
0.36310602 0.23042571 0.16367237
0.39133295 0.24908917 0.17771980
0.41942307 0.26861473 0.19255465
0.44737996 0.28887974 0.20813517
0.47520861 0.30979246 0.22442939
0.50291447 0.33128357 0.24141233
0.53050311 0.35330003 0.25906404
0.55797994 0.37580059 0.27736830
0.58535010 0.39875263 0.29631169
0.61261844 0.42212991 0.31588295
0.63978946 0.44591096 0.33607247
0.66686738 0.47007791 0.35687195
0.69385609 0.49461566 0.37827417
0.72075923 0.51951127 0.40027275
0.74758015 0.54475348 0.42286201
0.77432198 0.57033237 0.44603688
0.80098764 0.59623914 0.46979278
0.82757984 0.62246584 0.49412553
0.85410112 0.64900529 0.51903136
0.88055384 0.67585091 0.54450677
0.90694023 0.70299664 0.57054856
0.91886608 0.73043687 0.59715379
0.91886608 0.75816638 0.62431970
0.13720885 0.17221975 0.10563434
0.14138464 0.17244957 0.10591033
0.15403256 0.17328530 0.10690285
0.17377387 0.17507501 0.10897440
0.19780539 0.17822020 0.11246273
0.22406606 0.18311418 0.11758862
0.25142242 0.19006263 0.12441215
0.27929457 0.19921702 0.13285793
0.30738514 0.21055583 0.14277767
0.33553834 0.22391922 0.15400612
0.36367099 0.23907077 0.16639263
0.39173842 0.25575478 0.17981245
0.41971694 0.27373319 0.19416692
0.44759471 0.29280241 0.20937963
0.47536658 0.31279656 0.22539172
0.50303133 0.33358419 0.24215769
0.53058994 0.35506243 0.25964209
0.55804469 0.37715117 0.27781702
0.58539852 0.39978789 0.29666020
0.61265472 0.42292352 0.31615366
0.63981669 0.44651920 0.33628269
0.66688783 0.47054383 0.35703509
0.69387145 0.49497226 0.37840064
0.72077076 0.51978386 0.40037065
0.74758881 0.54496152 0.42293765
0.77432847 0.57049085 0.44609520
0.80099250 0.59635957 0.46983762
0.82758347 0.62255711 0.49415991
0.85410382 0.64907424 0.51905762
0.88055584 0.67590282 0.54452675
0.90694171 0.70303556 0.57056371
0.91886608 0.73046592 0.59716521
0.91886608 0.75818795 0.62432827
0.16260956 0.20542577 0.12244923
0.16507157 0.20555360 0.12261574
0.17321562 0.20602088 0.12322102
0.18765180 0.20703430 0.12451618
0.20729427 0.20885675 0.12678940
0.23045493 0.21179492 0.13032185
0.25574420 0.21617143 0.13533379
0.28225397 0.22228015 0.14194326
0.30944013 0.23033595 0.15015827
0.33698456 0.24043792 0.15990172
0.36470109 0.25256163 0.17104999
0.39247982 0.26658129 0.18346646
0.42025535 0.28230850 0.19702241
0.44798866 0.29953106 0.21160642
0.47565666 0.31804178 0.22712649
0.50324605 0.33765472 0.24350861
0.53074956 0.35821168 0.26069393
0.55816376 0.37958242 0.27863590
0.58548758 0.40166183 0.29729757
0.61272146 0.42436598 0.31664954
0.63986678 0.44762814 0.33666823
0.66692545 0.47139528 0.35733455
0.69389972 0.49562507 0.37863294
0.72079199 0.52028355 0.40055056
0.74760474 0.54534328 0.42307672
0.77434041 0.57078187 0.44620244
0.80100143 0.59658085 0.46992010
0.82759014 0.62272489 0.49422315
0.85410879 0.64920104 0.51910594
0.88055953 0.67599828 0.54456353
0.90694444 0.70310715 0.57059158
0.91886608 0.73051936 0.59718623
0.91886608 0.75822764 0.62434405
0.18815590 0.23780411 0.14007063
0.18969581 0.23788105 0.14017766
0.19502127 0.23816292 0.14056859
0.20524825 0.23877761 0.14141463
0.22049298 0.23989461 0.14293019
0.23994105 0.24172629 0.14535892
0.26243957 0.24452353 0.14894727
0.28696403 0.24856059 0.15390769
0.31276739 0.25410782 0.16038399
0.33935222 0.26139574 0.16843354
0.36639979 0.27058003 0.17803253
0.39370841 0.28171976 0.18909844
0.42115050 0.29477640 0.20151758
0.44864513 0.30963233 0.21516801
0.47614083 0.32611984 0.22993423
0.50360484 0.34405030 0.24571444
0.53101650 0.36323678 0.26242272
0.55836300 0.38350800 0.27998837
0.58563667 0.40471493 0.29835409
0.61283324 0.42673224 0.31747378
0.63995068 0.44945678 0.33731037
0.66698848 0.47280485 0.35783409
0.69394708 0.49670903 0.37902090
0.72082756 0.52111515 0.40085129
0.74763143 0.54597971 0.42330933
0.77436043 0.57126766 0.44638191
0.80101641 0.59695061 0.47005818
0.82760132 0.62300545 0.49432905
0.85411711 0.64941318 0.51918687
0.88056571 0.67615809 0.54462514
0.90694901 0.70322702 0.57063828
0.91886608 0.73060886 0.59722146
0.91886608 0.75829413 0.62437048
0.21382378 0.26951477 0.15839704
0.21482888 0.26956356 0.15846881
0.21838854 0.26974250 0.15873154
0.22556631 0.27013381 0.15930343
0.23700383 0.27084863 0.16033899
0.25265065 0.27203120 0.16202736
0.27188398 0.27386167 0.16458401
0.29385154 0.27655454 0.16823222
0.31775305 0.28034994 0.17317610
0.34295871 0.28549584 0.17957191
0.36901615 0.29222206 0.18750760
0.39561501 0.30071068 0.19699814
0.42254689 0.31107101 0.20799646
0.44967293 0.32332729 0.22041359
0.47690079 0.33742268 0.23413981
0.50416904 0.35323678 0.24906153
0.53143682 0.37060979 0.26507193
0.55867702 0.38936596 0.28207647
0.58587181 0.40933177 0.29999453
0.61300961 0.43034750 0.31875902
0.64008313 0.45227294 0.33831492
0.66708800 0.47498895 0.35861747
0.69402187 0.49839648 0.37963043
0.72088375 0.52241439 0.40132444
0.74767361 0.54697675 0.42367569
0.77439204 0.57203030 0.44666481
0.80104007 0.59753202 0.47027597
0.82761899 0.62344714 0.49449617
0.85413027 0.64974748 0.51931464
0.88057548 0.67641009 0.54472243
0.90695624 0.70341616 0.57071204
0.91886608 0.73075014 0.59727711
0.91886608 0.75839911 0.62441224
0.23959651 0.30066560 0.17735562
0.24027363 0.30069771 0.17740521
0.24270426 0.30081555 0.17758695
0.24775385 0.30107364 0.17798384
0.25617903 0.30154645 0.17870687
0.26836696 0.30233249 0.17989756
0.28421684 0.30355856 0.18172781
0.30323737 0.30538266 0.18439390
0.32476359 0.30799395 0.18810284
0.34814434 0.31160755 0.19305152
0.37283740 0.31645255 0.19940254
0.39843030 0.32275265 0.20726391
0.42462468 0.33070175 0.21667912
0.45121056 0.34043971 0.22763042
0.47804211 0.35203495 0.24005229
0.50501870 0.36547928 0.25384944
0.53207107 0.38069579 0.26891375
0.55915157 0.39755639 0.28513697
0.58622753 0.41590303 0.30241870
0.61327664 0.43556730 0.32067030
0.64028377 0.45638523 0.33981598
0.66723883 0.47820665 0.35979236
0.69413526 0.50089970 0.38054715
0.72096896 0.52435201 0.40203757
0.74773758 0.54846983 0.42422877
0.77444001 0.57317598 0.44709242
0.80107597 0.59840755 0.47060549
0.82764580 0.62411351 0.49474920
0.85415024 0.65025255 0.51950819
0.88059031 0.67679123 0.54486988
0.90696720 0.70370245 0.57082385
0.91886608 0.73096413 0.59736149
0.91886608 0.75855820 0.62447558
0.26546173 0.33133437 0.19689097
0.26592905 0.33135610 0.19692600
0.26762009 0.33143587 0.19705450
0.27119900 0.33161072 0.19733562
0.27735827 0.33193158 0.19784959
0.28664927 0.33246655 0.19870116
0.29932245 0.33330481 0.20002236
0.31526681 0.33456047 0.20197275
0.33408359 0.33637550 0.20473495
0.35523337 0.33892056 0.20850420
0.37816992 0.34239195 0.21347148
0.40241805 0.34700329 0.21980295
0.42759956 0.35297076 0.22762047
0.45342911 0.36049302 0.23698908
0.47969803 0.36972884 0.24791504
0.50625644 0.38077790 0.26035399
0.53299770 0.39367010 0.27422546
0.55984636 0.40836615 0.28942870
0.58674917 0.42476876 0.30585644
0.61366867 0.44274029 0.32340460
0.64057859 0.46212185 0.34197813
0.66746061 0.48274989 0.36149364
0.69430206 0.50446819 0.38188000
0.72109434 0.52713513 0.40307765
0.74783174 0.55062707 0.42503735
0.77451062 0.57483887 0.44771872
0.80112883 0.59968285 0.47108879
0.82768527 0.62508678 0.49512071
0.85417964 0.65099177 0.51979262
0.88061214 0.67734997 0.54508669
0.90698335 0.70412266 0.57098835
0.91886608 0.73127850 0.59748567
0.91886608 0.75879209 0.62456881
0.29140991 0.36157989 0.21695924
0.29173858 0.36159491 0.21698441
0.29293383 0.36165007 0.21707680
0.29549353 0.36177103 0.21727916
0.29999117 0.36199323 0.21764995
0.30698410 0.36236436 0.21826662
0.31689125 0.36294753 0.21922907
0.32988576 0.36382481 0.22066225
0.34586079 0.36510075 0.22271663
0.36448485 0.36690528 0.22556485
0.38530727 0.36939507 0.22939339
0.40785885 0.37275196 0.23438869
0.43171676 0.37717699 0.24071912
0.45653200 0.38287904 0.24851670
0.48203193 0.39005803 0.25786323
0.50801081 0.39888476 0.26878479
0.53431657 0.40948147 0.28125574
0.56083827 0.42190780 0.29520981
0.58749557 0.43615623 0.31055454
0.61423057 0.45215770 0.32718509
0.64100169 0.46979538 0.34499530
0.66777917 0.48892221 0.36388499
0.69454183 0.50937805 0.38376411
0.72127468 0.53100359 0.40455438
0.74796722 0.55364992 0.42618930
0.77461225 0.57718388 0.44861332
0.80120492 0.60149020 0.47178053
0.82774211 0.62647144 0.49565327
0.85422198 0.65204658 0.52020082
0.88064358 0.67814907 0.54539812
0.90700662 0.70472470 0.57122480
0.91886608 0.73172951 0.59766426
0.91886608 0.75912798 0.62470295
0.31743344 0.39144821 0.23752466
0.31766810 0.39145877 0.23754299
0.31852415 0.39149755 0.23761031
0.32037163 0.39158263 0.23775785
0.32366355 0.39173902 0.23802859
0.32889297 0.39200053 0.23847996
0.33651886 0.39241218 0.23918715
0.34687249 0.39303315 0.24024632
0.36008127 0.39393992 0.24177702
0.37604741 0.39522962 0.24392289
0.39448985 0.39702290 0.24684913
0.41502327 0.39946562 0.25073577
0.43723691 0.40272826 0.25576576
0.46074960 0.40700174 0.26210921
0.48523709 0.41248835 0.26990603
0.51043865 0.41938770 0.27925147
0.53615218 0.42787855 0.29018823
0.56222469 0.43809978 0.30270707
0.58854213 0.45013454 0.31675500
0.61502028 0.46400188 0.33224797
0.64159737 0.47965793 0.34908446
0.66822827 0.49700581 0.36715723
0.69488018 0.51591112 0.38636199
0.72152934 0.53621892 0.40660280
0.74815866 0.55776886 0.42779471
0.77475591 0.58040656 0.44986461
0.80131252 0.60399085 0.47275079
0.82782251 0.62839744 0.49640190
0.85428188 0.65351985 0.52077558
0.88068807 0.67926876 0.54583720
0.90703953 0.70557035 0.57155850
0.91886608 0.73236423 0.59791649
0.91886608 0.75960136 0.62489251
0.34352611 0.42097638 0.25855738
0.34369567 0.42098390 0.25857088
0.34431557 0.42101154 0.25862045
0.34566025 0.42107219 0.25872914
0.34807920 0.42118371 0.25892879
0.35198055 0.42137033 0.25926216
0.35779319 0.42166446 0.25978583
0.36590405 0.42210895 0.26057318
0.37658475 0.42275974 0.26171743
0.38993473 0.42368888 0.26333401
0.40586646 0.42498762 0.26556136
0.42413773 0.42676928 0.26855915
0.44441295 0.42917123 0.27250258
0.46632683 0.43235501 0.27757222
0.48953185 0.43650329 0.28393971
0.51372479 0.44181278 0.29175150
0.53865571 0.44848214 0.30111404
0.56412646 0.45669568 0.31208414
0.58998391 0.46660498 0.32466700
0.61611176 0.47831204 0.33882182
0.64242268 0.49185825 0.35447272
0.66885165 0.50722186 0.37152185
0.69535048 0.52432446 0.38986156
0.72188369 0.54304425 0.40938412
0.74842523 0.56323234 0.42998823
0.77495609 0.58472862 0.45158274
0.80146251 0.60737455 0.47408818
0.82793462 0.63102209 0.49743686
0.85436544 0.65553880 0.52157203
0.88075013 0.68080990 0.54644671
0.90708546 0.70673826 0.57202235
0.91886608 0.73324311 0.59826747
0.91886608 0.76025817 0.62515649
0.36968272 0.45019485 0.28003205
0.36980645 0.45020027 0.28004207
0.37025944 0.45022018 0.28007888
0.37124550 0.45026388 0.28015963
0.37303099 0.45034427 0.28030804
0.37594169 0.45047886 0.28055613
0.38034711 0.45069114 0.28094650
0.38662537 0.45101234 0.28153501
0.39511006 0.45148347 0.28239359
0.40603116 0.45215784 0.28361319
0.41947060 0.45310387 0.28530603
0.43535095 0.45440810 0.28760665
0.45346065 0.45617801 0.29067057
0.47350295 0.45854423 0.29466954
0.49514863 0.46166112 0.29978260
0.51807777 0.46570479 0.30618304
0.54200498 0.47086729 0.31402303
0.56669002 0.47734628 0.32341862
0.59193864 0.48533021 0.33443889
0.61759802 0.49498072 0.34710182
0.64355023 0.50641529 0.36137767
0.66970544 0.51969418 0.37719829
0.69599585 0.53481500 0.39446951
0.72237064 0.55171611 0.41308359
0.74879196 0.57028765 0.43292978
0.77523170 0.59038699 0.45390183
0.80166916 0.61185490 0.47590266
0.82808915 0.63452951 0.49884669
0.85448064 0.65825674 0.52266035
0.88083573 0.68289673 0.54728161
0.90714882 0.70832694 0.57265891
0.91886608 0.73444289 0.59874982
0.91886608 0.76115725 0.62551968
0.39589886 0.47912912 0.30192677
0.39598987 0.47913306 0.30193426
0.39632340 0.47914753 0.30196179
0.39705116 0.47917931 0.30202218
0.39837499 0.47923776 0.30213323
0.40054955 0.47933566 0.30231900
0.40387874 0.47949017 0.30261168
0.40869949 0.47972413 0.30305371
0.41534981 0.48006774 0.30370034
0.42412327 0.48056046 0.30462240
0.43522012 0.48125341 0.30590903
0.44871126 0.48221203 0.30767002
0.46452869 0.48351903 0.31003699
0.48248553 0.48527719 0.31316245
0.50231598 0.48761175 0.31721577
0.52372003 0.49067136 0.32237523
0.54640053 0.49462687 0.32881605
0.57008727 0.49966664 0.33669561
0.59454861 0.50598752 0.34613852
0.61959399 0.51378137 0.35722470
0.64507116 0.52321815 0.36998354
0.67086098 0.53442832 0.38439531
0.69687153 0.54748832 0.40039898
0.72303267 0.56241268 0.41790388
0.74929127 0.57915475 0.43680226
0.77560738 0.59761569 0.45698052
0.80195107 0.61765883 0.47832768
0.82830010 0.63912598 0.50074094
0.85463799 0.66185242 0.52412873
0.88095268 0.68567851 0.54841174
0.90723541 0.71045747 0.57352275
0.91886608 0.73605950 0.59940566
0.91886608 0.76237315 0.62601424
0.42217074 0.50780083 0.32422242
0.42223812 0.50780372 0.32422806
0.42248522 0.50781432 0.32424876
0.42302530 0.50783759 0.32429417
0.42401091 0.50788040 0.32437771
0.42563871 0.50795212 0.32451753
0.42815169 0.50806536 0.32473800
0.43183421 0.50823693 0.32507140
0.43699600 0.50848912 0.32556007
0.44394326 0.50885120 0.32625879
0.45293912 0.50936133 0.32723749
0.46416233 0.51006877 0.32858394
0.47767686 0.51103652 0.33040612
0.49342336 0.51234415 0.33283351
0.51123520 0.51409066 0.33601652
0.53087170 0.51639693 0.34012308
0.55205676 0.51940710 0.34533141
0.57451221 0.52328790 0.35181895
0.59798081 0.52822487 0.35974811
0.62223844 0.53441445 0.36925132
0.64709792 0.54205154 0.38041827
0.67240770 0.55131331 0.39328864
0.69804766 0.56234144 0.40785176
0.72392415 0.57522639 0.42405307
0.74996500 0.58999754 0.44180501
0.77611505 0.60662156 0.46099969
0.80233248 0.62500944 0.48152067
0.82858574 0.64502985 0.50325230
0.85485120 0.66652551 0.52608616
0.88111124 0.68932890 0.54992477
0.90735285 0.71327509 0.57468315
0.91886608 0.73821070 0.60028895
0.91886608 0.76399900 0.62668165
0.44849506 0.53622861 0.34690214
0.44854522 0.53623074 0.34690639
0.44872921 0.53623855 0.34692202
0.44913186 0.53625569 0.34695633
0.44986834 0.53628723 0.34701944
0.45108945 0.53634008 0.34712511
0.45298610 0.53642354 0.34729183
0.45579021 0.53655005 0.34754419
0.45976897 0.53673613 0.34791458
0.46520952 0.53700353 0.34844521
0.47239268 0.53738073 0.34919052
0.48155826 0.53790475 0.35021976
0.49286926 0.53862331 0.35161969
0.50638544 0.53959736 0.35349698
0.52205538 0.54090391 0.35597962
0.53972928 0.54263889 0.35921670
0.55918720 0.54491972 0.36337547
0.58017282 0.54788699 0.36863478
0.60242391 0.55170429 0.37517461
0.62569427 0.55655515 0.38316241
0.64976631 0.56263608 0.39273793
0.67445589 0.57014498 0.40399988
0.69961210 0.57926554 0.41699728
0.72511407 0.59014938 0.43172768
0.75086664 0.60289934 0.44814224
0.77679585 0.61755787 0.46615607
0.80284475 0.63410335 0.48566084
0.82896985 0.65245536 0.50653711
0.85513816 0.67248710 0.52866448
0.88132479 0.69404168 0.55192890
0.90751111 0.71694860 0.57622699
0.91886608 0.74103768 0.60146817
0.91886608 0.76614911 0.62757503
0.47486893 0.56442862 0.36995088
0.47490642 0.56443020 0.36995410
0.47504399 0.56443598 0.36996595
0.47534530 0.56444867 0.36999195
0.47589734 0.56447202 0.37003978
0.47681524 0.56451115 0.37011991
0.47824729 0.56457295 0.37024637
0.48037851 0.56466666 0.37043793
0.48343060 0.56480456 0.37071936
0.48765585 0.56500285 0.37112312
0.49332266 0.56528281 0.37169136
0.50069155 0.56567224 0.37247824
0.50998432 0.56620716 0.37355254
0.52135235 0.56693399 0.37500030
0.53485314 0.56791200 0.37692730
0.55044249 0.56921607 0.37946061
0.56798484 0.57093967 0.38274867
0.58727752 0.57319749 0.38695873
0.60808078 0.57612741 0.39227086
0.63014582 0.57989071 0.39886804
0.65323581 0.58466970 0.40692279
0.67713878 0.59066148 0.41658196
0.70167325 0.59806710 0.42795269
0.72668886 0.60707638 0.44109262
0.75206409 0.61785002 0.45600667
0.77770242 0.63050196 0.47265106
0.80352831 0.64508622 0.49094297
0.82948321 0.66159141 0.51077319
0.85552214 0.67994438 0.53201899
0.88161081 0.70002183 0.55455506
0.90772322 0.72166656 0.57826156
0.91886608 0.74470470 0.60302922
0.91886608 0.76896063 0.62876186
0.50128978 0.59241506 0.39335514
0.50131789 0.59241623 0.39335759
0.50142108 0.59242053 0.39336659
0.50164723 0.59242995 0.39338635
0.50206208 0.59244731 0.39342271
0.50275328 0.59247639 0.39348361
0.50383520 0.59252233 0.39357977
0.50545323 0.59259200 0.39372550
0.50778660 0.59269455 0.39393975
0.51104775 0.59284208 0.39424744
0.51547618 0.59305052 0.39468112
0.52132468 0.59334073 0.39528290
0.52883755 0.59373987 0.39610674
0.53822259 0.59428313 0.39722111
0.54962271 0.59501581 0.39871160
0.56309445 0.59599577 0.40068346
0.57860027 0.59729619 0.40326334
0.59601682 0.59900857 0.40659960
0.61515599 0.60124550 0.41086011
0.63579197 0.60414283 0.41622676
0.65768728 0.60786034 0.42288596
0.68061309 0.61257983 0.43101549
0.70436217 0.61849953 0.44076920
0.72875526 0.62582393 0.45226226
0.75364248 0.63474888 0.46556029
0.77890161 0.64544356 0.48067489
0.80443497 0.65803202 0.49756660
0.83016554 0.67257858 0.51615401
0.85603333 0.68908067 0.53632650
0.88199204 0.70747109 0.55795761
0.90800620 0.72762887 0.58091681
0.91886608 0.74939563 0.60507831
0.91886608 0.77259348 0.63032685
0.52775530 0.62020047 0.41710274
0.52777643 0.62020134 0.41710461
0.52785403 0.62020454 0.41711146
0.52802416 0.62021157 0.41712650
0.52833653 0.62022451 0.41715418
0.52885778 0.62024618 0.41720056
0.52967564 0.62028043 0.41727381
0.53090323 0.62033238 0.41738485
0.53268286 0.62040885 0.41754819
0.53518827 0.62051892 0.41778295
0.53862359 0.62067449 0.41811419
0.54321732 0.62089124 0.41857450
0.54920941 0.62118962 0.41920599
0.55683106 0.62159626 0.42006253
0.56627928 0.62214563 0.42121239
0.57769085 0.62288206 0.42274094
0.59112237 0.62386227 0.42475325
0.60654249 0.62515806 0.42737598
0.62383843 0.62685938 0.43075790
0.64283447 0.62907726 0.43506813
0.66331661 0.63194618 0.44049091
0.68505693 0.63562508 0.44721655
0.70783331 0.64029596 0.45542839
0.73144251 0.64615879 0.46528726
0.75570706 0.65342186 0.47691612
0.78047736 0.66228711 0.49038806
0.80563055 0.67293186 0.50572070
0.83106777 0.68548952 0.52287814
0.85671069 0.70003359 0.54177967
0.88249802 0.71656903 0.56231259
0.90838225 0.73503319 0.58434618
0.91886608 0.75530616 0.60774429
0.91886608 0.77722729 0.63237493
0.55426344 0.64779603 0.44118258
0.55427936 0.64779668 0.44118400
0.55433781 0.64779907 0.44118923
0.55446602 0.64780432 0.44120070
0.55470156 0.64781398 0.44122180
0.55509505 0.64783017 0.44125716
0.55571356 0.64785576 0.44131302
0.55664446 0.64789457 0.44139772
0.55799933 0.64795173 0.44152236
0.55991732 0.64803400 0.44170160
0.56256702 0.64815034 0.44195471
0.56614523 0.64831250 0.44230684
0.57087106 0.64853589 0.44279065
0.57697379 0.64884062 0.44344826
0.58467421 0.64925281 0.44433351
0.59416100 0.64980630 0.44551462
0.60556667 0.65054467 0.44707694
0.61894866 0.65152363 0.44912564
0.63428142 0.65281393 0.45178778
0.65146143 0.65450435 0.45521307
0.67032363 0.65670482 0.45957236
0.69066401 0.65954903 0.46505285
0.71226272 0.66319572 0.47184922
0.73490324 0.66782776 0.48015071
0.75838556 0.67364749 0.49012529
0.78253362 0.68086745 0.50190351
0.80719787 0.68969590 0.51556555
0.83225476 0.70031811 0.53113439
0.85760431 0.71287628 0.54857695
0.88316697 0.72745215 0.56781240
0.90888022 0.74405689 0.58872520
0.91886608 0.76263103 0.61117975
0.91886608 0.78305428 0.63503376
0.58081233 0.67521174 0.46558453
0.58082433 0.67521223 0.46558561
0.58086842 0.67521401 0.46558959
0.58096514 0.67521794 0.46559834
0.58114291 0.67522517 0.46561444
0.58144015 0.67523729 0.46564142
0.58190798 0.67525643 0.46568404
0.58261354 0.67528548 0.46574869
0.58364348 0.67532826 0.46584384
0.58510766 0.67538985 0.46598073
0.58714212 0.67547695 0.46617416
0.58991071 0.67559842 0.46644348
0.59360373 0.67576583 0.46681394
0.59843233 0.67599436 0.46731826
0.60461702 0.67630377 0.46799858
0.61237027 0.67671978 0.46890880
0.62187451 0.67727566 0.47011720
0.63325943 0.67801433 0.47170929
0.64658398 0.67899075 0.47379061
0.66182805 0.68027480 0.47648898
0.67889638 0.68195446 0.47995549
0.69763307 0.68413899 0.48436328
0.71784266 0.68696180 0.48990305
0.73931202 0.69058208 0.49677439
0.76182923 0.69518418 0.50517286
0.78519684 0.70097348 0.51527373
0.80923975 0.70816732 0.52721514
0.83380828 0.71698057 0.54108397
0.85877808 0.72760648 0.55690797
0.88404808 0.74019559 0.57465608
0.90953754 0.75483700 0.59424644
0.91886608 0.77154684 0.61555984
0.91886608 0.79026730 0.63845504
0.60740027 0.70245664 0.49029926
0.60740933 0.70245700 0.49030009
0.60744260 0.70245834 0.49030313
0.60751561 0.70246128 0.49030980
0.60764984 0.70246670 0.49032209
0.60787441 0.70247577 0.49034267
0.60822823 0.70249011 0.49037520
0.60876265 0.70251187 0.49042454
0.60954453 0.70254391 0.49049718
0.61065960 0.70259005 0.49060171
0.61221586 0.70265533 0.49074949
0.61434634 0.70274637 0.49095537
0.61721055 0.70287191 0.49123882
0.62099312 0.70304335 0.49162513
0.62589842 0.70327564 0.49214710
0.63213982 0.70358825 0.49284692
0.63992326 0.70400651 0.49377857
0.64942654 0.70456322 0.49501052
0.66077780 0.70530074 0.49662861
0.67403799 0.70627343 0.49873901
0.68919228 0.70755057 0.50147062
0.70615275 0.70921959 0.50497636
0.72477152 0.71138952 0.50943218
0.74486033 0.71419396 0.51503284
0.76621167 0.71779312 0.52198342
0.78861727 0.72237353 0.53048624
0.81188162 0.72814425 0.54072420
