src/ffmpeg_scripts/luts/sRGB-rec2020_2p33.cube
TITLE "sRGB-rec2020_2p33"
LUT_3D_SIZE 9
# PQ (EOTF Only)/sRGB -> PQ (EOTF Only)/Rec2020, CineEI Shift 2.33, Black Level 0.00% IRE, Input 100% -> Output 109% - Created with LUTCalc v4.01 by Ben Turley October 2020
0.06256172 0.06256172 0.06256172
0.22053588 0.13444321 0.10171251
0.35331171 0.21827532 0.15737399
0.47611530 0.30877717 0.22446862
0.59250577 0.40429662 0.30120920
0.70418121 0.50393989 0.38657868
0.81214032 0.60713158 0.47989883
0.91704071 0.71346447 0.58067655
0.91886608 0.82263242 0.68853303
0.19032607 0.24051479 0.14159710
0.24267270 0.24447533 0.14696342
0.35756339 0.26909287 0.17542072
0.47717994 0.32756286 0.23077916
0.59281237 0.41073625 0.30341810
0.70427531 0.50612293 0.38736051
0.81216970 0.60786333 0.48017303
0.91704974 0.71370234 0.58076955
0.91886608 0.82270552 0.68856274
0.30876389 0.38154637 0.23062647
0.32205321 0.38219790 0.23173976
0.38454450 0.38704171 0.23971636
0.48496633 0.40506508 0.26599674
0.59513403 0.44885956 0.31856033
0.70499476 0.52136436 0.39313785
0.81239503 0.61330110 0.48225163
0.91711898 0.71550906 0.58148064
0.91886608 0.82326486 0.68879057
0.42311550 0.50882617 0.32503059
0.42672038 0.50898348 0.32533772
0.45039907 0.51018266 0.32765747
0.51226311 0.51512068 0.33684404
0.60442459 0.53053411 0.36259955
0.70799727 0.56760811 0.41415746
0.81334806 0.63348204 0.49060776
0.91741312 0.72283299 0.58444911
0.91886608 0.82560807 0.68975432
0.53472330 0.62747651 0.42340435
0.53579925 0.62752101 0.42350011
0.54367257 0.62786206 0.42423199
0.57131336 0.62930028 0.42728155
0.63112251 0.63414992 0.43716163
0.71777232 0.64819358 0.46300405
0.81659461 0.68197587 0.51494055
0.91843080 0.74464114 0.59412346
0.91886608 0.83333301 0.69303915
0.64425199 0.73988920 0.52499742
0.64458991 0.73990269 0.52502879
0.64714525 0.74000624 0.52526937
0.65731108 0.74044576 0.52628657
0.68605884 0.74196202 0.52974840
0.74358920 0.74665825 0.54004237
0.82627366 0.75991707 0.56631754
0.91886608 0.79228765 0.61975718
0.91886608 0.85437910 0.70284815
0.75210292 0.84744974 0.62933130
0.75221033 0.84745391 0.62934166
0.75303099 0.84748595 0.62942113
0.75644563 0.84762221 0.62975869
0.76745411 0.84809562 0.63092619
0.79584371 0.84959511 0.63457101
0.85108973 0.85410639 0.64508930
0.91886608 0.86693822 0.67207204
0.91886608 0.89922502 0.72810754
0.85854594 0.91886608 0.73606996
0.85857941 0.91886608 0.73607329
0.85883596 0.91886608 0.73609890
0.85991992 0.91886608 0.73620781
0.86359897 0.91886608 0.73658652
0.87445006 0.91886608 0.73778909
0.90158142 0.91886608 0.74143478
0.91886608 0.91886608 0.75202518
0.91886608 0.91886608 0.78000124
0.91886608 0.91886608 0.84496238
0.91886608 0.91886608 0.84496339
0.91886608 0.91886608 0.84497121
0.91886608 0.91886608 0.84500447
0.91886608 0.91886608 0.84512033
0.91886608 0.91886608 0.84549036
0.91886608 0.91886608 0.84663208
0.91886608 0.91886608 0.85012207
0.91886608 0.91886608 0.86064389
0.12205756 0.09570904 0.23908625
0.22391349 0.13888350 0.24006741
0.35388360 0.21921131 0.24716182
0.47625605 0.30903901 0.27119572
0.59254615 0.40437917 0.32119973
0.70419359 0.50396719 0.39422036
0.81214418 0.60714066 0.48265143
0.91704190 0.71346741 0.58161865
0.91886608 0.82263333 0.68883492
0.19578105 0.24118220 0.24419474
0.24510503 0.24510503 0.24510503
0.35810676 0.26953685 0.25171893
0.47731906 0.32776924 0.27447152
0.59285262 0.41081292 0.32291503
0.70428768 0.50614959 0.39493598
0.81217357 0.60787234 0.48291752
0.91705092 0.71370527 0.58171072
0.91886608 0.82270642 0.68886454
0.30975750 0.38165385 0.27439025
0.32289294 0.38230456 0.27498504
0.38493940 0.38714250 0.27939802
0.48509411 0.40514690 0.29570701
0.59517331 0.44890946 0.33498469
0.70500704 0.52138698 0.40024204
0.81239889 0.61330960 0.48493542
0.91712016 0.71551194 0.58241477
0.91886608 0.82326576 0.68909164
0.42336914 0.50885205 0.34029462
0.42696391 0.50900933 0.34054878
0.45058594 0.51020817 0.34247434
0.51235816 0.51514487 0.35019878
0.60446019 0.53055460 0.37259080
0.70800916 0.56762191 0.41978787
0.81335187 0.63348891 0.49306109
0.91741430 0.72283566 0.58535444
0.91886608 0.82560895 0.69005234
0.53479798 0.62748383 0.42849034
0.53587307 0.62752833 0.42858076
0.54374043 0.62786935 0.42927199
0.57136392 0.62930746 0.43215576
0.63114936 0.63415674 0.44153639
0.71778304 0.64819946 0.46630729
0.81659829 0.68197999 0.51683167
0.91843197 0.74464325 0.59494097
0.91886608 0.83333382 0.69332697
0.64427536 0.73989142 0.52669642
0.64461320 0.73990491 0.52672722
0.64716791 0.74000846 0.52696345
0.65733144 0.74044796 0.52796243
0.68607385 0.74196419 0.53136369
0.74359733 0.74666031 0.54149038
0.82627697 0.75991886 0.56741390
0.91886608 0.79228891 0.62038116
0.91886608 0.85437974 0.70310752
0.75211034 0.84745043 0.62989540
0.75221774 0.84745460 0.62990570
0.75303834 0.84748664 0.62998470
0.75645271 0.84762289 0.63032026
0.76746040 0.84809630 0.63148089
0.79584833 0.84959578 0.63510480
0.85109224 0.85410703 0.64556706
0.91886608 0.86693877 0.67243138
0.91886608 0.89922541 0.72830574
0.85854825 0.91886608 0.73625199
0.85858172 0.91886608 0.73625532
0.85883826 0.91886608 0.73628087
0.85992220 0.91886608 0.73638957
0.86360115 0.91886608 0.73676755
0.87445199 0.91886608 0.73796781
0.90158284 0.91886608 0.74160666
0.91886608 0.91886608 0.75217859
0.91886608 0.91886608 0.78011468
0.91886608 0.91886608 0.84501797
0.91886608 0.91886608 0.84501899
0.91886608 0.91886608 0.84502680
0.91886608 0.91886608 0.84506004
0.91886608 0.91886608 0.84517583
0.91886608 0.91886608 0.84554563
0.91886608 0.91886608 0.84668665
0.91886608 0.91886608 0.85017456
0.91886608 0.91886608 0.86069055
0.19617678 0.14513944 0.37955631
0.24528704 0.16328521 0.37971498
0.35814807 0.22597406 0.38092360
0.47732966 0.31102075 0.38588517
0.59285569 0.40501040 0.40123475
0.70428862 0.50417648 0.43758112
0.81217386 0.60721032 0.50141803
0.91705101 0.71349001 0.58855523
0.91886608 0.82264027 0.69112141
0.22647975 0.24609902 0.38040483
0.26137759 0.24975641 0.38056193
0.36216499 0.27285817 0.38175867
0.47838032 0.32933645 0.38667334
0.59316116 0.41139946 0.40189487
0.70438262 0.50635400 0.43801860
0.81220324 0.60794147 0.50163507
0.91706003 0.71372781 0.58864078
0.91886608 0.82271336 0.69115031
0.31699272 0.38247467 0.38665344
0.32906165 0.38311917 0.38679946
0.38791250 0.38791250 0.38791250
0.48606940 0.40577262 0.39249553
0.59547437 0.44929175 0.40680336
0.70510125 0.52156046 0.44130837
0.81242848 0.61337487 0.50328480
0.91712927 0.71553405 0.58929514
0.91886608 0.82327265 0.69137198
0.42529290 0.50905060 0.40910995
0.42881191 0.50920753 0.40922262
0.45200805 0.51040383 0.41008293
0.51308482 0.51533039 0.41365349
0.60473311 0.53071183 0.42507624
0.70810042 0.56772780 0.45410128
0.81338116 0.63354165 0.50999580
0.91742338 0.72285610 0.59203105
0.91886608 0.82561566 0.69230982
0.53536943 0.62754002 0.46012094
0.53643800 0.62758449 0.46018448
0.54425990 0.62792531 0.46067091
0.57175126 0.62936258 0.46271285
0.63135524 0.63420911 0.46949229
0.71786527 0.64824460 0.48832844
0.81662656 0.68201156 0.53019771
0.91844094 0.74465944 0.60099319
0.91886608 0.83333998 0.69550819
0.64445460 0.73990846 0.53880326
0.64479180 0.73992195 0.53883032
0.64734176 0.74002547 0.53903785
0.65748758 0.74046490 0.53991617
0.68618904 0.74198085 0.54291528
0.74365973 0.74667616 0.55192042
0.82630237 0.75993260 0.57543216
0.91886608 0.79229859 0.62504009
0.91886608 0.85438462 0.70507562
0.75216729 0.84745570 0.63411839
0.75227463 0.84745987 0.63412823
0.75309472 0.84749191 0.63420378
0.75650706 0.84762815 0.63452473
0.76750867 0.84810153 0.63563521
0.79588380 0.84960092 0.63910626
0.85111152 0.85411192 0.64915741
0.91886608 0.86694300 0.67514600
0.91886608 0.89922834 0.72981384
0.85856599 0.91886608 0.73763807
0.85859945 0.91886608 0.73764135
0.85885595 0.91886608 0.73766653
0.85993967 0.91886608 0.73777363
0.86361792 0.91886608 0.73814605
0.87446683 0.91886608 0.73932882
0.90159373 0.91886608 0.74291597
0.91886608 0.91886608 0.75334825
0.91886608 0.91886608 0.78098111
0.91886608 0.91886608 0.84544372
0.91886608 0.91886608 0.84544473
0.91886608 0.91886608 0.84545250
0.91886608 0.91886608 0.84548559
0.91886608 0.91886608 0.84560083
0.91886608 0.91886608 0.84596889
0.91886608 0.91886608 0.84710457
0.91886608 0.91886608 0.85057657
0.91886608 0.91886608 0.86104800
0.27905766 0.20646397 0.50654108
0.29790849 0.21303726 0.50657935
0.37419902 0.24884547 0.50687274
0.48176389 0.31893634 0.50811139
0.59416214 0.40764754 0.51230447
0.70469210 0.50506218 0.52458430
0.81230010 0.60750632 0.55488352
0.91708979 0.71358613 0.61343899
0.91886608 0.82266979 0.70027776
0.28953782 0.26382245 0.50674642
0.30619747 0.26667937 0.50678461
0.37753108 0.28551951 0.50707735
0.48276509 0.33568548 0.50831328
0.59446342 0.41385327 0.51249744
0.70478569 0.50721919 0.52475339
0.81232943 0.60823519 0.55500584
0.91709881 0.71382369 0.61350474
0.91886608 0.82274286 0.70030399
0.34203157 0.38588315 0.50830816
0.35105285 0.38650254 0.50834572
0.39953100 0.39111520 0.50863357
0.49010894 0.40838714 0.50984903
0.59674533 0.45090119 0.51396592
0.70550126 0.52229536 0.52604168
0.81255437 0.61365221 0.55593980
0.91716801 0.71562810 0.61400810
0.91886608 0.82330197 0.70050514
0.43304482 0.50989105 0.51467669
0.43627505 0.51004657 0.51471175
0.45782284 0.51123215 0.51498052
0.51611604 0.51611604 0.51611604
0.60588616 0.53137821 0.51996957
0.70848789 0.56817724 0.53133491
0.81350573 0.63376580 0.55981488
0.91746199 0.72294309 0.61612141
0.91886608 0.82564423 0.70135664
0.53776368 0.62777883 0.53398309
0.53880537 0.62782320 0.53401158
0.54643956 0.62816316 0.53423008
0.57338257 0.62959685 0.53515455
0.63222671 0.63443169 0.53830777
0.71821453 0.64843652 0.54774496
0.81674677 0.68214584 0.57219707
0.91847909 0.74472833 0.62314025
0.91886608 0.83336622 0.70426633
0.64521383 0.73998095 0.57778733
0.64554834 0.73999443 0.57780520
0.64807826 0.74009787 0.57794228
0.65814941 0.74053696 0.57852360
0.68667783 0.74205175 0.58052265
0.74392490 0.74674357 0.58665348
0.82641043 0.75999106 0.60352217
0.91886608 0.79233976 0.64264755
0.91886608 0.85440537 0.71302102
0.75240933 0.84747812 0.65024424
0.75251639 0.84748230 0.65025255
0.75333436 0.84751432 0.65031626
0.75673807 0.84765054 0.65058702
0.76771386 0.84812380 0.65152493
0.79603465 0.84962282 0.65446748
0.85119357 0.85413274 0.66307801
0.91886608 0.86696103 0.68590062
0.91886608 0.89924084 0.73597476
0.85864148 0.91886608 0.74331850
0.85867491 0.91886608 0.74332159
0.85893119 0.91886608 0.74334528
0.86001400 0.91886608 0.74344606
0.86368924 0.91886608 0.74379655
0.87452994 0.91886608 0.74491020
0.90164008 0.91886608 0.74829257
0.91886608 0.91886608 0.75816901
0.91886608 0.91886608 0.78458095
0.91886608 0.91886608 0.84723385
0.91886608 0.91886608 0.84723484
0.91886608 0.91886608 0.84724246
0.91886608 0.91886608 0.84727489
0.91886608 0.91886608 0.84738786
0.91886608 0.91886608 0.84774868
0.91886608 0.91886608 0.84886218
0.91886608 0.91886608 0.85226799
0.91886608 0.91886608 0.86255379
0.36877340 0.27813349 0.62504951
0.37541069 0.28048751 0.62506034
0.41418199 0.29644307 0.62514349
0.49573407 0.34163095 0.62549664
0.59858041 0.41626488 0.62671759
0.70608534 0.50808527 0.63052491
0.81273882 0.60853105 0.64147717
0.91722485 0.71392048 0.66936984
0.91886608 0.82277267 0.72662780
0.37232185 0.30465456 0.62510767
0.37869636 0.30631877 0.62511849
0.41629368 0.31803358 0.62520159
0.49659465 0.35459574 0.62555452
0.59886794 0.42190859 0.62677473
0.70617755 0.51017373 0.63057980
0.81276802 0.60925209 0.64152606
0.91723385 0.71415720 0.66940624
0.91886608 0.82284565 0.72664761
0.39553053 0.39680701 0.62555306
0.40043419 0.39735279 0.62556383
0.43101557 0.40143282 0.62564654
0.50294806 0.41693545 0.62599782
0.60104708 0.45629739 0.62721236
0.70688264 0.52481293 0.63100021
0.81299187 0.61461278 0.64190064
0.91730294 0.71595526 0.66968528
0.91886608 0.82340413 0.72679956
0.45577458 0.51276287 0.62742594
0.45829195 0.51291365 0.62743651
0.47559476 0.51406334 0.62751760
0.52597135 0.51880416 0.62786201
0.60979943 0.53366482 0.62905300
0.70982635 0.56972755 0.63276929
0.81393870 0.63454314 0.64347878
0.91759646 0.72324573 0.67086403
0.91886608 0.82574379 0.72744369
0.54566153 0.62860673 0.63367978
0.54661933 0.62865071 0.63368967
0.55366484 0.62898771 0.63376557
0.57885844 0.63040905 0.63408801
0.63520360 0.63520360 0.63520360
0.71942205 0.64910258 0.63869023
0.81716462 0.68261250 0.64878340
0.91861199 0.74496811 0.67486206
0.91886608 0.83345762 0.72965520
0.64781405 0.74023323 0.65131018
0.64813951 0.74024668 0.65131839
0.65060193 0.74034984 0.65138139
0.66042114 0.74078775 0.65164912
0.68836232 0.74229850 0.65257661
0.74484348 0.74697823 0.65548711
0.82678615 0.76019458 0.66400930
0.91886608 0.79248316 0.68663266
0.91886608 0.85447770 0.73640484
0.75324825 0.84755627 0.69147181
0.75335435 0.84756044 0.69147718
0.75416501 0.84759244 0.69151836
0.75753897 0.84772853 0.69169346
0.76842568 0.84820139 0.69230136
0.79655861 0.84969912 0.69422217
0.85147903 0.85420529 0.69995981
0.91886608 0.86702386 0.71597532
0.91886608 0.89928438 0.75473893
0.85890414 0.91886608 0.76078441
0.85893747 0.91886608 0.76078697
0.85919300 0.91886608 0.76080660
0.86027265 0.91886608 0.76089013
0.86393745 0.91886608 0.76118076
0.87474963 0.91886608 0.76210542
0.90180145 0.91886608 0.76492491
0.91886608 0.91886608 0.77325040
0.91886608 0.91886608 0.79613168
0.91886608 0.91886608 0.85320911
0.91886608 0.91886608 0.85321004
0.91886608 0.91886608 0.85321716
0.91886608 0.91886608 0.85324750
0.91886608 0.91886608 0.85335319
0.91886608 0.91886608 0.85369080
0.91886608 0.91886608 0.85473320
0.91886608 0.91886608 0.85792639
0.91886608 0.91886608 0.86761259
0.46425740 0.35927253 0.73742391
0.46655250 0.36012019 0.73742720
0.48247787 0.36635720 0.73745243
0.53002301 0.38870968 0.73755978
0.61148192 0.43927610 0.73793305
0.71041303 0.51715182 0.73911851
0.81412978 0.61173993 0.74271360
0.91765594 0.71498327 0.75316735
0.91886608 0.82310133 0.78084693
0.46546918 0.36990462 0.73744156
0.46773423 0.37065166 0.73744485
0.48347133 0.37617778 0.73747008
0.53061841 0.39636320 0.73757740
0.61173281 0.44366256 0.73795061
0.71050109 0.51904776 0.73913584
0.81415853 0.61243700 0.74273028
0.91766490 0.71521733 0.75318226
0.91886608 0.82317405 0.78085799
0.47427194 0.42468838 0.73757695
0.47633057 0.42508556 0.73758024
0.49076105 0.42807739 0.73760543
0.53506790 0.43979381 0.73771260
0.61363745 0.47168712 0.73808527
0.71117458 0.53244597 0.73926880
0.81437900 0.61762493 0.74285822
0.91773365 0.71699538 0.75329662
0.91886608 0.82373051 0.78094281
0.50443451 0.52140380 0.73815114
0.50592165 0.52154119 0.73815440
0.51660857 0.52258947 0.73817944
0.55194602 0.52692438 0.73828596
0.62134184 0.54063225 0.73865634
0.71398872 0.57452726 0.73983271
0.81531158 0.63699043 0.74340089
0.91802571 0.72420841 0.75378188
0.91886608 0.82606187 0.78130303
0.56723414 0.63121034 0.74012572
0.56799610 0.63125312 0.74012891
0.57365000 0.63158100 0.74015342
0.59451974 0.63296419 0.74025771
0.64415177 0.63763408 0.74062037
0.72318764 0.65120460 0.74177237
0.81849000 0.68409163 0.74526845
0.91886608 0.74573187 0.75545407
0.91886608 0.83374973 0.78254793
0.65569050 0.74103661 0.74618183
0.65598998 0.74104994 0.74618482
0.65825856 0.74115222 0.74620779
0.66734929 0.74158638 0.74630552
0.69356274 0.74308436 0.74664544
0.74772574 0.74772574 0.74772574
0.82797901 0.76084336 0.75100911
0.91886608 0.79294088 0.76061522
0.91886608 0.85470894 0.78642513
0.75588504 0.84780607 0.76284106
0.75598817 0.84781023 0.76284357
0.75677627 0.84784214 0.76286277
0.76005831 0.84797785 0.76294447
0.77066912 0.84844940 0.76322874
0.79821670 0.84994303 0.76413330
0.85238712 0.85443724 0.76689265
0.91886608 0.86722475 0.77505040
0.91886608 0.89942368 0.79753841
0.85974013 0.91886608 0.80138525
0.85977315 0.91886608 0.80138690
0.86002630 0.91886608 0.80139953
0.86109597 0.91886608 0.80145331
0.86472771 0.91886608 0.80164055
0.87544954 0.91886608 0.80223761
0.90231625 0.91886608 0.80407084
0.91886608 0.91886608 0.80959385
0.91886608 0.91886608 0.82558494
0.91886608 0.91886608 0.87002923
0.91886608 0.91886608 0.87003000
0.91886608 0.91886608 0.87003590
0.91886608 0.91886608 0.87006101
0.91886608 0.91886608 0.87014852
0.91886608 0.91886608 0.87042819
0.91886608 0.91886608 0.87129277
0.91886608 0.91886608 0.87395142
0.91886608 0.91886608 0.88210704
0.56481133 0.44930268 0.84502252
0.56559308 0.44960425 0.84502354
0.57138879 0.45188686 0.84503135
0.59271177 0.46100507 0.84506459
0.64308629 0.48711166 0.84518037
0.72272850 0.54076379 0.84555016
0.81832658 0.62108015 0.84669112
0.91886608 0.71821521 0.85017886
0.91886608 0.82411641 0.86069437
0.56522243 0.45323553 0.84502798
0.56600079 0.45352424 0.84502900
0.57177219 0.45571084 0.84503681
0.59301770 0.46446912 0.84507005
0.64326599 0.48972597 0.84518582
0.72280573 0.54223888 0.84555559
0.81835403 0.62171189 0.84669648
0.91886608 0.71844135 0.85018401
0.91886608 0.82418833 0.86069895
0.56832066 0.47880979 0.84506991
0.56907390 0.47902771 0.84507093
0.57466531 0.48068396 0.84507873
0.59533439 0.48741741 0.84511195
0.64463461 0.50765370 0.84522767
0.72339667 0.55285199 0.84559727
0.81856457 0.62642715 0.84673763
0.91886608 0.72015985 0.85022360
0.91886608 0.82473862 0.86073414
0.58047550 0.54408141 0.84524816
0.58113787 0.54418918 0.84524918
0.58607468 0.54501258 0.84525697
0.60460620 0.54843897 0.84529012
0.65024885 0.55949088 0.84540561
0.72587135 0.58806675 0.84577448
0.81945540 0.64422389 0.84691261
0.91886608 0.72714201 0.85039190
0.91886608 0.82704450 0.86088378
0.61365309 0.63888151 0.84586684
0.61411974 0.63892096 0.84586785
0.61762831 0.63922336 0.84587559
0.63125949 0.64049993 0.84590852
0.66756474 0.64482030 0.84602321
0.73402023 0.65746132 0.84638955
0.82249443 0.68855091 0.84751996
0.91886608 0.74806903 0.85097620
0.91886608 0.83465265 0.86140350
0.67668933 0.74349298 0.84781994
0.67692920 0.74350596 0.84782092
0.67875105 0.74360559 0.84782849
0.68613546 0.74402850 0.84786071
0.70811919 0.74548804 0.84797294
0.75616227 0.75001399 0.84833142
0.83159308 0.76283350 0.84943775
0.91886608 0.79435068 0.85282214
0.91886608 0.85542464 0.86304778
0.76364093 0.84857891 0.85363826
0.76373580 0.84858303 0.85363918
0.76446101 0.84861467 0.85364628
0.76748621 0.84874922 0.85367647
0.77732045 0.84921674 0.85378165
0.80319182 0.85069773 0.85411764
0.85515511 0.85515511 0.85515511
0.91886608 0.86784696 0.85833351
0.91886608 0.89985572 0.86797781
0.86229230 0.91886608 0.86975995
0.86232439 0.91886608 0.86976072
0.86257040 0.91886608 0.86976664
0.86361012 0.91886608 0.86979183
0.86714261 0.91886608 0.86987961
0.87759253 0.91886608 0.87016012
0.90389886 0.91886608 0.87102731
0.91886608 0.91886608 0.87369382
0.91886608 0.91886608 0.88187220
0.91886608 0.91886608 0.90813522
0.91886608 0.91886608 0.90813572
0.91886608 0.91886608 0.90813954
0.91886608 0.91886608 0.90815581
0.91886608 0.91886608 0.90821250
0.91886608 0.91886608 0.90839382
0.91886608 0.91886608 0.90895558
0.91886608 0.91886608 0.91069454
0.91886608 0.91886608 0.91613599
0.66993422 0.54780790 0.91886608
0.67019186 0.54791146 0.91886608
0.67214710 0.54870292 0.91886608
0.68004508 0.55199930 0.91886608
0.70332991 0.56266232 0.91886608
0.75332699 0.59041854 0.91886608
0.83035802 0.64552966 0.91886608
0.91886608 0.72768573 0.91886608
0.91886608 0.82722883 0.91886608
0.67006952 0.54917686 0.91886608
0.67032679 0.54927892 0.91886608
0.67227927 0.55005896 0.91886608
0.68016665 0.55330882 0.91886608
0.70342487 0.56383215 0.91886608
0.75338264 0.59129125 0.91886608
0.83038206 0.64601789 0.91886608
0.91886608 0.72789014 0.91886608
0.91886608 0.82729832 0.91886608
0.67110208 0.55907149 0.91886608
0.67135655 0.55916335 0.91886608
0.67328806 0.55986569 0.91886608
0.68109496 0.56279817 0.91886608
0.70415083 0.57236064 0.91886608
0.75380886 0.59773654 0.91886608
0.83056646 0.64968520 0.91886608
0.91886608 0.72944507 0.91886608
0.91886608 0.82783009 0.91886608
0.67537549 0.59238933 0.91886608
0.67561872 0.59245383 0.91886608
0.67746579 0.59294763 0.91886608
0.68494760 0.59502132 0.91886608
0.70717999 0.60191417 0.91886608
0.75560169 0.62111389 0.91886608
0.83134724 0.66387750 0.91886608
0.91886608 0.73578941 0.91886608
0.91886608 0.83005948 0.91886608
0.68892083 0.65956097 0.91886608
0.68913156 0.65959267 0.91886608
0.69073413 0.65983577 0.91886608
0.69726666 0.66086368 0.91886608
0.71703619 0.66436227 0.91886608
0.76159442 0.67476689 0.91886608
0.83401765 0.70130913 0.91886608
0.91886608 0.75504141 0.91886608
0.91886608 0.83742776 0.91886608
0.72253665 0.75080331 0.91886608
0.72268406 0.75081531 0.91886608
0.72380825 0.75090742 0.91886608
0.72844840 0.75129850 0.91886608
0.74303120 0.75264918 0.91886608
0.77853118 0.75684721 0.91886608
0.84207340 0.76881276 0.91886608
0.91886608 0.79863751 0.91886608
0.91886608 0.85763325 0.91886608
0.78445320 0.85096090 0.91886608
0.78452894 0.85096491 0.91886608
0.78510841 0.85099572 0.91886608
0.78753519 0.85112674 0.91886608
0.79552697 0.85158204 0.91886608
0.81724220 0.85302473 0.91886608
0.86331981 0.85737031 0.91886608
0.91886608 0.86977095 0.91886608
0.91886608 0.90119724 0.91886608
0.86985382 0.91886608 0.91886608
0.86988329 0.91886608 0.91886608
0.87010926 0.91886608 0.91886608
0.87106482 0.91886608 0.91886608
0.87431776 0.91886608 0.91886608
0.88399591 0.91886608 0.91886608
0.90868435 0.91886608 0.91886608
0.91886608 0.91886608 0.91886608
0.91886608 0.91886608 0.91886608
0.91886608 0.91886608 0.91886608
0.91886608 0.91886608 0.91886608
0.91886608 0.91886608 0.91886608
0.91886608 0.91886608 0.91886608
0.91886608 0.91886608 0.91886608
0.91886608 0.91886608 0.91886608
0.91886608 0.91886608 0.91886608
0.91886608 0.91886608 0.91886608
0.91886608 0.91886608 0.91886608
0.77924515 0.65447227 0.91886608
0.77932529 0.65450573 0.91886608
0.77993833 0.65476225 0.91886608
0.78250333 0.65584651 0.91886608
0.79092487 0.65953215 0.91886608
0.81363305 0.67045223 0.91886608
0.86117388 0.69807175 0.91886608
0.91886608 0.75323226 0.91886608
0.91886608 0.83669589 0.91886608
0.77928722 0.65491656 0.91886608
0.77936732 0.65494986 0.91886608
0.77998008 0.65520517 0.91886608
0.78254393 0.65628440 0.91886608
0.79096193 0.65995333 0.91886608
0.81366196 0.67082753 0.91886608
0.86119094 0.69835189 0.91886608
0.91886608 0.75338774 0.91886608
0.91886608 0.83675846 0.91886608
0.77960960 0.65826025 0.91886608
0.77968943 0.65829239 0.91886608
0.78030005 0.65853885 0.91886608
0.78285514 0.65958089 0.91886608
0.79124596 0.66312640 0.91886608
0.81388363 0.67366070 0.91886608
0.86132179 0.70047565 0.91886608
0.91886608 0.75457305 0.91886608
0.91886608 0.83723749 0.91886608
0.78096951 0.67130256 0.91886608
0.78104816 0.67133056 0.91886608
0.78164988 0.67154529 0.91886608
0.78416831 0.67245395 0.91886608
0.79244534 0.67555508 0.91886608
0.81482127 0.68485165 0.91886608
0.86187669 0.70901534 0.91886608
0.91886608 0.75945621 0.91886608
0.91886608 0.83924867 0.91886608
0.78555940 0.70636458 0.91886608
0.78563423 0.70638388 0.91886608
0.78620680 0.70653196 0.91886608
0.78860514 0.70715969 0.91886608
0.79650820 0.70931591 0.91886608
0.81801658 0.71590575 0.91886608
0.86378459 0.73386915 0.91886608
0.91886608 0.77471226 0.91886608
0.91886608 0.84592813 0.91886608
0.79888342 0.77129961 0.91886608
0.79894814 0.77130924 0.91886608
0.79944362 0.77138309 0.91886608
0.80152334 0.77169683 0.91886608
0.80842474 0.77278233 0.91886608
0.82755273 0.77617524 0.91886608
0.86963285 0.78599849 0.91886608
0.91886608 0.81137034 0.91886608
0.91886608 0.86447978 0.91886608
0.83106131 0.85831771 0.91886608
0.83110676 0.85832140 0.91886608
0.83145498 0.85834977 0.91886608
0.83292249 0.85847046 0.91886608
0.83785969 0.85888991 0.91886608
0.85206229 0.86022009 0.91886608
0.88569268 0.86423632 0.91886608
0.91886608 0.87577174 0.91886608
0.91886608 0.90543512 0.91886608
0.89080585 0.91886608 0.91886608
0.89082909 0.91886608 0.91886608
0.89100732 0.91886608 0.91886608
0.89176204 0.91886608 0.91886608
0.89434344 0.91886608 0.91886608
0.90213185 0.91886608 0.91886608
0.91886608 0.91886608 0.91886608
0.91886608 0.91886608 0.91886608
0.91886608 0.91886608 0.91886608
0.91886608 0.91886608 0.91886608
0.91886608 0.91886608 0.91886608
0.91886608 0.91886608 0.91886608
0.91886608 0.91886608 0.91886608
0.91886608 0.91886608 0.91886608
0.91886608 0.91886608 0.91886608
0.91886608 0.91886608 0.91886608
0.91886608 0.91886608 0.91886608
0.91886608 0.91886608 0.91886608
