src/ffmpeg_scripts/luts/sRGB-rec2020_-3p33.cube
TITLE "sRGB-rec2020_-3p33"
LUT_3D_SIZE 5
# PQ (EOTF Only)/sRGB -> PQ (EOTF Only)/Rec2020, CineEI Shift -3.33, Black Level 0.00% IRE, Input 100% -> Output 109% - Created with LUTCalc v4.01 by Ben Turley October 2020
0.06256172 0.06256172 0.06256172
0.14781521 0.09629727 0.07939556
0.28326811 0.17202801 0.12573377
0.45619113 0.29334102 0.21260219
0.66221106 0.46561690 0.35315791
0.12876674 0.16090819 0.10022434
0.16234458 0.16354772 0.10321840
0.28506307 0.19527295 0.13278537
0.45641870 0.29765163 0.21395375
0.66223616 0.46618847 0.35335727
0.24548290 0.30769442 0.18175832
0.25112497 0.30797027 0.18218782
0.31030870 0.31248914 0.18898415
0.46017969 0.34810357 0.23328432
0.66265929 0.47533993 0.35665527
0.40430488 0.48833706 0.30902276
0.40508043 0.48837065 0.30908718
0.41724028 0.48893635 0.31016761
0.49171975 0.49453295 0.32044142
0.66688329 0.53766543 0.38454115
0.60283139 0.69778942 0.48603292
0.60292096 0.69779303 0.48604109
0.60442185 0.69785405 0.48617906
0.61854795 0.69847618 0.48757897
0.70148410 0.70454987 0.50065986
0.08968352 0.07651782 0.15995963
0.15000207 0.09872591 0.16061093
0.28350671 0.17238508 0.17050192
0.45622110 0.29339581 0.22516283
0.66221436 0.46562398 0.35516445
0.13213583 0.16135199 0.16336026
0.16396870 0.16396870 0.16396870
0.28529599 0.19550784 0.17328422
0.45644859 0.29770339 0.22627351
0.66223946 0.46619551 0.35535904
0.24588767 0.30773985 0.20145241
0.25149795 0.30801554 0.20175734
0.31047601 0.31253185 0.20668835
0.46020836 0.34813097 0.24265907
0.66266257 0.47534629 0.35857987
0.40435864 0.48834258 0.31246638
0.40513372 0.48837617 0.31252801
0.41728666 0.48894183 0.31356211
0.49174005 0.49453811 0.32342803
0.66688643 0.53766867 0.38592821
0.60283757 0.69779001 0.48647833
0.60292714 0.69779362 0.48648647
0.60442793 0.69785465 0.48662377
0.61855319 0.69847677 0.48801696
0.70148627 0.70455042 0.50103995
0.15488773 0.11682833 0.30596128
0.17701752 0.12385003 0.30602829
0.28742682 0.17808100 0.30715187
0.45672594 0.29431561 0.31780290
0.66227014 0.46574361 0.38334055
0.16768331 0.16831129 0.30632040
0.18573327 0.17060037 0.30638710
0.28912562 0.19934054 0.30750552
0.45695216 0.29857280 0.31811158
0.66229522 0.46631439 0.38347980
0.25238938 0.30850346 0.31214995
0.25751562 0.30877645 0.31221183
0.31325009 0.31325009 0.31325009
0.46069148 0.34859248 0.32315278
0.66271809 0.47545381 0.38579913
0.40526211 0.48843588 0.35543659
0.40602923 0.48846943 0.35547275
0.41806662 0.48903452 0.35608131
0.49208230 0.49462533 0.36206469
0.66693952 0.53772348 0.40650988
0.60294205 0.69780005 0.49369526
0.60303152 0.69780366 0.49370278
0.60453067 0.69786468 0.49382971
0.61864167 0.69848674 0.49511859
0.70152306 0.70455976 0.50723668
0.26475770 0.19551378 0.48608856
0.26908722 0.19692205 0.48609673
0.31897675 0.21676248 0.48623461
0.46173575 0.30313893 0.48763368
0.66283899 0.46695868 0.50070733
0.26706249 0.21197840 0.48613241
0.27125945 0.21305261 0.48614057
0.32010859 0.22888602 0.48627839
0.46194980 0.30694437 0.48767679
0.66286392 0.46752190 0.50074474
0.29789866 0.31591461 0.48687007
0.30069684 0.31616293 0.48687816
0.33714061 0.32024450 0.48701488
0.46549224 0.35317175 0.48840219
0.66328426 0.47654670 0.50137446
0.41400593 0.48938504 0.49409581
0.41470034 0.48941824 0.49410329
0.42567416 0.48997755 0.49422968
0.49551300 0.49551300 0.49551300
0.66748102 0.53828242 0.50758267
0.60400448 0.69790269 0.54641809
0.60409295 0.69790630 0.54642235
0.60557548 0.69796725 0.54649435
0.61954233 0.69858864 0.54722785
0.70189861 0.70465529 0.55434350
0.42733038 0.32735390 0.69532851
0.42792774 0.32756888 0.69532939
0.43745774 0.33111666 0.69534425
0.50115839 0.36058434 0.69549620
0.66840990 0.47841854 0.69702003
0.42764440 0.33016850 0.69533323
0.42823965 0.33037606 0.69533411
0.43773801 0.33380446 0.69534898
0.50129757 0.36246974 0.69550092
0.66843341 0.47891538 0.69702467
0.43278901 0.36711195 0.69541301
0.43335087 0.36724438 0.69541389
0.44234560 0.36945103 0.69542874
0.50361809 0.38923603 0.69558056
0.66882973 0.48692682 0.69710303
0.47326647 0.49847501 0.69622545
0.47362542 0.49850509 0.69622633
0.47948652 0.49901196 0.69624105
0.52452054 0.50404437 0.69639156
0.67279214 0.54375754 0.69790107
0.61413173 0.69893502 0.70407389
0.61421122 0.69893859 0.70407469
0.61554435 0.69899887 0.70408824
0.62820328 0.69961350 0.70422671
0.70561646 0.70561646 0.70561646
