src/ffmpeg_scripts/luts/sRGB-rec2020_0p33.cube
TITLE "sRGB-rec2020_0p33"
LUT_3D_SIZE 9
# PQ (EOTF Only)/sRGB -> PQ (EOTF Only)/Rec2020, CineEI Shift 0.33, Black Level 0.00% IRE, Input 100% -> Output 109% - Created with LUTCalc v4.01 by Ben Turley October 2020
0.06256172 0.06256172 0.06256172
0.16085004 0.10264137 0.08292682
0.26261845 0.15922968 0.11736414
0.36609845 0.22716203 0.16367927
0.47078962 0.30462386 0.22126004
0.57643329 0.39058278 0.28986417
0.68286837 0.48435020 0.36940670
0.78998385 0.58542530 0.45988535
0.89769812 0.69342315 0.56134681
0.13956821 0.17535419 0.10716320
0.17693991 0.17826734 0.11059871
0.26606559 0.19664091 0.12938405
0.36702867 0.24197021 0.16824586
0.47107300 0.31002963 0.22297883
0.57652429 0.39251875 0.29051190
0.68289788 0.48503091 0.36964672
0.78999321 0.58565612 0.45997086
0.89770094 0.69349681 0.56137537
0.22715163 0.28570303 0.16813499
0.23760418 0.28624098 0.16894386
0.28818046 0.29024774 0.17476839
0.37384812 0.30526780 0.19430552
0.47322011 0.34246781 0.23484609
0.57722008 0.40609473 0.29530855
0.68312418 0.49009605 0.37146733
0.79006505 0.58740991 0.46062475
0.89772258 0.69406052 0.56159439
0.32048200 0.39491901 0.23996122
0.32354056 0.39505880 0.24020467
0.34379300 0.39612471 0.24204534
0.39797549 0.40052076 0.24936704
0.48183389 0.41431208 0.27016224
0.58012587 0.44790566 0.31291040
0.68408148 0.50899603 0.37880659
0.79037026 0.59453126 0.46335671
0.89781463 0.69642315 0.56252105
0.41807843 0.50335502 0.32072683
0.41904701 0.50339678 0.32080801
0.42614987 0.50371675 0.32142858
0.45129503 0.50506661 0.32401729
0.50677804 0.50962423 0.33243654
0.58960853 0.52287353 0.35468654
0.68734485 0.55505170 0.40036021
0.79142644 0.61584876 0.47228525
0.89813480 0.70422479 0.56568203
0.51914724 0.61118947 0.40934602
0.51946647 0.61120269 0.40937413
0.52188188 0.61130413 0.40958963
0.53151574 0.61173476 0.41050111
0.55896964 0.61322090 0.41360654
0.61481664 0.61782892 0.42287158
0.69709457 0.63088008 0.44672646
0.79472932 0.66299684 0.49612495
0.89915232 0.72557789 0.57514462
0.62318095 0.71853170 0.50509573
0.62328663 0.71853593 0.50510546
0.62409425 0.71856848 0.50518007
0.62745713 0.71870688 0.50549703
0.63832613 0.71918781 0.50659360
0.66654662 0.72071159 0.51002039
0.72223113 0.72530029 0.51993831
0.80430515 0.73838782 0.54557381
0.90224447 0.77154773 0.59967174
0.72982237 0.82545611 0.60745043
0.72985648 0.82545744 0.60745369
0.73011800 0.82546766 0.60747874
0.73122317 0.82551118 0.60758530
0.73497699 0.82566271 0.60795584
0.74607360 0.82614628 0.60913282
0.77398058 0.82763462 0.61270405
0.82911653 0.83215064 0.62310445
0.91128714 0.84548383 0.65076487
0.83880426 0.91886608 0.71600615
0.83881469 0.91886608 0.71600719
0.83889473 0.91886608 0.71601512
0.83923468 0.91886608 0.71604888
0.84040989 0.91886608 0.71616647
0.84407336 0.91886608 0.71654208
0.85460040 0.91886608 0.71770126
0.88131153 0.91886608 0.72124726
0.91886608 0.91886608 0.73196152
0.09498087 0.07951705 0.17430645
0.16327912 0.10544001 0.17502590
0.26308151 0.15990007 0.18025030
0.36622140 0.22736689 0.19823098
0.47082695 0.30469302 0.23692954
0.57644527 0.39060697 0.29620931
0.68287225 0.48435864 0.37181773
0.78998508 0.58542816 0.46075168
0.89769849 0.69342406 0.56163703
0.14334956 0.17584424 0.17806056
0.17873164 0.17873164 0.17873164
0.26650689 0.19697636 0.18362662
0.36715026 0.24213411 0.20071425
0.47111021 0.31009413 0.23828587
0.57653625 0.39254240 0.29680513
0.68290176 0.48503929 0.37205100
0.78999444 0.58565897 0.46083638
0.89770131 0.69349772 0.56166550
0.22792926 0.28579175 0.20065255
0.23826840 0.28632907 0.20110422
0.28850715 0.29033125 0.20446308
0.37396027 0.30533638 0.21699262
0.47325645 0.34251075 0.24788100
0.57723195 0.40611495 0.30123144
0.68312805 0.49010398 0.37382099
0.79006628 0.58741271 0.46148407
0.89772295 0.69406142 0.56188384
0.32069699 0.39494201 0.25213036
0.32374742 0.39508177 0.25233417
0.34395393 0.39614739 0.25387960
0.39806010 0.40054232 0.26010123
0.48186696 0.41433049 0.27833233
0.58013739 0.44791827 0.31766457
0.68408531 0.50900249 0.38096750
0.79037149 0.59453385 0.46419063
0.89781500 0.69642403 0.56280767
0.41814564 0.50336189 0.32504470
0.41911348 0.50340364 0.32512158
0.42621121 0.50372359 0.32570946
0.45134132 0.50507335 0.32816467
0.50680327 0.50963065 0.33618007
0.58961894 0.52287909 0.35755394
0.68734855 0.55505564 0.40204650
0.79142765 0.61585082 0.47304148
0.89813517 0.70422560 0.56595918
0.51916931 0.61119164 0.41086849
0.51948847 0.61120486 0.41089611
0.52190332 0.61130630 0.41110789
0.53153507 0.61173692 0.41200378
0.55898406 0.61322302 0.41505732
0.61482462 0.61783094 0.42417854
0.69709791 0.63088185 0.44772816
0.79473049 0.66299810 0.49670851
0.89915268 0.72557853 0.57539530
0.62318824 0.71853239 0.50562540
0.62329392 0.71853663 0.50563507
0.62410148 0.71856917 0.50570926
0.62746411 0.71870758 0.50602441
0.63833235 0.71918851 0.50711478
0.66655123 0.72071227 0.51052269
0.72223369 0.72530094 0.52038982
0.80430620 0.73838839 0.54591706
0.90224482 0.77154813 0.59986510
0.72982473 0.82545633 0.60762852
0.72985884 0.82545766 0.60763178
0.73012035 0.82546788 0.60765678
0.73122549 0.82551140 0.60776314
0.73497922 0.82566292 0.60813299
0.74607558 0.82614650 0.60930778
0.77398204 0.82763484 0.61287253
0.82911733 0.83215085 0.62325540
0.91128745 0.84548400 0.65087757
0.83880498 0.91886608 0.71606258
0.83881541 0.91886608 0.71606361
0.83889545 0.91886608 0.71607154
0.83923539 0.91886608 0.71610528
0.84041059 0.91886608 0.71622280
0.84407404 0.91886608 0.71659818
0.85460100 0.91886608 0.71775668
0.88131198 0.91886608 0.72130062
0.91886608 0.91886608 0.73200911
0.14362497 0.10942692 0.28406131
0.17886590 0.12126187 0.28419212
0.26654044 0.16476570 0.28518903
0.36715953 0.22891883 0.28928990
0.47111305 0.30522198 0.30206123
0.57653716 0.39079249 0.33279508
0.68290206 0.48442344 0.38834903
0.78999453 0.58545008 0.46714163
0.89770134 0.69343105 0.56383611
0.16513106 0.17946515 0.28476104
0.19083425 0.18217067 0.28489063
0.26980818 0.19949028 0.28587829
0.36807813 0.24337964 0.28994257
0.47139543 0.31058760 0.30261330
0.57662805 0.39272379 0.33316911
0.68293156 0.48510361 0.38854115
0.79000389 0.58568084 0.46722057
0.89770415 0.69350471 0.56386392
0.23361075 0.28646958 0.28992609
0.24316114 0.28700206 0.29004705
0.29096941 0.29096941 0.29096941
0.37481649 0.30586097 0.29477437
0.47353504 0.34283972 0.30672556
0.57732308 0.40627007 0.33598472
0.68315777 0.49016485 0.39000225
0.79007573 0.58743417 0.46782440
0.89772579 0.69406837 0.56407722
0.32232863 0.39511844 0.30866238
0.32531815 0.39525790 0.30875705
0.34517923 0.39632137 0.30948021
0.39870703 0.40070770 0.31248566
0.48212052 0.41447172 0.32214477
0.58022575 0.44801505 0.34698455
0.68411474 0.50905208 0.39595858
0.79038090 0.59455376 0.47035092
0.89781784 0.69643080 0.56497985
0.41866002 0.50341460 0.35218811
0.41962225 0.50345633 0.35224313
0.42668080 0.50377610 0.35266439
0.45169598 0.50512510 0.35443401
0.50699672 0.50967991 0.36032364
0.58969886 0.52292180 0.37680144
0.68737698 0.55508592 0.41400997
0.79143696 0.61586671 0.47864841
0.89813800 0.70423184 0.56806057
0.51933863 0.61120833 0.42175389
0.51965721 0.61122155 0.42177829
0.52206773 0.61132297 0.42196544
0.53168335 0.61175352 0.42275772
0.55909468 0.61323936 0.42546553
0.61488583 0.61784650 0.43361917
0.69712354 0.63089540 0.45506938
0.79473947 0.66300775 0.50107050
0.89915548 0.72558350 0.57729829
0.62324428 0.71853774 0.50959457
0.62334989 0.71854198 0.50960383
0.62415697 0.71857452 0.50967490
0.62751767 0.71871292 0.50997685
0.63838010 0.71919382 0.51102191
0.66658666 0.72071750 0.51429155
0.72225330 0.72530591 0.52378562
0.80431429 0.73839271 0.54851167
0.90224752 0.77155116 0.60133679
0.72984281 0.82545801 0.60898499
0.72987692 0.82545934 0.60898820
0.73013838 0.82546956 0.60901285
0.73124331 0.82551308 0.60911769
0.73499634 0.82566460 0.60948229
0.74609078 0.82614817 0.61064054
0.77399329 0.82763648 0.61415631
0.82912349 0.83215241 0.62440652
0.91128989 0.84548535 0.65173853
0.83881050 0.91886608 0.71649473
0.83882093 0.91886608 0.71649575
0.83890097 0.91886608 0.71650365
0.83924090 0.91886608 0.71653723
0.84041602 0.91886608 0.71665421
0.84407925 0.91886608 0.71702788
0.85460564 0.91886608 0.71818111
0.88131541 0.91886608 0.72170933
0.91886608 0.91886608 0.73237372
0.20420354 0.15083501 0.39288981
0.21869765 0.15549185 0.39292378
0.27965266 0.18149585 0.39318419
0.37103994 0.23514264 0.39428402
0.47232103 0.30743409 0.39801231
0.57692735 0.39157779 0.40897602
0.68302884 0.48469877 0.43630966
0.79003477 0.58554335 0.49022465
0.89771345 0.69346081 0.57266161
0.21223185 0.19266962 0.39307206
0.22514603 0.19481983 0.39310596
0.28239282 0.20914473 0.39336582
0.37191737 0.24844085 0.39446335
0.47259969 0.31265401 0.39818407
0.57701787 0.39349174 0.40912746
0.68305830 0.48537691 0.43642080
0.79004412 0.58577388 0.49028597
0.89771627 0.69353444 0.57268694
0.25352405 0.28928822 0.39445881
0.26079130 0.28980111 0.39449217
0.30063742 0.29362718 0.39474789
0.37836756 0.30805514 0.39582809
0.47471154 0.34422547 0.39949177
0.57771004 0.40692734 0.41028163
0.68328421 0.49042351 0.43726966
0.79011593 0.58752551 0.49075547
0.89773791 0.69409792 0.57288116
0.32892245 0.39586545 0.40012506
0.33167904 0.39600372 0.40015630
0.35019950 0.39705810 0.40039584
0.40140820 0.40140820 0.40140820
0.48319214 0.41507037 0.40484804
0.58060099 0.44842590 0.41503146
0.68423989 0.50926291 0.44079555
0.79042097 0.59463846 0.49272772
0.89782995 0.69645962 0.57370352
0.42081670 0.50363866 0.41741237
0.42175580 0.50368029 0.41743801
0.42865243 0.50399928 0.41763459
0.45319031 0.50534505 0.41846658
0.50781573 0.50988931 0.42130714
0.59003831 0.52310340 0.42983421
0.68749788 0.55521468 0.45210424
0.79147657 0.61593432 0.49929072
0.89815006 0.70425837 0.57651560
0.52005600 0.61127935 0.45723075
0.52037213 0.61129256 0.45724716
0.52276442 0.61139390 0.45737303
0.53231195 0.61182413 0.45790690
0.55956415 0.61330887 0.45974385
0.61514597 0.61791271 0.46538779
0.69723257 0.63095308 0.48099568
0.79477767 0.66304883 0.51763214
0.89916740 0.72560463 0.58499507
0.62348245 0.71856053 0.52481454
0.62358780 0.71856476 0.52482240
0.62439286 0.71859730 0.52488273
0.62774533 0.71873566 0.52513914
0.63858309 0.71921644 0.52602756
0.66673734 0.72073975 0.52881699
0.72233674 0.72532711 0.53699831
0.80434870 0.73841114 0.55881770
0.90225902 0.77156405 0.60735729
0.72991975 0.82546517 0.61455111
0.72995383 0.82546650 0.61455414
0.73021508 0.82547672 0.61457737
0.73131911 0.82552023 0.61467623
0.73506915 0.82567174 0.61502005
0.74615543 0.82615527 0.61611280
0.77404116 0.82764347 0.61943434
0.82914969 0.83215905 0.62915591
0.91130025 0.84549108 0.65531834
0.83883404 0.91886608 0.71831241
0.83884446 0.91886608 0.71831342
0.83892448 0.91886608 0.71832116
0.83926432 0.91886608 0.71835409
0.84043914 0.91886608 0.71846884
0.84410145 0.91886608 0.71883535
0.85462537 0.91886608 0.71996670
0.88133001 0.91886608 0.72342954
0.91886608 0.91886608 0.73391014
0.27520410 0.20349922 0.50107933
0.28064837 0.20529442 0.50108948
0.31293107 0.21756234 0.50116741
0.38332502 0.25320244 0.50149841
0.47641138 0.31468793 0.50264317
0.57827515 0.39426082 0.50621663
0.68346948 0.48565224 0.51652756
0.79017490 0.58586780 0.54299416
0.89775568 0.69356447 0.59822862
0.27811167 0.22394233 0.50113384
0.28335256 0.22524073 0.50114398
0.31471224 0.23443082 0.50122186
0.38408473 0.26365840 0.50155267
0.47667784 0.31945949 0.50269676
0.57836438 0.39611677 0.50626819
0.68349880 0.48632338 0.51657369
0.79018424 0.58609754 0.54302890
0.89775850 0.69363802 0.59824793
0.29730036 0.29836423 0.50155129
0.30139201 0.29881937 0.50156140
0.32719343 0.30222685 0.50163893
0.38970392 0.31525402 0.50196824
0.47869840 0.34888089 0.50310723
0.57904677 0.40918078 0.50666314
0.68372366 0.49131961 0.51692716
0.79025594 0.58784322 0.54329516
0.89778012 0.69420089 0.59839609
0.34842924 0.39842037 0.50330759
0.35060523 0.39855462 0.50331750
0.36564382 0.39957856 0.50339357
0.41021860 0.40380704 0.50371670
0.48683298 0.41712607 0.50483447
0.58189763 0.44984371 0.50832580
0.68467492 0.50999418 0.51841696
0.79056051 0.59493315 0.54442025
0.89787212 0.69656004 0.59902422
0.42794843 0.50441557 0.50918200
0.42881513 0.50445684 0.50919130
0.43520265 0.50477318 0.50926269
0.45821448 0.50610781 0.50956599
0.51061567 0.51061567 0.51061567
0.59121228 0.52373373 0.51389941
0.68791817 0.55566219 0.52343165
0.79161452 0.61616964 0.54824014
0.89819208 0.70435080 0.60118194
0.52251448 0.61152653 0.52582411
0.52282237 0.61153970 0.52583188
0.52515326 0.61164078 0.52589157
0.53447088 0.61206989 0.52614522
0.56118273 0.61355081 0.52702413
0.61604733 0.61814316 0.52978433
0.69761167 0.63115389 0.53788485
0.79491076 0.66319189 0.55952076
0.89920893 0.72567826 0.60777808
0.62430810 0.71863990 0.56417329
0.62441253 0.71864414 0.56417845
0.62521063 0.71867664 0.56421808
0.62853475 0.71881489 0.56438659
0.63928739 0.71929527 0.56497171
0.66726077 0.72081731 0.56682140
0.72262704 0.72540096 0.57235464
0.80446858 0.73847535 0.58786270
0.90229911 0.77160899 0.62577579
0.73018750 0.82549011 0.63173596
0.73022148 0.82549145 0.63173848
0.73048198 0.82550167 0.63175786
0.73158289 0.82554516 0.63184030
0.73532257 0.82569663 0.63212716
0.74638048 0.82618003 0.63304000
0.77420783 0.82766782 0.63582529
0.82924096 0.83218222 0.64406568
0.91133637 0.84551106 0.66683427
0.83891603 0.91886608 0.72438709
0.83892644 0.91886608 0.72438803
0.83900639 0.91886608 0.72439528
0.83934592 0.91886608 0.72442615
0.84051968 0.91886608 0.72453370
0.84417877 0.91886608 0.72487728
0.85469413 0.91886608 0.72593836
0.88138091 0.91886608 0.72919093
0.91886608 0.91886608 0.73907708
0.35577391 0.26745425 0.60877536
0.35776701 0.26814359 0.60877858
0.37166561 0.27322834 0.60880328
0.41385310 0.29163043 0.60890835
0.48840022 0.33424472 0.60927376
0.58246617 0.40233214 0.61043455
0.68486693 0.48864066 0.61395785
0.79062224 0.58689941 0.62422847
0.89789079 0.69389570 0.65160518
0.35682592 0.27613024 0.60879264
0.35879422 0.27674225 0.60879585
0.37253658 0.28127917 0.60882055
0.41438780 0.29799424 0.60892560
0.48863402 0.33800289 0.60929094
0.58255153 0.40402459 0.61045152
0.68489582 0.48929038 0.61397420
0.79063154 0.58712665 0.62424314
0.89789360 0.69396899 0.65161617
0.36448909 0.32181570 0.60892517
0.36628650 0.32215268 0.60892838
0.37894152 0.32469363 0.60895304
0.41838859 0.33468778 0.60905795
0.49040974 0.36223508 0.60942278
0.58320437 0.41603001 0.61058175
0.68511738 0.49413197 0.61409967
0.79070288 0.58885357 0.62435570
0.89791519 0.69452989 0.65170046
0.39102123 0.40612999 0.60948727
0.39234016 0.40625284 0.60949046
0.40184749 0.40719045 0.60951498
0.43364241 0.41107286 0.60961927
0.49760726 0.42340390 0.60998194
0.58593403 0.45423955 0.61113412
0.68605476 0.51229794 0.61463192
0.79100599 0.59587076 0.62483341
0.89800705 0.69688091 0.65205847
0.44756389 0.50686056 0.61142118
0.44826030 0.50690076 0.61142431
0.45343539 0.50720885 0.61144833
0.47265179 0.50850905 0.61155051
0.51905257 0.51290422 0.61190586
0.59487658 0.52572409 0.61303498
0.68925166 0.55708117 0.61646442
0.79205492 0.61691933 0.62648018
0.89832651 0.70464620 0.65329609
0.52997733 0.61231378 0.61736109
0.53026155 0.61232685 0.61736403
0.53241563 0.61242709 0.61738659
0.54106704 0.61285265 0.61748255
0.56618624 0.61432146 0.61781634
0.61887743 0.61887743 0.61887743
0.69881555 0.63179413 0.62210492
0.79533565 0.66364860 0.63156898
0.89934181 0.72591367 0.65715394
0.62690476 0.71889366 0.63376646
0.62700637 0.71889788 0.63376893
0.62778298 0.71893030 0.63378789
0.63101944 0.71906817 0.63386859
0.64150825 0.71954725 0.63414937
0.66891777 0.72106524 0.63504300
0.72355074 0.72563706 0.63777078
0.80485144 0.73868067 0.64585039
0.90242736 0.77175277 0.66823981
0.73103984 0.82556996 0.67208680
0.73107351 0.82557129 0.67208844
0.73133166 0.82558150 0.67210109
0.73242265 0.82562496 0.67215491
0.73612953 0.82577630 0.67234228
0.74709757 0.82625927 0.67293986
0.77473960 0.82774577 0.67477541
0.82953264 0.83225638 0.68031216
0.91145196 0.84557502 0.69639981
0.83917810 0.91886608 0.74154825
0.83918848 0.91886608 0.74154903
0.83926819 0.91886608 0.74155507
0.83960674 0.91886608 0.74158076
0.84077713 0.91886608 0.74167028
0.84442597 0.91886608 0.74195639
0.85491398 0.91886608 0.74284104
0.88154372 0.91886608 0.74556286
0.91886608 0.91886608 0.75392618
0.44535110 0.34284912 0.71606720
0.44606482 0.34310869 0.71606823
0.45136408 0.34507477 0.71607616
0.47098002 0.35295384 0.71610990
0.51804635 0.37573199 0.71622741
0.59442952 0.42352262 0.71660278
0.68908720 0.49736241 0.71776122
0.79200038 0.59003898 0.72130499
0.89830984 0.69491892 0.73201300
0.44572639 0.34623762 0.71607274
0.44643714 0.34648666 0.71607377
0.45171514 0.34837418 0.71608170
0.47126281 0.35595766 0.71611544
0.51821602 0.37803058 0.71623295
0.59450472 0.42485448 0.71660829
0.68911483 0.49795356 0.71776666
0.79200954 0.59025879 0.72131023
0.89831264 0.69499142 0.73201768
0.44855702 0.36845377 0.71611530
0.44924580 0.36864441 0.71611633
0.45436613 0.37009405 0.71612425
0.47340550 0.37600066 0.71615797
0.51950869 0.39387755 0.71627543
0.59508014 0.43446463 0.71665060
0.68932670 0.50237080 0.71780845
0.79207983 0.59192984 0.72135047
0.89833413 0.69554628 0.73205357
0.45970051 0.42651943 0.71629622
0.46030953 0.42661686 0.71629725
0.46485430 0.42736141 0.71630516
0.48200262 0.43046281 0.71633882
0.52481890 0.44050050 0.71645605
0.59749118 0.46669101 0.71683050
0.69022332 0.51912069 0.71798615
0.79237842 0.59873002 0.72152158
0.89842554 0.69787236 0.73220620
0.49042433 0.51407970 0.71692427
0.49085962 0.51411689 0.71692530
0.49413512 0.51440193 0.71693315
0.50690674 0.51560565 0.71696658
0.54127246 0.51968414 0.71708303
0.60544586 0.53165841 0.71745499
0.69328410 0.56136400 0.71860302
0.79341188 0.61921470 0.72211569
0.89874349 0.70555947 0.73273639
0.54998799 0.61472226 0.71890774
0.55021752 0.61473499 0.71890874
0.55196157 0.61483272 0.71891643
0.55904322 0.61524761 0.71894916
0.58024393 0.61667997 0.71906318
0.62717791 0.62112634 0.71942738
0.70246589 0.63375899 0.72055165
0.79664527 0.66505571 0.72399333
0.89975397 0.72664239 0.73441433
0.63455655 0.71967885 0.72482382
0.63465027 0.71968304 0.72482476
0.63536683 0.71971519 0.72483198
0.63835788 0.71985191 0.72486270
0.64810274 0.72032702 0.72496975
0.67389513 0.72183253 0.72531174
0.72636793 0.72636793 0.72636793
0.80603255 0.73931666 0.72960585
0.90282521 0.77219872 0.73945043
0.73364328 0.82581796 0.74127280
0.73367602 0.82581929 0.74127359
0.73392709 0.82582947 0.74127964
0.73498837 0.82587281 0.74130541
0.73859672 0.82602374 0.74139520
0.74929412 0.82650539 0.74168214
0.77637488 0.82798789 0.74256939
0.83043425 0.83248673 0.74529905
0.91181061 0.84577373 0.75368507
0.83998869 0.91886608 0.78075601
0.83999898 0.91886608 0.78075653
0.84007798 0.91886608 0.78076048
0.84041350 0.91886608 0.78077732
0.84157351 0.91886608 0.78083599
0.84519079 0.91886608 0.78102363
0.85559462 0.91886608 0.78160505
0.88204839 0.91886608 0.78340548
0.91886608 0.91886608 0.78904527
0.54353273 0.42989121 0.82301564
0.54377861 0.42998501 0.82301596
0.54564550 0.43070193 0.82301845
0.55320109 0.43369075 0.82302906
0.57561026 0.44339044 0.82306603
0.62438560 0.46886146 0.82318432
0.70121796 0.52035446 0.82355139
0.79619394 0.59926029 0.82469331
0.89961148 0.69805839 0.82832140
0.54366186 0.43113136 0.82301738
0.54390741 0.43122385 0.82301770
0.54577175 0.43193089 0.82302020
0.55331757 0.43487937 0.82303080
0.57570205 0.44445750 0.82306777
0.62444038 0.46966744 0.82318606
0.70124224 0.52081595 0.82355312
0.79620269 0.59945967 0.82469502
0.89961424 0.69812851 0.82832304
0.54464753 0.44011866 0.82303076
0.54489051 0.44020229 0.82303108
0.54673557 0.44084183 0.82303357
0.55420720 0.44351433 0.82304418
0.57640392 0.45225406 0.82308114
0.62485997 0.47562953 0.82319941
0.70142853 0.52428523 0.82356642
0.79626984 0.60097684 0.82470816
0.89963541 0.69866523 0.82833566
0.54873113 0.47068201 0.82308769
0.54896376 0.47074162 0.82308801
0.55073107 0.47119804 0.82309050
0.55790270 0.47311582 0.82310110
0.57933460 0.47950292 0.82313804
0.62662561 0.49739397 0.82325623
0.70221745 0.53775936 0.82362301
0.79655512 0.60717598 0.82476404
0.89972547 0.70091639 0.82838935
0.56171962 0.53365319 0.82328588
0.56192221 0.53368332 0.82328620
0.56346350 0.53391439 0.82328869
0.56975594 0.53489168 0.82329926
0.58889322 0.53822094 0.82333612
0.63253549 0.54814915 0.82345406
0.70491716 0.57365763 0.82382004
0.79754281 0.62607371 0.82495861
0.90003872 0.70836806 0.82857629
0.59424274 0.62190251 0.82391769
0.59438625 0.62191431 0.82391801
0.59548099 0.62200490 0.82392048
0.60000428 0.62238956 0.82393098
0.61426932 0.62371848 0.82396758
0.64930474 0.62785289 0.82408470
0.71307534 0.63967045 0.82444815
0.80063606 0.66933845 0.82557890
0.90103438 0.72889220 0.82917236
0.65519122 0.72210013 0.82585587
0.65526658 0.72210421 0.82585619
0.65584323 0.72213553 0.82585860
0.65825940 0.72226878 0.82586888
0.66623027 0.72273181 0.82590471
0.68799621 0.72419947 0.82601935
0.73469201 0.72862428 0.82637514
0.80964146 0.74128405 0.82748223
0.90406158 0.77358382 0.83100232
0.74136882 0.82659155 0.83167977
0.74139896 0.82659286 0.83168006
0.74163012 0.82660296 0.83168233
0.74260777 0.82664593 0.83169197
0.74593808 0.82679557 0.83172556
0.75586613 0.82727315 0.83183306
0.78132431 0.82874323 0.83216674
0.83320553 0.83320553 0.83320553
0.91292615 0.84639423 0.83651340
0.84248509 0.91886608 0.84842261
0.84249510 0.91886608 0.84842285
0.84257194 0.91886608 0.84842473
0.84289829 0.91886608 0.84843273
0.84402688 0.91886608 0.84846063
0.84754857 0.91886608 0.84854989
0.85769667 0.91886608 0.84882708
0.88361300 0.91886608 0.84969109
0.91886608 0.91886608 0.85245300
0.65001380 0.52882153 0.91886608
0.65009339 0.52885326 0.91886608
0.65070237 0.52909659 0.91886608
0.65325174 0.53012538 0.91886608
0.66163760 0.53362580 0.91886608
0.68436781 0.54402714 0.91886608
0.73250213 0.57053252 0.91886608
0.80867472 0.62429235 0.91886608
0.90372731 0.70762713 0.91886608
0.65005558 0.52924298 0.91886608
0.65013514 0.52927457 0.91886608
0.65074385 0.52951680 0.91886608
0.65329212 0.53054100 0.91886608
0.66167455 0.53402614 0.91886608
0.68439685 0.54438541 0.91886608
0.73251953 0.57080279 0.91886608
0.80868235 0.62444540 0.91886608
0.90372994 0.70769047 0.91886608
0.65037581 0.53241724 0.91886608
0.65045510 0.53244777 0.91886608
0.65106175 0.53268191 0.91886608
0.65360159 0.53367212 0.91886608
0.66195780 0.53704436 0.91886608
0.68461958 0.54709169 0.91886608
0.73265302 0.57285269 0.91886608
0.80874093 0.62561244 0.91886608
0.90375013 0.70817542 0.91886608
0.65172700 0.54483896 0.91886608
0.65180516 0.54486569 0.91886608
0.65240325 0.54507074 0.91886608
0.65490777 0.54593862 0.91886608
0.66315417 0.54890290 0.91886608
0.68556190 0.55781061 0.91886608
0.73321917 0.58111188 0.91886608
0.80898990 0.63042542 0.91886608
0.90383604 0.71021230 0.91886608
0.65629209 0.57854537 0.91886608
0.65636658 0.57856405 0.91886608
0.65693658 0.57870735 0.91886608
0.65932531 0.57931495 0.91886608
0.66721040 0.58140306 0.91886608
0.68877527 0.58779514 0.91886608
0.73516649 0.60529817 0.91886608
0.80985257 0.64551504 0.91886608
0.90413487 0.71698649 0.91886608
0.66958431 0.64213271 0.91886608
0.66964903 0.64214224 0.91886608
0.67014448 0.64221540 0.91886608
0.67222498 0.64252619 0.91886608
0.67913930 0.64360177 0.91886608
0.69838528 0.64696624 0.91886608
0.74114279 0.65672919 0.91886608
0.81256158 0.68209523 0.91886608
0.90508503 0.73587634 0.91886608
0.70192852 0.72958974 0.91886608
0.70197444 0.72959351 0.91886608
0.70232632 0.72962243 0.91886608
0.70380971 0.72974543 0.91886608
0.70880544 0.73017300 0.91886608
0.72322030 0.73152928 0.91886608
0.75760974 0.73562773 0.91886608
0.82050921 0.74742773 0.91886608
0.90797672 0.77796300 0.91886608
0.76286948 0.82907007 0.91886608
0.76289340 0.82907135 0.91886608
0.76307690 0.82908118 0.91886608
0.76385398 0.82912299 0.91886608
0.76651325 0.82926859 0.91886608
0.77454912 0.82973333 0.91886608
0.79583693 0.83116426 0.91886608
0.84169590 0.83551134 0.91886608
0.91646825 0.84838907 0.91886608
0.85017750 0.91886608 0.91886608
0.85018669 0.91886608 0.91886608
0.85025722 0.91886608 0.91886608
0.85055683 0.91886608 0.91886608
0.85159358 0.91886608 0.91886608
0.85483515 0.91886608 0.91886608
0.86422844 0.91886608 0.91886608
0.88853169 0.91886608 0.91886608
0.91886608 0.91886608 0.91886608
