src/ffmpeg_scripts/luts/sRGB-rec2020_2p33.cube
TITLE "sRGB-rec2020_2p33"
LUT_3D_SIZE 33
# PQ (EOTF Only)/sRGB -> PQ (EOTF Only)/Rec2020, CineEI Shift 2.33, Black Level 0.00% IRE, Input 100% -> Output 109% - Created with LUTCalc v4.01 by Ben Turley October 2020
0.06256172 0.06256172 0.06256172
0.10781387 0.07846870 0.06998696
0.14754385 0.09616776 0.07932436
0.18484431 0.11491104 0.08997678
0.22053588 0.13444321 0.10171251
0.25502271 0.15462432 0.11439827
0.28854729 0.17536367 0.12794473
0.32127163 0.19659685 0.14228670
0.35331171 0.21827532 0.15737399
0.38475467 0.24036096 0.17316642
0.41566835 0.26282289 0.18963089
0.44610707 0.28563550 0.20673958
0.47611530 0.30877717 0.22446862
0.50573010 0.33222932 0.24279733
0.53498280 0.35597580 0.26170748
0.56390027 0.38000243 0.28118293
0.59250577 0.40429662 0.30120920
0.62081965 0.42884713 0.32177326
0.64885984 0.45364383 0.34286325
0.67664228 0.47867754 0.36446836
0.70418121 0.50393989 0.38657868
0.73148942 0.52942325 0.40918505
0.75857849 0.55512057 0.43227902
0.78545893 0.58102535 0.45585272
0.81214032 0.60713158 0.47989883
0.83863143 0.63343366 0.50441049
0.86494034 0.65992637 0.52938130
0.89107448 0.68660483 0.55480521
0.91704071 0.71346447 0.58067655
0.91886608 0.74050098 0.60698995
0.91886608 0.76771033 0.63374032
0.91886608 0.79508868 0.66092287
0.91886608 0.82263242 0.68853303
0.09646991 0.11588943 0.08053977
0.11678816 0.11754283 0.08214069
0.15104176 0.12302648 0.08703003
0.18655603 0.13282261 0.09488667
0.22148473 0.14635104 0.10493524
0.25559081 0.16263723 0.11658123
0.28890560 0.18085039 0.12946365
0.32150626 0.20042070 0.14336674
0.35346972 0.22098310 0.15815536
0.38486342 0.24230498 0.17373958
0.41574450 0.26423489 0.19005602
0.44616113 0.28667112 0.20705774
0.47615412 0.30954289 0.22470846
0.50575822 0.33279928 0.24297917
0.53500333 0.35640238 0.26184600
0.56391535 0.38032312 0.28128883
0.59251690 0.40453857 0.30129040
0.62082790 0.42903018 0.32183564
0.64886598 0.45378260 0.34291124
0.67664686 0.47878289 0.36450532
0.70418462 0.50401994 0.38660715
0.73149197 0.52948409 0.40920697
0.75858040 0.55516680 0.43229589
0.78546035 0.58106046 0.45586569
0.81214138 0.60715821 0.47990878
0.83863223 0.63345382 0.50441812
0.86494094 0.65994161 0.52938713
0.89107492 0.68661632 0.55480965
0.91704104 0.71347310 0.58067992
0.91886608 0.74050745 0.60699250
0.91886608 0.76771515 0.63374225
0.91886608 0.79509226 0.66092432
0.91886608 0.82263507 0.68853410
0.12854315 0.16060646 0.10008238
0.13816332 0.16118187 0.10074872
0.16203963 0.16324009 0.10306718
0.19243285 0.16748308 0.10758424
0.22485427 0.17448162 0.11448641
0.25763903 0.18447720 0.12360126
0.29020739 0.19733911 0.13459199
0.32236223 0.21268515 0.14712252
0.35404760 0.23005050 0.16092280
0.38526174 0.24900405 0.17579344
0.41602366 0.26919514 0.19159109
0.44635945 0.29035698 0.20821245
0.47629656 0.31229281 0.22558193
0.50586145 0.33485907 0.24364304
0.53507871 0.35795087 0.26235256
0.56397072 0.38149095 0.28167658
0.59255778 0.40542167 0.30158794
0.62085820 0.42969939 0.32206439
0.64888851 0.45429055 0.34308732
0.67666365 0.47916886 0.36464095
0.70419716 0.50431340 0.38671164
0.73150134 0.52970724 0.40928746
0.75858740 0.55533643 0.43235784
0.78546559 0.58118931 0.45591332
0.81214530 0.60725596 0.47994534
0.83863515 0.63352786 0.50444613
0.86494311 0.65999756 0.52940853
0.89107654 0.68665850 0.55482597
0.91704224 0.71350481 0.58069231
0.91886608 0.74053121 0.60700188
0.91886608 0.76773288 0.63374932
0.91886608 0.79510544 0.66092962
0.91886608 0.82264481 0.68853806
0.15973701 0.20172588 0.12051022
0.16481638 0.20199745 0.12086060
0.18007593 0.20298462 0.12211938
0.20356145 0.20509658 0.12474025
0.23168843 0.20880129 0.12913484
0.26193724 0.21454919 0.13555243
0.29298882 0.22267642 0.14402762
0.32420972 0.23332663 0.15442097
0.35530231 0.24643365 0.16650609
0.38612978 0.26176936 0.18004422
0.41663347 0.27902232 0.19482396
0.44679331 0.29786782 0.21067357
0.47660850 0.31801106 0.22745917
0.50608770 0.33920511 0.24507819
0.53524399 0.36125263 0.26345219
0.56409219 0.38400009 0.28252082
0.59264748 0.40732963 0.30223718
0.62092470 0.43115116 0.32256429
0.64893796 0.45539580 0.34347256
0.67670051 0.48001057 0.36493796
0.70422468 0.50495444 0.38694062
0.73152191 0.53019530 0.40946392
0.75860278 0.55570779 0.43249371
0.78547709 0.58147157 0.45601780
0.81215389 0.60747021 0.48002556
0.83864157 0.63369019 0.50450759
0.86494789 0.66012030 0.52945551
0.89108009 0.68675105 0.55486177
0.91704488 0.71357439 0.58071951
0.91886608 0.74058334 0.60702246
0.91886608 0.76777179 0.63376483
0.91886608 0.79513434 0.66094126
0.91886608 0.82266619 0.68854675
0.19032607 0.24051479 0.14159710
0.19325484 0.24066250 0.14180350
0.20290235 0.24120233 0.14255345
0.21986097 0.24237260 0.14415627
0.24267270 0.24447533 0.14696342
0.26922843 0.24786057 0.15131066
0.29785591 0.25289225 0.15744906
0.32750224 0.25989456 0.16549426
0.35756339 0.26909287 0.17542072
0.38770499 0.28057242 0.18709804
0.41774504 0.29427273 0.20034284
0.44758650 0.31001751 0.21496217
0.47717994 0.32756286 0.23077916
0.50650273 0.34664403 0.24764355
0.53554747 0.36700865 0.26543303
0.56431536 0.38843464 0.28405016
0.59281237 0.41073625 0.30341810
0.62104698 0.43376305 0.32347633
0.64902892 0.45739557 0.34417698
0.67676832 0.48153999 0.36548193
0.70427531 0.50612293 0.38736051
0.73155975 0.53108708 0.40978779
0.75863108 0.55638754 0.43274326
0.78549825 0.58198896 0.45620981
0.81216970 0.60786333 0.48017303
0.83865337 0.63398829 0.50462061
0.86495669 0.66034580 0.52954192
0.89108664 0.68692118 0.55492763
0.91704974 0.71370234 0.58076955
0.91886608 0.74067922 0.60706034
0.91886608 0.76784336 0.63379338
0.91886608 0.79518753 0.66096268
0.91886608 0.82270552 0.68856274
0.22045005 0.27758519 0.16322036
0.22224833 0.27767251 0.16335045
0.22845315 0.27799238 0.16382545
0.24030965 0.27868979 0.16485279
0.25784844 0.27995653 0.16669094
0.28000918 0.28203223 0.16963097
0.30537670 0.28519845 0.17396226
0.33273406 0.28976034 0.17992614
0.36122058 0.29601423 0.18767349
0.39028209 0.30420572 0.19724487
0.41957728 0.31448993 0.20858047
0.44890053 0.32690820 0.22155095
0.47812982 0.34138955 0.23599332
0.50719423 0.35777477 0.25173974
0.53605395 0.37585170 0.26863512
0.56468826 0.39538957 0.28654513
0.59308810 0.41616480 0.30535781
0.62125159 0.43797619 0.32498198
0.64918118 0.46065139 0.34534426
0.67688186 0.48404760 0.36638588
0.70436012 0.50804902 0.38805974
0.73162316 0.53256299 0.41032799
0.75867850 0.55751599 0.43315998
0.78553371 0.58284986 0.45653074
0.81219620 0.60851863 0.48041969
0.83867315 0.63448586 0.50480976
0.86497144 0.66072259 0.52968657
0.89109761 0.68720565 0.55503793
0.91705787 0.71391641 0.58085337
0.91886608 0.74083972 0.60712379
0.91886608 0.76796320 0.63384122
0.91886608 0.79527662 0.66099857
0.91886608 0.82277141 0.68858953
0.25019474 0.31329926 0.18530114
0.25135007 0.31335381 0.18538690
0.25543646 0.31355385 0.18570080
0.26365163 0.31399125 0.18638383
0.27667673 0.31479007 0.18761980
0.29437304 0.31611105 0.18963264
0.31594663 0.31815442 0.19267531
0.34036630 0.32115756 0.19700623
0.36669210 0.32538435 0.20285568
0.39420359 0.33110433 0.21039086
0.42239739 0.33856257 0.21969242
0.45093877 0.34794613 0.23075097
0.47961114 0.35935656 0.24348302
0.50827663 0.37279764 0.25775750
0.53684882 0.38818203 0.27342250
0.56527457 0.40535317 0.29032578
0.59352222 0.42411400 0.30832728
0.62157405 0.44425397 0.32730488
0.64942131 0.46556936 0.34715570
0.67706104 0.48787573 0.36779488
0.70449399 0.51101349 0.38915329
0.73172327 0.53484888 0.41117495
0.75875339 0.55927216 0.43381461
0.78558972 0.58419458 0.45703561
0.81223807 0.60954505 0.48080816
0.83870441 0.63526689 0.50510789
0.86499474 0.66131500 0.52991472
0.89111494 0.68765348 0.55521198
0.91707073 0.71425372 0.58098568
0.91886608 0.74109281 0.60722399
0.91886608 0.76815229 0.63391676
0.91886608 0.79541723 0.66105527
0.91886608 0.82287545 0.68863186
0.27961853 0.34789638 0.20778376
0.28038620 0.34793181 0.20784213
0.28313971 0.34806186 0.20805608
0.28884945 0.34834665 0.20852318
0.29834506 0.34886831 0.20937377
0.31201569 0.34973535 0.21077359
0.32968380 0.35108721 0.21292296
0.35073313 0.35309729 0.21604893
0.37436882 0.35597236 0.22038805
0.39983373 0.35994626 0.22616067
0.42651206 0.36526585 0.23354182
0.45394635 0.37216880 0.24263765
0.48181423 0.38085607 0.25347514
0.50989541 0.39146508 0.26600809
0.53804230 0.40405141 0.28013529
0.56615739 0.41858453 0.29572330
0.59417723 0.43495849 0.31262723
0.62206131 0.45301302 0.33070582
0.64978455 0.47255814 0.34983042
0.67733229 0.49339628 0.36988896
0.70469679 0.51533851 0.39078664
0.73187499 0.53821433 0.41244480
0.75886692 0.56187603 0.43479892
0.78567466 0.58619932 0.45779642
0.81230157 0.61108172 0.48139453
0.83875182 0.63643996 0.50555848
0.86503008 0.66220697 0.53025989
0.89114123 0.68832904 0.55547549
0.91709024 0.71476331 0.58118612
0.91886608 0.74147557 0.60737583
0.91886608 0.76843849 0.63403130
0.91886608 0.79563020 0.66114125
0.91886608 0.82303310 0.68869606
0.30876389 0.38154637 0.23062647
0.30928724 0.38157008 0.23066717
0.31118012 0.38165711 0.23081643
0.31518152 0.38184787 0.23114294
0.32205321 0.38219790 0.23173976
0.33238476 0.38278141 0.23272815
0.34641369 0.38369550 0.23426058
0.36396484 0.38506426 0.23652047
0.38454450 0.38704171 0.23971636
0.40751463 0.38981241 0.24406873
0.43224584 0.39358765 0.24978961
0.45820227 0.39859571 0.25705789
0.48496633 0.40506508 0.26599674
0.51222992 0.41320185 0.27665998
0.53977330 0.42316518 0.28903147
0.56744312 0.43504663 0.30303651
0.59513403 0.44885956 0.31856033
0.62277462 0.46454128 0.33546769
0.65031718 0.48196694 0.35361914
0.67773050 0.50097010 0.37288223
0.70499476 0.52136436 0.39313785
0.73209806 0.54296173 0.41428272
0.75903393 0.56558541 0.43622955
0.78579965 0.58907732 0.45890575
0.81239503 0.61330110 0.48225163
0.83882163 0.63814214 0.50621835
0.86508213 0.66350593 0.53076610
0.89117995 0.68931558 0.55586237
0.91711898 0.71550906 0.58148064
0.91886608 0.74203663 0.60759910
0.91886608 0.76885854 0.63419978
0.91886608 0.79594307 0.66126777
0.91886608 0.82326486 0.68879057
0.33766311 0.41437587 0.25379666
0.33802715 0.41439209 0.25382555
0.33935060 0.41445165 0.25393159
0.34218271 0.41458228 0.25416381
0.34715198 0.41482223 0.25458927
0.35486084 0.41522297 0.25529664
0.36574705 0.41585257 0.25640017
0.37996543 0.41679947 0.25804233
0.39735565 0.41817620 0.26039398
0.41751173 0.42012232 0.26364995
0.43990558 0.42280563 0.26801870
0.46400107 0.42642011 0.27370548
0.48932463 0.43117891 0.28089112
0.51549279 0.43730150 0.28971080
0.54221185 0.44499490 0.30023870
0.56926490 0.45443163 0.31248302
0.59649552 0.46572871 0.32639210
0.62379281 0.47893325 0.34186893
0.65107922 0.49401866 0.35878881
0.67830119 0.51089222 0.37701590
0.70542235 0.52941126 0.39641593
0.73241848 0.54940312 0.41686442
0.75927399 0.57068416 0.43825089
0.78597940 0.59307476 0.46048025
0.81252950 0.61640932 0.48347238
0.83892209 0.64054156 0.50716072
0.86515705 0.66534629 0.53149051
0.89123570 0.69071881 0.55641690
0.91716036 0.71657302 0.58190329
0.91886608 0.74283896 0.60791980
0.91886608 0.76946030 0.63444197
0.91886608 0.79639189 0.66144973
0.91886608 0.82359768 0.68892654
0.36634165 0.44648279 0.27726801
0.36659896 0.44649409 0.27728882
0.36753745 0.44653559 0.27736522
0.36956182 0.44662662 0.27753269
0.37316555 0.44679396 0.27783995
0.37888149 0.44707375 0.27835212
0.38719784 0.44751414 0.27915432
0.39845377 0.44817837 0.28035524
0.41275698 0.44914808 0.28208969
0.42996475 0.45052687 0.28451895
0.44973606 0.45244313 0.28782749
0.47162323 0.45505177 0.29221460
0.49516048 0.45853314 0.29788018
0.51992372 0.46308816 0.30500616
0.54555849 0.46892811 0.31373665
0.57178482 0.47625901 0.32416173
0.59838977 0.48526182 0.33630956
0.62521559 0.49607192 0.35014842
0.65214750 0.50876267 0.36559760
0.67910317 0.52333729 0.38254301
0.70602430 0.53973139 0.40085338
0.73287016 0.55782491 0.42039394
0.75961274 0.57745976 0.44103610
0.78623325 0.59845863 0.46266317
0.81271951 0.62064142 0.48517302
0.83906410 0.64383719 0.50847846
0.86526299 0.66789154 0.53250640
0.89131456 0.69267004 0.55719628
0.91721889 0.71805873 0.58249835
0.91886608 0.74396301 0.60837190
0.91886608 0.77030547 0.63478373
0.91886608 0.79702347 0.66170671
0.91886608 0.82406672 0.68911868
0.39482011 0.47794508 0.30101875
0.39500433 0.47795306 0.30103392
0.39567771 0.47798238 0.30108961
0.39713794 0.47804673 0.30121173
0.39976307 0.47816506 0.30143601
0.40399247 0.47836307 0.30181049
0.41028376 0.47867511 0.30239859
0.41904267 0.47914662 0.30328256
0.43054237 0.47983688 0.30456665
0.44486290 0.48082215 0.30637966
0.46187862 0.48219892 0.30887548
0.48129802 0.48408684 0.31223065
0.50273418 0.48663061 0.31663742
0.52577584 0.48999982 0.32229158
0.55003883 0.49438540 0.32937590
0.57519338 0.49999157 0.33804146
0.60097210 0.50702255 0.34839122
0.62716660 0.51566484 0.36046995
0.65361886 0.52606748 0.37426319
0.68021140 0.53832451 0.38970495
0.70685820 0.55246385 0.40669134
0.73349705 0.56844572 0.42509605
0.76008355 0.58617082 0.44478457
0.78658644 0.60549539 0.46562508
0.81298409 0.62624943 0.48749546
0.83926197 0.64825375 0.51028714
0.86541067 0.67133364 0.53390628
0.89142452 0.69532795 0.55827355
0.91730054 0.72009410 0.58332278
0.91886608 0.74550977 0.60899942
0.91886608 0.77147250 0.63525874
0.91886608 0.79789791 0.66206426
0.91886608 0.82471744 0.68938624
0.42311550 0.50882617 0.32503059
0.42324878 0.50883187 0.32504175
0.42373669 0.50885284 0.32508271
0.42479852 0.50889885 0.32517257
0.42672038 0.50898348 0.32533772
0.42985109 0.50912517 0.32561378
0.43458415 0.50934865 0.32604810
0.44131834 0.50968676 0.32670272
0.45039907 0.51018266 0.32765747
0.46205412 0.51089237 0.32901308
0.47634701 0.51188777 0.33089356
0.49316762 0.51325967 0.33344707
0.51226311 0.51512068 0.33684404
0.53329375 0.51760738 0.34127134
0.55589145 0.52088072 0.34692173
0.57970465 0.52512354 0.35397883
0.60442459 0.53053411 0.36259955
0.62979531 0.53731471 0.37289757
0.65561301 0.54565569 0.38493176
0.68172011 0.55571660 0.39870264
0.70799727 0.56760811 0.41415746
0.73435556 0.58137871 0.43120180
0.76072956 0.59700995 0.44971431
0.78707175 0.61442112 0.46956114
0.81334806 0.63348204 0.49060776
0.83953440 0.65403013 0.51272718
0.86561413 0.67588790 0.53580482
0.89157608 0.69887782 0.55974058
0.91741312 0.72283299 0.58444911
0.91886608 0.74760358 0.60985885
0.91886608 0.77305964 0.63591056
0.91886608 0.79909143 0.66255562
0.91886608 0.82560807 0.68975432
0.45124212 0.53917867 0.34928785
0.45133938 0.53918279 0.34929611
0.45169578 0.53919792 0.34932647
0.45247333 0.53923113 0.34939309
0.45388729 0.53929223 0.34951557
0.45620874 0.53939456 0.34972046
0.45975996 0.53955605 0.35004323
0.46489622 0.53980058 0.35053064
0.47197027 0.54015968 0.35124350
0.48128269 0.54067456 0.35225969
0.49302934 0.54139857 0.35367706
0.50726388 0.54239996 0.35561587
0.52388996 0.54376491 0.35821977
0.54268562 0.54560035 0.36165451
0.56334860 0.54803632 0.36610295
0.58554554 0.55122681 0.37175572
0.60895187 0.55534810 0.37879749
0.63327677 0.56059357 0.38739033
0.65827443 0.56716381 0.39765715
0.68374556 0.57525205 0.40966899
0.70953338 0.58502629 0.42343953
0.73551727 0.59661086 0.43892779
0.76160601 0.61007161 0.45604804
0.78773150 0.62540848 0.47468357
0.81384358 0.64255730 0.49470128
0.83990571 0.66140025 0.51596422
0.86589168 0.68178183 0.53834086
0.89178298 0.70352647 0.56171094
0.91756688 0.72645436 0.58596835
0.91886608 0.75039351 0.61102195
0.91886608 0.77518746 0.63679497
0.91886608 0.80069924 0.66322363
0.91886608 0.82681236 0.69025552
0.47921216 0.56904689 0.37377693
0.47928364 0.56904989 0.37378310
0.47954573 0.56906090 0.37380574
0.48011851 0.56908505 0.37385541
0.48116357 0.56912951 0.37394678
0.48288895 0.56920397 0.37409971
0.48555108 0.56932153 0.37434084
0.48944888 0.56949965 0.37470544
0.49490597 0.56976145 0.37523976
0.50223889 0.57013732 0.37600358
0.51171444 0.57066681 0.37707315
0.52350563 0.57140100 0.37854401
0.53766039 0.57240515 0.38053343
0.55409456 0.57376162 0.38318160
0.57261127 0.57557273 0.38665071
0.59293853 0.57796321 0.39112069
0.61477141 0.58108144 0.39678091
0.63780780 0.58509846 0.40381739
0.66177224 0.59020374 0.41239698
0.68642790 0.59659654 0.42265076
0.71157971 0.60447257 0.43466055
0.73707189 0.61400690 0.44845162
0.76278296 0.62533539 0.46399352
0.78861980 0.63853873 0.48120827
0.81451212 0.65363277 0.49998336
0.84040746 0.67056785 0.52018631
0.86626717 0.68923719 0.54167778
0.89206313 0.70949166 0.56432187
0.91777522 0.73115743 0.58799280
0.91886608 0.75405257 0.61257868
0.91886608 0.77800032 0.63798276
0.91886608 0.80283809 0.66412318
0.91886608 0.82842233 0.69093180
0.50703617 0.59846864 0.39848595
0.50708899 0.59847083 0.39849056
0.50728279 0.59847888 0.39850753
0.50770685 0.59849657 0.39854475
0.50848239 0.59852911 0.39861324
0.50976794 0.59858364 0.39872791
0.51176387 0.59866975 0.39890882
0.51471299 0.59880027 0.39918264
0.51889391 0.59899223 0.39958448
0.52460411 0.59926807 0.40016009
0.53213147 0.59965717 0.40096839
0.54171705 0.60019765 0.40208430
0.55351730 0.60093868 0.40360150
0.56757710 0.60194302 0.40563494
0.58382304 0.60328987 0.40832214
0.60207903 0.60507777 0.41182267
0.62209789 0.60742716 0.41631451
0.64359823 0.61048193 0.42198646
0.66629680 0.61440897 0.42902631
0.68993126 0.61939475 0.43760548
0.71427272 0.62563770 0.44786260
0.73912991 0.63333590 0.45988911
0.76434813 0.64267059 0.47372067
0.78980528 0.65378769 0.48933618
0.81540672 0.66678071 0.50666451
0.84108024 0.68167935 0.52559678
0.86677145 0.69844662 0.54600076
0.89243983 0.71698529 0.56773462
0.91805562 0.73715169 0.59065807
0.91886608 0.75877322 0.61463993
0.91886608 0.78166571 0.63956260
0.91886608 0.80564774 0.66532386
0.91886608 0.83055082 0.69183695
0.53472330 0.62747651 0.42340435
0.53476253 0.62747812 0.42340782
0.53490647 0.62748405 0.42342058
0.53522172 0.62749706 0.42344858
0.53579925 0.62752101 0.42350011
0.53675935 0.62756115 0.42358641
0.53825682 0.62762453 0.42372262
0.54048443 0.62772064 0.42392892
0.54367257 0.62786206 0.42423199
0.54808233 0.62806541 0.42466675
0.55398965 0.62835250 0.42527853
0.56165957 0.62875182 0.42612552
0.57131336 0.62930028 0.42728155
0.58309540 0.63004541 0.42883885
0.59704931 0.63104785 0.43091056
0.61311124 0.63238420 0.43363224
0.63112251 0.63414992 0.43716163
0.65085661 0.63646199 0.44167556
0.67205179 0.63946071 0.44736296
0.69444072 0.64330980 0.45441377
0.71777232 0.64819358 0.46300405
0.74182457 0.65431018 0.47327947
0.76640963 0.66186014 0.48534033
0.79137384 0.67103042 0.49923162
0.81659461 0.68197587 0.51494055
0.84197605 0.69480134 0.53240198
0.86744430 0.70954859 0.55150992
0.89294325 0.72619156 0.57213194
0.91843080 0.74464114 0.59412346
0.91886608 0.76475799 0.61733964
0.91886608 0.78637002 0.64164388
0.91886608 0.80929041 0.66691291
0.91886608 0.83333301 0.69303915
0.56228166 0.65609893 0.44852274
0.56231089 0.65610012 0.44852537
0.56241819 0.65610450 0.44853499
0.56265333 0.65611412 0.44855612
0.56308464 0.65613181 0.44859500
0.56380318 0.65616147 0.44866013
0.56492765 0.65620832 0.44876297
0.56660881 0.65627938 0.44891880
0.56903211 0.65638396 0.44914790
0.57241680 0.65653442 0.44947690
0.57700898 0.65674698 0.44994055
0.58306676 0.65704291 0.45058381
0.59083692 0.65744989 0.45146427
0.60052545 0.65800378 0.45265488
0.61226794 0.65875070 0.45424674
0.62610796 0.65974953 0.45635164
0.64199027 0.66107472 0.45910378
0.65977099 0.66281918 0.46265976
0.67924097 0.66509716 0.46719596
0.70015500 0.66804619 0.47290211
0.72225925 0.67182763 0.47997074
0.74531227 0.67662442 0.48858263
0.76909795 0.68263503 0.49889029
0.79343147 0.69006266 0.51100225
0.81816008 0.69909977 0.52497200
0.84316080 0.70990942 0.54079412
0.86833664 0.72260658 0.55840857
0.89361232 0.73724362 0.57771147
0.91886608 0.75380382 0.59856963
0.91886608 0.77220468 0.62083527
0.91886608 0.79230995 0.64435879
0.91886608 0.81394714 0.66899802
0.91886608 0.83692621 0.69462402
0.58971840 0.68436085 0.47383269
0.58974024 0.68436173 0.47383468
0.58982045 0.68436498 0.47384195
0.58999630 0.68437211 0.47385793
0.59031915 0.68438523 0.47388734
0.59085783 0.68440722 0.47393660
0.59170292 0.68444196 0.47401440
0.59297110 0.68449466 0.47413234
0.59480897 0.68457224 0.47430582
0.59739516 0.68468389 0.47455514
0.60093897 0.68484171 0.47490690
0.60567369 0.68506157 0.47539568
0.61184272 0.68536422 0.47606612
0.61967817 0.68577665 0.47697530
0.62937422 0.68633378 0.47819549
0.64106015 0.68708055 0.47981694
0.65478037 0.68807435 0.48195051
0.67048743 0.68938782 0.48472952
0.68805018 0.69111189 0.48831005
0.70727422 0.69335860 0.49286869
0.72792836 0.69626345 0.49859657
0.74977022 0.69998618 0.50568928
0.77256654 0.70470910 0.51433258
0.79610628 0.71063160 0.52468565
0.82020718 0.71795992 0.53686486
0.84471725 0.72689201 0.55093149
0.86951316 0.73759864 0.56688665
0.89449692 0.75020400 0.58467448
0.91886608 0.76476976 0.60419242
0.91886608 0.78128708 0.62530579
0.91886608 0.79967856 0.64786311
0.91886608 0.81980972 0.67170963
0.91886608 0.84150658 0.69669744
0.61703992 0.71228438 0.49932656
0.61705628 0.71228503 0.49932807
0.61711636 0.71228745 0.49933358
0.61724813 0.71229275 0.49934568
0.61749020 0.71230250 0.49936795
0.61789457 0.71231884 0.49940527
0.61853011 0.71234467 0.49946421
0.61948650 0.71238385 0.49955359
0.62087811 0.71244153 0.49968512
0.62284747 0.71252457 0.49987425
0.62556684 0.71264199 0.50014132
0.62923678 0.71280566 0.50051283
0.63407965 0.71303111 0.50102323
0.64032665 0.71333863 0.50171685
0.64819817 0.71375458 0.50265041
0.65787927 0.71431308 0.50389563
0.66949483 0.71505802 0.50554217
0.68309079 0.71604556 0.50770030
0.69862681 0.71734690 0.51050293
0.71598282 0.71905133 0.51410617
0.73497708 0.72126927 0.51868740
0.75539029 0.72413477 0.52443978
0.77698982 0.72780668 0.53156244
0.79954931 0.73246735 0.54024639
0.82286202 0.73831772 0.55065755
0.84674778 0.74556753 0.56291979
0.87105519 0.75442032 0.57710161
0.89566053 0.76505435 0.59320986
0.91886608 0.77760227 0.61119196
0.91886608 0.79213397 0.63094578
0.91886608 0.80864706 0.65233435
0.91886608 0.82706774 0.67520186
0.91886608 0.84726183 0.69938799
0.64425199 0.73988920 0.52499742
0.64426426 0.73988969 0.52499856
0.64430933 0.73989149 0.52500273
0.64440820 0.73989543 0.52501191
0.64458991 0.73990269 0.52502879
0.64489372 0.73991486 0.52505709
0.64537187 0.73993410 0.52510179
0.64609290 0.73996327 0.52516958
0.64714525 0.74000624 0.52526937
0.64864090 0.74006810 0.52541292
0.65071838 0.74015560 0.52561575
0.65354416 0.74027760 0.52589815
0.65731108 0.74044576 0.52628657
0.66223220 0.74067528 0.52681528
0.66852868 0.74098603 0.52752841
0.67641153 0.74140381 0.52848233
0.68605884 0.74196202 0.52974840
0.69759264 0.74270369 0.53141591
0.71106087 0.74368393 0.53359485
0.72642983 0.74497277 0.53641812
0.74358920 0.74665825 0.54004237
0.76236811 0.74884964 0.54464636
0.78255745 0.75168010 0.55042585
0.80393281 0.75530821 0.55758404
0.82627366 0.75991707 0.56631754
0.84937675 0.76570982 0.57679915
0.87306360 0.77290019 0.58916004
0.89718318 0.78169760 0.60347544
0.91886608 0.79228765 0.61975718
0.91886608 0.80481095 0.63795505
0.91886608 0.81934456 0.65796638
0.91886608 0.83589120 0.67965104
0.91886608 0.85437910 0.70284815
0.67135980 0.76719297 0.55083891
0.67136902 0.76719333 0.55083978
0.67140285 0.76719467 0.55084295
0.67147709 0.76719761 0.55084990
0.67161359 0.76720303 0.55086271
0.67184194 0.76721210 0.55088417
0.67220171 0.76722644 0.55091808
0.67274506 0.76724819 0.55096951
0.67353990 0.76728023 0.55104524
0.67467327 0.76732637 0.55115421
0.67625465 0.76739163 0.55130825
0.67841877 0.76748266 0.55152285
0.68132683 0.76760817 0.55181829
0.68516491 0.76777958 0.55222091
0.69013815 0.76801181 0.55276485
0.69645946 0.76832433 0.55349402
0.70433240 0.76874244 0.55446457
0.71392989 0.76929891 0.55574763
0.72537230 0.77003603 0.55743229
0.73871006 0.77100805 0.55962854
0.75391567 0.77228407 0.56246970
0.77088746 0.77395125 0.56611340
0.78946403 0.77611807 0.57074034
0.80944496 0.77891737 0.57654945
0.83061274 0.78250805 0.58374857
0.85275165 0.78707463 0.59254035
0.87566127 0.79282312 0.60310464
