src/ffmpeg_scripts/luts/sRGB-rec2020_-1p00.cube
TITLE "sRGB-rec2020_-1p00"
LUT_3D_SIZE 9
# PQ (EOTF Only)/sRGB -> PQ (EOTF Only)/Rec2020, CineEI Shift -1.00, Black Level 0.00% IRE, Input 100% -> Output 109% - Created with LUTCalc v4.01 by Ben Turley October 2020
0.06256172 0.06256172 0.06256172
0.13151467 0.08871342 0.07529129
0.21313633 0.13027579 0.09916065
0.30194209 0.18394047 0.13368327
0.39619594 0.24858943 0.17915227
0.49495364 0.32362597 0.23603247
0.59760488 0.40868128 0.30485822
0.70371636 0.50350981 0.38619973
0.81296146 0.60794117 0.48064908
0.11543567 0.14270290 0.09188874
0.14393647 0.14497062 0.09432162
0.21601200 0.15942104 0.10790115
0.30276161 0.19604661 0.13719791
0.39645624 0.25321417 0.18054448
0.49504011 0.32535037 0.23658134
0.59763374 0.40930958 0.30506996
0.70372574 0.50372974 0.38627796
0.81296435 0.60801341 0.48067610
0.18393202 0.23251138 0.13711237
0.19246381 0.23296611 0.13773664
0.23460672 0.23635747 0.14224770
0.30878004 0.24913962 0.15757066
0.39842934 0.28124177 0.19020623
0.49570139 0.33748217 0.24065219
0.59785507 0.41398931 0.30667681
0.70379779 0.50540124 0.38687632
0.81298653 0.60856622 0.48088330
0.26219440 0.32749029 0.19439664
0.26483150 0.32761498 0.19459647
0.28239650 0.32856602 0.19610837
0.33021838 0.33249285 0.20214145
0.40636002 0.34485841 0.21943766
0.49846453 0.37526325 0.25568424
0.59879149 0.43152221 0.31316757
0.70410386 0.51219708 0.38937776
0.81308092 0.61088400 0.48176016
0.34824742 0.42627762 0.26240534
0.34911979 0.42631640 0.26247528
0.35552732 0.42661363 0.26301010
0.37835257 0.42786789 0.26524290
0.42945892 0.43210688 0.27252512
0.50749788 0.44446588 0.29191664
0.60198539 0.47469928 0.33234931
0.70516320 0.53262208 0.39757006
0.81340920 0.61854711 0.48475304
0.44098460 0.52814748 0.34039772
0.44128268 0.52816017 0.34042294
0.44353902 0.52825753 0.34061633
0.45255584 0.52867087 0.34143447
0.47840098 0.53009768 0.34422412
0.53163039 0.53452550 0.35256773
0.61154293 0.54709657 0.37418935
0.70847751 0.57821886 0.41957003
0.81445263 0.63959502 0.49372926
0.53967525 0.63263764 0.42789496
0.53977702 0.63264182 0.42790399
0.54055479 0.63267393 0.42797334
0.54379522 0.63281048 0.42826794
0.55428857 0.63328500 0.42928741
0.58167472 0.63478881 0.43247564
0.63628900 0.63932070 0.44172331
0.71809994 0.65227313 0.46576276
0.81762481 0.68526633 0.51711117
0.64379161 0.73942383 0.52456084
0.64382535 0.73942517 0.52456396
0.64408406 0.73943551 0.52458798
0.64517752 0.73947947 0.52469014
0.64889369 0.73963259 0.52504543
0.65989801 0.74012125 0.52617420
0.68769670 0.74162558 0.52960140
0.74312386 0.74619295 0.53960159
0.82691237 0.75970279 0.56633470
0.75293006 0.84826408 0.63014677
0.75294063 0.84826449 0.63014779
0.75302173 0.84826764 0.63015561
0.75336621 0.84828105 0.63018890
0.75455723 0.84832779 0.63030485
0.75827187 0.84847729 0.63067522
0.76896149 0.84894090 0.63181845
0.79618747 0.85037983 0.63531760
0.85190323 0.85491919 0.64590820
0.08340989 0.07305540 0.14188893
0.13337614 0.09067499 0.14244776
0.21352226 0.13078807 0.14651802
0.30205039 0.18410706 0.16068309
0.39623022 0.24864851 0.19191118
0.49496502 0.32364751 0.24141790
0.59760867 0.40868908 0.30698622
0.70371759 0.50351253 0.38699248
0.81296184 0.60794207 0.48092365
0.11826087 0.14308391 0.14480943
0.14533266 0.14533266 0.14533266
0.21638061 0.15968714 0.14915966
0.30286876 0.19618133 0.16265759
0.39649042 0.25326943 0.19302248
0.49505148 0.32537144 0.24192459
0.59763753 0.40931731 0.30719222
0.70372698 0.50373245 0.38707000
0.81296473 0.60801430 0.48095058
0.18456449 0.23258637 0.16260849
0.19300815 0.23304058 0.16296806
0.23488325 0.23642824 0.16564640
0.30887916 0.24919823 0.17570371
0.39846275 0.28127918 0.20091450
0.49571268 0.33750029 0.24569411
0.59785885 0.41399664 0.30875606
0.70379902 0.50540390 0.38766286
0.81298691 0.60856710 0.48115717
0.26237962 0.32751080 0.20442626
0.26501000 0.32763546 0.20459495
0.28253678 0.32858627 0.20587479
0.33029394 0.33251212 0.21104042
0.40639052 0.34487496 0.22629550
0.49847549 0.37527473 0.25976891
0.59879524 0.43152823 0.31508267
0.70410509 0.51219956 0.39014181
0.81308130 0.61088487 0.48203141
0.34830795 0.42628400 0.26612989
0.34917967 0.42632277 0.26619628
0.35558273 0.42661998 0.26670405
0.37839479 0.42787416 0.26882629
0.42948238 0.43211285 0.27577301
0.50750781 0.44447108 0.29443070
0.60198901 0.47470301 0.33385741
0.70516441 0.53262407 0.39826513
0.81340958 0.61854790 0.48501559
0.44100521 0.52814957 0.34176430
0.44130322 0.52816226 0.34178910
0.44355905 0.52825962 0.34197927
0.45257395 0.52867294 0.34278390
0.47841461 0.53009973 0.34552858
0.53163805 0.53452744 0.35374717
0.61154621 0.54709827 0.37510157
0.70847869 0.57822008 0.42011081
0.81445301 0.63959566 0.49396740
0.53968228 0.63263833 0.42838727
0.53978404 0.63264251 0.42839626
0.54056175 0.63267462 0.42846522
0.54380195 0.63281117 0.42875820
0.55429459 0.63328568 0.42977208
0.58167922 0.63478949 0.43294328
0.63629152 0.63932134 0.44214501
0.71810100 0.65227369 0.46608595
0.81762517 0.68526672 0.51729615
0.64379394 0.73942405 0.52473159
0.64382768 0.73942540 0.52473471
0.64408638 0.73943573 0.52475868
0.64517982 0.73947969 0.52486066
0.64889590 0.73963281 0.52521530
0.65989998 0.74012147 0.52634202
0.68769816 0.74162579 0.52976317
0.74312467 0.74619316 0.53974694
0.82691269 0.75970296 0.56644402
0.75293079 0.84826415 0.63020241
0.75294136 0.84826456 0.63020343
0.75302246 0.84826771 0.63021124
0.75336693 0.84828112 0.63024451
0.75455795 0.84832786 0.63036039
0.75827256 0.84847736 0.63073054
0.76896210 0.84894097 0.63187311
0.79618793 0.85037990 0.63537027
0.85190348 0.85491925 0.64595530
0.11846720 0.09348990 0.23112453
0.14543738 0.10197572 0.23123499
0.21640863 0.13451784 0.23207703
0.30287693 0.18536987 0.23554603
0.39649303 0.24910046 0.24640181
0.49505234 0.32381269 0.27283593
0.59763782 0.40874888 0.32163810
0.70372707 0.50353342 0.39284739
0.81296476 0.60794892 0.48300494
0.13479873 0.14590497 0.23171546
0.15482747 0.14801946 0.23182493
0.21914125 0.16168385 0.23265951
0.30368660 0.19720555 0.23609890
0.39675244 0.25369229 0.24687283
0.49513872 0.32553309 0.27316022
0.59766667 0.40937668 0.32180900
0.70373646 0.50375329 0.39291980
0.81296765 0.60802115 0.48303127
0.18919652 0.23315938 0.23608494
0.19702581 0.23360968 0.23618742
0.23696914 0.23696914 0.23696914
0.30963615 0.24964660 0.24019829
0.39871887 0.28156577 0.25038586
0.49579930 0.33763930 0.27560338
0.59788793 0.41405293 0.32310916
0.70380849 0.50542437 0.39347377
0.81298983 0.60857391 0.48323322
0.26378606 0.32766818 0.25204318
0.26636605 0.32779259 0.25212424
0.28360521 0.32874154 0.25274352
0.33087184 0.33265999 0.25531981
0.40662434 0.34500195 0.26362753
0.49855955 0.37536290 0.28518055
0.59882403 0.43157438 0.32841777
0.70411453 0.51221857 0.39579302
0.81308421 0.61089151 0.48408795
0.34877120 0.42633296 0.28972885
0.34963805 0.42637172 0.28977700
0.35600699 0.42666876 0.29014571
0.37871828 0.42792225 0.29169539
0.42966228 0.43215870 0.29686228
0.50758405 0.44451100 0.31139214
0.60201684 0.47473159 0.34458679
0.70517375 0.53263934 0.40342437
0.81341249 0.61855403 0.48700696
0.44116331 0.52816559 0.35155956
0.44146079 0.52817827 0.35158157
0.44371271 0.52827562 0.35175035
0.45271295 0.52868887 0.35246500
0.47851919 0.53011541 0.35490919
0.53169686 0.53454240 0.36228464
0.61157136 0.54711135 0.38179735
0.70848770 0.57822947 0.42415643
0.81445588 0.63960056 0.49577574
0.53973624 0.63264361 0.43207927
0.53983794 0.63264779 0.43208788
0.54061520 0.63267990 0.43215404
0.54385358 0.63281644 0.43243511
0.55434075 0.63329093 0.43340812
0.58171373 0.63479465 0.43645449
0.63631089 0.63932626 0.44531863
0.71810913 0.65227798 0.46853004
0.81762794 0.68526975 0.51870442
0.64381182 0.73942575 0.52603240
0.64384556 0.73942710 0.52603548
0.64410421 0.73943743 0.52605912
0.64519745 0.73948139 0.52615968
0.64891285 0.73963450 0.52650942
0.65991507 0.74012316 0.52762069
0.68770940 0.74162745 0.53099606
0.74313090 0.74619474 0.54085557
0.82691519 0.75970433 0.56727929
0.75293639 0.84826467 0.63062852
0.75294696 0.84826508 0.63062954
0.75302806 0.84826823 0.63063732
0.75337251 0.84828164 0.63067043
0.75456345 0.84832837 0.63078579
0.75827785 0.84847788 0.63115429
0.76896681 0.84894148 0.63229178
0.79619143 0.85038040 0.63577379
0.85190538 0.85491973 0.64631618
0.16543917 0.12389503 0.32568104
0.17708019 0.12742680 0.32571132
0.22740696 0.14749153 0.32594342
0.30629948 0.19044874 0.32692396
0.39760294 0.25099194 0.33025126
0.49542317 0.32451206 0.34006574
0.59776181 0.40900300 0.36472344
0.70376742 0.50362229 0.41410822
0.81297718 0.60797810 0.49137145
0.17187020 0.15627680 0.32584347
0.18230251 0.15797783 0.32587369
0.22971644 0.16939222 0.32610531
0.30707421 0.20137659 0.32708388
0.39785904 0.25546425 0.33040468
0.49550920 0.32621756 0.34020161
0.59779063 0.40962899 0.36482424
0.70377680 0.50384195 0.41416493
0.81298007 0.60805031 0.49139549
0.20558022 0.23554461 0.32707983
0.21161465 0.23597905 0.32710958
0.24518770 0.23922397 0.32733765
0.31277871 0.25152339 0.32830133
0.39980077 0.28277350 0.33157304
0.49616713 0.33822843 0.34123744
0.59801159 0.41429213 0.36559424
0.70384881 0.50551144 0.41459915
0.81300225 0.60860290 0.49157986
0.26948184 0.32833466 0.33213908
0.27186866 0.32845805 0.33216701
0.28798933 0.32939918 0.33238115
0.33328643 0.33328643 0.33328643
0.40761274 0.34554031 0.33636525
0.49891655 0.37573718 0.34550532
0.59894647 0.43177059 0.36879527
0.70415472 0.51229949 0.41642394
0.81309662 0.61091980 0.49236062
0.35071455 0.42654109 0.34764772
0.35156128 0.42657976 0.34767080
0.35778915 0.42687611 0.34784779
0.38008176 0.42812668 0.34859698
0.43042405 0.43235362 0.35115672
0.50790789 0.44468077 0.35885802
0.60213522 0.47485318 0.37909072
0.70521348 0.53270431 0.42250502
0.81342485 0.61858012 0.49503186
0.44183322 0.52823375 0.38377215
0.44212849 0.52824643 0.38378714
0.44436388 0.52834370 0.38390220
0.45330228 0.52875665 0.38439025
0.47896306 0.53018217 0.38607028
0.53194679 0.53460606 0.39123906
0.61167837 0.54716701 0.40558724
0.70852606 0.57826944 0.43957033
0.81446810 0.63962145 0.50309992
0.53996558 0.63266609 0.44628091
0.54006703 0.63267027 0.44628826
0.54084240 0.63270236 0.44634470
0.54407306 0.63283887 0.44658455
0.55453702 0.63331325 0.44741577
0.58186049 0.63481662 0.45002715
0.63639328 0.63934720 0.45769956
0.71814375 0.65229625 0.47825734
0.81763974 0.68528263 0.52447154
0.64388794 0.73943298 0.53137530
0.64392165 0.73943433 0.53137821
0.64418009 0.73944466 0.53140053
0.64527245 0.73948862 0.53149549
0.64898496 0.73964172 0.53182581
0.65997927 0.74013034 0.53287583
0.68775723 0.74163452 0.53606946
0.74315739 0.74620146 0.54543327
0.82692585 0.75971015 0.57075428
0.75296024 0.84826687 0.63242131
0.75297080 0.84826728 0.63242230
0.75305188 0.84827043 0.63242994
0.75339624 0.84828384 0.63246243
0.75458688 0.84833058 0.63257563
0.75830036 0.84848008 0.63293723
0.76898687 0.84894367 0.63405361
0.79620636 0.85038256 0.63747252
0.85191345 0.85492178 0.64783720
0.22366567 0.16487703 0.42416462
0.22824574 0.16631049 0.42417405
0.25570198 0.17616345 0.42424638
0.31717407 0.20531384 0.42455362
0.40136474 0.25721025 0.42561649
0.49670440 0.32690327 0.42893691
0.59819281 0.40988319 0.43853969
0.70390795 0.50393144 0.46333496
0.81302048 0.60807976 0.51573088
0.22610983 0.18132571 0.42421521
0.23052623 0.18237939 0.42422463
0.25723113 0.18986670 0.42429692
0.31784849 0.21400322 0.42460399
0.40160998 0.26131372 0.42566625
0.49678924 0.32855894 0.42898484
0.59822149 0.41050293 0.43858272
0.70391731 0.50415037 0.46336764
0.81302337 0.60815188 0.51574935
0.24234587 0.24325128 0.42460271
0.24583103 0.24363880 0.42461209
0.26798644 0.24654310 0.42468406
0.32284362 0.25769654 0.42498979
0.40347042 0.28683679 0.42604746
0.49743813 0.34024945 0.42935207
0.59844145 0.41512098 0.43891249
0.70398921 0.50581435 0.46361815
0.81304554 0.60870389 0.51589103
0.28644218 0.33061575 0.42623356
0.28834410 0.33073568 0.42624276
0.30154169 0.33165060 0.42631342
0.34118086 0.33543305 0.42661358
0.41097360 0.34738999 0.42765215
0.50015046 0.37702926 0.43089857
0.59937211 0.43245124 0.44030284
0.70429467 0.51258102 0.46467687
0.81313986 0.61101834 0.51649177
0.35715264 0.42726289 0.43169528
0.35793628 0.42730124 0.43170394
0.36371969 0.42759519 0.43177038
0.38467148 0.42883573 0.43205267
0.43302985 0.43302985 0.43302985
0.50902808 0.44527010 0.43608896
0.60254676 0.47527579 0.44498765
0.70535186 0.53293046 0.46827417
0.81346793 0.61867100 0.51855622
0.44413025 0.52847099 0.44722540
0.44441805 0.52848363 0.44723268
0.44659776 0.52858066 0.44728852
0.45532723 0.52899256 0.44752587
0.48049385 0.53041450 0.44834847
0.53281291 0.53482766 0.45093328
0.61205047 0.54736078 0.45853214
0.70865965 0.57840866 0.47892203
0.81451070 0.63969421 0.52487498
0.54076076 0.63274440 0.48332418
0.54086135 0.63274858 0.48332907
0.54163019 0.63278064 0.48336659
0.54483423 0.63291704 0.48352615
0.55521808 0.63339103 0.48408024
0.58237035 0.63489317 0.48583252
0.63667996 0.63942018 0.49108008
0.71826434 0.65235989 0.50583292
0.81768088 0.68532751 0.54217473
0.64415281 0.73945819 0.54792251
0.64418643 0.73945953 0.54792494
0.64444415 0.73946986 0.54794365
0.64553348 0.73951381 0.54802322
0.64923596 0.73966687 0.54830009
0.66020274 0.74015536 0.54918132
0.68792379 0.74165914 0.55187146
0.74324969 0.74622491 0.55984205
0.82696298 0.75973042 0.58195490
0.75304331 0.84827456 0.63841841
0.75305387 0.84827497 0.63841934
0.75313487 0.84827812 0.63842651
0.75347893 0.84829153 0.63845701
0.75466852 0.84833826 0.63856326
0.75837880 0.84848775 0.63890273
0.76905677 0.84895130 0.63995127
0.79625838 0.85039007 0.64316702
0.85194158 0.85492892 0.65295638
0.29286962 0.21717223 0.52583134
0.29461764 0.21774855 0.52583443
0.30685188 0.22200727 0.52585812
0.34444576 0.23752963 0.52595890
0.41242161 0.27409315 0.52630939
0.50069164 0.33411297 0.52742304
0.59955999 0.41264383 0.53080544
0.70435657 0.50491460 0.54068406
0.81315900 0.60840457 0.56714991
0.29379207 0.22444373 0.52584791
0.29551918 0.22495813 0.52585100
0.30762112 0.22877738 0.52587468
0.34492649 0.24293634 0.52597544
0.41263769 0.27735667 0.52632587
0.50077290 0.33562783 0.52743932
0.59958826 0.41324440 0.53082114
0.70436590 0.50513121 0.54069819
0.81316189 0.60847645 0.56716056
0.30052507 0.26334380 0.52597502
0.30210773 0.26363434 0.52597810
0.31328710 0.26582675 0.52600176
0.34852673 0.27447758 0.52610238
0.41427940 0.29854218 0.52645233
0.50139445 0.34640360 0.52756428
0.59980506 0.41772394 0.53094165
0.70443745 0.50677779 0.54080662
0.81318403 0.60902657 0.56724235
0.32401638 0.33751377 0.52651420
0.32519123 0.33762387 0.52651727
0.33367937 0.33846431 0.52654078
0.36230569 0.34194782 0.52664083
0.42094389 0.35304803 0.52698876
0.50399456 0.38103958 0.52809437
0.60072245 0.43459663 0.53145293
0.70474146 0.51347690 0.54126678
0.81327821 0.61133323 0.56758973
0.37495195 0.42953566 0.52836988
0.37558631 0.42957304 0.52837288
0.38030545 0.42985957 0.52839594
0.39790693 0.43106907 0.52849401
0.44089621 0.43516150 0.52883511
0.51252697 0.44713182 0.52991915
0.60385280 0.47661619 0.53321378
0.70579367 0.53365103 0.54285354
0.81360578 0.61896145 0.56879085
0.45111410 0.52922671 0.53407571
0.45138041 0.52923925 0.53407854
0.45339950 0.52933549 0.53410022
0.46152255 0.52974408 0.53419248
0.48523070 0.53115469 0.53451340
0.53553379 0.53553379 0.53553379
0.61323237 0.54797866 0.53863928
0.70908621 0.57885314 0.54776136
0.81464697 0.63992686 0.57253740
0.54326276 0.63299476 0.54988276
0.54336070 0.63299892 0.54988515
0.54410936 0.63303091 0.54990346
0.54723104 0.63316695 0.54998139
0.55736648 0.63363968 0.55025255
0.58398489 0.63513792 0.55111569
0.63759224 0.63965350 0.55375167
0.71864949 0.65256341 0.56157062
0.81781249 0.68547111 0.58332423
0.64499611 0.73953887 0.58707460
0.64502943 0.73954022 0.58707621
0.64528487 0.73955053 0.58708854
0.64636461 0.73959445 0.58714103
0.65003532 0.73974737 0.58732380
0.66091489 0.74023544 0.58790674
0.68845521 0.74173794 0.58969787
0.74354465 0.74629994 0.59510567
0.82708180 0.75979531 0.61086110
0.75330887 0.84829918 0.65540687
0.75331939 0.84829959 0.65540765
0.75340017 0.84830274 0.65541364
0.75374324 0.84831614 0.65543913
0.75492948 0.84836286 0.65552793
0.75862955 0.84851231 0.65581174
0.76928027 0.84897573 0.65668941
0.79642477 0.85041411 0.65939090
0.85203162 0.85495177 0.66770232
0.37293741 0.28157396 0.63020696
0.37358700 0.28180012 0.63020798
0.37841555 0.28351410 0.63021580
0.39637083 0.29039910 0.63024906
0.43995690 0.31044586 0.63036494
0.51209990 0.35315517 0.63073507
0.60369170 0.42071690 0.63187759
0.70573896 0.50790852 0.63537459
0.81358869 0.60940817 0.64595916
0.37327896 0.28452861 0.63021243
0.37392594 0.28474595 0.63021345
0.37873576 0.28639409 0.63022126
0.39663061 0.29303071 0.63025452
0.44011527 0.31248028 0.63037039
0.51217173 0.35435740 0.63074051
0.60371877 0.42126495 0.63188295
0.70574814 0.50811824 0.63537976
0.81359156 0.60947929 0.64596378
0.37585664 0.30401779 0.63025439
0.37648429 0.30418590 0.63025540
0.38115515 0.30546464 0.63026322
0.39859978 0.31068354 0.63029646
0.44132211 0.32656152 0.63041228
0.51272144 0.36305074 0.63078223
0.60392630 0.42536357 0.63192418
0.70581866 0.50971296 0.63541949
0.81361359 0.61002362 0.64599931
0.38603062 0.35586119 0.63043279
0.38658785 0.35594922 0.63043380
0.39075003 0.35662204 0.63044160
0.40651561 0.35942675 0.63047478
0.44628499 0.36852725 0.63059038
0.51502577 0.39243405 0.63095964
0.60480473 0.44095982 0.63209946
0.70611823 0.51621039 0.63558842
0.81370733 0.61230638 0.64615038
0.41429289 0.43625701 0.63105211
0.41469548 0.43629167 0.63105312
0.41772685 0.43655739 0.63106087
0.42957861 0.43767978 0.63109384
0.46171568 0.44148595 0.63120868
0.52263951 0.45268957 0.63157554
0.60780482 0.48066534 0.63270801
0.70715523 0.53585818 0.63617500
0.81403336 0.61985954 0.64667516
0.46992158 0.53153971 0.63300866
0.47013799 0.53155194 0.63300964
0.47178281 0.53164583 0.63301723
0.47847054 0.53204444 0.63304953
0.49857685 0.53342095 0.63316202
0.54352605 0.53769740 0.63352140
0.61681816 0.54987555 0.63463095
0.71040120 0.58022287 0.63802943
0.81506970 0.64064711 0.64833646
0.55064581 0.63376955 0.63884990
0.55073633 0.63377368 0.63885083
0.55142852 0.63380540 0.63885796
0.55431927 0.63394033 0.63888832
0.56375327 0.63440923 0.63899409
0.58883879 0.63589542 0.63933202
0.64037583 0.64037583 0.64037583
0.71983786 0.65319389 0.64357743
0.81822079 0.68591652 0.65332651
0.64757298 0.73978947 0.65513366
0.64760540 0.73979081 0.65513444
0.64785398 0.73980110 0.65514045
0.64890496 0.73984490 0.65516601
0.65248020 0.73999741 0.65525506
0.66309703 0.74048418 0.65553969
0.69008985 0.74198271 0.65641988
0.74445653 0.74653303 0.65912898
0.82745052 0.75999694 0.66746248
0.75413033 0.84837573 0.69447216
0.75414076 0.84837614 0.69447268
0.75422083 0.84837929 0.69447664
0.75456089 0.84839268 0.69449349
0.75573680 0.84843936 0.69455220
0.75940547 0.84858868 0.69473999
0.76997225 0.84905171 0.69532193
0.79694059 0.85048887 0.69712441
0.85231121 0.85502284 0.70277526
0.46384166 0.35890958 0.73695853
0.46407303 0.35899444 0.73695886
0.46583026 0.35964314 0.73696137
0.47295235 0.36234948 0.73697208
0.49417162 0.37115381 0.73700942
0.54083542 0.39442550 0.73712888
0.61559194 0.44211199 0.73749962
0.70994797 0.51671758 0.73865314
0.81492356 0.61248900 0.74231988
0.46396317 0.36003179 0.73696029
0.46419423 0.36011551 0.73696062
0.46594913 0.36075557 0.73696313
0.47306227 0.36342664 0.73697384
0.49425882 0.37212435 0.73701118
0.54088818 0.39516541 0.73713064
0.61561580 0.44254307 0.73750137
0.70995676 0.51690830 0.73865486
0.81492639 0.61255784 0.74232154
0.46489078 0.36818041 0.73697380
0.46511949 0.36825637 0.73697413
0.46685677 0.36883731 0.73697664
0.47390197 0.37126647 0.73698735
0.49492572 0.37922741 0.73702468
0.54129237 0.40064527 0.73714412
0.61579882 0.44578584 0.73751480
0.71002418 0.51835994 0.73866813
0.81494810 0.61308478 0.74233430
0.46873686 0.39609710 0.73703129
0.46895610 0.39615185 0.73703162
0.47062223 0.39657110 0.73703414
0.47739249 0.39833346 0.73704484
0.49771187 0.40421155 0.73708214
0.54299370 0.42074616 0.73720151
0.61657401 0.45841428 0.73757196
0.71031066 0.52429772 0.73872459
0.81504047 0.61529567 0.74238859
0.48100179 0.45456013 0.73723146
0.48119348 0.45458839 0.73723179
0.48265219 0.45480515 0.73723429
0.48861447 0.45572208 0.73724497
0.50681560 0.45884784 0.73728220
0.54869426 0.46818844 0.73740132
0.61922789 0.49231704 0.73777097
0.71130263 0.54246181 0.73892116
0.81536178 0.62262272 0.74257759
0.51192148 0.53844445 0.73786961
0.51205856 0.53845581 0.73786993
0.51310444 0.53854301 0.73787243
0.51742931 0.53891330 0.73788303
0.53110461 0.54019288 0.73792001
0.56491861 0.54417677 0.73803831
0.62725808 0.55558855 0.73840546
0.71441064 0.58439490 0.73954790
0.81638318 0.64287157 0.74318032
0.57063083 0.63615964 0.73982778
0.57070402 0.63616367 0.73982810
0.57126408 0.63619460 0.73983054
0.57361165 0.63632617 0.73984093
0.58136661 0.63678342 0.73987713
0.60262318 0.63823306 0.73999298
0.64861145 0.64260661 0.74035254
0.72347083 0.65514482 0.74147153
0.81948983 0.68730025 0.74503116
0.65522890 0.74057125 0.74571652
0.65525880 0.74057258 0.74571682
0.65548808 0.74058278 0.74571911
0.65645796 0.74062621 0.74572887
0.65976345 0.74077746 0.74576285
0.66963250 0.74126018 0.74587162
0.69504093 0.74274639 0.74620924
0.74726046 0.74726046 0.74726046
0.82859750 0.76062661 0.75060941
0.75666107 0.84861544 0.76268550
0.75667123 0.84861585 0.76268575
0.75674914 0.84861899 0.76268766
0.75708009 0.84863235 0.76269578
0.75822473 0.84867890 0.76272410
0.76179821 0.84882782 0.76281473
0.77210995 0.84928962 0.76309616
0.79854009 0.85072301 0.76397350
0.85318263 0.85524542 0.76677906
0.56560621 0.45003140 0.84583741
0.56568341 0.45006112 0.84583751
0.56627407 0.45028903 0.84583827
0.56874780 0.45125283 0.84584154
0.57689640 0.45453444 0.84585294
0.59907162 0.46430690 0.84588942
0.64644328 0.48935108 0.84600284
0.72249737 0.54074560 0.84635770
0.81914670 0.62189358 0.84750563
0.56564673 0.45042615 0.84583794
0.56572390 0.45045574 0.84583804
0.56631430 0.45068266 0.84583881
0.56878699 0.45164227 0.84584208
0.57693235 0.45490999 0.84585347
0.59910004 0.46464407 0.84588995
0.64646051 0.48960748 0.84600337
0.72250505 0.54089302 0.84635823
0.81914940 0.62195591 0.84750616
0.56595732 0.45340101 0.84584207
0.56603422 0.45342964 0.84584217
0.56662269 0.45364919 0.84584293
0.56908739 0.45457789 0.84584620
0.57720789 0.45774280 0.84585760
0.59931796 0.46719219 0.84589408
0.64659264 0.49155283 0.84600749
0.72256404 0.54201733 0.84636233
0.81917012 0.62243314 0.84751020
0.56726810 0.46507097 0.84585961
0.56734394 0.46509613 0.84585971
0.56792430 0.46528915 0.84586048
0.57035557 0.46610625 0.84586375
0.57837195 0.46889874 0.84587514
0.60024007 0.47730546 0.84591161
0.64715309 0.49940267 0.84602501
0.72281471 0.54665788 0.84637978
0.81925831 0.62443816 0.84752743
0.57170009 0.49696133 0.84592077
0.57177244 0.49697909 0.84592087
0.57232620 0.49711536 0.84592164
0.57464777 0.49769318 0.84592490
0.58232129 0.49967976 0.84593629
0.60338617 0.50576850 0.84597273
0.64908137 0.52249799 0.84608605
0.72368343 0.56124575 0.84644058
0.81956507 0.63111348 0.84758746
0.58463454 0.55797080 0.84611633
0.58469763 0.55798002 0.84611643
0.58518060 0.55805083 0.84611720
0.58720938 0.55835164 0.84612046
0.59395949 0.55939286 0.84613182
0.61280992 0.56265178 0.84616818
0.65500472 0.57212472 0.84628125
0.72641246 0.59684880 0.84663501
0.82054055 0.64978450 0.84777943
0.61629009 0.64356149 0.84672213
0.61633522 0.64356522 0.84672223
0.61668101 0.64359382 0.84672299
0.61813903 0.64371550 0.84672622
0.62305319 0.64413847 0.84673751
0.63726586 0.64548044 0.84677363
0.67136807 0.64953823 0.84688594
0.73442792 0.66124281 0.84723733
0.82351042 0.69167790 0.84837413
0.67660769 0.74307688 0.84859635
0.67663153 0.74307818 0.84859644
0.67681444 0.74308811 0.84859719
0.67758912 0.74313039 0.84860036
0.68024116 0.74327763 0.84861141
0.68826484 0.74374761 0.84864678
0.70958950 0.74519499 0.84875677
0.75586088 0.74959466 0.84910092
0.83224106 0.76265145 0.85021447
0.76446748 0.84939300 0.85445117
0.76447682 0.84939340 0.85445126
0.76454844 0.84939651 0.85445195
0.76485275 0.84940975 0.85445492
0.76590588 0.84945590 0.85446527
0.76920012 0.84960354 0.85449841
0.77875828 0.85006137 0.85460144
0.80357168 0.85148255 0.85492387
0.85596766 0.85596766 0.85596766
