src/ffmpeg_scripts/luts/sRGB-rec2020_-2p00.cube
TITLE "sRGB-rec2020_-2p00"
LUT_3D_SIZE 5
# PQ (EOTF Only)/sRGB -> PQ (EOTF Only)/Rec2020, CineEI Shift -2.00, Black Level 0.00% IRE, Input 100% -> Output 109% - Created with LUTCalc v4.01 by Ben Turley October 2020
0.06256172 0.06256172 0.06256172
0.18190964 0.11337133 0.08907735
0.34479272 0.21242819 0.15326277
0.53539149 0.35631158 0.26197732
0.74840243 0.54541888 0.42352566
0.15725186 0.19851436 0.11884005
0.20032094 0.20183199 0.12297420
0.34684998 0.24102856 0.16250892
0.53563395 0.36122199 0.26359907
0.74842769 0.54602593 0.42374656
0.30098371 0.37261956 0.22447557
0.30758957 0.37293179 0.22500477
0.37557694 0.37804058 0.23335078
0.53963845 0.41791868 0.28661733
0.74885357 0.55573010 0.42739818
0.47960422 0.56946342 0.37412272
0.48044584 0.56949884 0.37419558
0.49360961 0.57009530 0.37541743
0.57302853 0.57599057 0.38700330
0.75310274 0.62109311 0.45807194
0.68820881 0.78406955 0.56703288
0.68830028 0.78407316 0.56704150
0.68983254 0.78413409 0.56718709
0.70422565 0.78475524 0.56866394
0.78775725 0.79081497 0.58243279
0.10402762 0.08477854 0.19731976
0.18470100 0.11675981 0.19814013
0.34506630 0.21287234 0.21052819
0.53542342 0.35637406 0.27698573
0.74840575 0.54542641 0.42574816
0.16166134 0.19907284 0.20159668
0.20236025 0.20236025 0.20236025
0.34711678 0.24131452 0.21399002
0.53566580 0.36128089 0.27830619
0.74843102 0.54603341 0.42596359
0.30145843 0.37267098 0.24853269
0.30802542 0.37298302 0.24890198
0.37576607 0.37808882 0.25486117
0.53966896 0.41794910 0.29766844
0.74885688 0.55573684 0.42952673
0.47966257 0.56946925 0.37801488
0.48050366 0.56950466 0.37808448
0.49365970 0.57010109 0.37925194
0.57304990 0.57599600 0.39036045
0.75310590 0.62109648 0.45958856
0.68821513 0.78407014 0.56750287
0.68830659 0.78407375 0.56751145
0.68983875 0.78413468 0.56765631
0.70423098 0.78475583 0.56912587
0.78775942 0.79081552 0.58283204
0.19091063 0.14143461 0.37065680
0.21862007 0.15077549 0.37073272
0.34955604 0.21993591 0.37200531
0.53596128 0.35742276 0.38403339
0.74846189 0.54555347 0.45675852
0.20701114 0.20779562 0.37106364
0.22936510 0.21065084 0.37113920
0.35149872 0.24597247 0.37240571
0.53620226 0.36226990 0.38438103
0.74848714 0.54615965 0.45691089
0.30906670 0.37353519 0.37765751
0.31504343 0.37384406 0.37772740
0.37889974 0.37889974 0.37889974
0.54018300 0.41846159 0.39005126
0.74891275 0.55585068 0.45944746
0.48064296 0.56956762 0.42604944
0.48147512 0.56960300 0.42608946
0.49450202 0.57019880 0.42676305
0.57341040 0.57608779 0.43337639
0.75315928 0.62115343 0.48199640
0.68832181 0.78408017 0.57510883
0.68841317 0.78408377 0.57511674
0.68994361 0.78414470 0.57525037
0.70432097 0.78476578 0.57660687
0.78779612 0.79082483 0.58933470
0.32345503 0.24132175 0.56709160
0.32846632 0.24303498 0.56710022
0.38535514 0.26696397 0.56724571
0.54129380 0.36745682 0.56872165
0.74903443 0.54684378 0.58248266
0.32612436 0.26122827 0.56713786
0.33097582 0.26251798 0.56714647
0.38662888 0.28140805 0.56729190
0.54152144 0.37177035 0.56876711
0.74905952 0.54744169 0.58252195
0.36150306 0.38190559 0.56791615
0.36468424 0.38218552 0.56792470
0.40571355 0.38678178 0.56806892
0.54528647 0.42354099 0.56953210
0.74948252 0.55700762 0.58318338
0.49011403 0.57056831 0.57553047
0.49086487 0.57060332 0.57553835
0.50270527 0.57119284 0.57567138
0.57702187 0.57702187 0.57702187
0.75370370 0.62173418 0.58969741
0.68940650 0.78418266 0.63017687
0.68949681 0.78418626 0.63018129
0.69100989 0.78424712 0.63025592
0.70523692 0.78486751 0.63101614
0.78817079 0.79092008 0.63838294
0.50448821 0.39476611 0.78161163
0.50513101 0.39500712 0.78161251
0.51536756 0.39898105 0.78162736
0.58295644 0.43174176 0.78177916
0.75463744 0.55898821 0.78330124
0.50482613 0.39791965 0.78161635
0.50546659 0.39815203 0.78161723
0.51566810 0.40198731 0.78163208
0.58310262 0.43382347 0.78178387
0.75466107 0.55951373 0.78330587
0.51035699 0.43894199 0.78169605
0.51096043 0.43908785 0.78169693
0.52060456 0.44151728 0.78171177
0.58553895 0.46320199 0.78186343
0.75505940 0.56797603 0.78338413
0.55353393 0.58013688 0.78250764
0.55391423 0.58016851 0.78250851
0.56011772 0.58070127 0.78252322
0.60740840 0.58598631 0.78267355
0.75903991 0.62741805 0.78418104
0.69973141 0.78521331 0.79034037
0.69981234 0.78521687 0.79034117
0.70116952 0.78527705 0.79035468
0.71403455 0.78589056 0.79049275
0.79187828 0.79187828 0.79187828
