src/ffmpeg_scripts/luts/sRGB-rec2020_-4p00.cube
TITLE "sRGB-rec2020_-4p00"
LUT_3D_SIZE 5
# PQ (EOTF Only)/sRGB -> PQ (EOTF Only)/Rec2020, CineEI Shift -4.00, Black Level 0.00% IRE, Input 100% -> Output 109% - Created with LUTCalc v4.01 by Ben Turley October 2020
0.06256172 0.06256172 0.06256172
0.13379036 0.08974753 0.07584281
0.25574323 0.15505876 0.11467698
0.41867988 0.26504957 0.19128407
0.61954229 0.42772891 0.32082967
0.11728403 0.14525480 0.09302827
0.14651787 0.14757661 0.09554008
0.25739962 0.17573140 0.12074775
0.41889817 0.26904023 0.19250175
0.61956712 0.42827812 0.32101695
0.22108476 0.27835592 0.16368428
0.22623340 0.27861216 0.16406597
0.28078506 0.28281236 0.17011613
0.42250717 0.31608446 0.20998706
0.61998564 0.43707903 0.32411638
0.36914885 0.44960209 0.27958998
0.36988555 0.44963449 0.27964983
0.38145101 0.45018018 0.28065392
0.45286590 0.45558163 0.29021592
0.62416487 0.49737453 0.35041493
0.56103518 0.65480951 0.44737998
0.56112309 0.65481310 0.44738786
0.56259627 0.65487372 0.44752089
0.57647627 0.65549177 0.44887089
0.65848059 0.66152801 0.46150065
0.08426118 0.07351904 0.14442126
0.13569890 0.09177455 0.14499353
0.25596336 0.15537454 0.15370981
0.41870862 0.26510026 0.20262532
0.61954556 0.42773572 0.32271503
0.12018719 0.14564494 0.14741160
0.14794724 0.14794724 0.14794724
0.25761462 0.17594144 0.15616996
0.41892684 0.26908818 0.20363079
0.61957039 0.42828489 0.32289792
0.22145380 0.27839812 0.18126430
0.22657410 0.27865421 0.18153770
0.28094057 0.28285209 0.18596384
0.42253470 0.31611016 0.21851158
0.61998889 0.43708516 0.32592618
0.36919992 0.44960742 0.28279119
0.36993617 0.44963981 0.28284851
0.38149518 0.45018547 0.28381040
0.45288549 0.45558662 0.29300035
0.62416798 0.49737769 0.35172720
0.56104125 0.65481010 0.44780947
0.56112916 0.65481369 0.44781731
0.56260224 0.65487431 0.44794971
0.57648142 0.65549236 0.44929333
0.65848276 0.66152856 0.46186804
0.13997207 0.10705974 0.27674646
0.15947652 0.11306096 0.27680867
0.25958220 0.16041957 0.27785200
0.41919291 0.26595140 0.28775778
0.61960073 0.42785066 0.34927938
0.15122119 0.15177533 0.27707989
0.16721975 0.15379680 0.27714182
0.26115172 0.17937172 0.27818046
0.41940993 0.26989365 0.28804526
0.61962554 0.42839912 0.34941107
0.22738856 0.27910748 0.28249692
0.23207678 0.27936111 0.28255446
0.28352015 0.28352015 0.28352015
0.42299847 0.31654322 0.29274365
0.62004381 0.43718864 0.35160507
0.37005814 0.44969740 0.32297080
0.37078696 0.44972977 0.32300478
0.38223796 0.45027488 0.32357681
0.45321582 0.45567083 0.32920517
0.62422052 0.49743097 0.37124367
0.56114379 0.65482008 0.45477283
0.56123160 0.65482366 0.45478009
0.56270309 0.65488428 0.45490264
0.57656844 0.65550226 0.45614714
0.65851931 0.66153784 0.46786091
0.23871324 0.17594675 0.44743363
0.24268793 0.17720649 0.44744151
0.28885117 0.19503436 0.44757446
0.42400106 0.27412710 0.44892366
0.62016339 0.42901829 0.46154653
0.24082848 0.19072230 0.44747591
0.24468414 0.19168980 0.44748378
0.28990575 0.20599749 0.44761667
0.42420659 0.27765930 0.44896524
0.62018806 0.42955960 0.46158268
0.26926907 0.28599960 0.44818722
0.27186228 0.28623076 0.44819503
0.30581144 0.29003240 0.44832687
0.42760913 0.32084267 0.44966491
0.62060385 0.43824062 0.46219139
0.37837204 0.45061304 0.45515955
0.37903292 0.45064507 0.45516678
0.38948885 0.45118469 0.45528881
0.45652803 0.45652803 0.45652803
0.62475644 0.49797441 0.46819569
0.56218657 0.65492204 0.50588974
0.56227341 0.65492563 0.50589389
0.56372881 0.65498617 0.50596398
0.57745432 0.65560349 0.50667810
0.65889256 0.66163282 0.51360982
0.39106884 0.29666367 0.65236522
0.39163882 0.29686438 0.65236610
0.40074084 0.30017816 0.65238086
0.46198252 0.32781194 0.65253176
0.62567584 0.44004284 0.65404524
0.39136845 0.29929225 0.65236991
0.39193647 0.29948617 0.65237079
0.40100877 0.30269062 0.65238555
0.46211705 0.32958645 0.65253644
0.62569911 0.44052131 0.65404985
0.39627973 0.33395886 0.65244914
0.39681639 0.33408366 0.65245001
0.40541550 0.33616371 0.65246476
0.46436063 0.35485822 0.65261553
0.62609142 0.44824196 0.65412768
0.43508377 0.45938925 0.65325603
0.43542914 0.45941831 0.65325689
0.44107137 0.45990808 0.65327151
0.48460768 0.46477286 0.65342101
0.63001478 0.50330018 0.65492043
0.57213414 0.65594762 0.66105480
0.57221228 0.65595117 0.66105560
0.57352278 0.65601107 0.66106906
0.58597850 0.65662175 0.66120673
0.66258847 0.66258847 0.66258847
