src/ffmpeg_scripts/luts/sRGB-rec2020_0p67.cube
TITLE "sRGB-rec2020_0p67"
LUT_3D_SIZE 5
# PQ (EOTF Only)/sRGB -> PQ (EOTF Only)/Rec2020, CineEI Shift 0.67, Black Level 0.00% IRE, Input 100% -> Output 109% - Created with LUTCalc v4.01 by Ben Turley October 2020
0.06256172 0.06256172 0.06256172
0.27639000 0.16772059 0.12289650
0.49036608 0.31998749 0.23318570
0.70441028 0.50415188 0.38676549
0.91850157 0.71498594 0.58215015
0.23935921 0.30038161 0.17717869
0.30295164 0.30509549 0.18420935
0.49283808 0.35905869 0.24741192
0.70466667 0.50998854 0.38888149
0.91852582 0.71562437 0.58240023
0.43662574 0.52344678 0.33663501
0.44487134 0.52381374 0.33735972
0.52691895 0.52980530 0.34871968
0.70889641 0.57578988 0.41850294
0.91886608 0.72580231 0.58652860
0.64447888 0.74011852 0.52521260
0.64539758 0.74015531 0.52529815
0.65970679 0.74077479 0.52673188
0.74381850 0.74688753 0.54025961
0.91886608 0.79307139 0.62081195
0.86003898 0.91886608 0.73759217
0.86012891 0.91886608 0.73760114
0.86163500 0.91886608 0.73775255
0.87573525 0.91886608 0.73928786
0.91886608 0.91886608 0.75354671
0.15108833 0.11431463 0.29867804
0.28047190 0.17360294 0.29984829
0.49069506 0.32060645 0.31733500
0.70444404 0.50422629 0.40619951
0.91850476 0.71499386 0.58466444
0.24611980 0.30117690 0.30476198
0.30584375 0.30584375 0.30584375
0.49315835 0.35944177 0.32216222
0.70470034 0.51005840 0.40789385
0.91852901 0.71563223 0.58490794
0.43722008 0.52350722 0.36906570
0.44541351 0.52387395 0.36955574
0.52714073 0.52986176 0.37743277
0.70892860 0.57582446 0.43246711
0.91886608 0.72580936 0.58893029
0.64454259 0.74012457 0.52977522
0.64546068 0.74016136 0.52985668
0.65976103 0.74078080 0.53122247
0.74384067 0.74689316 0.54415712
0.91886608 0.79307481 0.62248937
0.86004519 0.91886608 0.73808093
0.86013512 0.91886608 0.73808985
0.86164110 0.91886608 0.73824047
0.87574046 0.91886608 0.73976784
0.91886608 0.91886608 0.75395870
0.28948025 0.21453278 0.52113789
0.32857989 0.22930760 0.52122726
0.49608309 0.33039589 0.52272459
0.70501275 0.50547473 0.53680341
0.91855864 0.71512750 0.61935796
0.31240479 0.31350678 0.52161677
0.34331081 0.31750646 0.52170569
0.49840809 0.36566218 0.52319539
0.70526750 0.51123108 0.53720837
0.91858287 0.71576497 0.61952670
0.44670787 0.52452265 0.52935687
0.45411214 0.52488541 0.52943869
0.53081058 0.53081058 0.53081058
0.70947087 0.57640682 0.54379858
0.91886608 0.72592845 0.62233338
0.64561269 0.74022675 0.58500497
0.64652050 0.74026350 0.58505020
0.66067282 0.74088227 0.58581129
0.74421443 0.74698819 0.59326516
0.91886608 0.79313249 0.64708893
0.86015008 0.91886608 0.74597442
0.86023990 0.91886608 0.74598262
0.86174413 0.91886608 0.74612102
0.87582836 0.91886608 0.74752552
0.91886608 0.91886608 0.76065740
0.46446233 0.35945146 0.73765324
0.47059043 0.36174364 0.73766220
0.53834255 0.39325926 0.73781351
0.71064220 0.51736586 0.73934783
0.91886608 0.71648415 0.75359817
0.46773003 0.38578680 0.73770135
0.47364875 0.38747136 0.73771031
0.53982432 0.41186439 0.73786155
0.71088215 0.52244825 0.73939508
0.91886608 0.71711249 0.75363871
0.51032192 0.53432236 0.73851062
0.51408981 0.53464899 0.73851950
0.56185798 0.54000209 0.73866943
0.71484666 0.58216752 0.74018986
0.91886608 0.72713834 0.75432118
0.65591798 0.74126593 0.74641111
0.65673246 0.74130227 0.74641927
0.66952915 0.74191420 0.74655703
0.74795501 0.74795501 0.74795501
0.91886608 0.79372068 0.76103041
0.86121633 0.91886608 0.80225355
0.86130509 0.91886608 0.80225801
0.86279158 0.91886608 0.80233328
0.87672279 0.91886608 0.80309996
0.91886608 0.91886608 0.81051556
0.67144846 0.54925703 0.91886608
0.67213994 0.54953553 0.91886608
0.68311763 0.55412056 0.91886608
0.75408705 0.59142588 0.91886608
0.91886608 0.72920790 0.91886608
0.67181201 0.55289726 0.91886608
0.67250084 0.55316517 0.91886608
0.68343896 0.55758023 0.91886608
0.75423786 0.59376785 0.91886608
0.91886608 0.72975666 0.91886608
0.67775228 0.59951243 0.91886608
0.67839925 0.59967585 0.91886608
0.68870928 0.60239532 0.91886608
0.75674983 0.62647943 0.91886608
0.91886608 0.73857287 0.91886608
0.72350346 0.75117594 0.91886608
0.72390173 0.75120861 0.91886608
0.73038719 0.75175898 0.91886608
0.77916456 0.75721075 0.91886608
0.91886608 0.79946892 0.91886608
0.87134151 0.91886608 0.91886608
0.87142071 0.91886608 0.91886608
0.87274835 0.91886608 0.91886608
0.88529667 0.91886608 0.91886608
0.91886608 0.91886608 0.91886608
