src/ffmpeg_scripts/luts/sRGB-rec2020_-1p67.cube
TITLE "sRGB-rec2020_-1p67"
LUT_3D_SIZE 5
# PQ (EOTF Only)/sRGB -> PQ (EOTF Only)/Rec2020, CineEI Shift -1.67, Black Level 0.00% IRE, Input 100% -> Output 109% - Created with LUTCalc v4.01 by Ben Turley October 2020
0.06256172 0.06256172 0.06256172
0.19176523 0.11858347 0.09213806
0.36145319 0.22391840 0.16137003
0.55590760 0.37330747 0.27572249
0.76997221 0.56605180 0.44219119
0.16561682 0.20928549 0.12448878
0.21118782 0.21277839 0.12894347
0.36357149 0.25387436 0.17120607
0.55615297 0.37835622 0.27741083
0.76999744 0.56666568 0.44241683
0.31621943 0.39006447 0.23655593
0.32305607 0.39038502 0.23711039
0.39310013 0.39562826 0.24584785
0.56020494 0.43646248 0.30133019
0.77042272 0.57647544 0.44614604
0.49932883 0.59034662 0.39160754
0.50018425 0.59038237 0.39168233
0.51355628 0.59098451 0.39293643
0.59394532 0.59693461 0.40482011
0.77466545 0.64237849 0.47742292
0.70976210 0.80555662 0.58789265
0.70985374 0.80556021 0.58790136
0.71138895 0.80562095 0.58804836
0.72580316 0.80624008 0.58953947
0.80923201 0.81227900 0.60343399
0.10845715 0.08741245 0.20802718
0.19471514 0.12224420 0.20889133
0.36173491 0.22438482 0.22192264
0.55593991 0.37337173 0.29133133
0.76997553 0.56605941 0.44446112
0.17030549 0.20987364 0.21253073
0.21333433 0.21333433 0.21333433
0.36384617 0.25417310 0.22555838
0.55618520 0.37841676 0.29270297
0.77000076 0.56667325 0.44468112
0.31671093 0.39011726 0.26170922
0.32350694 0.39043761 0.26209454
0.39329424 0.39567775 0.26830911
0.56023581 0.43649357 0.31278608
0.77042603 0.57648225 0.44831924
0.49938814 0.59035250 0.39560189
0.50024302 0.59038825 0.39567330
0.51360714 0.59099036 0.39687109
0.59396690 0.59694010 0.40826091
0.77466860 0.64238188 0.47896717
0.70976843 0.80555721 0.58836720
0.70986007 0.80556080 0.58837586
0.71139517 0.80562154 0.58852213
0.72580850 0.80624066 0.59000583
0.80923417 0.81227955 0.60383669
0.20127063 0.14874720 0.38804924
0.23041722 0.15871952 0.38812719
0.36635709 0.23179729 0.38943384
0.55648422 0.37445020 0.40177523
0.77003159 0.56618791 0.47608541
0.21822633 0.21905102 0.38846699
0.24167687 0.22205149 0.38854457
0.36835634 0.25903726 0.38984493
0.55672809 0.37943330 0.40213169
0.77005681 0.56680091 0.47624058
0.32458401 0.39100444 0.39523521
0.33076331 0.39132150 0.39530692
0.39650976 0.39650976 0.39650976
0.56075585 0.43701731 0.40794407
0.77048182 0.57659729 0.47882351
0.50038460 0.59045181 0.44476878
0.50123034 0.59048753 0.44480966
0.51446230 0.59108900 0.44549750
0.59433075 0.59703272 0.45224857
0.77472189 0.64243918 0.50176009
0.70987532 0.80556720 0.59604482
0.70996685 0.80557079 0.59605281
0.71150023 0.80563152 0.59618766
0.72589859 0.80625058 0.59755650
0.80927075 0.81228883 0.61039398
0.33945212 0.25418066 0.58795194
0.34462426 0.25597018 0.58796064
0.40313046 0.28091255 0.58810755
0.56187957 0.38476279 0.58959773
0.77060332 0.56749269 0.60348429
0.34220752 0.27494254 0.58799865
0.34721313 0.27628539 0.58800735
0.40443630 0.29592399 0.58815418
0.56210984 0.38919261 0.58964364
0.77062838 0.56809728 0.60352392
0.37864513 0.39959313 0.58878448
0.38191438 0.39988022 0.58879311
0.42398179 0.40459303 0.58893873
0.56591789 0.44220686 0.59041595
0.77105078 0.57776635 0.60419106
0.51000679 0.59146202 0.59647032
0.51076930 0.59149735 0.59647827
0.52278759 0.59209245 0.59661251
0.59797526 0.59797526 0.59797526
0.77526541 0.64302344 0.61075965
0.71096211 0.80566936 0.65151483
0.71105259 0.80567295 0.65151927
0.71256848 0.80573361 0.65159431
0.72681548 0.80635198 0.65235868
0.80964413 0.81238373 0.65976389
0.52459633 0.41277457 0.80310652
0.52524838 0.41302143 0.80310739
0.53562774 0.41709097 0.80312220
0.60396216 0.45058028 0.80327353
0.77619758 0.57976747 0.80479078
0.52493912 0.41600419 0.80311122
0.52558878 0.41624214 0.80311210
0.53593235 0.42016849 0.80312690
0.60410960 0.45270480 0.80327822
0.77622117 0.58029839 0.80479540
0.53054830 0.45792690 0.80319067
0.53116013 0.45807569 0.80319155
0.54093464 0.46055341 0.80320634
0.60656669 0.48264561 0.80335753
0.77661881 0.58884494 0.80487340
0.57425597 0.60111804 0.80399971
0.57464033 0.60114995 0.80400058
0.58090856 0.60168739 0.80401524
0.62860451 0.60701782 0.80416510
0.78059199 0.64874059 0.80566774
0.72130361 0.80669663 0.81180610
0.72138465 0.80670018 0.81180690
0.72274354 0.80676016 0.81182035
0.73561968 0.80737164 0.81195794
0.81333847 0.81333847 0.81333847
