src/ffmpeg_scripts/luts/sRGB-rec2020_-1p33.cube
TITLE "sRGB-rec2020_-1p33"
LUT_3D_SIZE 33
# PQ (EOTF Only)/sRGB -> PQ (EOTF Only)/Rec2020, CineEI Shift -1.33, Black Level 0.00% IRE, Input 100% -> Output 109% - Created with LUTCalc v4.01 by Ben Turley October 2020
0.06256172 0.06256172 0.06256172
0.07594745 0.06656743 0.06430127
0.09131136 0.07198524 0.06680968
0.10787501 0.07849380 0.06999957
0.12536365 0.08596042 0.07383653
0.14362455 0.09430919 0.07830668
0.16255777 0.10348989 0.08340534
0.18209172 0.11346656 0.08913286
0.20217210 0.12421204 0.09549263
0.22275600 0.13570514 0.10249004
0.24380848 0.14792881 0.11013189
0.26530045 0.16086913 0.11842595
0.28720719 0.17451450 0.12738075
0.30950741 0.18885519 0.13700541
0.33218255 0.20388292 0.14730949
0.35521623 0.21959059 0.15830292
0.37859386 0.23597210 0.16999591
0.40230239 0.25302215 0.18239895
0.42633000 0.27073616 0.19552271
0.45066599 0.28911010 0.20937806
0.47530054 0.30814049 0.22397602
0.50022468 0.32782425 0.23932775
0.52543012 0.34815871 0.25544453
0.55090920 0.36914154 0.27233775
0.57665480 0.39077068 0.29001891
0.60266029 0.41304437 0.30849958
0.62891947 0.43596105 0.32779145
0.65542654 0.45951940 0.34790625
0.68217604 0.48371829 0.36885582
0.70916285 0.50855673 0.39065204
0.73638210 0.53403392 0.41330689
0.76382923 0.56014919 0.43683238
0.79149990 0.58690200 0.46124061
0.07208440 0.07885216 0.06715761
0.07918286 0.07946167 0.06762257
0.09278334 0.08151765 0.06908686
0.10867882 0.08531689 0.07156708
0.12584873 0.09081348 0.07494220
0.14393592 0.09778721 0.07910659
0.16276614 0.10601377 0.08399644
0.18223539 0.11532195 0.08957706
0.20227340 0.12559216 0.09583085
0.22282866 0.13674214 0.10275025
0.24386131 0.14871463 0.11033371
0.26533928 0.16146877 0.11858347
0.28723597 0.17497469 0.12750432
0.30952891 0.18920998 0.13710272
0.33219869 0.20415744 0.14738634
0.35522840 0.21980360 0.15836373
0.37860308 0.23613772 0.17004410
0.40230938 0.25315112 0.18243717
0.42633532 0.27083666 0.19555303
0.45067003 0.28918845 0.20940211
0.47530362 0.30820156 0.22399508
0.50022703 0.32787182 0.23934284
0.52543191 0.34819573 0.25545646
0.55091057 0.36917030 0.27234716
0.57665584 0.39079299 0.29002632
0.60266108 0.41306162 0.30850540
0.62892007 0.43597437 0.32779600
0.65542699 0.45952965 0.34790981
0.68217638 0.48372614 0.36885858
0.70916310 0.50856273 0.39065418
0.73638229 0.53403849 0.41330853
0.76382937 0.56015265 0.43683364
0.79150000 0.58690460 0.46124157
0.08363777 0.09689734 0.07328543
0.08745326 0.09714891 0.07351003
0.09752476 0.09805245 0.07429871
0.11146612 0.09993323 0.07586666
0.12757948 0.10308777 0.07833881
0.14506132 0.10770309 0.08173616
0.16352420 0.11382535 0.08601971
0.18275996 0.12138908 0.09113525
0.20264405 0.13027315 0.09703559
0.22309488 0.14034632 0.10368619
0.24405504 0.15149112 0.11106428
0.26548174 0.16361142 0.11915618
0.28734163 0.17663188 0.12795489
0.30960781 0.19049460 0.13745824
0.33225794 0.20515529 0.14766751
0.35527309 0.22058002 0.15858648
0.37863690 0.23674264 0.17022076
0.40233506 0.25362283 0.18257736
0.42635485 0.27120468 0.19566429
0.45068490 0.28947557 0.20949038
0.47531495 0.30842548 0.22406506
0.50023567 0.32804633 0.23939826
0.52543849 0.34833157 0.25550028
0.55091558 0.36927587 0.27238174
0.57665965 0.39087488 0.29005354
0.60266397 0.41312500 0.30852678
0.62892226 0.43602328 0.32781274
0.65542865 0.45956728 0.34792286
0.68217763 0.48375499 0.36886873
0.70916404 0.50858476 0.39066203
0.73638299 0.53405524 0.41331458
0.76382990 0.56016532 0.43683828
0.79150039 0.58691414 0.46124511
0.09651809 0.11595923 0.08056773
0.09874834 0.11609209 0.08069935
0.10565519 0.11657575 0.08117395
0.11685890 0.11761435 0.08217081
0.13112838 0.11944883 0.08386816
0.14743696 0.12232644 0.08640328
0.16514938 0.12645939 0.08984972
0.18389446 0.13198667 0.09422209
0.20344983 0.13895782 0.09949801
0.22367551 0.14734382 0.10564052
0.24447844 0.15706468 0.11261227
0.26579352 0.16801813 0.12038198
0.28757308 0.18010041 0.12892611
0.30978076 0.19321760 0.13822842
0.33238787 0.20728993 0.14827878
0.35537112 0.22225211 0.15907196
0.37871113 0.23805178 0.17060651
0.40239140 0.25464739 0.18288389
0.42639770 0.27200614 0.19590782
0.45071753 0.29010212 0.20968374
0.47533982 0.30891486 0.22421844
0.50025462 0.32842812 0.23951977
0.52545294 0.34862900 0.25559638
0.55092658 0.36950718 0.27245760
0.57666801 0.39105439 0.29011328
0.60267032 0.41326397 0.30857369
0.62892707 0.43613056 0.32784947
0.65543228 0.45964984 0.34795152
0.68218037 0.48381830 0.36889100
0.70916609 0.50863312 0.39067927
0.73638453 0.53409201 0.41332787
0.76383104 0.56019315 0.43684846
0.79150124 0.58693509 0.46125287
0.11046202 0.13578705 0.08885016
0.11185934 0.13586572 0.08893470
0.11653540 0.13615346 0.08924241
0.12501922 0.13677829 0.08990288
0.13693875 0.13790462 0.09106882
0.15150984 0.13972777 0.09289723
0.16801111 0.14245983 0.09552509
0.18592405 0.14630560 0.09904863
0.20490540 0.15143363 0.10351594
0.22473077 0.15795257 0.10893411
0.24525099 0.16590209 0.11528400
0.26636391 0.17526021 0.12253465
0.28799725 0.18596151 0.13065324
0.31009811 0.19791763 0.13961053
0.33262649 0.21103393 0.14938300
0.35555128 0.22522029 0.15995320
0.37884758 0.24039667 0.17130919
0.40249501 0.25649495 0.18344373
0.42647652 0.27345869 0.19635345
0.45077757 0.29124196 0.21003807
0.47538558 0.30980769 0.22449982
0.50028950 0.32912619 0.23974286
0.52547952 0.34917372 0.25577293
0.55094682 0.36993132 0.27259702
0.57668341 0.39138385 0.29022311
0.60268201 0.41351921 0.30865997
0.62893593 0.43632771 0.32791703
0.65543897 0.45980162 0.34800425
0.68218541 0.48393473 0.36893199
0.70916988 0.50872206 0.39071100
0.73638736 0.53415966 0.41335231
0.76383315 0.56024435 0.43686720
0.79150280 0.58697363 0.46126715
0.12531982 0.15624361 0.09804377
0.12623984 0.15629344 0.09810107
0.12944193 0.15647604 0.09831048
0.13567782 0.15687452 0.09876445
0.14517662 0.15759951 0.09958026
0.15762968 0.15879091 0.10089450
0.17247751 0.16061637 0.10285146
0.18916937 0.16326369 0.10558592
0.20726916 0.16692558 0.10920554
0.22646174 0.17177857 0.11377976
0.24652662 0.17796100 0.11933903
0.26730993 0.18555714 0.12588262
0.28870290 0.19459264 0.13339005
0.31062716 0.20504170 0.14183171
0.33302488 0.21684155 0.15117641
0.35585237 0.22990875 0.16139576
0.37907581 0.24415301 0.17246622
0.40266841 0.25948670 0.18436961
0.42660848 0.27583029 0.19709286
0.45087811 0.29311470 0.21062746
0.47546223 0.31128163 0.22496872
0.50034794 0.33028279 0.24011515
0.52552406 0.35007874 0.25606788
0.55098073 0.37063749 0.27283013
0.57670920 0.39193327 0.29040685
0.60270159 0.41394537 0.30880438
0.62895076 0.43665720 0.32803016
0.65545019 0.46005546 0.34809255
0.68219386 0.48412955 0.36900065
0.70917622 0.50887096 0.39076416
0.73639210 0.53427294 0.41339327
0.76383668 0.56033011 0.43689860
0.79150542 0.58703821 0.46129109
0.14099187 0.17724016 0.10808918
0.14161966 0.17727315 0.10812941
0.14385130 0.17739418 0.10827675
0.14838978 0.17765894 0.10859779
0.15572564 0.17814292 0.10918019
0.16596096 0.17894455 0.11013272
0.17884469 0.18018776 0.11158202
0.19394800 0.18202189 0.11366436
0.21082728 0.18461740 0.11651251
0.22910639 0.18815578 0.12024082
0.24849535 0.19281394 0.12493329
0.26878004 0.19874538 0.13063853
0.28980472 0.20606292 0.13737251
0.31145600 0.21482823 0.14512654
0.33365049 0.22505076 0.15387691
0.35632599 0.23669570 0.16359323
0.37943525 0.24969689 0.17424438
0.40294174 0.26397081 0.18580211
0.42681663 0.27942833 0.19824272
0.45103678 0.29598292 0.21154755
0.47558323 0.31355564 0.22570287
0.50044023 0.33207731 0.24069934
0.52559441 0.35148901 0.25653147
0.55103431 0.37174156 0.27319700
0.57674996 0.39279446 0.29069632
0.60273254 0.41461467 0.30903205
0.62897421 0.43717543 0.32820861
0.65546790 0.46045518 0.34823191
0.68220720 0.48443658 0.36910904
0.70918624 0.50910578 0.39084809
0.73639960 0.53445169 0.41345796
0.76384226 0.56046548 0.43694820
0.79150955 0.58714017 0.46132890
0.15740591 0.19871372 0.11894338
0.15784578 0.19873627 0.11897234
0.15942830 0.19881902 0.11907853
0.16273347 0.19900029 0.11931056
0.16829996 0.19933252 0.11973372
0.17646456 0.19988524 0.12043195
0.18727426 0.20074835 0.12150844
0.20052212 0.20203467 0.12308349
0.21586300 0.20388071 0.12528816
0.23292581 0.20644420 0.12825390
0.25137938 0.20989729 0.13209963
0.27095528 0.21441467 0.13692000
0.29144653 0.22015778 0.14277803
0.31269720 0.22725819 0.14970432
0.33459069 0.23580430 0.15770195
0.35703959 0.24583512 0.16675439
0.37997783 0.25734239 0.17683389
0.40335489 0.27027948 0.18790830
0.42713157 0.28457374 0.19994588
0.45127702 0.30013887 0.21291817
0.47576655 0.31688511 0.22680128
0.50058009 0.33472630 0.24157632
0.52570106 0.35358412 0.25722920
0.55111556 0.37338992 0.27375023
0.57681176 0.39408513 0.29113347
0.60277947 0.41562071 0.30937627
0.62900977 0.43795617 0.32847866
0.65549478 0.46105841 0.34844294
0.68222746 0.48490057 0.36927326
0.70920145 0.50946100 0.39097531
0.73641097 0.53472229 0.41355603
0.76385073 0.56067055 0.43702341
0.79151582 0.58729469 0.46138626
0.17450653 0.22061689 0.13057355
0.17482099 0.22063267 0.13059479
0.17596049 0.22069058 0.13067270
0.17838030 0.22081754 0.13084323
0.18257051 0.22105059 0.13115522
0.18895192 0.22143931 0.13167277
0.19777136 0.22204884 0.13247730
0.20905051 0.22296287 0.13366839
0.22261560 0.22428617 0.13536218
0.23817887 0.22614585 0.13768646
0.25542107 0.22869015 0.14077206
0.27404553 0.23208369 0.14474157
0.29380204 0.23649830 0.14969797
0.31449066 0.24209978 0.15571610
0.33595621 0.24903246 0.16283936
0.35807987 0.25740492 0.17108199
0.38077095 0.26728041 0.18043518
0.40396002 0.27867462 0.19087491
0.42759354 0.29156048 0.20236920
0.45162981 0.30587819 0.21488388
0.47603596 0.32154716 0.22838638
0.50078576 0.33847717 0.24284795
0.52585796 0.35657718 0.25824468
0.55123513 0.37576130 0.27455771
0.57690275 0.39595212 0.29177294
0.60284859 0.41708219 0.30988065
0.62906215 0.43909410 0.32887486
0.65553437 0.46193987 0.34875285
0.68225729 0.48557990 0.36951461
0.70922384 0.50998185 0.39116239
0.73642772 0.53511954 0.41370033
0.76386320 0.56097184 0.43713411
0.79152507 0.58752188 0.46147069
0.19224952 0.24291247 0.14295370
0.19247787 0.24292371 0.14296949
0.19330904 0.24296497 0.14302745
0.19509297 0.24305548 0.14315443
0.19824036 0.24322176 0.14338721
0.20316616 0.24349957 0.14377465
0.21021086 0.24393630 0.14438011
0.21956603 0.24459375 0.14528342
0.23124146 0.24555093 0.14658182
0.24508875 0.24690661 0.14838885
0.26086149 0.24878088 0.15083036
0.27827890 0.25131478 0.15403725
0.29707143 0.25466699 0.15813542
0.31700413 0.25900664 0.16323483
0.33788360 0.26450212 0.16942037
0.35955590 0.27130693 0.17674676
0.38190063 0.27954523 0.18523863
0.40482440 0.28930030 0.19489497
0.42825481 0.30060887 0.20569613
0.45213559 0.31346249 0.21761112
0.47642267 0.32781487 0.23060406
0.50108123 0.34359277 0.24463887
0.52608352 0.36070745 0.25968225
0.55140711 0.37906477 0.27570542
0.57703367 0.39857259 0.29268469
0.60294805 0.41914570 0.31060152
0.62913755 0.44070827 0.32944218
0.65559137 0.46319475 0.34919726
0.68230024 0.48654972 0.36986108
0.70925610 0.51072706 0.39143118
0.73645185 0.53568883 0.41390777
0.76388117 0.56140418 0.43729333
0.79153838 0.58784820 0.46159219
0.21059861 0.26557036 0.15606267
0.21076649 0.26557848 0.15607454
0.21137932 0.26560830 0.15611812
0.21270380 0.26567372 0.15621365
0.21507034 0.26579399 0.15638901
0.21884675 0.26599513 0.15668152
0.22439079 0.26631186 0.15714019
0.23198722 0.26678985 0.15782803
0.24179212 0.26748831 0.15882395
0.25380998 0.26848269 0.16022379
0.26791217 0.26986718 0.16213957
0.28388324 0.27175656 0.16469626
0.30147187 0.27428637 0.16802543
0.32043011 0.27761070 0.17225620
0.34053582 0.28189645 0.17750481
0.36160150 0.28731378 0.18386495
0.38347455 0.29402324 0.19140151
0.40603345 0.30216147 0.20014880
0.42918250 0.31182846 0.21011346
0.45284671 0.32307943 0.22128046
0.47696726 0.33592312 0.23362035
0.50149787 0.35032665 0.24709607
0.52640187 0.36622488 0.26166842
0.55165000 0.38353181 0.27729985
0.57721867 0.40215140 0.29395676
0.60308867 0.42198640 0.31161064
0.62924417 0.44294446 0.33023841
0.65567199 0.46494188 0.34982224
0.68236101 0.48790523 0.37034909
0.70930174 0.51177176 0.39181022
0.73648599 0.53648878 0.41420057
0.76390659 0.56201278 0.43751822
0.79155722 0.58830818 0.46176388
0.22952334 0.28856560 0.16988290
0.22964799 0.28857154 0.16989190
0.23010386 0.28859333 0.16992494
0.23109372 0.28864115 0.16999741
0.23287771 0.28872910 0.17013054
0.23576397 0.28887628 0.17035294
0.24008466 0.28910830 0.17070247
0.24615414 0.28945903 0.17122847
0.25421754 0.28997278 0.17199387
0.26440743 0.29070674 0.17307718
0.27672638 0.29173360 0.17457355
0.29106150 0.29314405 0.17659434
0.30722121 0.29504879 0.17926443
0.32497731 0.29757922 0.18271664
0.34409927 0.30088594 0.18708343
0.36437569 0.30513424 0.19248685
0.38562424 0.31049578 0.19902867
0.40769365 0.31713689 0.20678305
0.43046150 0.32520459 0.21579336
0.45383011 0.33481317 0.22607361
0.47772210 0.34603411 0.23761348
0.50207634 0.35889190 0.25038533
0.52684446 0.37336647 0.26435126
0.55198803 0.38940100 0.27946920
0.57747632 0.40691286 0.29569751
0.60328462 0.42580494 0.31299785
0.62939281 0.44597557 0.33133686
0.65578442 0.46732586 0.35068681
0.68244577 0.48976459 0.37102563
0.70936542 0.51321069 0.39233657
0.73653363 0.53759414 0.41460768
0.76394207 0.56285582 0.43783122
0.79158351 0.58894657 0.46200302
0.24899770 0.31187713 0.18439954
0.24909098 0.31188151 0.18440641
0.24943258 0.31189758 0.18443163
0.25017668 0.31193285 0.18448696
0.25152576 0.31199774 0.18458867
0.25372981 0.31210638 0.18475875
0.25707690 0.31227775 0.18502646
0.26187004 0.31253711 0.18543030
0.26839045 0.31291765 0.18601999
0.27685462 0.31346260 0.18685868
0.28737906 0.31422755 0.18802487
0.29996627 0.31528304 0.18961357
0.31451618 0.31671708 0.19173617
0.33085605 0.31863730 0.19451813
0.34877615 0.32117198 0.19809404
0.36806014 0.32446921 0.20259992
0.38850563 0.32869326 0.20816345
0.40993470 0.33401738 0.21489398
0.43219729 0.34061297 0.22287432
0.45517019 0.34863607 0.23215638
0.47875393 0.35821345 0.24276120
0.50286896 0.36943108 0.25468316
0.52745198 0.38232782 0.26789649
0.55245264 0.39689561 0.28236260
0.57783083 0.41308578 0.29803674
0.60355443 0.43081927 0.31487319
0.62959761 0.44999830 0.33282889
0.65593940 0.47051720 0.35186555
0.68256266 0.49227093 0.37195068
0.70945324 0.51516099 0.39305788
0.73659935 0.53909880 0.41516657
0.76399102 0.56400725 0.43826148
0.79161979 0.58982076 0.46233208
0.26899911 0.33548688 0.19959988
0.26906937 0.33549013 0.19960515
0.26932688 0.33550207 0.19962451
0.26988902 0.33552828 0.19966698
0.27091250 0.33557649 0.19974507
0.27259624 0.33565725 0.19987574
0.27518013 0.33578471 0.20008167
0.27893474 0.33597774 0.20039280
0.28413947 0.33626131 0.20084823
0.29105007 0.33666804 0.20149823
0.29986192 0.33724031 0.20240635
0.31068046 0.33803247 0.20365142
0.32350918 0.33911338 0.20532878
0.33825857 0.34056904 0.20755040
0.35477114 0.34250476 0.21044291
0.37285205 0.34504658 0.21414319
0.39229668 0.34834091 0.21879104
0.41291009 0.35255163 0.22451981
0.43451810 0.35785378 0.23144611
0.45697165 0.36442352 0.23966102
0.48014676 0.37242507 0.24922450
0.50394227 0.38199639 0.26016440
0.52827663 0.39323654 0.27247955
0.55308448 0.40619747 0.28614607
0.57831360 0.42088231 0.30112468
0.60392227 0.43725003 0.31736795
0.62987703 0.45522504 0.33482606
0.65615098 0.47470899 0.35345114
0.68272231 0.49559237 0.37319986
0.70957324 0.51776412 0.39403489
0.73668917 0.54111858 0.41592535
0.76405795 0.56555980 0.43884670
0.79166940 0.59100360 0.46278029
0.28950780 0.35937914 0.21547293
0.28956098 0.35938157 0.21547700
0.28975604 0.35939049 0.21549191
0.29018250 0.35941008 0.21552464
0.29096126 0.35944612 0.21558484
0.29224880 0.35950650 0.21568561
0.29423985 0.35960182 0.21584455
0.29716485 0.35974627 0.21608497
0.30127943 0.35995863 0.21643750
0.30684390 0.36026359 0.21694188
0.31409429 0.36069337 0.21764899
0.32321030 0.36128963 0.21862300
0.33428972 0.36210576 0.21994333
0.34733759 0.36320939 0.22170608
0.36227338 0.36468496 0.22402425
0.37895200 0.36663616 0.22702621
0.39719087 0.36918748 0.23085153
0.41679497 0.37248440 0.23564420
0.43757558 0.37669102 0.24154327
0.45936159 0.38198450 0.24867255
0.48200465 0.38854573 0.25713107
0.50537997 0.39654657 0.26698659
0.52938481 0.40613531 0.27827337
0.55393564 0.41742298 0.29099458
0.57896519 0.43047359 0.30512800
0.60441944 0.44530052 0.32063360
0.63025513 0.46186980 0.33746111
0.65643751 0.48010891 0.35555653
0.68293865 0.49991874 0.37486700
0.70973594 0.52118582 0.39534402
0.73681099 0.54379307 0.41694526
0.76414874 0.56762767 0.43963523
0.79173672 0.59258632 0.46338534
0.31050620 0.38354013 0.23200909
0.31054662 0.38354195 0.23201222
0.31069494 0.38354865 0.23202375
0.31101958 0.38356336 0.23204905
0.31161365 0.38359042 0.23209560
0.31259939 0.38363577 0.23217355
0.31413229 0.38370739 0.23229655
0.31640271 0.38381595 0.23248277
0.31963256 0.38397565 0.23275616
0.32406482 0.38420517 0.23314802
0.32994446 0.38452902 0.23369875
0.33749217 0.38497905 0.23445995
0.34687595 0.38559639 0.23549654
0.35818834 0.38643371 0.23688882
0.37143638 0.38755768 0.23873397
0.38654715 0.38905170 0.24114650
0.40338592 0.39101832 0.24425694
0.42178017 0.39358116 0.24820808
0.44154284 0.39688537 0.25314839
0.46249030 0.40109588 0.25922289
0.48445387 0.40639241 0.26656257
0.50728563 0.41296069 0.27527429
0.53085991 0.42097999 0.28543332
0.55507234 0.43060835 0.29708011
0.57983754 0.44196797 0.31022186
0.60508635 0.45513397 0.32483781
0.63076305 0.47012911 0.34088692
0.65682287 0.48692572 0.35831589
0.68322986 0.50545381 0.37706627
0.70995508 0.52561304 0.39708004
0.73697517 0.54728571 0.41830332
0.76427113 0.57034847 0.44068858
0.79182749 0.59468126 0.46419562
0.33197862 0.40795761 0.24919988
0.33200944 0.40795898 0.24920231
0.33212257 0.40796403 0.24921124
0.33237036 0.40797512 0.24923085
0.33282451 0.40799552 0.24926692
0.33358005 0.40802971 0.24932734
0.33475980 0.40808371 0.24942273
0.33651783 0.40816559 0.24956722
0.33904022 0.40828609 0.24977956
0.34254136 0.40845937 0.25008429
0.34725368 0.40870408 0.25051335
0.35340977 0.40904453 0.25110787
0.36121843 0.40951231 0.25192025
0.37083899 0.41014817 0.25301632
0.38236051 0.41100421 0.25447747
0.39579227 0.41214647 0.25640229
0.41106799 0.41365762 0.25890717
0.42806160 0.41563960 0.26212530
0.44660897 0.41821568 0.26620311
0.46652955 0.42153131 0.27129398
0.48764382 0.42575282 0.27754917
0.50978497 0.43106295 0.28510697
0.53280516 0.43765252 0.29408203
0.55657773 0.44570823 0.30455696
0.58099668 0.45539752 0.31657817
0.60597476 0.46685315 0.33015654
0.63144099 0.48016056 0.34527249
0.65733800 0.49535105 0.36188363
0.68361959 0.51240242 0.37993328
0.71024862 0.53124643 0.39935824
0.73719522 0.55178089 0.42009503
0.76443528 0.57388338 0.44208414
0.79194928 0.59742388 0.46527267
0.35391094 0.43262066 0.26703781
0.35393449 0.43262170 0.26703970
0.35402096 0.43262552 0.26704663
0.35421050 0.43263390 0.26706185
0.35455825 0.43264932 0.26708985
0.35513788 0.43267517 0.26713676
0.35604572 0.43271600 0.26721083
0.35740469 0.43277792 0.26732310
0.35936716 0.43286908 0.26748818
0.36211524 0.43300023 0.26772531
0.36585679 0.43318555 0.26805965
0.37081548 0.43344359 0.26852378
0.37721403 0.43379857 0.26915960
0.38525208 0.43428187 0.27002035
0.39508257 0.43493393 0.27117293
0.40679248 0.43580650 0.27270003
0.42039352 0.43696521 0.27470195
0.43582525 0.43849234 0.27729736
0.45296895 0.44048962 0.28062251
0.47166743 0.44308047 0.28482797
0.49174550 0.44641123 0.29007245
0.51302687 0.45065017 0.29651380
0.53534600 0.45598359 0.30429782
0.55855486 0.46260780 0.31354701
0.58252559 0.47071701 0.32435121
0.60715051 0.48048797 0.33676252
0.63234053 0.49206356 0.35079523
0.65802286 0.50553888 0.36643049
0.68413852 0.52095294 0.38362412
0.71063993 0.53828807 0.40231563
0.73748883 0.55747688 0.42243668
0.76465444 0.57841452 0.44391795
0.79211196 0.60097312 0.46669403
0.37629032 0.45751945 0.28551620
0.37630835 0.45752023 0.28551767
0.37637456 0.45752313 0.28552305
0.37651974 0.45752947 0.28553487
0.37678632 0.45754116 0.28555663
0.37723130 0.45756074 0.28559309
0.37792981 0.45759168 0.28565066
0.37897896 0.45763861 0.28573795
0.38050142 0.45770771 0.28586637
0.38264782 0.45780715 0.28605096
0.38559663 0.45794773 0.28631149
0.38955017 0.45814360 0.28667365
0.39472491 0.45841329 0.28717070
0.40133576 0.45878089 0.28784532
0.40957539 0.45927765 0.28875171
0.41959221 0.45994383 0.28995794
0.43147220 0.46083094 0.29154821
0.44522965 0.46200444 0.29362481
0.46080936 0.46354651 0.29630905
0.47809885 0.46555903 0.29974069
0.49694675 0.46816606 0.30407490
0.51718213 0.47151534 0.30947622
0.53863115 0.47577769 0.31610947
0.56112905 0.48114351 0.32412829
0.58452722 0.48781505 0.33366312
0.60869645 0.49599435 0.34481100
0.63352729 0.50586746 0.35762949
0.65892877 0.51758714 0.37213589
0.68482632 0.53125753 0.38831160
0.71115939 0.54692453 0.40611014
0.73787906 0.56457402 0.42546665
0.76494598 0.58413839 0.44630715
0.79232853 0.60550911 0.46855604
0.39910507 0.48264507 0.30462906
0.39911889 0.48264566 0.30463020
0.39916963 0.48264786 0.30463439
0.39928093 0.48265267 0.30464358
0.39948544 0.48266154 0.30466049
0.39982716 0.48267640 0.30468883
0.40036446 0.48269987 0.30473360
0.40117352 0.48273549 0.30480149
0.40235192 0.48278794 0.30490140
0.40402184 0.48286344 0.30504509
0.40633215 0.48297020 0.30524804
0.40945814 0.48311902 0.30553045
0.41359744 0.48332407 0.30591860
0.41896071 0.48360380 0.30644642
0.42575680 0.48398227 0.30715738
0.43417321 0.48449061 0.30810672
0.44435532 0.48516899 0.30936381
0.45638899 0.48606884 0.31101457
0.47029126 0.48725561 0.31316353
0.48601165 0.48881166 0.31593501
0.50344308 0.49083938 0.31947272
0.52243893 0.49346391 0.32393693
0.54283169 0.49683489 0.32949853
0.56444923 0.50112631 0.33632979
0.58712701 0.50653324 0.34459252
0.61071553 0.51326445 0.35442532
0.63508402 0.52153020 0.36593242
0.66012114 0.53152599 0.37917661
0.68573402 0.54341428 0.39417778
0.71184632 0.55730781 0.41091701
0.73839591 0.57325845 0.42934484
0.76533259 0.59125455 0.44939143
0.79261598 0.61122709 0.47097653
0.42234447 0.50798941 0.32437100
0.42235506 0.50798986 0.32437189
0.42239397 0.50799153 0.32437514
0.42247934 0.50799518 0.32438228
0.42263626 0.50800192 0.32439543
0.42289866 0.50801320 0.32441746
0.42331177 0.50803103 0.32445227
0.42393501 0.50805808 0.32450506
0.42484528 0.50809792 0.32458277
0.42614030 0.50815528 0.32469458
0.42794164 0.50823642 0.32485258
0.43039653 0.50834956 0.32507262
0.43367749 0.50850551 0.32537537
0.43797826 0.50871841 0.32578764
0.44350492 0.50900670 0.32634403
0.45046171 0.50939440 0.32708888
0.45903248 0.50991258 0.32807852
0.46936085 0.51060139 0.32938374
0.48153332 0.51151231 0.33109236
0.49556984 0.51271094 0.33331144
0.51142424 0.51428010 0.33616866
0.52899410 0.51632300 0.33981214
0.54813674 0.51896627 0.34440777
0.56868718 0.52236201 0.35013334
0.59047438 0.52668795 0.35716910
0.61333348 0.53214451 0.36568550
0.63711376 0.53894757 0.37582954
0.66168265 0.54731614 0.38771265
0.68692681 0.55745546 0.40140263
0.71275140 0.56953762 0.41692146
0.73907829 0.58368344 0.43424923
0.76584383 0.59994995 0.45333276
0.79299655 0.61832670 0.47409645
0.44599863 0.53354505 0.34473716
0.44600676 0.53354539 0.34473785
0.44603659 0.53354666 0.34474037
0.44610206 0.53354944 0.34474592
0.44622243 0.53355455 0.34475614
0.44642385 0.53356312 0.34477325
0.44674124 0.53357667 0.34480030
0.44722076 0.53359722 0.34484132
0.44792259 0.53362750 0.34490173
0.44892406 0.53367109 0.34498866
0.45032285 0.53373275 0.34511156
0.45223982 0.53381877 0.34528281
0.45482072 0.53393738 0.34551862
0.45823568 0.53409937 0.34584008
0.46267532 0.53431889 0.34627456
0.46834218 0.53461435 0.34685734
0.47543718 0.53500973 0.34763363
0.48414181 0.53553612 0.34866092
0.49459903 0.53623371 0.35001157
0.50689664 0.53715413 0.35177547
0.52105765 0.53836334 0.35406248
0.53703991 0.53994478 0.35700402
0.55474504 0.54200285 0.36075307
0.57403354 0.54466609 0.36548171
0.59474225 0.54808957 0.37137522
0.61670052 0.55245539 0.37862248
0.63974271 0.55797004 0.38740303
