src/ffmpeg_scripts/luts/sRGB-rec2020_1p67.cube
TITLE "sRGB-rec2020_1p67"
LUT_3D_SIZE 5
# PQ (EOTF Only)/sRGB -> PQ (EOTF Only)/Rec2020, CineEI Shift 1.67, Black Level 0.00% IRE, Input 100% -> Output 109% - Created with LUTCalc v4.01 by Ben Turley October 2020
0.06256172 0.06256172 0.06256172
0.32097415 0.19639961 0.14215143
0.55090857 0.36914101 0.27233732
0.76914604 0.56525674 0.44146849
0.91886608 0.77970767 0.64561937
0.27934945 0.34758295 0.20757544
0.35041810 0.35278094 0.21583273
0.55348481 0.41165188 0.28846325
0.76940230 0.57131774 0.44373519
0.91886608 0.78034466 0.64587493
0.49451477 0.58526283 0.38732434
0.50321749 0.58564249 0.38811347
0.58885384 0.59183688 0.40045778
0.77362846 0.63911535 0.47531970
0.91886608 0.79049084 0.65009197
0.70893523 0.80473435 0.58708943
0.70986300 0.80477091 0.58717791
0.72429368 0.80538651 0.58866044
0.80841029 0.81145775 0.60262574
0.91886608 0.85714392 0.68498114
0.91886608 0.91886608 0.80222319
0.91886608 0.91886608 0.80223210
0.91886608 0.91886608 0.80238263
0.91886608 0.91886608 0.80390880
0.91886608 0.91886608 0.81806510
0.17653973 0.13145874 0.34570207
0.32552007 0.20335967 0.34699426
0.55125152 0.36981902 0.36623370
0.76917979 0.56533406 0.46223351
0.91886608 0.77971557 0.64818819
0.28700332 0.34846059 0.35241348
0.35360517 0.35360517 0.35360517
0.55381848 0.41206592 0.37152255
0.76943596 0.57139024 0.46403833
0.91886608 0.78035250 0.64843692
0.49514270 0.58532537 0.42245078
0.50378905 0.58570477 0.42297872
0.58908311 0.59189521 0.43145378
0.77366061 0.63915073 0.49011839
0.91886608 0.79049787 0.65254367
0.70899957 0.80474036 0.59180580
0.70992671 0.80477692 0.59188996
0.72434831 0.80539248 0.59330084
0.80843230 0.81146333 0.60664177
0.91886608 0.85714728 0.68668236
0.91886608 0.91886608 0.80270908
0.91886608 0.91886608 0.80271795
0.91886608 0.91886608 0.80286769
0.91886608 0.91886608 0.80438584
0.91886608 0.91886608 0.81847367
0.33552484 0.25100978 0.58287340
0.37853959 0.26792090 0.58296592
0.55686439 0.38052226 0.58451558
0.76974820 0.56663114 0.59906163
0.91886608 0.77984892 0.68350608
0.36082226 0.36203267 0.58336909
0.39458618 0.36642172 0.58346112
0.55928424 0.41878180 0.58500274
0.77000281 0.57260700 0.59947938
0.91886608 0.78048494 0.68367729
0.50515326 0.58637582 0.59137355
0.51294839 0.58675103 0.59145810
0.59287539 0.59287539 0.59287539
0.77420221 0.63974659 0.60627246
0.91886608 0.79061648 0.68652418
0.71008020 0.80484191 0.64853602
0.71099678 0.80487843 0.64858222
0.72526658 0.80549331 0.64935950
0.80880351 0.81155767 0.65696585
0.91886608 0.85720415 0.71157063
0.91886608 0.91886608 0.81055121
0.91886608 0.91886608 0.81055935
0.91886608 0.91886608 0.81069677
0.91886608 0.91886608 0.81209107
0.91886608 0.91886608 0.82511293
0.52382035 0.41207639 0.80228390
0.53024412 0.41455270 0.80229281
0.60064915 0.44842020 0.80244324
0.77537191 0.57896714 0.80396840
0.91886608 0.78120241 0.81811614
0.52724692 0.44041962 0.80233173
0.53344637 0.44222479 0.80234064
0.60217701 0.46826442 0.80249099
0.77561150 0.58422962 0.80401537
0.91886608 0.78182919 0.81815635
0.57166369 0.59650149 0.80313624
0.57557184 0.59683861 0.80314506
0.62483930 0.60236027 0.80329410
0.77956869 0.64563711 0.80480525
0.91886608 0.79182147 0.81883311
0.72047628 0.80587453 0.81098477
0.72129713 0.80591064 0.81099287
0.73417831 0.80651863 0.81112964
0.81251739 0.81251739 0.81251739
0.91886608 0.85778394 0.82548243
0.91886608 0.91886608 0.86618946
0.91886608 0.91886608 0.86619385
0.91886608 0.91886608 0.86626795
0.91886608 0.91886608 0.86702267
0.91886608 0.91886608 0.87431819
0.73610780 0.61189171 0.91886608
0.73680280 0.61217825 0.91886608
0.74782517 0.61689308 0.91886608
0.81860094 0.65508998 0.91886608
0.91886608 0.79388209 0.91886608
0.73647321 0.61563558 0.91886608
0.73716550 0.61591101 0.91886608
0.74814750 0.62044770 0.91886608
0.81875049 0.65747843 0.91886608
0.91886608 0.79442837 0.91886608
0.74244058 0.66333237 0.91886608
0.74309014 0.66349881 0.91886608
0.75343164 0.66626770 0.91886608
0.82124086 0.69072691 0.91886608
0.91886608 0.80319811 0.91886608
0.78820063 0.81571357 0.91886608
0.78859746 0.81574599 0.91886608
0.79505598 0.81629197 0.91886608
0.84342055 0.82169772 0.91886608
0.91886608 0.86344755 0.91886608
0.91886608 0.91886608 0.91886608
0.91886608 0.91886608 0.91886608
0.91886608 0.91886608 0.91886608
0.91886608 0.91886608 0.91886608
0.91886608 0.91886608 0.91886608
