src/ffmpeg_scripts/luts/sRGB-rec2020_2p00.cube
TITLE "sRGB-rec2020_2p00"
LUT_3D_SIZE 5
# PQ (EOTF Only)/sRGB -> PQ (EOTF Only)/Rec2020, CineEI Shift 2.00, Black Level 0.00% IRE, Input 100% -> Output 109% - Created with LUTCalc v4.01 by Ben Turley October 2020
0.06256172 0.06256172 0.06256172
0.33689043 0.20705773 0.14951355
0.57160231 0.38649263 0.28650071
0.79067579 0.58609913 0.46050365
0.91886608 0.80120840 0.66703472
0.29378646 0.36432609 0.21881957
0.36724431 0.36967566 0.22749267
0.57420633 0.43005602 0.30324494
0.79093142 0.59221852 0.46281492
0.91886608 0.80184345 0.66729144
0.51447524 0.60628824 0.40514920
0.52330725 0.60667110 0.40595808
0.60990917 0.61291641 0.41860282
0.79514660 0.66049992 0.49497312
0.91886608 0.81195603 0.67152696
0.73051708 0.82614358 0.60813017
0.73144556 0.82617998 0.60821938
0.74588102 0.82679293 0.60971418
0.82980342 0.83283704 0.62378777
0.91886608 0.87826159 0.70652775
0.91886608 0.91886608 0.82364302
0.91886608 0.91886608 0.82365189
0.91886608 0.91886608 0.82380180
0.91886608 0.91886608 0.82532154
0.91886608 0.91886608 0.83941280
0.18608476 0.13806233 0.36238958
0.34158382 0.21438596 0.36372003
0.57194897 0.38718893 0.38350632
0.79070946 0.58617721 0.48165981
0.91886608 0.80121627 0.66961498
0.30173061 0.36522955 0.36929759
0.37052364 0.37052364 0.37052364
0.57454356 0.43047940 0.38893819
0.79096499 0.59229171 0.48349684
0.91886608 0.80185127 0.66986479
0.51511270 0.60635131 0.44109321
0.52388709 0.60673391 0.44163251
0.61014033 0.61297521 0.45028633
0.79517866 0.66053548 0.51001122
0.91886608 0.81196303 0.67398890
0.73058148 0.82614956 0.61288508
0.73150932 0.82618597 0.61296992
0.74593565 0.82679888 0.61439202
0.82982534 0.83284260 0.62783252
0.91886608 0.87826494 0.70823256
0.91886608 0.91886608 0.82412689
0.91886608 0.91886608 0.82413572
0.91886608 0.91886608 0.82428482
0.91886608 0.91886608 0.82579656
0.91886608 0.91886608 0.83981934
0.35190403 0.26429335 0.60387841
0.39614025 0.28190806 0.60397172
0.57762162 0.39817424 0.60553465
0.79127646 0.58748700 0.62019727
0.91886608 0.80134922 0.70504944
0.37794533 0.37918948 0.60437836
0.41259027 0.38369948 0.60447118
0.58006654 0.43734454 0.60602594
0.79153042 0.59351987 0.62061815
0.91886608 0.80198330 0.70522103
0.52527095 0.60741060 0.61244936
0.53317556 0.60778895 0.61253459
0.61396320 0.61396320 0.61396320
0.79571879 0.66113427 0.62746061
0.91886608 0.81208122 0.70807405
0.73166292 0.82625068 0.66996432
0.73258014 0.82628704 0.67001072
0.74685383 0.82689927 0.67079136
0.83019489 0.83293650 0.67842864
0.91886608 0.87832141 0.73315436
0.91886608 0.91886608 0.83193466
0.91886608 0.91886608 0.83194277
0.91886608 0.91886608 0.83207956
0.91886608 0.91886608 0.83346742
0.91886608 0.91886608 0.84642457
0.54419230 0.43049011 0.82370348
0.55069735 0.43302196 0.82371235
0.62179665 0.46759060 0.82386215
0.79688525 0.59993795 0.82538090
0.91886608 0.80269857 0.83946358
0.54766262 0.45943399 0.82375111
0.55393895 0.46127487 0.82375998
0.62333576 0.48779722 0.82390971
0.79712417 0.60524626 0.82542766
0.91886608 0.80332340 0.83950359
0.59256773 0.61761765 0.82455225
0.59651207 0.61795735 0.82456104
0.64614700 0.62352036 0.82470945
0.80106983 0.66705255 0.82621417
0.91886608 0.81328186 0.84017699
0.74206348 0.82727884 0.83236624
0.74288443 0.82731479 0.83237431
0.75576227 0.82792013 0.83251044
0.83389175 0.83389175 0.83389175
0.91886608 0.87889724 0.84679212
0.91886608 0.91886608 0.88724359
0.91886608 0.91886608 0.88724795
0.91886608 0.91886608 0.88732152
0.91886608 0.91886608 0.88807075
0.91886608 0.91886608 0.89531198
0.75769049 0.63311842 0.91886608
0.75838498 0.63340686 0.91886608
0.76939574 0.63815236 0.91886608
0.83994598 0.67654547 0.91886608
0.91886608 0.81533488 0.91886608
0.75805563 0.63688683 0.91886608
0.75874740 0.63716403 0.91886608
0.76971763 0.64172914 0.91886608
0.84009478 0.67894317 0.91886608
0.91886608 0.81587911 0.91886608
0.76401764 0.68481833 0.91886608
0.76466649 0.68498534 0.91886608
0.77499380 0.68776351 0.91886608
0.84257261 0.71228498 0.91886608
0.91886608 0.82461386 0.91886608
0.80967386 0.83707276 0.91886608
0.81006932 0.83710502 0.91886608
0.81650434 0.83764835 0.91886608
0.86462731 0.84302714 0.91886608
0.91886608 0.88452135 0.91886608
0.91886608 0.91886608 0.91886608
0.91886608 0.91886608 0.91886608
0.91886608 0.91886608 0.91886608
0.91886608 0.91886608 0.91886608
0.91886608 0.91886608 0.91886608
