src/ffmpeg_scripts/luts/sRGB-rec2020_0p67.cube
TITLE "sRGB-rec2020_0p67"
LUT_3D_SIZE 9
# PQ (EOTF Only)/sRGB -> PQ (EOTF Only)/Rec2020, CineEI Shift 0.67, Black Level 0.00% IRE, Input 100% -> Output 109% - Created with LUTCalc v4.01 by Ben Turley October 2020
0.06256172 0.06256172 0.06256172
0.16944326 0.10695046 0.08537130
0.27639000 0.16772059 0.12289650
0.38336737 0.23937009 0.17244926
0.49036608 0.31998749 0.23318570
0.59738136 0.40848874 0.30469776
0.70441028 0.50415188 0.38676549
0.81145084 0.60645208 0.47926934
0.91850157 0.71498594 0.58215015
0.14675098 0.18482966 0.11186086
0.18650835 0.18791310 0.11558367
0.27997782 0.20731197 0.13583532
0.38432299 0.25485805 0.17729630
0.49065433 0.32557989 0.23498743
0.59747318 0.41047237 0.30536940
0.70443986 0.50484349 0.38701198
0.81146017 0.60668485 0.47935639
0.91850437 0.71505973 0.58217900
0.23935921 0.30038161 0.17717869
0.25029576 0.30093975 0.17803664
0.30295164 0.30509549 0.18420935
0.39132567 0.32065387 0.20485073
0.49283808 0.35905869 0.24741192
0.59817525 0.42437180 0.31034121
0.70466667 0.50998854 0.38888149
0.81153176 0.60845332 0.48002212
0.91852582 0.71562437 0.58240023
0.33638215 0.41293119 0.25275917
0.33954042 0.41307436 0.25301356
0.36042362 0.41416607 0.25493653
0.41606137 0.41866729 0.26257974
0.50159494 0.43277598 0.28423922
0.60110694 0.46706619 0.32855852
0.70562612 0.52916829 0.39641419
0.81183588 0.61563212 0.48280309
0.91861707 0.71799070 0.58333624
0.43662574 0.52344678 0.33663501
0.43761554 0.52348913 0.33671885
0.44487134 0.52381374 0.33735972
0.47052008 0.52518306 0.34003258
0.52691895 0.52980530 0.34871968
0.61067004 0.54323323 0.37163605
0.70889641 0.57578988 0.41850294
0.81288827 0.63710137 0.49188731
0.91886608 0.72580231 0.58652860
0.53945808 0.63241147 0.42769781
0.53978154 0.63242478 0.42772655
0.54222869 0.63252690 0.42794697
0.55198469 0.63296042 0.42887919
0.57974871 0.63445642 0.43205465
0.63606259 0.63909411 0.44152307
0.71866312 0.65222189 0.46586431
0.81617892 0.68448164 0.51610980
0.91886608 0.74716509 0.59608095
0.64447888 0.74011852 0.52521260
0.64458519 0.74012276 0.52522246
0.64539758 0.74015531 0.52529815
0.64877990 0.74029375 0.52561965
0.65970679 0.74077479 0.52673188
0.68804335 0.74229882 0.53020700
0.74381850 0.74688753 0.54025961
0.82571621 0.75996873 0.56620848
0.91886608 0.79307139 0.62081195
0.75140849 0.84676593 0.62864684
0.75144259 0.84676726 0.62865012
0.75170401 0.84677743 0.62867535
0.75280871 0.84682071 0.62878264
0.75656045 0.84697143 0.62915576
0.76764645 0.84745243 0.63034086
0.79549776 0.84893278 0.63393616
0.85040661 0.85342387 0.64440192
0.91886608 0.86667776 0.67220271
0.86003898 0.91886608 0.73759217
0.86004934 0.91886608 0.73759320
0.86012891 0.91886608 0.73760114
0.86046683 0.91886608 0.73763491
0.86163500 0.91886608 0.73775255
0.86527608 0.91886608 0.73812830
0.87573525 0.91886608 0.73928786
0.90225099 0.91886608 0.74283456
0.91886608 0.91886608 0.75354671
0.09860163 0.08160284 0.18372012
0.17202425 0.10999104 0.18448203
0.27687206 0.16843340 0.19001071
0.38349369 0.23958464 0.20898702
0.49040405 0.32005906 0.24959048
0.59739344 0.40851353 0.31127450
0.70441417 0.50416046 0.38924126
0.81145207 0.60645496 0.48015134
0.91850194 0.71498685 0.58244330
0.15079405 0.18534851 0.18769430
0.18840433 0.18840433 0.18840433
0.28043700 0.20766540 0.19357996
0.38444789 0.25502925 0.21160187
0.49069218 0.32564659 0.25100832
0.59748525 0.41049660 0.31189177
0.70444375 0.50485200 0.38948075
0.81146139 0.60668772 0.48023756
0.91850473 0.71506064 0.58247206
0.24017355 0.30047367 0.21153693
0.25099005 0.30103114 0.21201239
0.30329047 0.30518208 0.21554676
0.39144079 0.32072484 0.22870984
0.49287504 0.35910292 0.26102919
0.59818724 0.42439249 0.31647592
0.70467055 0.50999659 0.39129782
0.81153298 0.60845614 0.48089692
0.91852618 0.71562527 0.58269261
0.33660419 0.41295475 0.26546201
0.33975398 0.41309789 0.26567454
0.36058937 0.41418930 0.26728588
0.41614800 0.41868936 0.27376884
0.50162855 0.43279479 0.29273011
0.60111855 0.46707904 0.33347181
0.70562996 0.52917484 0.39863095
0.81183710 0.61563473 0.48365184
0.91861744 0.71799158 0.58362573
0.43669442 0.52345374 0.34109316
0.43768347 0.52349610 0.34117251
0.44493398 0.52382068 0.34177930
0.47056724 0.52518989 0.34431302
0.52694453 0.52981181 0.35257949
0.61068054 0.54323887 0.37458509
0.70890012 0.57579386 0.42022907
0.81288947 0.63710345 0.49265641
0.91886608 0.72580312 0.58680847
0.53948045 0.63241366 0.42925490
0.53980383 0.63242696 0.42928314
0.54225040 0.63252909 0.42949973
0.55200425 0.63296259 0.43041586
0.57976328 0.63445856 0.43353782
0.63607062 0.63909615 0.44285805
0.71866646 0.65222366 0.46688529
0.81618008 0.68448290 0.51670215
0.91886608 0.74716574 0.59633392
0.64448622 0.74011922 0.52574986
0.64459252 0.74012346 0.52575967
0.64540485 0.74015601 0.52583492
0.64878692 0.74029445 0.52615457
0.65971305 0.74077548 0.52726048
0.68804798 0.74229951 0.53071631
0.74382106 0.74688818 0.54071707
0.82571726 0.75996929 0.56655559
0.91886608 0.79307179 0.62100675
0.75141084 0.84676615 0.62882617
0.75144494 0.84676747 0.62882945
0.75170635 0.84677764 0.62885463
0.75281103 0.84682093 0.62896172
0.75656268 0.84697165 0.62933414
0.76764843 0.84745265 0.63051702
0.79549922 0.84893299 0.63410575
0.85040741 0.85342407 0.64455377
0.91886608 0.86667793 0.67231589
0.86003969 0.91886608 0.73764862
0.86005006 0.91886608 0.73764965
0.86012963 0.91886608 0.73765758
0.86046755 0.91886608 0.73769133
0.86163570 0.91886608 0.73780890
0.86527676 0.91886608 0.73818442
0.87573585 0.91886608 0.73934329
0.90225143 0.91886608 0.74288792
0.91886608 0.91886608 0.75359427
0.15108833 0.11431463 0.29867804
0.18854637 0.12709933 0.29881380
0.28047190 0.17360294 0.29984829
0.38445741 0.24120966 0.30410225
0.49069506 0.32060645 0.31733500
0.59748617 0.40870363 0.34908944
0.70444404 0.50422629 0.40619951
0.81146149 0.60647707 0.48665485
0.91850476 0.71499386 0.58466444
0.17399085 0.18918029 0.29940418
0.20119005 0.19204117 0.29953866
0.28387102 0.21031322 0.30056346
0.38540098 0.25633012 0.30477906
0.49098228 0.32615690 0.31790650
0.59757788 0.41068244 0.34947514
0.70447361 0.50491735 0.40639643
0.81147081 0.60670977 0.48673516
0.91850756 0.71506763 0.58469253
0.24611980 0.30117690 0.30476198
0.25610193 0.30172930 0.30488740
0.30584375 0.30584375 0.30584375
0.39231965 0.32126766 0.30978768
0.49315835 0.35944177 0.32216222
0.59827919 0.42455120 0.35237811
0.70470034 0.51005840 0.40789385
0.81154239 0.60847778 0.48734953
0.91852901 0.71563223 0.58490794
0.33828912 0.41313545 0.32416581
0.34137541 0.41327829 0.32426373
0.36185120 0.41436748 0.32501169
0.41681041 0.41885866 0.32811942
0.50188623 0.43293917 0.33809928
0.60120769 0.46717769 0.36371004
0.70565945 0.52922513 0.41399592
0.81184648 0.61565480 0.48991984
0.91862026 0.71799836 0.58581951
0.43722008 0.52350722 0.36906570
0.43820335 0.52354955 0.36912232
0.44541351 0.52387395 0.36955574
0.47092859 0.52524238 0.37137628
0.52714073 0.52986176 0.37743277
0.61076111 0.54328213 0.39435676
0.70892860 0.57582446 0.43246711
0.81289875 0.63711944 0.49835727
0.91886608 0.72580936 0.58893029
0.53965201 0.63243046 0.44038128
0.53997480 0.63244376 0.44040621
0.54241696 0.63254587 0.44059740
0.55215436 0.63297930 0.44140676
0.57987504 0.63447500 0.44417248
0.63613223 0.63911181 0.45249632
0.71869213 0.65223729 0.47436507
0.81618903 0.68449259 0.52112893
0.91886608 0.74717070 0.59825417
0.64454259 0.74012457 0.52977522
0.64464883 0.74012881 0.52978461
0.64546068 0.74016136 0.52985668
0.64884078 0.74029979 0.53016286
0.65976103 0.74078080 0.53122247
0.68808352 0.74230474 0.53453710
0.74384067 0.74689316 0.54415712
0.82572531 0.75997362 0.56917912
0.91886608 0.79307481 0.62248937
0.75142892 0.84676782 0.63019201
0.75146301 0.84676915 0.63019525
0.75172437 0.84677932 0.63022006
0.75282884 0.84682260 0.63032562
0.75657978 0.84697332 0.63069272
0.76766360 0.84745431 0.63185884
0.79551044 0.84893462 0.63539796
0.85041353 0.85342563 0.64571169
0.91886608 0.86667927 0.67318044
0.86004519 0.91886608 0.73808093
0.86005555 0.91886608 0.73808196
0.86013512 0.91886608 0.73808985
0.86047302 0.91886608 0.73812344
0.86164110 0.91886608 0.73824047
0.86528194 0.91886608 0.73861426
0.87574046 0.91886608 0.73976784
0.90225484 0.91886608 0.74329667
0.91886608 0.91886608 0.75395870
0.21527375 0.15878297 0.41085252
0.23049859 0.16374372 0.41088733
0.29410134 0.19132777 0.41115411
0.38844266 0.24772205 0.41228076
0.49192370 0.32289523 0.41609907
0.59787989 0.40950829 0.42731936
0.70457111 0.50450604 0.45524161
0.81150158 0.60657113 0.51011913
0.91851677 0.71502366 0.59357499
0.22371220 0.20312592 0.41103923
0.23725839 0.20539287 0.41107396
0.29694629 0.22046898 0.41134017
0.38934356 0.26161339 0.41246446
0.49220711 0.32829347 0.41627495
0.59797122 0.41146917 0.42747425
0.70460064 0.50519501 0.45535500
0.81151090 0.60680360 0.51018140
0.91851957 0.71509742 0.59360055
0.26691520 0.30410051 0.41245980
0.27448751 0.30463237 0.41249397
0.31586088 0.30859881 0.41275591
0.39596376 0.32353769 0.41386229
0.49435472 0.36086902 0.41761386
0.59866962 0.42522364 0.42865473
0.70482706 0.51032108 0.45622100
0.81158245 0.60856987 0.51065820
0.91854101 0.71566183 0.59379659
0.34509488 0.41390055 0.41826220
0.34793845 0.41404216 0.41829418
0.36701934 0.41512196 0.41853940
0.41957572 0.41957572 0.41957572
0.50297518 0.43355116 0.42309618
0.60158624 0.46759640 0.43351139
0.70578488 0.52943892 0.45981738
0.81188641 0.61574016 0.51266089
0.91863226 0.71802723 0.59462659
0.43942379 0.52373452 0.43594503
0.44038323 0.52377675 0.43597123
0.44742665 0.52410036 0.43617214
0.47245099 0.52546550 0.43702241
0.52797136 0.53007409 0.43992487
0.61110332 0.54346608 0.44863313
0.70904974 0.57595458 0.47134454
0.81293821 0.63718748 0.51932289
0.91886608 0.72583592 0.59746441
0.54037885 0.63250196 0.47656632
0.54069915 0.63251525 0.47658303
0.54312271 0.63261728 0.47671121
0.55279068 0.63305038 0.47725486
0.58034933 0.63454497 0.47912528
0.63639405 0.63917843 0.48487019
0.71880131 0.65229529 0.50074309
0.81622709 0.68453381 0.53792281
0.91886608 0.74719183 0.60601821
0.64478217 0.74014736 0.54519927
0.64488814 0.74015160 0.54520723
0.64569795 0.74018414 0.54526834
0.64906973 0.74032253 0.54552803
0.65996503 0.74080343 0.54642779
0.68823469 0.74232700 0.54925243
0.74392411 0.74691435 0.55753363
0.82575958 0.75999203 0.57959520
0.91886608 0.79308767 0.62855305
0.75150583 0.84677494 0.63579534
0.75153990 0.84677627 0.63579839
0.75180104 0.84678643 0.63582177
0.75290460 0.84682971 0.63592127
0.75665255 0.84698042 0.63626732
0.76772818 0.84746137 0.63736710
0.79555818 0.84894157 0.64070955
0.85043959 0.85343224 0.65048822
0.91886608 0.86668497 0.67677473
0.86006858 0.91886608 0.73989918
0.86007894 0.91886608 0.73990019
0.86015849 0.91886608 0.73990793
0.86049630 0.91886608 0.73994087
0.86166407 0.91886608 0.74005565
0.86530400 0.91886608 0.74042225
0.87576006 0.91886608 0.74155382
0.90226933 0.91886608 0.74501693
0.91886608 0.91886608 0.75549426
0.28948025 0.21453278 0.52113789
0.29513526 0.21642116 0.52114819
0.32857989 0.22930760 0.52122726
0.40104883 0.26657989 0.52156311
0.49608309 0.33039589 0.52272459
0.59923979 0.41225700 0.52634954
0.70501275 0.50547473 0.53680341
0.81164121 0.60689831 0.56359952
0.91855864 0.71512750 0.61935796
0.29250092 0.23599718 0.52119319
0.29794247 0.23735760 0.52120349
0.33042102 0.24697758 0.52128251
0.40182787 0.27747259 0.52161817
0.49635399 0.33532604 0.52277896
0.59932982 0.41415794 0.52640183
0.70504214 0.50615655 0.53685016
0.81165052 0.60712998 0.56363465
0.91856143 0.71520118 0.61937742
0.31240479 0.31350678 0.52161677
0.31664217 0.31397817 0.52162702
0.34331081 0.31750646 0.52170569
0.40758812 0.33098095 0.52203982
0.49840809 0.36566218 0.52319539
0.60001829 0.42752879 0.52680241
0.70526750 0.51123108 0.53720837
0.81172196 0.60889022 0.56390396
0.91858287 0.71576497 0.61952670
0.36519727 0.41651690 0.52339865
0.36743688 0.41665435 0.52340871
0.38290030 0.41770271 0.52348588
0.42859026 0.42203092 0.52381369
0.50667423 0.43565241 0.52494758
0.60289419 0.46904126 0.52848863
0.70622087 0.53018042 0.53871810
0.81202545 0.61603715 0.56504187
0.91867406 0.71812780 0.62015957
0.44670787 0.52452265 0.52935687
0.44759276 0.52456452 0.52936630
0.45411214 0.52488541 0.52943869
0.47756806 0.52623916 0.52974624
0.53081058 0.53081058 0.53081058
0.61228679 0.54410456 0.53413961
0.70947087 0.57640682 0.54379858
0.81307566 0.63742431 0.56890459
0.91886608 0.72592845 0.62233338
0.54286952 0.63275079 0.54622175
0.54318141 0.63276405 0.54622962
0.54554234 0.63286581 0.54629007
0.55497588 0.63329778 0.54654695
0.58198440 0.63478850 0.54743701
0.63730121 0.63941033 0.55023184
0.71918096 0.65249719 0.55843070
0.81635967 0.68467737 0.58030549
0.91886608 0.74726545 0.62897677
0.64561269 0.74022675 0.58500497
0.64571773 0.74023099 0.58501018
0.64652050 0.74026350 0.58505020
0.64986359 0.74040178 0.58522038
0.66067282 0.74088227 0.58581129
0.68875980 0.74240456 0.58767911
0.74421443 0.74698819 0.59326516
0.82587895 0.76005618 0.60890986
0.91886608 0.79313249 0.64708893
0.75177348 0.84679976 0.65308240
0.75180744 0.84680108 0.65308494
0.75206784 0.84681125 0.65310442
0.75316826 0.84685451 0.65318731
0.75690580 0.84700518 0.65347571
0.76795294 0.84748600 0.65439344
0.79572440 0.84896579 0.65719329
0.85053036 0.85345527 0.66547392
0.91886608 0.86670482 0.68833193
0.86015008 0.91886608 0.74597442
0.86016044 0.91886608 0.74597537
0.86023990 0.91886608 0.74598262
0.86057741 0.91886608 0.74601349
0.86174413 0.91886608 0.74612102
0.86538084 0.91886608 0.74646458
0.87582836 0.91886608 0.74752552
0.90231982 0.91886608 0.75077727
0.91886608 0.91886608 0.76065740
0.37275448 0.28142262 0.62998095
0.37480419 0.28213972 0.62998419
0.38908507 0.28742691 0.63000906
0.43230673 0.30652907 0.63011485
0.50826619 0.35058424 0.63048276
0.60346766 0.42052143 0.63165146
0.70641329 0.50851040 0.63519821
0.81208696 0.60793856 0.64553259
0.91869257 0.71545927 0.67304654
0.37383643 0.29044255 0.62999834
0.37586040 0.29107839 0.63000158
0.38997929 0.29579019 0.63002644
0.43285338 0.31312355 0.63013222
0.50850366 0.35445831 0.63050006
0.60355376 0.42225354 0.63166855
0.70644225 0.50917029 0.63521467
0.81209622 0.60816770 0.64554734
0.91869536 0.71553269 0.67305757
0.38171385 0.33775948 0.63013178
0.38356056 0.33810744 0.63013501
0.39655262 0.34073077 0.63015984
0.43694270 0.35104106 0.63026547
0.51030710 0.37939751 0.63063280
0.60421223 0.43453213 0.63179965
0.70666428 0.51408661 0.63534095
0.81216731 0.60990890 0.64566057
0.91871676 0.71609450 0.67314222
0.40893802 0.42440788 0.63069774
0.41028940 0.42453357 0.63070095
0.42002537 0.42549282 0.63072563
0.45252003 0.42946391 0.63083063
0.51761438 0.44206682 0.63119578
0.60696510 0.47351982 0.63235575
0.70760365 0.53251616 0.63587668
0.81246933 0.61698205 0.64614107
0.91880782 0.71844914 0.67350171
0.46671786 0.52700264 0.63264474
0.46742763 0.52704341 0.63264789
0.47270065 0.52735588 0.63267207
0.49226010 0.52867446 0.63277493
0.53936215 0.53313079 0.63313266
0.61598014 0.54612046 0.63426927
0.71080697 0.57784067 0.63772097
0.81351446 0.63817877 0.64779738
0.91886608 0.72622416 0.67474440
0.55042724 0.63354330 0.63862334
0.55071500 0.63355645 0.63862629
0.55289563 0.63365736 0.63864899
0.56165018 0.63408574 0.63874556
0.58703775 0.63556419 0.63908145
0.64014918 0.64014918 0.64014918
0.72038653 0.65314090 0.64339641
0.81678295 0.68513565 0.65291453
0.91886608 0.74750082 0.67861745
0.64822438 0.74048057 0.65512374
0.64832657 0.74048479 0.65512622
0.64910759 0.74051722 0.65514529
0.65236200 0.74065512 0.65522641
0.66290445 0.74113430 0.65550867
0.69042204 0.74265252 0.65640696
0.74513812 0.74722426 0.65914866
0.82626016 0.76026133 0.66726679
0.91886608 0.79327590 0.68974197
0.75262546 0.84687918 0.69360063
0.75265912 0.84688050 0.69360229
0.75291714 0.84689066 0.69361497
0.75400761 0.84693389 0.69366894
0.75771220 0.84708442 0.69385686
0.76866910 0.84756482 0.69445617
0.79625470 0.84904332 0.69629689
0.85082044 0.85352901 0.70184804
0.91886608 0.86676838 0.71796733
0.86041059 0.91886608 0.76312623
0.86042091 0.91886608 0.76312701
0.86050015 0.91886608 0.76313304
0.86083667 0.91886608 0.76315871
0.86200002 0.91886608 0.76324814
0.86562650 0.91886608 0.76353395
0.87604674 0.91886608 0.76441766
0.90248134 0.91886608 0.76713635
0.91886608 0.91886608 0.77548752
0.46446233 0.35945146 0.73765324
0.46518988 0.35971881 0.73765427
0.47059043 0.36174364 0.73766220
0.49055975 0.36985355 0.73769595
0.53834255 0.39325926 0.73781351
0.61552959 0.44218808 0.73818902
0.71064220 0.51736586 0.73934783
0.81346013 0.61110399 0.74289229
0.91886608 0.71648415 0.75359817
0.46484490 0.36294101 0.73765878
0.46556940 0.36319743 0.73765982
0.47094811 0.36514060 0.73766775
0.49084739 0.37294347 0.73770149
0.53851449 0.39561800 0.73781905
0.61560537 0.44354843 0.73819453
0.71066988 0.51796584 0.73935328
0.81346925 0.61132559 0.74289753
0.91886608 0.71655677 0.75360284
0.46773003 0.38578680 0.73770135
0.46843197 0.38598260 0.73770239
0.47364875 0.38747136 0.73771031
0.49302662 0.39353499 0.73774404
0.53982432 0.41186439 0.73786155
0.61618528 0.45335908 0.73823686
0.71088215 0.52244825 0.73939508
0.81353928 0.61301011 0.74293778
0.91886608 0.71711249 0.75363871
0.47908115 0.44524874 0.73788235
0.47970119 0.44534822 0.73788338
0.48432727 0.44610850 0.73789129
0.50176641 0.44927481 0.73792496
0.54520369 0.45951648 0.73804223
0.61861492 0.48619633 0.73841682
0.71178047 0.53943118 0.73957283
0.81383678 0.61986315 0.74310890
0.91886608 0.71944203 0.75379127
0.51032192 0.53432236 0.73851062
0.51076396 0.53436006 0.73851165
0.51408981 0.53464899 0.73851950
0.52704948 0.53586906 0.73855294
0.56185798 0.54000209 0.73866943
0.62662817 0.55212911 0.73904152
0.71484666 0.58216752 0.74018986
0.81486642 0.64048855 0.74370305
0.91886608 0.72713834 0.75432118
0.57067168 0.63596760 0.74049466
0.57090372 0.63598041 0.74049566
0.57266672 0.63607877 0.74050335
0.57982305 0.63649635 0.74053609
0.60122604 0.63793789 0.74065013
0.64849909 0.64241192 0.74101441
0.72404146 0.65511623 0.74213887
0.81808753 0.68654752 0.74558069
0.91886608 0.74822942 0.75599815
0.65591798 0.74126593 0.74641111
0.65601219 0.74127012 0.74641205
0.65673246 0.74130227 0.74641927
0.65973870 0.74143902 0.74645000
0.66952915 0.74191420 0.74655703
0.69541416 0.74341987 0.74689898
0.74795501 0.74795501 0.74795501
0.82743617 0.76089676 0.75119205
0.91886608 0.79372068 0.76103041
0.75522756 0.84712586 0.76285106
0.75526029 0.84712718 0.76285184
0.75551121 0.84713731 0.76285789
0.75657182 0.84718042 0.76288364
0.76017745 0.84733054 0.76297333
0.77086264 0.84780962 0.76325999
0.79788539 0.84928413 0.76414630
0.85171707 0.85375806 0.76687285
0.91886608 0.86696584 0.77524681
0.86121633 0.91886608 0.80225355
0.86122656 0.91886608 0.80225406
0.86130509 0.91886608 0.80225801
0.86163859 0.91886608 0.80227479
0.86279158 0.91886608 0.80233328
0.86638656 0.91886608 0.80252034
0.87672279 0.91886608 0.80309996
0.90298200 0.91886608 0.80489469
0.91886608 0.91886608 0.81051556
0.56414424 0.44869132 0.84433826
0.56439293 0.44878707 0.84433858
0.56628097 0.44951890 0.84434106
0.57391957 0.45256936 0.84435161
0.59655084 0.46246343 0.84438839
0.64569065 0.48840463 0.84450606
0.72279204 0.54068125 0.84487122
0.81763795 0.62039741 0.84600717
0.91886608 0.71962832 0.84961582
0.56427485 0.44995724 0.84433999
0.56452319 0.45005165 0.84434032
0.56640865 0.45077331 0.84434280
0.57403730 0.45378227 0.84435335
0.59664347 0.46355134 0.84439012
0.64574575 0.48922457 0.84450779
0.72281636 0.54114880 0.84487295
0.81764666 0.62059830 0.84600887
0.91886608 0.71969854 0.84961746
0.56527172 0.45912705 0.84435330
0.56551746 0.45921234 0.84435363
0.56738328 0.45986458 0.84435610
0.57493642 0.46258974 0.84436665
0.59735172 0.47149718 0.84440342
0.64616779 0.49528815 0.84452108
0.72300287 0.54466317 0.84488618
0.81771355 0.62212676 0.84602193
0.91886608 0.72023601 0.84963001
0.56940101 0.49025662 0.84440994
0.56963620 0.49031725 0.84441026
0.57142287 0.49078151 0.84441274
0.57867074 0.49273201 0.84442328
0.60030867 0.49922587 0.84446003
0.64794364 0.51739789 0.84457761
0.72379273 0.55830373 0.84494248
0.81799773 0.62837047 0.84607753
0.91886608 0.72249010 0.84968341
0.58252673 0.55414829 0.84460710
0.58273137 0.55417879 0.84460742
0.58428812 0.55441266 0.84460989
0.59064192 0.55540177 0.84462041
0.60994888 0.55877077 0.84465708
0.65388624 0.56881259 0.84477440
0.72649539 0.59458027 0.84513848
0.81898157 0.64738857 0.84627106
0.91886608 0.72994946 0.84986932
0.61534134 0.64319279 0.84523561
0.61548598 0.64320466 0.84523593
0.61658925 0.64329580 0.84523839
0.62114698 0.64368277 0.84524884
0.63551171 0.64501960 0.84528525
0.67073637 0.64917790 0.84540175
0.73465997 0.66105776 0.84576329
0.82206243 0.69084403 0.84688807
0.91886608 0.75047864 0.85046214
0.67664711 0.74368749 0.84716357
0.67672276 0.74369157 0.84716388
0.67730167 0.74372290 0.84716629
0.67972709 0.74385615 0.84717651
0.68772596 0.74431920 0.84721215
0.70954907 0.74578681 0.84732618
0.75627565 0.75021080 0.84768007
0.83102906 0.76286230 0.84878121
0.91886608 0.79510208 0.85228198
0.76294698 0.84789532 0.85295564
0.76297709 0.84789662 0.85295594
0.76320801 0.84790667 0.85295819
0.76418464 0.84794941 0.85296777
0.76751110 0.84809825 0.85300118
0.77742412 0.84857325 0.85310808
0.80282009 0.85003535 0.85343988
0.85447280 0.85447280 0.85447280
0.91886608 0.86758244 0.85776162
0.86369760 0.91886608 0.86959792
0.86370755 0.91886608 0.86959817
0.86378391 0.91886608 0.86960004
0.86410827 0.91886608 0.86960799
0.86522989 0.91886608 0.86963570
0.86872947 0.91886608 0.86972440
0.87881057 0.91886608 0.86999981
0.90453409 0.91886608 0.87085825
0.91886608 0.91886608 0.87360213
0.67144846 0.54925703 0.91886608
0.67152839 0.54928916 0.91886608
0.67213994 0.54953553 0.91886608
0.67469987 0.55057714 0.91886608
0.68311763 0.55412056 0.91886608
0.70591308 0.56464429 0.91886608
0.75408705 0.59142588 0.91886608
0.83006667 0.64559685 0.91886608
0.91886608 0.72920790 0.91886608
0.67149042 0.54968375 0.91886608
0.67157032 0.54971574 0.91886608
0.67218160 0.54996099 0.91886608
0.67474041 0.55099791 0.91886608
0.68315471 0.55452577 0.91886608
0.70594219 0.56500663 0.91886608
0.75410444 0.59169871 0.91886608
0.83007427 0.64575080 0.91886608
0.91886608 0.72927129 0.91886608
0.67181201 0.55289726 0.91886608
0.67189163 0.55292817 0.91886608
0.67250084 0.55316517 0.91886608
0.67505113 0.55416745 0.91886608
0.68343896 0.55758023 0.91886608
0.70616540 0.56774337 0.91886608
0.75423786 0.59376785 0.91886608
0.83013259 0.64692463 0.91886608
0.91886608 0.72975666 0.91886608
0.67316886 0.56546532 0.91886608
0.67324735 0.56549236 0.91886608
0.67384791 0.56569973 0.91886608
0.67636254 0.56657739 0.91886608
0.68463951 0.56957467 0.91886608
0.70710975 0.57857769 0.91886608
0.75480370 0.60210160 0.91886608
0.83038043 0.65176474 0.91886608
0.91886608 0.73179511 0.91886608
0.67775228 0.59951243 0.91886608
0.67782705 0.59953127 0.91886608
0.67839925 0.59967585 0.91886608
0.68079697 0.60028884 0.91886608
0.68870928 0.60239532 0.91886608
0.71032967 0.60884174 0.91886608
0.75674983 0.62647943 0.91886608
0.83123921 0.66692992 0.91886608
0.91886608 0.73857287 0.91886608
0.69109065 0.66353189 0.91886608
0.69115556 0.66354147 0.91886608
0.69165252 0.66361497 0.91886608
0.69373922 0.66392723 0.91886608
0.70067228 0.66500786 0.91886608
0.71995567 0.66838764 0.91886608
0.76272118 0.67819107 0.91886608
0.83393574 0.70363535 0.91886608
0.91886608 0.75745919 0.91886608
0.72350346 0.75117594 0.91886608
0.72354944 0.75117971 0.91886608
0.72390173 0.75120861 0.91886608
0.72538678 0.75133158 0.91886608
0.73038719 0.75175898 0.91886608
0.74480769 0.75311468 0.91886608
0.77916456 0.75721075 0.91886608
0.84184468 0.76899883 0.91886608
0.91886608 0.79946892 0.91886608
0.78441374 0.85036041 0.91886608
0.78443761 0.85036168 0.91886608
0.78462071 0.85037145 0.91886608
0.78539610 0.85041303 0.91886608
0.78804934 0.85055784 0.91886608
0.79606474 0.85102002 0.91886608
0.81728231 0.85244302 0.91886608
0.86291322 0.85676539 0.91886608
0.91886608 0.86956460 0.91886608
0.87134151 0.91886608 0.91886608
0.87135064 0.91886608 0.91886608
0.87142071 0.91886608 0.91886608
0.87171837 0.91886608 0.91886608
0.87274835 0.91886608 0.91886608
0.87596843 0.91886608 0.91886608
0.88529667 0.91886608 0.91886608
0.90941271 0.91886608 0.91886608
0.91886608 0.91886608 0.91886608
