src/ffmpeg_scripts/luts/sRGB-rec2020_-2p33.cube
TITLE "sRGB-rec2020_-2p33"
LUT_3D_SIZE 5
# PQ (EOTF Only)/sRGB -> PQ (EOTF Only)/Rec2020, CineEI Shift -2.33, Black Level 0.00% IRE, Input 100% -> Output 109% - Created with LUTCalc v4.01 by Ben Turley October 2020
0.06256172 0.06256172 0.06256172
0.17259739 0.10855637 0.08629127
0.32862959 0.20149926 0.14566079
0.51513447 0.33980131 0.24878964
0.72681544 0.52503137 0.40526776
0.14939903 0.18829871 0.11360865
0.19001051 0.19144279 0.11743614
0.33062376 0.22874585 0.15433209
0.51537369 0.34456821 0.25034416
0.72684071 0.52563076 0.40548365
0.28628336 0.35564272 0.21295876
0.29265346 0.35594630 0.21346273
0.35851853 0.36091492 0.22141750
0.51932525 0.39978951 0.27244951
0.72726668 0.53521610 0.40905308
0.46021427 0.54879287 0.35710431
0.46104096 0.54882790 0.35717516
0.47397879 0.54941786 0.35836340
0.55231952 0.55525029 0.36963826
0.73151734 0.59995082 0.43908418
0.66671155 0.76252456 0.54638905
0.66680272 0.76252817 0.54639758
0.66833010 0.76258923 0.54654155
0.68268416 0.76321173 0.54800213
0.76622048 0.76928556 0.56162662
0.09995536 0.08238969 0.18716715
0.17523269 0.11168533 0.18794419
0.32889475 0.20192125 0.19969443
0.51516597 0.33986195 0.26319069
0.72681876 0.52503880 0.40744005
0.15353626 0.18882782 0.19121971
0.19194361 0.19194361 0.19194361
0.33088241 0.22901898 0.20298335
0.51540511 0.34462541 0.26445929
0.72684403 0.52563814 0.40765063
0.28674094 0.35569272 0.23591784
0.29307396 0.35599611 0.23627102
0.35870248 0.36096184 0.24197320
0.51935537 0.39981922 0.28308854
0.72726999 0.53522276 0.41113430
0.46027159 0.54879863 0.36088992
0.46109776 0.54883366 0.36095762
0.47402805 0.54942359 0.36209344
0.55234067 0.55525567 0.37290786
0.73152050 0.59995416 0.44057118
0.66671785 0.76252515 0.54685384
0.66680901 0.76252877 0.54686232
0.66833629 0.76258983 0.54700559
0.68268948 0.76321232 0.54845900
0.76622266 0.76928611 0.56202188
0.18110132 0.13460342 0.35373461
0.20738567 0.14333219 0.35380841
0.33324756 0.20863750 0.35504553
0.51569664 0.34087979 0.36674676
0.72687492 0.52516425 0.43779657
0.19635540 0.19709996 0.35413009
0.21761715 0.19981092 0.35420354
0.33513169 0.23346991 0.35543481
0.51593441 0.34558584 0.36708518
0.72690017 0.52576279 0.43794594
0.29407865 0.35653300 0.36054226
0.29984799 0.35683334 0.36061025
0.36175078 0.36175078 0.36175078
0.51986269 0.40031982 0.37260669
0.72732587 0.53533525 0.44043283
0.46123459 0.54889593 0.40773455
0.46205207 0.54893092 0.40777368
0.47485639 0.54952024 0.40843216
0.55269733 0.55534650 0.41489940
0.73157390 0.60001069 0.46256418
0.66682418 0.76253520 0.55437779
0.66691524 0.76253881 0.55438562
0.66844082 0.76259987 0.55451785
0.68277927 0.76322229 0.55586016
0.76625944 0.76929545 0.56846112
0.30797524 0.22902589 0.54644712
0.31282121 0.23066257 0.54645564
0.36803350 0.25357083 0.54659953
0.52095907 0.35062459 0.54805920
0.72744758 0.52643832 0.56167599
0.31055613 0.24807177 0.54649287
0.31524906 0.24930784 0.54650139
0.36927368 0.26744025 0.54664520
0.52118376 0.35481710 0.54810417
0.72747268 0.52702875 0.56171488
0.34484115 0.36467569 0.54726257
0.34793085 0.36494813 0.54727101
0.38787490 0.36942256 0.54741365
0.52490063 0.40528275 0.54886080
0.72789579 0.53647849 0.56236972
0.47054183 0.54988574 0.55479501
0.47127999 0.54992037 0.55480280
0.48292651 0.55050352 0.55493444
0.55627085 0.55627085 0.55627085
0.73211859 0.60058715 0.56882038
0.66790540 0.76263791 0.60896995
0.66799543 0.76264152 0.60897434
0.66950380 0.76270250 0.60904846
0.68369315 0.76332424 0.60980351
0.76663499 0.76939094 0.61712221
0.48468122 0.37720035 0.76006156
0.48531391 0.37743522 0.76006244
0.49539375 0.38130883 0.76007732
0.56214504 0.41330051 0.76022942
0.73305282 0.53843585 0.76175462
0.48501382 0.38027407 0.76006628
0.48564423 0.38050061 0.76006716
0.49568981 0.38424023 0.76008204
0.56228976 0.41533675 0.76023414
0.73307646 0.53895525 0.76175926
0.49045887 0.42034514 0.76014615
0.49105308 0.42048790 0.76014703
0.50055373 0.42286592 0.76016189
0.56470203 0.44411484 0.76031386
0.73347501 0.54732178 0.76183768
0.53304623 0.55935386 0.76095938
0.53342195 0.55938517 0.76096025
0.53955224 0.55991253 0.76097499
0.58637364 0.56514502 0.76112563
0.73745824 0.60623019 0.76263628
0.67820081 0.76367079 0.76880979
0.67828154 0.76367436 0.76881059
0.67963531 0.76373467 0.76882413
0.69247337 0.76434954 0.76896255
0.77035155 0.77035155 0.77035155
