src/ffmpeg_scripts/luts/sRGB-rec2020_-1p33.cube
TITLE "sRGB-rec2020_-1p33"
LUT_3D_SIZE 9
# PQ (EOTF Only)/sRGB -> PQ (EOTF Only)/Rec2020, CineEI Shift -1.33, Black Level 0.00% IRE, Input 100% -> Output 109% - Created with LUTCalc v4.01 by Ben Turley October 2020
0.06256172 0.06256172 0.06256172
0.12536365 0.08596042 0.07383653
0.20217210 0.12421204 0.09549263
0.28720719 0.17451450 0.12738075
0.37859386 0.23597210 0.16999591
0.47530054 0.30814049 0.22397602
0.57665480 0.39077068 0.29001891
0.68217604 0.48371829 0.36885582
0.79149990 0.58690200 0.46124061
0.11046202 0.13578705 0.08885016
0.13693875 0.13790462 0.09106882
0.20490540 0.15143363 0.10351594
0.28799725 0.18596151 0.13065324
0.37884758 0.24039667 0.17130919
0.47538558 0.30980769 0.22449982
0.57668341 0.39138385 0.29022311
0.68218541 0.48393473 0.36893199
0.79150280 0.58697363 0.46126715
0.17450653 0.22061689 0.13057355
0.18257051 0.22105059 0.13115522
0.22261560 0.22428617 0.13536218
0.29380204 0.23649830 0.14969797
0.38077095 0.26728041 0.18043518
0.47603596 0.32154716 0.22838638
0.57690275 0.39595212 0.29177294
0.68225729 0.48557990 0.36951461
0.79152507 0.58752188 0.46147069
0.24899770 0.31187713 0.18439954
0.25152576 0.31199774 0.18458867
0.26839045 0.31291765 0.18601999
0.31451618 0.31671708 0.19173617
0.38850563 0.32869326 0.20816345
0.47875393 0.35821345 0.24276120
0.57783083 0.41308578 0.29803674
0.68256266 0.49227093 0.37195068
0.79161979 0.58982076 0.46233208
0.33197862 0.40795761 0.24919988
0.33282451 0.40799552 0.24926692
0.33904022 0.40828609 0.24977956
0.36121843 0.40951231 0.25192025
0.41106799 0.41365762 0.25890717
0.48764382 0.42575282 0.27754917
0.58099668 0.45539752 0.31657817
0.68361959 0.51240242 0.37993328
0.79194928 0.59742388 0.46527267
0.42234447 0.50798941 0.32437100
0.42263626 0.50800192 0.32439543
0.42484528 0.50809792 0.32458277
0.43367749 0.50850551 0.32537537
0.45903248 0.50991258 0.32807852
0.51142424 0.51428010 0.33616866
0.59047438 0.52668795 0.35716910
0.68692681 0.55745546 0.40140263
0.79299655 0.61832670 0.47409645
0.51936157 0.61141413 0.40953878
0.51946201 0.61141829 0.40954761
0.52022964 0.61145018 0.40961541
0.52342833 0.61158582 0.40990345
0.53379179 0.61205719 0.41090028
0.56087615 0.61355112 0.41401832
0.61504159 0.61805409 0.42306761
0.69653222 0.63093105 0.44662684
0.79618075 0.66377884 0.49711148
0.62249775 0.71783719 0.50445321
0.62253129 0.71783854 0.50445630
0.62278847 0.71784887 0.50447997
0.62387548 0.71789282 0.50458068
0.62757028 0.71804589 0.50493093
0.63851641 0.71853443 0.50604376
0.66620110 0.72003844 0.50942314
0.72153654 0.72460563 0.51928887
0.80550646 0.73812166 0.54569862
0.73134458 0.82696230 0.60894006
0.73135515 0.82696272 0.60894107
0.73143629 0.82696588 0.60894884
0.73178093 0.82697937 0.60898189
0.73297257 0.82702635 0.60909705
0.73668962 0.82717667 0.60946490
0.74739034 0.82764279 0.61060042
0.77467218 0.82908960 0.61407646
0.83062145 0.83365448 0.62460189
0.08115058 0.07183508 0.13502736
0.12709498 0.08774475 0.13554890
0.20253883 0.12468817 0.13935047
0.28731159 0.17467180 0.15261796
0.37862728 0.23602860 0.18204770
0.47531173 0.30816131 0.22911773
0.57665857 0.39077828 0.29207141
0.68217728 0.48372097 0.36962773
0.79150028 0.58690288 0.46151032
0.11307299 0.13614272 0.13775405
0.13824284 0.13824284 0.13824284
0.20525586 0.15168331 0.14182039
0.28810056 0.18608907 0.15447171
0.37888090 0.24044956 0.18309910
0.47539676 0.30982807 0.22960174
0.57668717 0.39139140 0.29227014
0.68218664 0.48393740 0.36970321
0.79150318 0.58697452 0.46153678
0.17510377 0.22068841 0.15442559
0.18308554 0.22112162 0.15476328
0.22287943 0.22435371 0.15727966
0.29389769 0.23655435 0.16674481
0.38080352 0.26731637 0.19057307
0.47604707 0.32156471 0.23320383
0.57690651 0.39595928 0.29377890
0.68225852 0.48558252 0.37028053
0.79152545 0.58752276 0.46173972
0.24917523 0.31189698 0.19390288
0.25169692 0.31201755 0.19406289
0.26852532 0.31293724 0.19527707
0.31458929 0.31673574 0.20018094
0.38853539 0.32870931 0.21469216
0.47876470 0.35822462 0.24667341
0.57783454 0.41309166 0.29988588
0.68256388 0.49227337 0.37269488
0.79162017 0.58982162 0.46259857
0.33203731 0.40796384 0.25277086
0.33288258 0.40800175 0.25283453
0.33909399 0.40829230 0.25332152
0.36125951 0.40951844 0.25535736
0.41109093 0.41366347 0.26202584
0.48765360 0.42575792 0.27996983
0.58100027 0.45540117 0.31803780
0.68362080 0.51240439 0.38061086
0.79194966 0.59742468 0.46553067
0.42236464 0.50799146 0.32569493
0.42265637 0.50800397 0.32571895
0.42486489 0.50809998 0.32590321
0.43369525 0.50850755 0.32668284
0.45904587 0.50991459 0.32934283
0.51143180 0.51428202 0.33731291
0.59047763 0.52668963 0.35805622
0.68692798 0.55745667 0.40193096
0.79299692 0.61832734 0.47433063
0.51936851 0.61141482 0.41002013
0.51946894 0.61141897 0.41002891
0.52023652 0.61145086 0.41009634
0.52343497 0.61158650 0.41038281
0.53379774 0.61205787 0.41137422
0.56088060 0.61355179 0.41447573
0.61504409 0.61805473 0.42348045
0.69653328 0.63093161 0.44694391
0.79618111 0.66377923 0.49729373
0.62250007 0.71783741 0.50462154
0.62253361 0.71783876 0.50462462
0.62279077 0.71784909 0.50464825
0.62387776 0.71789304 0.50474878
0.62757248 0.71804611 0.50509839
0.63851836 0.71853465 0.50620922
0.66620256 0.72003866 0.50958268
0.72153735 0.72460584 0.51943232
0.80550679 0.73812183 0.54580673
0.73134531 0.82696237 0.60899531
0.73135588 0.82696278 0.60899632
0.73143702 0.82696595 0.60900409
0.73178165 0.82697943 0.60903713
0.73297328 0.82702642 0.60915222
0.73669031 0.82717674 0.60951985
0.74739095 0.82764286 0.61065471
0.77467264 0.82908967 0.61412880
0.83062170 0.83365454 0.62464871
0.11326380 0.09030991 0.21929442
0.13834067 0.09807233 0.21939974
0.20528251 0.12815745 0.22020268
0.28810843 0.17586442 0.22351182
0.37888344 0.23646085 0.23388034
0.47539761 0.30832100 0.25920555
0.57668746 0.39083665 0.30621899
0.68218673 0.48374152 0.37533068
0.79150321 0.58690968 0.46355503
0.12841891 0.13877757 0.21985789
0.14712657 0.14075405 0.21996228
0.20788145 0.15355739 0.22075817
0.28888910 0.18705899 0.22403941
0.37913629 0.24085429 0.23433066
0.47548257 0.30998437 0.25951689
0.57671605 0.39144934 0.30638416
0.68219610 0.48395791 0.37540123
0.79150611 0.58698131 0.46358090
0.17948050 0.22123493 0.22402608
0.18688876 0.22166445 0.22412388
0.22486994 0.22486994 0.22486994
0.29462814 0.23698321 0.22795289
0.38105322 0.26759185 0.23769038
0.47613226 0.32169933 0.26186292
0.57693532 0.39601424 0.30764088
0.68226797 0.48560266 0.37594101
0.79152838 0.58752951 0.46377932
0.25052343 0.31204919 0.23927605
0.25299735 0.31216953 0.23935361
0.26955259 0.31308744 0.23994624
0.31514844 0.31687884 0.24241229
0.38876352 0.32883238 0.25037144
0.47884740 0.35831036 0.27106753
0.57786307 0.41313680 0.31277424
0.68257330 0.49229210 0.37820116
0.79162310 0.58982821 0.46461915
0.33248649 0.40801171 0.27544334
0.33332709 0.40804960 0.27548968
0.33950571 0.40833998 0.27584453
0.36157423 0.40956546 0.27733618
0.41126684 0.41370831 0.28231188
0.48772865 0.42579701 0.29632286
0.58102786 0.45542924 0.32843000
0.68363012 0.51241945 0.38564182
0.79195257 0.59743076 0.46748770
0.42251940 0.50800726 0.33519071
0.42281062 0.50801977 0.33521206
0.42501534 0.50811575 0.33537577
0.43383146 0.50852326 0.33606901
0.45914858 0.50993007 0.33844039
0.51148981 0.51429678 0.34560015
0.59050258 0.52670254 0.36457035
0.68693697 0.55746597 0.40588423
0.79299981 0.61833221 0.47610908
0.51942176 0.61142006 0.41363061
0.51952213 0.61142422 0.41363905
0.52028927 0.61145610 0.41370375
0.52348595 0.61159174 0.41397867
0.53384335 0.61206308 0.41493044
0.56091477 0.61355692 0.41791086
0.61506333 0.61805962 0.42658788
0.69654140 0.63093588 0.44934204
0.79618390 0.66378225 0.49868129
0.62251785 0.71783911 0.50590396
0.62255139 0.71784046 0.50590700
0.62280850 0.71785078 0.50593030
0.62389528 0.71789474 0.50602945
0.62758933 0.71804781 0.50637426
0.63853337 0.71853633 0.50746996
0.66621376 0.72004031 0.51079860
0.72154357 0.72460742 0.52052652
0.80550931 0.73812320 0.54663273
0.73135091 0.82696289 0.60941853
0.73136149 0.82696330 0.60941953
0.73144262 0.82696647 0.60942726
0.73178723 0.82697995 0.60946015
0.73297879 0.82702694 0.60957473
0.73669560 0.82717726 0.60994073
0.74739567 0.82764338 0.61107058
0.77467616 0.82909018 0.61452970
0.83062361 0.83365502 0.62500749
0.15708490 0.11828959 0.31012744
0.16804214 0.12156584 0.31015672
0.21575107 0.14026046 0.31038115
0.29140898 0.18066451 0.31132941
0.37996533 0.23827020 0.31454799
0.47576232 0.30899714 0.32404941
0.57681034 0.39108464 0.34796893
0.68222699 0.48382898 0.39606823
0.79151568 0.58693862 0.47177805
0.16313409 0.14848488 0.31028451
0.17296818 0.15007982 0.31031373
0.21795204 0.16080203 0.31053771
0.29215629 0.19101108 0.31148407
0.38021499 0.24255057 0.31469643
0.47584693 0.31064626 0.32418102
0.57683889 0.39169558 0.34806685
0.68223635 0.48404517 0.39612360
0.79151858 0.58701023 0.47180168
0.19499759 0.22351047 0.31148016
0.20072639 0.22392504 0.31150893
0.23271977 0.22702250 0.31172951
0.29766132 0.23877868 0.31266161
0.38210805 0.26875291 0.31582695
0.47649405 0.32226985 0.32518448
0.57705788 0.39624780 0.34881489
0.68230819 0.48568837 0.39654758
0.79154084 0.58755826 0.47198296
0.25598636 0.31269386 0.31637472
0.25827701 0.31281321 0.31640175
0.27376945 0.31372363 0.31660899
0.31748514 0.31748514 0.31748514
0.38972794 0.32935420 0.32046564
0.47919861 0.35867438 0.32932029
0.57798443 0.41332870 0.35192528
0.68261339 0.49237179 0.39832958
0.79163555 0.58985627 0.47275063
0.33437111 0.40821517 0.33139717
0.33519238 0.40825297 0.33141954
0.34123543 0.40854268 0.33159114
0.36290086 0.40976534 0.33231756
0.41201179 0.41389897 0.33479997
0.48804747 0.42596325 0.34227300
0.58114521 0.45554861 0.36193658
0.68366976 0.51248353 0.40427033
0.79196498 0.59745664 0.47537747
0.42317521 0.50807447 0.36649246
0.42346427 0.50808697 0.36650706
0.42565295 0.50818289 0.36661905
0.43440898 0.50859010 0.36709415
0.45958452 0.50999590 0.36872977
0.51173632 0.51435958 0.37376374
0.59060873 0.52675750 0.38775168
0.68697525 0.55750553 0.42096012
0.79301207 0.61835296 0.48331490
0.51964811 0.61144239 0.42753027
0.51974824 0.61144654 0.42753747
0.52051352 0.61147842 0.42759274
0.52370263 0.61161402 0.42782765
0.53403727 0.61208525 0.42864178
0.56106005 0.61357874 0.43119985
0.61514520 0.61808043 0.43871910
0.69657597 0.63095404 0.45889141
0.79619575 0.66379508 0.50436519
0.62259351 0.71784634 0.51117265
0.62262702 0.71784769 0.51117551
0.62288393 0.71785801 0.51119753
0.62396985 0.71790196 0.51129119
0.62766104 0.71805502 0.51161700
0.63859726 0.71854351 0.51265273
0.66626143 0.72004738 0.51580338
0.72157006 0.72461415 0.52504558
0.80552001 0.73812902 0.55006970
0.73137477 0.82696511 0.61119924
0.73138534 0.82696552 0.61120023
0.73146645 0.82696869 0.61120781
0.73181098 0.82698217 0.61124009
0.73300223 0.82702916 0.61135253
0.73671813 0.82717947 0.61171173
0.74741576 0.82764558 0.61282073
0.77469113 0.82909234 0.61621755
0.83063173 0.83365708 0.62651978
0.21218755 0.15655663 0.40589224
0.21655033 0.15790388 0.40590145
0.24277819 0.16717806 0.40597214
0.30190578 0.19474486 0.40627244
0.38363309 0.24422248 0.40731133
0.47702250 0.31130940 0.41055755
0.57723748 0.39194368 0.41995141
0.68236719 0.48413325 0.44424526
0.79155913 0.58703943 0.49575166
0.21451529 0.17204632 0.40594168
0.21872400 0.17304075 0.40595089
0.24424248 0.18011413 0.40602154
0.30255725 0.20299590 0.40632167
0.38387225 0.24815366 0.40735998
0.47710595 0.31291080 0.41060442
0.57726591 0.39254858 0.41999353
0.68237654 0.48434871 0.44427731
0.79156203 0.58711096 0.49576986
0.23000419 0.23086924 0.40632042
0.23333471 0.23123952 0.40632959
0.25455163 0.23401542 0.40639993
0.30738420 0.24468822 0.40669876
0.38568673 0.27266063 0.40773262
0.47774424 0.32422737 0.41096351
0.57748390 0.39705715 0.42031627
0.68244827 0.48598653 0.44452303
0.79158429 0.58765842 0.49590943
0.27228103 0.31490066 0.40791454
0.27411080 0.31501669 0.40792354
0.28682121 0.31590201 0.40799261
0.32512967 0.31956309 0.40828604
0.39300799 0.33114729 0.40930138
0.48041258 0.35993113 0.41247585
0.57840630 0.41399445 0.42167710
0.68275302 0.49264906 0.44556156
0.79167895 0.58995401 0.49650125
0.34061761 0.40892081 0.41325505
0.34137824 0.40895831 0.41326352
0.34699392 0.40924569 0.41332850
0.36736792 0.41045862 0.41360460
0.41456041 0.41456041 0.41456041
0.48915036 0.42654036 0.41755320
0.58155320 0.45596356 0.42626376
0.68380783 0.51270661 0.44909096
0.79200822 0.59754684 0.49853526
0.42542418 0.50830841 0.42845532
0.42570600 0.50832088 0.42846244
0.42784059 0.50841655 0.42851714
0.43639358 0.50882274 0.42874962
0.46108813 0.51022504 0.42955537
0.51259066 0.51457820 0.43208762
0.59097785 0.52694885 0.43953537
0.68710857 0.55764331 0.45954423
0.79305483 0.61842528 0.50476290
0.52043294 0.61152018 0.46386869
0.52053223 0.61152433 0.46387349
0.52129111 0.61155618 0.46391036
0.52445412 0.61169167 0.46406713
0.53471018 0.61216252 0.46461157
0.56156481 0.61365480 0.46633347
0.61543004 0.61815295 0.47149158
0.69669638 0.63101734 0.48600481
0.79623704 0.66383981 0.52182862
0.62285681 0.71787154 0.52750357
0.62289023 0.71787289 0.52750598
0.62314643 0.71788321 0.52752444
0.62422935 0.71792715 0.52760302
0.62791063 0.71808016 0.52787645
0.63881963 0.71856852 0.52874675
0.66642745 0.72007199 0.53140389
0.72166235 0.72463759 0.53927976
0.80555730 0.73814931 0.56115352
0.73145788 0.82697284 0.61715746
0.73146844 0.82697325 0.61715838
0.73154949 0.82697642 0.61716550
0.73189371 0.82698990 0.61719581
0.73308392 0.82703688 0.61730139
0.73679662 0.82718718 0.61763873
0.74748575 0.82765325 0.61868074
0.77474329 0.82909989 0.62187690
0.83066002 0.83366426 0.63161061
0.27846664 0.20600862 0.50570574
0.28014987 0.20655671 0.50570878
0.29194182 0.21060875 0.50573213
0.32829333 0.22540493 0.50583149
0.39442153 0.26041262 0.50617705
0.48094507 0.31828518 0.50727507
0.57859251 0.39463847 0.51061060
0.68281479 0.48510090 0.52035724
0.79169816 0.58736157 0.54650478
0.27935485 0.21292844 0.50572207
0.28101814 0.21341832 0.50572511
0.29268391 0.21705698 0.50574846
0.32875925 0.23056832 0.50584780
0.39463248 0.26354704 0.50619330
0.48102502 0.31975166 0.50729113
0.57862053 0.39522481 0.51062609
0.68282409 0.48531411 0.52037118
0.79170106 0.58743286 0.54651532
0.28584129 0.25009945 0.50584739
0.28736687 0.25037798 0.50585043
0.29815214 0.25248014 0.50587375
0.33224945 0.26078177 0.50597295
0.39623536 0.28393040 0.50631798
0.48163661 0.33019103 0.50741434
0.57883542 0.39959929 0.51074494
0.68289548 0.48693492 0.52047820
0.79172328 0.58797845 0.54659621
0.30851791 0.32157776 0.50637898
0.30965382 0.32168438 0.50638200
0.31786547 0.32249830 0.50640519
0.34562060 0.32587273 0.50650382
0.40274490 0.33663462 0.50684688
0.48419536 0.36383290 0.50793703
0.57974475 0.41609312 0.51124922
0.68319880 0.49353142 0.52093239
0.79181780 0.59026637 0.54693974
0.35791070 0.41114303 0.50820871
0.35852765 0.41117958 0.50821167
0.36311852 0.41145977 0.50823440
0.38026167 0.41264260 0.50833111
0.42225794 0.41664576 0.50866747
0.49259583 0.42836366 0.50973651
0.58284801 0.45727972 0.51298609
0.68424866 0.51341742 0.52249870
0.79214657 0.59783509 0.54812765
0.43226479 0.50905364 0.51383637
0.43252573 0.50906600 0.51383916
0.43450425 0.50916091 0.51386055
0.44246768 0.50956386 0.51395156
0.46574206 0.51095506 0.51426816
0.51527486 0.51527486 0.51527486
0.59215034 0.52755902 0.51833918
0.68753427 0.55808322 0.52734443
0.79319161 0.61865648 0.55183363
0.52290268 0.61176887 0.52943954
0.52299936 0.61177301 0.52944190
0.52373846 0.61180478 0.52945999
0.52682073 0.61193992 0.52953695
0.53683312 0.61240953 0.52980478
0.56316328 0.61389795 0.53065734
0.61633650 0.61838482 0.53326135
0.69708096 0.63121976 0.54098839
0.79636916 0.66398292 0.56250917
0.62369513 0.71795220 0.56622273
0.62372825 0.71795354 0.56622432
0.62398219 0.71796386 0.56623654
0.62505565 0.71800776 0.56628852
0.62870552 0.71816064 0.56646952
0.63952828 0.71864858 0.56704683
0.66695716 0.72015078 0.56882083
0.72195730 0.72471263 0.57417822
0.80567664 0.73821426 0.58979805
0.73172356 0.82699759 0.63404811
0.73173409 0.82699800 0.63404889
0.73181491 0.82700117 0.63405484
0.73215815 0.82701464 0.63408020
0.73334502 0.82706161 0.63416853
0.73704757 0.82721187 0.63445086
0.74770954 0.82767781 0.63532399
0.77491015 0.82912407 0.63801181
0.83075056 0.83368725 0.64628397
0.35595176 0.26759973 0.60899984
0.35658338 0.26781713 0.60900085
0.36127971 0.26946498 0.60900861
0.37876433 0.27608841 0.60904165
0.42133850 0.29540955 0.60915673
0.49217523 0.33673855 0.60952435
0.58268829 0.40252312 0.61065916
0.68419407 0.48804809 0.61413308
0.79212942 0.58835693 0.62465255
0.35628386 0.27044054 0.60900527
0.35691296 0.27064956 0.60900628
0.36159123 0.27223477 0.60901404
0.37901754 0.27862174 0.60904707
0.42149351 0.29737323 0.60916215
0.49224597 0.33790499 0.60952975
0.58271512 0.40305860 0.61066449
0.68420324 0.48825456 0.61413823
0.79213230 0.58842746 0.62465715
0.35879056 0.28920846 0.60904694
0.35940104 0.28937056 0.60904795
0.36394537 0.29060376 0.60905571
0.38093711 0.29563894 0.60908873
0.42267485 0.31097889 0.60920376
0.49278736 0.34634419 0.60957119
0.58292089 0.40706411 0.61070544
0.68427359 0.48982471 0.61417769
0.79215441 0.58896735 0.62469246
0.36869117 0.33936422 0.60922412
0.36923372 0.33944965 0.60922513
0.37328736 0.34010263 0.60923287
0.38865743 0.34282514 0.60926583
0.42753426 0.35166481 0.60938065
0.49505707 0.37492795 0.60974740
0.58379183 0.42232020 0.61087954
0.68457251 0.49622404 0.61434553
0.79224849 0.59123171 0.62484265
0.39624854 0.41771763 0.60983925
0.39664165 0.41775155 0.60984025
0.39960214 0.41801155 0.60984794
0.41118502 0.41910986 0.60988069
0.44265709 0.42283524 0.60999476
0.50255931 0.43380854 0.61035914
0.58676678 0.46125658 0.61148403
0.68560728 0.51559493 0.61492833
0.79257573 0.59872644 0.62536441
0.45070764 0.51133481 0.61178268
0.45092003 0.51134687 0.61178366
0.45253443 0.51143948 0.61179120
0.45910080 0.51183265 0.61182328
0.47886442 0.51319045 0.61193503
0.52316260 0.51740971 0.61229202
0.59570814 0.52943241 0.61339428
0.68884667 0.55943898 0.61677092
0.79361592 0.61937229 0.62701620
0.53019321 0.61253854 0.61758623
0.53028262 0.61254264 0.61758716
0.53096634 0.61257416 0.61759424
0.53382212 0.61270820 0.61762441
0.54314618 0.61317402 0.61772952
0.56796994 0.61465055 0.61806534
0.61910268 0.61910268 0.61910268
0.69826764 0.63184684 0.62228485
0.79677905 0.66442683 0.63197875
0.62625706 0.71820273 0.63377633
0.62628930 0.71820407 0.63377711
0.62653647 0.71821436 0.63378308
0.62758149 0.71825814 0.63380851
0.63113699 0.71841062 0.63389709
0.64169991 0.71889726 0.63418023
0.66858661 0.72039551 0.63505586
0.72286915 0.72494575 0.63775120
0.80604696 0.73841606 0.64604521
0.73254544 0.82707455 0.67295581
0.73255588 0.82707497 0.67295633
0.73263598 0.82707813 0.67296027
0.73297623 0.82709160 0.67297707
0.73415282 0.82713853 0.67303562
0.73782410 0.82728866 0.67322288
0.74840247 0.82775420 0.67380316
0.77542741 0.82919924 0.67560067
0.83103171 0.83375872 0.68123716
0.44474227 0.34232306 0.71537277
0.44496923 0.34240544 0.71537310
0.44669306 0.34303522 0.71537561
0.45368247 0.34566313 0.71538632
0.47453146 0.35421774 0.71542364
0.52050663 0.37686842 0.71554305
0.59449139 0.42344812 0.71591364
0.68839432 0.49672371 0.71706674
0.79346923 0.59141287 0.72073264
0.44486146 0.34341256 0.71537453
0.44508811 0.34349384 0.71537486
0.44680968 0.34411532 0.71537737
0.45379038 0.34670928 0.71538808
0.47461722 0.35516126 0.71542540
0.52055871 0.37758948 0.71554481
0.59451506 0.42387016 0.71591539
0.68840309 0.49691162 0.71706847
0.79347207 0.59148116 0.72073430
0.44577140 0.35132775 0.71538804
0.44599577 0.35140156 0.71538836
0.44770018 0.35196614 0.71539088
0.45461473 0.35432726 0.71540158
0.47527309 0.36206957 0.71543890
0.52095765 0.38293149 0.71555829
0.59469667 0.42704542 0.71592882
0.68847038 0.49834186 0.71708173
0.79349386 0.59200392 0.72074706
0.44954499 0.37849753 0.71544551
0.44976014 0.37855089 0.71544583
0.45139529 0.37895954 0.71544835
0.45804206 0.38067748 0.71545905
0.47801351 0.38640965 0.71549634
0.52263707 0.40255171 0.71561566
0.59546586 0.43941982 0.71598596
0.68875631 0.50419383 0.71713817
0.79358658 0.59419742 0.72080134
0.46158709 0.43564172 0.71564559
0.46177539 0.43566942 0.71564591
0.46320846 0.43588187 0.71564842
0.46906772 0.43678061 0.71565910
0.48697215 0.43984490 0.71569631
0.52826573 0.44900683 0.71581537
0.59809952 0.47270778 0.71618489
0.68974638 0.52211201 0.71733468
0.79390909 0.60146917 0.72099032
0.49199952 0.51814691 0.71628349
0.49213452 0.51815812 0.71628381
0.49316458 0.51824417 0.71628630
0.49742493 0.51860960 0.71629691
0.51090566 0.51987245 0.71633387
0.54429838 0.52380501 0.71645213
0.60607135 0.53507624 0.71681915
0.69284882 0.56356923 0.71796123
0.79493435 0.62158322 0.72159299
0.54994759 0.61491306 0.71824103
0.55001998 0.61491707 0.71824135
0.55057399 0.61494780 0.71824379
0.55289644 0.61507852 0.71825417
0.56057115 0.61553284 0.71829037
0.58162896 0.61697327 0.71840619
0.62728963 0.62131985 0.71876566
0.70189593 0.63378743 0.71988441
0.79805308 0.66580595 0.72344378
0.63387107 0.71898432 0.72412917
0.63390081 0.71898565 0.72412947
0.63412889 0.71899585 0.72413176
0.63509374 0.71903927 0.72414151
0.63838251 0.71919048 0.72417550
0.64820564 0.71967310 0.72428428
0.67352296 0.72115910 0.72462192
0.72567327 0.72567327 0.72567327
0.80719899 0.73904627 0.72902302
0.73507768 0.82731557 0.74110708
0.73508784 0.82731598 0.74110733
0.73516580 0.82731913 0.74110924
0.73549698 0.82733256 0.74111737
0.73664243 0.82737937 0.74114571
0.74021893 0.82752910 0.74123644
0.75054325 0.82799342 0.74151815
0.77703146 0.82943467 0.74239640
0.83190804 0.83398258 0.74520514
0.54497827 0.43120401 0.82452265
0.54505460 0.43123313 0.82452275
0.54563867 0.43145642 0.82452352
0.54808507 0.43240071 0.82452681
0.55614669 0.43561654 0.82453827
0.57810847 0.44519863 0.82457494
0.62513387 0.46979181 0.82468896
0.70092365 0.52041797 0.82504570
0.79770859 0.60074538 0.82619977
0.54501834 0.43159076 0.82452319
0.54509464 0.43161975 0.82452329
0.54567846 0.43184207 0.82452406
0.54812383 0.43278230 0.82452735
0.55618226 0.43598462 0.82453881
0.57813663 0.44552938 0.82457548
0.62515099 0.47004386 0.82468950
0.70093132 0.52056348 0.82504624
0.79771130 0.60080724 0.82620030
0.54532545 0.43450573 0.82452734
0.54540150 0.43453379 0.82452744
0.54598342 0.43474895 0.82452821
0.54842094 0.43565913 0.82453150
0.55645494 0.43876150 0.82454295
0.57835263 0.44802929 0.82457962
0.62528236 0.47195639 0.82469364
0.70099023 0.52167325 0.82505036
0.79773211 0.60128097 0.82620436
0.54662166 0.44594816 0.82454498
0.54669667 0.44597285 0.82454508
0.54727062 0.44616220 0.82454585
0.54967531 0.44696383 0.82454914
0.55760698 0.44970385 0.82456059
0.57926660 0.45795659 0.82459725
0.62583958 0.47967686 0.82471124
0.70124060 0.52625476 0.82506790
0.79782065 0.60327144 0.82622168
0.55100530 0.47727523 0.82460646
0.55107688 0.47729270 0.82460656
0.55162470 0.47742673 0.82460733
0.55392159 0.47799512 0.82461061
0.56151624 0.47994948 0.82462206
0.58238538 0.48594140 0.82465870
0.62775691 0.50241983 0.82477261
0.70210828 0.54066726 0.82512902
0.79812862 0.60990020 0.82628203
0.56380651 0.53743034 0.82480306
0.56386897 0.53743945 0.82480316
0.56434720 0.53750942 0.82480393
0.56635621 0.53780671 0.82480720
0.57304256 0.53883579 0.82481862
0.59173124 0.54205719 0.82485518
0.63364806 0.55142537 0.82496885
0.70483432 0.57590553 0.82532449
0.79910800 0.62845610 0.82647503
0.59518414 0.62226901 0.82541207
0.59522891 0.62227271 0.82541217
0.59557203 0.62230115 0.82541294
0.59701890 0.62242210 0.82541619
0.60189650 0.62284255 0.82542753
0.61601220 0.62417662 0.82546385
0.64993375 0.62821121 0.82557676
0.71284342 0.63985461 0.82593003
0.80209003 0.67016978 0.82707295
0.65515195 0.72148956 0.82729637
0.65517571 0.72149086 0.82729646
0.65535789 0.72150079 0.82729721
0.65612956 0.72154306 0.82730040
0.65877156 0.72169029 0.82731151
0.66676740 0.72216025 0.82734708
0.68803655 0.72360761 0.82745766
0.73427698 0.72800796 0.82780368
0.81085902 0.74107299 0.82892333
0.74289091 0.82809735 0.83318378
0.74290025 0.82809776 0.83318387
0.74297196 0.82810089 0.83318457
0.74327660 0.82811420 0.83318756
0.74433093 0.82816060 0.83319796
0.74762929 0.82830905 0.83323129
0.75720271 0.82876939 0.83333491
0.78207825 0.83019843 0.83365918
0.83470898 0.83470898 0.83470898
