src/ffmpeg_scripts/luts/sRGB-rec2020_3p67.cube
TITLE "sRGB-rec2020_3p67"
LUT_3D_SIZE 33
# PQ (EOTF Only)/sRGB -> PQ (EOTF Only)/Rec2020, CineEI Shift 3.67, Black Level 0.00% IRE, Input 100% -> Output 109% - Created with LUTCalc v4.01 by Ben Turley October 2020
0.06256172 0.06256172 0.06256172
0.12926516 0.08769940 0.07475314
0.18156275 0.11319003 0.08897171
0.22827316 0.13886387 0.10444585
0.27147336 0.16466860 0.12089855
0.31213931 0.19057675 0.13817479
0.35083757 0.21657105 0.15617258
0.38793700 0.24263954 0.17481860
0.42369608 0.26877340 0.19405702
0.45830546 0.29496582 0.21384363
0.49191123 0.32121138 0.23414233
0.52462869 0.34750563 0.25492295
0.55655099 0.37384488 0.27615986
0.58775486 0.40022600 0.29783090
0.61830450 0.42664628 0.31991673
0.64825438 0.45310338 0.34240025
0.67765123 0.47959526 0.36526623
0.70653557 0.50612007 0.38850097
0.73494282 0.53267619 0.41209211
0.76290419 0.55926217 0.43602838
0.79044738 0.58587667 0.46029950
0.81759713 0.61251850 0.48489601
0.84437563 0.63918656 0.50980916
0.87080292 0.66587985 0.53503089
0.89689716 0.69259744 0.56055367
0.91886608 0.71933847 0.58637050
0.91886608 0.74610216 0.61247481
0.91886608 0.77288776 0.63886045
0.91886608 0.79969460 0.66552166
0.91886608 0.82652202 0.69245297
0.91886608 0.85336943 0.71964924
0.91886608 0.88023627 0.74710561
0.91886608 0.90712200 0.77481746
0.11361290 0.14017684 0.09077038
0.14138083 0.14239033 0.09312507
0.18602548 0.14968569 0.10022532
0.23037493 0.16255750 0.11139323
0.27260531 0.18003651 0.12533191
0.31280151 0.20068867 0.14110380
0.35124722 0.22335621 0.15816582
0.38820080 0.24728250 0.17620785
0.42387116 0.27200698 0.19504401
0.45842439 0.29725230 0.21455567
0.49199353 0.32284904 0.23466239
0.52468649 0.34869128 0.25530663
0.55659208 0.37471102 0.27644523
0.58778435 0.40086347 0.29804456
0.61832585 0.42711836 0.32007756
0.64826993 0.45345475 0.34252183
0.67766263 0.47985785 0.36535845
0.70654396 0.50631695 0.38857110
0.73494901 0.53282417 0.41214554
0.76290878 0.55937360 0.43606914
0.79045079 0.58596067 0.46033061
0.81759966 0.61258187 0.48491976
0.84437751 0.63923437 0.50982729
0.87080432 0.66591590 0.53504471
0.89689820 0.69262460 0.56056420
0.91886608 0.71935891 0.58637850
0.91886608 0.74611750 0.61248088
0.91886608 0.77289926 0.63886505
0.91886608 0.79970319 0.66552512
0.91886608 0.82652842 0.69245557
0.91886608 0.85337418 0.71965119
0.91886608 0.88023978 0.74710706
0.91886608 0.90712458 0.77481853
0.15695843 0.19813450 0.11864330
0.16949630 0.19885879 0.11956624
0.19993763 0.20144581 0.12276609
0.23756640 0.20676092 0.12895229
0.27661869 0.21547689 0.13829327
0.31518709 0.22782197 0.15044646
0.35273485 0.24354197 0.16486216
0.38916298 0.26207692 0.18102390
0.42451134 0.28278881 0.19853274
0.45885995 0.30510915 0.21710383
0.49229521 0.32859107 0.23653863
0.52489850 0.35290573 0.25669828
0.55674285 0.37781887 0.27748411
0.58789263 0.40316586 0.29882436
0.61840424 0.42883128 0.32066558
0.64832706 0.45473387 0.34296691
0.67770449 0.48081606 0.36569634
0.70657476 0.50703662 0.38882822
0.73497176 0.53336578 0.41234153
0.76292562 0.55978180 0.43621870
0.79046329 0.58626862 0.46044481
0.81760895 0.61281429 0.48500695
0.84438442 0.63940977 0.50989384
0.87080945 0.66604821 0.53509547
0.89690202 0.69272430 0.56060285
0.91886608 0.71943393 0.58640789
0.91886608 0.74617386 0.61250317
0.91886608 0.77294149 0.63888191
0.91886608 0.79973474 0.66553784
0.91886608 0.82655192 0.69246514
0.91886608 0.85339163 0.71965835
0.91886608 0.88025267 0.74711240
0.91886608 0.90713406 0.77482249
0.19703921 0.24886388 0.14634663
0.20342320 0.24919271 0.14681244
0.22240063 0.25038740 0.14848360
0.25108503 0.25294008 0.15195188
0.28472904 0.25740748 0.15773473
0.32018348 0.26431302 0.16611071
0.35590987 0.27402583 0.17705699
0.39123833 0.28666737 0.19031893
0.42590078 0.30209855 0.20553917
0.45980890 0.31998858 0.22236148
0.49295410 0.33991832 0.24048179
0.52536229 0.36146797 0.25966022
0.55707303 0.38426784 0.27971466
0.58812992 0.40801660 0.30050895
0.61857610 0.43247983 0.32194142
0.64845236 0.45748012 0.34393562
0.67779632 0.48288523 0.36643344
0.70664236 0.50859727 0.38939005
0.73502169 0.53454395 0.41277029
0.76296260 0.56067182 0.43654618
0.79049073 0.58694120 0.46069501
0.81762933 0.61332255 0.48519810
0.84439958 0.63979373 0.51003979
0.87082073 0.66633804 0.53520680
0.89691040 0.69294283 0.56068766
0.91886608 0.71959844 0.58647237
0.91886608 0.74629746 0.61255210
0.91886608 0.77303413 0.63891894
0.91886608 0.79980398 0.66556577
0.91886608 0.82660351 0.69248613
0.91886608 0.85342991 0.71967407
0.91886608 0.88028096 0.74712412
0.91886608 0.90715487 0.77483119
0.23499264 0.29514686 0.17393053
0.23856930 0.29532067 0.17419642
0.25028786 0.29595577 0.17516190
0.27066774 0.29733178 0.17722220
0.29768446 0.29980149 0.18082035
0.32862955 0.30377046 0.18636776
0.36145442 0.30965386 0.19415189
0.39493241 0.31781063 0.20427254
0.42840275 0.32847286 0.21664179
0.46153009 0.34169925 0.23103977
0.49415475 0.35737389 0.24718812
0.52621000 0.37524772 0.26480800
0.55767778 0.39500038 0.28365222
0.58856515 0.41629722 0.30351628
0.61889166 0.43882820 0.32423756
0.64868256 0.46232700 0.34568929
0.67796512 0.48657601 0.36777355
0.70676666 0.51140303 0.39041471
0.73511353 0.53667456 0.41355410
0.76303063 0.56228840 0.43714586
0.79054121 0.58816686 0.46115378
0.81766685 0.61425107 0.48554891
0.84442747 0.64049645 0.51030785
0.87084148 0.66686923 0.53541139
0.89692583 0.69334376 0.56084358
0.91886608 0.71990051 0.58659097
0.91886608 0.74652454 0.61264210
0.91886608 0.77320441 0.63898705
0.91886608 0.79993130 0.66561717
0.91886608 0.82669838 0.69252477
0.91886608 0.85350033 0.71970300
0.91886608 0.88033302 0.74714569
0.91886608 0.90719317 0.77484718
0.27137093 0.33826579 0.20142105
0.27351568 0.33836623 0.20158437
0.28089450 0.33873414 0.20218051
0.29490544 0.33953607 0.20346883
0.31543082 0.34099184 0.20577043
0.34105232 0.34337504 0.20944251
0.36999438 0.34700505 0.21483219
0.40079054 0.35222410 0.22221573
0.43244444 0.35935807 0.23174527
0.46434372 0.36866688 0.24342743
0.49613278 0.38029890 0.25714157
0.52761385 0.39426635 0.27268427
0.55868280 0.41045108 0.28981795
0.58929020 0.42863653 0.30830791
0.61941823 0.44855159 0.32794364
0.64906717 0.46991158 0.34854707
0.67824739 0.49244773 0.36997297
0.70697464 0.51592346 0.39210530
0.73526726 0.54014034 0.41485238
0.76314454 0.56493724 0.43814208
0.79062578 0.59018624 0.46191757
0.81772970 0.61578726 0.48613395
0.84447422 0.64166275 0.51075543
0.87087625 0.66775296 0.53575332
0.89695168 0.69401199 0.56110433
0.91886608 0.72040465 0.58678941
0.91886608 0.74690395 0.61279276
0.91886608 0.77348914 0.63910111
0.91886608 0.80014431 0.66570324
0.91886608 0.82685717 0.69258949
0.91886608 0.85361825 0.71975148
0.91886608 0.88042020 0.74718183
0.91886608 0.90725732 0.77487399
0.30650207 0.37895525 0.22883441
0.30785263 0.37901682 0.22893974
0.31262163 0.37924261 0.22932523
0.32217273 0.37973624 0.23016365
0.33722047 0.38063748 0.23167946
0.35748822 0.38212704 0.23414446
0.38194169 0.38442929 0.23786229
0.40931101 0.38780873 0.24313734
0.43847947 0.39255689 0.25023140
0.46861969 0.39896725 0.25932028
0.49917469 0.40730004 0.27046649
0.52979019 0.41774382 0.28361883
0.56024949 0.43038524 0.29863642
0.59042480 0.44519751 0.31532498
0.62024447 0.46205112 0.33347156
0.64967182 0.48074175 0.35287009
0.67869176 0.50102479 0.37333582
0.70730238 0.52264683 0.39471114
0.73550969 0.54536839 0.41686577
0.76332428 0.56897692 0.43969414
0.79075926 0.59329202 0.46311167
0.81782894 0.61816524 0.48705097
0.84454804 0.64347710 0.51145839
0.87093117 0.66913292 0.53629115
0.89699252 0.69505846 0.56151496
0.91886608 0.72119589 0.58710218
0.91886608 0.74750040 0.61303036
0.91886608 0.77393733 0.63928109
0.91886608 0.80047994 0.66583911
0.91886608 0.82710757 0.69269169
0.91886608 0.85380429 0.71982803
0.91886608 0.88055781 0.74723891
0.91886608 0.90735860 0.77491635
0.34060350 0.41768856 0.25618178
0.34148539 0.41772792 0.25625212
0.34464547 0.41787235 0.25650990
0.35118302 0.41818862 0.25707256
0.36201087 0.41876783 0.25809664
0.37750587 0.41973023 0.25978047
0.39737688 0.42123006 0.26236237
0.42083730 0.42345849 0.26610980
0.44692357 0.42664247 0.27129694
0.47474737 0.43103686 0.27817209
0.50360741 0.43690767 0.28692182
0.53299879 0.44450637 0.29764327
0.56257819 0.45403856 0.31033420
0.59212097 0.46563433 0.32490365
0.62148470 0.47932911 0.34119719
0.65058208 0.49506120 0.35902673
0.67936214 0.51268635 0.37819652
0.70779758 0.53200342 0.39852120
0.73587639 0.55278335 0.41983574
0.76359637 0.57479407 0.44199915
0.79096145 0.59781828 0.46489424
0.81797933 0.62166344 0.48842531
0.84465996 0.64616564 0.51251507
0.87101445 0.67118930 0.53710145
0.89705446 0.69662463 0.56213469
0.91886608 0.72238402 0.58757485
0.91886608 0.74839831 0.61338981
0.91886608 0.77461335 0.63955356
0.91886608 0.80098692 0.66604493
0.91886608 0.82748623 0.69284657
0.91886608 0.85408588 0.71994409
0.91886608 0.88076622 0.74732547
0.91886608 0.90751207 0.77498058
0.37382985 0.45479457 0.28347134
0.37442189 0.45482053 0.28351954
0.37656187 0.45491582 0.28369637
0.38107899 0.45512469 0.28408311
0.38881566 0.45550791 0.28478980
0.40039986 0.45614662 0.28595949
0.41604124 0.45714690 0.28777145
0.43547307 0.45864401 0.29044008
0.45807561 0.46080547 0.29420702
0.48308579 0.46383114 0.29932420
0.50977353 0.46794850 0.30602826
0.53753363 0.47340108 0.31451053
0.56590718 0.48042918 0.32489050
0.59456564 0.48924436 0.33720119
0.62328277 0.50000232 0.35139110
0.65190738 0.51278094 0.36734061
0.68034119 0.52757009 0.38488634
0.70852240 0.54427619 0.40384574
0.73641404 0.56273955 0.42403670
0.76399579 0.58275867 0.44529047
0.79125852 0.60411486 0.46745826
0.81820045 0.62659243 0.49041333
0.84482458 0.64999235 0.51405024
0.87113700 0.67413957 0.53828260
0.89714563 0.69888555 0.56304034
0.91886608 0.72410743 0.58826694
0.91886608 0.74970560 0.61391689
0.91886608 0.77560038 0.63995355
0.91886608 0.80172876 0.66634735
0.91886608 0.82804123 0.69307428
0.91886608 0.85449912 0.72011481
0.91886608 0.88107238 0.74745285
0.91886608 0.90773768 0.77507514
0.40629663 0.49051405 0.31070937
0.40670279 0.49053159 0.31074308
0.40817881 0.49059600 0.31086679
0.41133443 0.49073723 0.31113769
0.41686165 0.49099665 0.31163391
0.42541199 0.49142985 0.31245865
0.43743808 0.49211032 0.31374454
0.45306285 0.49313344 0.31565646
0.47205194 0.49462034 0.31839105
0.49390279 0.49672092 0.32217079
0.51799136 0.49961478 0.32723074
0.54370214 0.50350842 0.33379783
0.57050464 0.50862710 0.34206522
0.59797962 0.51520001 0.35216749
0.62581431 0.52343939 0.36416371
0.65378444 0.53351620 0.37803367
0.68173392 0.54553764 0.39368753
0.70955681 0.55953263 0.41098502
0.73718313 0.57544926 0.42975771
0.76456816 0.59316502 0.44982906
0.79168478 0.61250601 0.47102912
0.81851803 0.63326973 0.49320360
0.84506120 0.65524613 0.51621797
0.87131323 0.67823373 0.53995825
0.89727680 0.70204985 0.56432981
0.91886608 0.72653560 0.58925507
0.91886608 0.75155707 0.61467104
0.91886608 0.77700394 0.64052681
0.91886608 0.80278694 0.66678129
0.91886608 0.82883478 0.69340135
0.91886608 0.85509107 0.72036019
0.91886608 0.88151155 0.74763605
0.91886608 0.90806166 0.77521118
0.43809334 0.52503036 0.33790088
0.43837684 0.52504244 0.33792483
0.43941063 0.52508680 0.33801273
0.44163919 0.52518411 0.33820539
0.44560178 0.52536298 0.33855883
0.45187489 0.52566203 0.33914783
0.46097606 0.52613268 0.34007003
0.47324669 0.52684240 0.34144983
0.48876308 0.52787826 0.34344098
0.50732194 0.52935050 0.34622655
0.52850618 0.53139551 0.35001440
0.55179240 0.53417727 0.35502657
0.57665095 0.53788591 0.36148203
0.60261050 0.54273181 0.36957441
0.62928575 0.54893407 0.37944892
0.65637932 0.55670311 0.39118445
0.68367083 0.56621908 0.40478586
0.71100182 0.57760988 0.42018861
0.73826107 0.59093416 0.43727336
0.76537235 0.60617400 0.45588568
0.79228480 0.62323925 0.47585570
0.81896568 0.64198197 0.49701399
0.84539508 0.66221668 0.51920239
0.87156210 0.68374123 0.54227999
0.89746213 0.70635439 0.56612535
0.91886608 0.72986845 0.59063632
0.91886608 0.75411640 0.61572837
0.91886608 0.77895489 0.64133236
0.91886608 0.80426418 0.66739215
0.91886608 0.82994630 0.69386238
0.91886608 0.85592234 0.72070643
0.91886608 0.88212948 0.74789474
0.91886608 0.90851820 0.77540340
0.46929134 0.55848735 0.36504992
0.46949200 0.55849580 0.36506714
0.47022536 0.55852683 0.36513040
0.47181501 0.55859490 0.36526910
0.47467054 0.55872008 0.36552381
0.47926513 0.55892954 0.36594903
0.48608605 0.55925960 0.36661666
0.49555577 0.55975828 0.36761978
0.50794292 0.56048818 0.36907615
0.52329822 0.56152975 0.37113076
0.54144575 0.56298465 0.37395610
0.56203269 0.56497867 0.37774866
0.58461113 0.56766353 0.38272031
0.60871749 0.57121631 0.38908358
0.63392807 0.57583527 0.39703202
0.65988649 0.58173069 0.40671876
0.68630981 0.58911020 0.41823812
0.71298249 0.59815955 0.43161541
0.73974529 0.60902156 0.44680755
0.76648341 0.62177791 0.46371386
0.79311589 0.63643836 0.48219318
0.81958691 0.65294052 0.50208268
0.84585908 0.67116007 0.52321444
0.87190835 0.69092816 0.54542757
0.89772019 0.71205149 0.56857586
0.91886608 0.73433081 0.59253130
0.91886608 0.75757516 0.61718486
0.91886608 0.78161107 0.64244551
0.91886608 0.80628718 0.66823833
0.91886608 0.83147542 0.69450221
0.91886608 0.85706995 0.72118764
0.91886608 0.88298489 0.74825467
0.91886608 0.90915150 0.77567106
0.49994878 0.59100070 0.39215986
0.50009243 0.59100668 0.39217238
0.50061824 0.59102865 0.39221836
0.50176222 0.59107686 0.39231922
0.50383166 0.59116555 0.39250456
0.50719974 0.59131401 0.39281434
0.51228454 0.59154816 0.39330164
0.51950466 0.59190239 0.39403592
0.52921407 0.59242186 0.39510644
0.54163238 0.59316518 0.39662560
0.55679626 0.59420745 0.39873135
0.57455332 0.59564343 0.40158780
0.59460038 0.59759045 0.40538254
0.61654763 0.60019040 0.41031940
0.63998361 0.60360990 0.41660581
0.66452341 0.60803730 0.42443516
0.68983534 0.61367534 0.43396674
0.71564967 0.62072866 0.44530732
0.74175606 0.62938652 0.45849912
0.76799553 0.63980284 0.47351739
0.79425088 0.65207741 0.49027789
0.82043752 0.66624269 0.50865170
0.84649568 0.68226003 0.52848295
0.87238409 0.70002606 0.54960566
0.89807517 0.71938751 0.57185698
0.91886608 0.74016006 0.59508614
0.91886608 0.76214730 0.61915922
0.91886608 0.78515621 0.64396089
0.91886608 0.80900805 0.66939407
0.91886608 0.83354455 0.69537833
0.91886608 0.85863024 0.72184786
0.91886608 0.88415220 0.74874923
0.91886608 0.91001818 0.77603927
0.53011396 0.62266520 0.41923356
0.53021776 0.62266948 0.41924274
0.53059810 0.62268520 0.41927644
0.53142772 0.62271969 0.41935038
0.53293582 0.62278315 0.41948632
0.53541025 0.62288943 0.41971372
0.53919180 0.62305715 0.42007189
0.54465330 0.62331110 0.42061267
0.55216028 0.62368400 0.42140339
0.56201650 0.62421860 0.42253014
0.57440772 0.62497021 0.42410087
0.58936321 0.62600953 0.42624789
0.60675061 0.62742568 0.42912861
0.62630595 0.62932914 0.43292357
0.64768525 0.63185388 0.43783031
0.67051881 0.63515803 0.44405226
0.69445373 0.63942184 0.45178281
0.71917948 0.64484172 0.46118636
0.74443819 0.65161951 0.47238001
0.77002474 0.65994683 0.48542024
0.79578104 0.66998619 0.50029800
0.82158832 0.68185188 0.51694356
0.84735922 0.69559520 0.53523902
0.87303074 0.71119768 0.55503505
0.89855841 0.72857442 0.57616772
0.91886608 0.74758623 0.59847262
0.91886608 0.76805737 0.62179490
0.91886608 0.78979448 0.64599523
0.91886608 0.81260315 0.67095244
0.91886608 0.83630021 0.69656372
0.91886608 0.86072129 0.72274351
0.91886608 0.88572428 0.74942152
0.91886608 0.91118985 0.77654058
0.55982760 0.65355987 0.44627346
0.55990318 0.65356295 0.44628023
0.56018033 0.65357429 0.44630510
0.56078593 0.65359918 0.44635967
0.56189061 0.65364497 0.44646003
0.56371360 0.65372168 0.44662801
0.56652438 0.65384277 0.44689283
0.57063562 0.65402625 0.44729322
0.57638313 0.65429591 0.44787987
0.58409113 0.65468301 0.44871829
0.59402598 0.65522827 0.44989186
0.60634965 0.65598419 0.45150492
0.62108788 0.65701784 0.45368514
0.63812546 0.65841370 0.45658459
0.65722997 0.66027662 0.46037822
0.67809428 0.66273412 0.46525868
0.70038269 0.66593744 0.47142641
0.72376898 0.67006022 0.47907508
0.74796071 0.67529367 0.48837357
0.77271065 0.68183723 0.49944783
0.79781866 0.68988431 0.51236655
0.82312789 0.69960429 0.52713433
0.84851860 0.71112346 0.54369411
0.87390128 0.72450887 0.56193784
0.89921032 0.73975931 0.58172207
0.91886608 0.75680590 0.60288475
0.91886608 0.77552196 0.62526003
0.91886608 0.79573949 0.64868927
0.91886608 0.81726801 0.67302808
0.91886608 0.83991196 0.69814974
0.91886608 0.86348420 0.72394609
0.91886608 0.88781486 0.75032666
0.91886608 0.91275580 0.77721694
0.58912448 0.68375145 0.47328169
0.58917986 0.68375369 0.47328671
0.58938304 0.68376193 0.47330516
0.58982758 0.68378001 0.47334565
0.59064044 0.68381328 0.47342014
0.59198743 0.68386901 0.47354487
0.59407773 0.68395703 0.47374163
0.59716401 0.68409045 0.47403942
0.60153476 0.68428666 0.47447637
0.60749556 0.68456860 0.47510216
0.61533818 0.68496625 0.47598070
0.62530078 0.68551855 0.47719311
0.63752832 0.68627567 0.47884071
0.65204546 0.68730158 0.48104742
0.66875170 0.68867695 0.48396102
0.68744049 0.69050198 0.48775207
0.70783476 0.69289892 0.49260949
0.72962688 0.69601339 0.49873164
0.75251300 0.70001369 0.50631278
0.77621626 0.70508685 0.51552599
0.80049883 0.71143042 0.52650502
0.82516521 0.71923940 0.53932924
0.85005999 0.72868898 0.55401514
0.87506282 0.73991556 0.57051681
0.90008253 0.75299960 0.58873480
0.91886608 0.76795469 0.60853079
0.91886608 0.78472573 0.62974426
0.91886608 0.80319691 0.65220779
0.91886608 0.82320690 0.67575908
0.91886608 0.84456759 0.70024884
0.91886608 0.86708218 0.72554508
0.91886608 0.89055978 0.75153451
0.91886608 0.91482537 0.77812202
0.61803464 0.71329702 0.50026009
0.61807543 0.71329866 0.50026383
0.61822513 0.71330468 0.50027758
0.61855295 0.71331788 0.50030776
0.61915343 0.71334219 0.50036329
0.62015148 0.71338292 0.50045629
0.62170759 0.71344724 0.50060307
0.62402120 0.71354478 0.50082537
0.62732990 0.71368829 0.50115191
0.63190155 0.71389464 0.50162028
0.63801695 0.71418596 0.50227922
0.64594221 0.71459112 0.50319128
0.65589397 0.71514753 0.50443566
0.66800497 0.71590334 0.50611117
0.68230027 0.71691995 0.50833868
0.69869218 0.71827480 0.51126257
0.71699565 0.72006428 0.51505002
0.73695847 0.72240632 0.51988718
0.75829644 0.72544198 0.52597112
0.78072459 0.72933529 0.53349716
0.80397944 0.73427004 0.54264240
0.82783147 0.74044248 0.55354771
0.85208941 0.74804920 0.56630196
0.87659930 0.75727058 0.58093213
0.90124047 0.76825182 0.59740204
0.91886608 0.78108492 0.61561971
0.91886608 0.79579619 0.63545109
0.91886608 0.81234236 0.65673662
0.91886608 0.83061676 0.67930711
0.91886608 0.85046353 0.70299648
0.91886608 0.87169619 0.72765066
0.91886608 0.89411634 0.75313252
0.91886608 0.91752932 0.77932386
0.64658428 0.74224588 0.52721031
0.64661445 0.74224708 0.52721311
0.64672518 0.74225150 0.52722339
0.64696784 0.74226119 0.52724596
0.64741290 0.74227903 0.52728750
0.64815423 0.74230892 0.52735707
0.64931407 0.74235615 0.52746692
0.65104744 0.74242777 0.52763337
0.65354464 0.74253318 0.52787806
0.65702983 0.74268483 0.52822942
0.66175333 0.74289906 0.52872452
0.66797557 0.74319729 0.52941128
0.67594227 0.74360742 0.53035104
0.68585348 0.74416551 0.53162140
0.69783320 0.74491800 0.53331907
0.71190787 0.74592407 0.53556251
0.72800100 0.74725849 0.53849339
0.74594568 0.74901450 0.54227637
0.76551052 0.75130647 0.54709568
0.78643101 0.75427185 0.55314786
0.80843822 0.75807132 0.56062970
0.83128019 0.76288627 0.56972237
0.85473464 0.76891226 0.58057339
0.87861412 0.77634768 0.59328025
0.90276605 0.78537777 0.60787926
0.91886608 0.79615555 0.62434273
0.91886608 0.80878319 0.64258501
0.91886608 0.82329792 0.66247540
0.91886608 0.83966652 0.68385469
0.91886608 0.85778980 0.70655146
0.91886608 0.87751603 0.73039571
0.91886608 0.89865940 0.75522852
0.91886608 0.91886608 0.78090775
0.67479644 0.77064099 0.55413381
0.67481883 0.77064188 0.55413591
0.67490100 0.77064513 0.55414362
0.67508116 0.77065227 0.55416055
0.67541190 0.77066541 0.55419170
0.67596368 0.77068744 0.55424388
0.67682917 0.77072223 0.55432630
0.67812761 0.77077500 0.55445122
0.68000859 0.77085270 0.55463498
0.68265393 0.77096451 0.55489904
0.68627597 0.77112254 0.55527157
0.69111010 0.77134270 0.55578913
0.69740001 0.77164575 0.55649892
0.70537505 0.77205868 0.55746122
0.71522254 0.77261644 0.55875227
0.72706022 0.77336393 0.56046710
0.74091659 0.77435850 0.56272219
0.75672511 0.77567265 0.56565720
0.77433431 0.77739702 0.56943495
0.79353045 0.77964315 0.57423856
0.81406567 0.78254559 0.58026466
0.83568472 0.78626252 0.58771205
0.85814553 0.79097373 0.59676606
0.88123209 0.79687470 0.60758061
0.90476033 0.80416595 0.62026114
0.91886608 0.81303744 0.63485231
0.91886608 0.82364943 0.65133384
0.91886608 0.83611308 0.66962528
0.91886608 0.85047512 0.68959835
0.91886608 0.86671064 0.71109340
0.91886608 0.88472634 0.73393630
0.91886608 0.90437319 0.75795281
0.91886608 0.91886608 0.78297906
0.70269153 0.79852012 0.58103190
0.70270818 0.79852077 0.58103348
0.70276931 0.79852317 0.58103927
0.70290338 0.79852845 0.58105199
0.70314966 0.79853816 0.58107540
0.70356104 0.79855443 0.58111461
0.70420751 0.79858013 0.58117656
0.70518014 0.79861913 0.58127048
0.70659500 0.79867655 0.58140869
0.70859642 0.79875920 0.58160743
0.71135848 0.79887606 0.58188802
0.71508312 0.79903896 0.58227833
0.71999308 0.79926333 0.58281447
0.72631817 0.79956937 0.58354295
0.73427468 0.79998329 0.58452318
0.74404007 0.80053899 0.58583022
0.75572779 0.80128010 0.58755775
0.76936885 0.80226238 0.58982072
0.78490562 0.80355647 0.59275732
0.80219998 0.80525086 0.59652919
0.82105324 0.80745481 0.60131900
0.84123171 0.81030071 0.60732416
0.86249182 0.81394496 0.61474592
0.88459996 0.81856646 0.62377403
0.90734552 0.82436130 0.63456870
0.91886608 0.83153250 0.64724280
0.91886608 0.84027480 0.66184855
0.91886608 0.85075530 0.67837203
0.91886608 0.86309331 0.69673696
0.91886608 0.87734370 0.71681644
0.91886608 0.89348838 0.73844958
0.91886608 0.91143828 0.76145887
0.91886608 0.91886608 0.78566547
0.73028775 0.82591665 0.60790577
0.73030016 0.82591714 0.60790695
0.73034571 0.82591891 0.60791131
0.73044564 0.82592282 0.60792088
0.73062931 0.82593000 0.60793849
0.73093637 0.82594205 0.60796800
0.73141958 0.82596108 0.60801461
0.73214813 0.82598995 0.60808531
0.73321125 0.82603247 0.60818937
0.73472175 0.82609369 0.60833907
0.73681896 0.82618027 0.60855057
0.73966995 0.82630099 0.60884502
0.74346754 0.82646738 0.60924997
0.74842371 0.82669448 0.60980112
0.75475683 0.82700193 0.61054437
0.76267268 0.82741524 0.61153834
0.77234120 0.82796743 0.61285715
0.78387306 0.82870100 0.61459339
0.79730211 0.82967036 0.61686088
0.81257881 0.83094459 0.61979679
0.82957669 0.83261047 0.62356219
0.84810998 0.83477550 0.62833993
0.86795714 0.83757048 0.63432881
0.88888453 0.84115074 0.64173307
0.91066577 0.84569502 0.65074719
0.91886608 0.85140058 0.66153762
0.91886608 0.85847351 0.67422433
0.91886608 0.86711348 0.68886642
0.91886608 0.87749419 0.70545539
0.91886608 0.88974242 0.72391804
0.91886608 0.90392007 0.74412783
0.91886608 0.91886608 0.76592165
0.91886608 0.91886608 0.78911798
0.75760144 0.85286034 0.63475647
0.75761069 0.85286070 0.63475737
0.75764468 0.85286201 0.63476065
0.75771924 0.85286491 0.63476785
0.75785634 0.85287024 0.63478111
0.75808569 0.85287916 0.63480333
0.75844700 0.85289327 0.63483843
0.75899262 0.85291468 0.63489168
0.75979068 0.85294621 0.63497007
0.76092836 0.85299161 0.63508288
0.76251528 0.85305583 0.63524233
0.76468607 0.85314541 0.63546447
0.76760141 0.85326891 0.63577026
0.77144618 0.85343757 0.63618695
0.77642320 0.85366608 0.63674982
0.78274137 0.85397356 0.63750424
0.79059813 0.85438491 0.63850817
0.80015772 0.85493232 0.63983492
0.81152923 0.85565735 0.64157625
0.82474966 0.85661326 0.64384519
0.83977688 0.85786785 0.64677835
0.85649468 0.85950655 0.65053673
0.87472849 0.86163555 0.65530398
0.89426718 0.86438463 0.66128092
0.91488557 0.86790867 0.66867527
0.91886608 0.87238691 0.67768664
0.91886608 0.87801851 0.68848782
