src/ffmpeg_scripts/luts/sRGB-rec2020_3p33.cube
TITLE "sRGB-rec2020_3p33"
LUT_3D_SIZE 33
# PQ (EOTF Only)/sRGB -> PQ (EOTF Only)/Rec2020, CineEI Shift 3.33, Black Level 0.00% IRE, Input 100% -> Output 109% - Created with LUTCalc v4.01 by Ben Turley October 2020
0.06256172 0.06256172 0.06256172
0.12327302 0.08503911 0.07335423
0.17227001 0.10838909 0.08619522
0.21657646 0.13220585 0.10033943
0.25789759 0.15636078 0.11551362
0.29704408 0.18078556 0.13156355
0.33449042 0.20543694 0.14838719
0.37054750 0.23028475 0.16591082
0.40543432 0.25530662 0.18407810
0.43931313 0.28048519 0.20284424
0.47230877 0.30580658 0.22217256
0.50452010 0.33125940 0.24203234
0.53602725 0.35683413 0.26239740
0.56689641 0.38252266 0.28324506
0.59718312 0.40831800 0.30455549
0.62693458 0.43421406 0.32631111
0.65619144 0.46020547 0.34849623
0.68498895 0.48628747 0.37109674
0.71335804 0.51245580 0.39409985
0.74132599 0.53870662 0.41749393
0.76891707 0.56503645 0.44126831
0.79615297 0.59144214 0.46541316
0.82305320 0.61792079 0.48991943
0.84963540 0.64446975 0.51477870
0.87591558 0.67108656 0.53998315
0.90190832 0.69776895 0.56552546
0.91886608 0.72451483 0.59139879
0.91886608 0.75132224 0.61759672
0.91886608 0.77818934 0.64411320
0.91886608 0.80511443 0.67094252
0.91886608 0.83209590 0.69807928
0.91886608 0.85913224 0.72551839
0.91886608 0.88622203 0.75325500
0.10877927 0.13343012 0.08783159
0.13455325 0.13549529 0.08997716
0.17648372 0.14231247 0.09646777
0.21857976 0.15437771 0.10673209
0.25898415 0.17082997 0.11962195
0.29768334 0.19035902 0.13429478
0.33488775 0.21189290 0.15025613
0.37080441 0.23472235 0.16721991
0.40560542 0.25840979 0.18501231
0.43942973 0.28268762 0.20352097
0.47238969 0.30738944 0.22266871
0.50457708 0.33240900 0.24239966
0.53606785 0.35767640 0.26267150
0.56692563 0.38314427 0.28345092
0.59720430 0.40877951 0.30471090
0.62695005 0.43455840 0.32642891
0.65620279 0.46046340 0.34858581
0.68499732 0.48648128 0.37116503
0.71336423 0.51260177 0.39415201
0.74133058 0.53881675 0.41753381
0.76892048 0.56511964 0.44129881
0.79615550 0.59150500 0.46543650
0.82305509 0.61796830 0.48993728
0.84963681 0.64450563 0.51479234
0.87591663 0.67111363 0.53999355
0.90190910 0.69778936 0.56553339
0.91886608 0.72453018 0.59140482
0.91886608 0.75133375 0.61760129
0.91886608 0.77819796 0.64411665
0.91886608 0.80512086 0.67094511
0.91886608 0.83210067 0.69808123
0.91886608 0.85913577 0.72551985
0.91886608 0.88622463 0.75325608
0.14912390 0.18793886 0.11342667
0.16089994 0.18862501 0.11428048
0.18964725 0.19107669 0.11724331
0.22544003 0.19611793 0.12298239
0.26283812 0.20439666 0.13167398
0.29998672 0.21614651 0.14302428
0.33633079 0.23114700 0.15654265
0.37174149 0.24888510 0.17176154
0.40623111 0.26876762 0.18831612
0.43985677 0.29026091 0.20594357
0.47268632 0.31294189 0.22445906
0.50478609 0.33649656 0.24373219
0.53621685 0.36069923 0.26366947
0.56703286 0.38538967 0.28420229
0.59728210 0.41045426 0.30527912
0.62700685 0.43581201 0.32686018
0.65624448 0.46140464 0.34891408
0.68502806 0.48718973 0.37141545
0.71338696 0.51313603 0.39434335
0.74134744 0.53922021 0.41768015
0.76893301 0.56542458 0.44141079
0.79616483 0.59173557 0.46552219
0.82306203 0.61814261 0.49000281
0.84964198 0.64463733 0.51484241
0.87592048 0.67121304 0.54003176
0.90191196 0.69786428 0.56556249
0.91886608 0.72458654 0.59142693
0.91886608 0.75137605 0.61761805
0.91886608 0.77822961 0.64412931
0.91886608 0.80514446 0.67095465
0.91886608 0.83211821 0.69808838
0.91886608 0.85914875 0.72552519
0.91886608 0.88623419 0.75326005
0.18690145 0.23623458 0.13919029
0.19295153 0.23654908 0.13962565
0.21098318 0.23769185 0.14118808
0.23835927 0.24013436 0.14443331
0.27063329 0.24441137 0.14985184
0.30481325 0.25102864 0.15771608
0.33941147 0.26034798 0.16802027
0.37376303 0.27249765 0.18054175
0.40758923 0.28735801 0.19495864
0.44078723 0.30462491 0.21094592
0.47333420 0.32390661 0.22822364
0.50524330 0.34480707 0.24656928
0.53654313 0.36697498 0.26581269
0.56726786 0.39012203 0.28582576
0.59745266 0.41402241 0.30651215
0.62713144 0.43850398 0.32779892
0.65633596 0.46343742 0.34963022
0.68509551 0.48872619 0.37196265
0.71343686 0.51429831 0.39476193
0.74138446 0.54009993 0.41800058
0.76896052 0.56609062 0.44165615
0.79618530 0.59223981 0.46571002
0.82307727 0.61852418 0.49014653
0.84965333 0.64492584 0.51495225
0.87592892 0.67143092 0.54011559
0.90191825 0.69802856 0.56562635
0.91886608 0.72471015 0.59147547
0.91886608 0.75146883 0.61765484
0.91886608 0.77829905 0.64415711
0.91886608 0.80519627 0.67097558
0.91886608 0.83215671 0.69810408
0.91886608 0.85917724 0.72553691
0.91886608 0.88625517 0.75326875
0.22298380 0.28065955 0.16507424
0.22639743 0.28082695 0.16532470
0.23759663 0.28143866 0.16623427
0.25712437 0.28276419 0.16817601
0.28310397 0.28514393 0.17156948
0.31297911 0.28896996 0.17680709
0.34479392 0.29464523 0.18416788
0.37736242 0.30252069 0.19375707
0.41003526 0.31282753 0.20550421
0.44247508 0.32563191 0.21921362
0.47451488 0.34083235 0.23463211
0.50607906 0.35819835 0.25150323
0.53714076 0.37742865 0.26959778
0.56769892 0.39820583 0.28872488
0.59776583 0.42023377 0.30873175
0.62736034 0.44325664 0.32949861
0.65650411 0.46706415 0.35093238
0.68521954 0.49148894 0.37296072
0.71352865 0.51640043 0.39552718
0.74145255 0.54169796 0.41858738
0.76901113 0.56730445 0.44210604
0.79622296 0.59316100 0.46605477
0.82310532 0.61922255 0.49041048
0.84967421 0.64545463 0.51515411
0.87594447 0.67183068 0.54026971
0.90192981 0.69833020 0.56574379
0.91886608 0.72493726 0.59156475
0.91886608 0.75163938 0.61772253
0.91886608 0.77842674 0.64420827
0.91886608 0.80529155 0.67101410
0.91886608 0.83222754 0.69813297
0.91886608 0.85922966 0.72555848
0.91886608 0.88629378 0.75328478
0.25779927 0.32230603 0.19105322
0.25985816 0.32240331 0.19120804
0.26694662 0.32275963 0.19177320
0.28042703 0.32353635 0.19299481
0.30022209 0.32494655 0.19517806
0.32500514 0.32725567 0.19866345
0.35309073 0.33077409 0.20378381
0.38307315 0.33583532 0.21080718
0.41398779 0.34275846 0.21988631
0.44523475 0.35180051 0.23103755
0.47646026 0.36311214 0.24415670
0.50746322 0.37671333 0.25905995
0.53813401 0.39249797 0.27552909
0.56841704 0.41026384 0.29334651
0.59828843 0.42975433 0.31231563
0.62774279 0.45069783 0.33226917
0.65678530 0.47283628 0.35306991
0.68542707 0.49594138 0.37460765
0.71368230 0.51982059 0.39679486
0.74156658 0.54431679 0.41956228
0.76909590 0.56930456 0.44285509
0.79628605 0.59468520 0.46662970
0.82315231 0.62038171 0.49085122
0.84970921 0.64633438 0.51549146
0.87597052 0.67249696 0.54052747
0.90194918 0.69883365 0.56594031
0.91886608 0.72531670 0.59171421
0.91886608 0.75192455 0.61783588
0.91886608 0.77864039 0.64429395
0.91886608 0.80545103 0.67107863
0.91886608 0.83234612 0.69818138
0.91886608 0.85931745 0.72559462
0.91886608 0.88635845 0.75331163
0.29160439 0.36180478 0.21711134
0.29290725 0.36186468 0.21721173
0.29750968 0.36208436 0.21757914
0.30673572 0.36256466 0.21837834
0.32129374 0.36344161 0.21982356
0.34094332 0.36489121 0.22217460
0.36471083 0.36713215 0.22572249
0.39138524 0.37042259 0.23076036
0.41989247 0.37504764 0.23754262
0.44943001 0.38129537 0.24624360
0.47945257 0.38942282 0.25693123
0.50960933 0.39961871 0.26956568
0.53968248 0.41197383 0.28402120
0.56954087 0.42646927 0.30011988
0.59910848 0.44298607 0.31766433
0.62834405 0.46133164 0.33646199
0.65722797 0.48127287 0.35633915
0.68575412 0.50256654 0.37714678
0.71392461 0.52498151 0.39876110
0.74174650 0.54831168 0.42108130
0.76922971 0.57238126 0.44402624
0.79638568 0.59704491 0.46753095
0.82322651 0.62218512 0.49154346
0.84976449 0.64770824 0.51602211
0.87601167 0.67354044 0.54093337
0.90197979 0.69962384 0.56625005
0.91886608 0.72591325 0.59194993
0.91886608 0.75237345 0.61801473
0.91886608 0.77897701 0.64442920
0.91886608 0.80570251 0.67118053
0.91886608 0.83253322 0.69825782
0.91886608 0.85945601 0.72565171
0.91886608 0.88646057 0.75335405
0.32457035 0.39956474 0.24323760
0.32542470 0.39960318 0.24330495
0.32848688 0.39974426 0.24355180
0.33482548 0.40005318 0.24409062
0.34533428 0.40061897 0.24507144
0.36039475 0.40155915 0.24668449
0.37974496 0.40302450 0.24915869
0.40264076 0.40520211 0.25275159
0.42815969 0.40831428 0.25772825
0.45544472 0.41261110 0.26433043
0.48381434 0.41835431 0.27274243
0.51277401 0.42579247 0.28306429
0.54198444 0.43513054 0.29530178
0.57122109 0.44650084 0.30937575
0.60033951 0.45994405 0.32514549
0.62924926 0.47540633 0.34243679
0.65789582 0.49275279 0.36106662
0.68624827 0.51179219 0.38086051
0.71429113 0.53230471 0.40166222
0.74201887 0.55406635 0.42333765
0.76943241 0.57686629 0.44577479
0.79653665 0.60051693 0.46888179
0.82333901 0.62485783 0.49258411
0.84984831 0.64975574 0.51682165
0.87607409 0.67510225 0.54154600
0.90202622 0.70081043 0.56671815
0.91886608 0.72681132 0.59230653
0.91886608 0.75305056 0.61828550
0.91886608 0.77948552 0.64463408
0.91886608 0.80608283 0.67133495
0.91886608 0.83281641 0.69837372
0.91886608 0.85966588 0.72573829
0.91886608 0.88661530 0.75341839
0.35681952 0.43587150 0.26942386
0.35739523 0.43589694 0.26947021
0.35947650 0.43599034 0.26964024
0.36387125 0.43619506 0.27001213
0.37140322 0.43657068 0.27069172
0.38269220 0.43719675 0.27181672
0.39795583 0.43817730 0.27355982
0.41695060 0.43964505 0.27612786
0.43908777 0.44176447 0.27975443
0.46363446 0.44473195 0.28468396
0.48988434 0.44877139 0.29114737
0.51724810 0.45412299 0.29933340
0.54527588 0.46102460 0.30936304
0.57364314 0.46968690 0.32127507
0.60212441 0.48026683 0.33502731
0.63056728 0.49284596 0.35051167
0.65887121 0.50742007 0.36757710
0.68697161 0.52390317 0.38605282
0.71482852 0.54214396 0.40576721
0.74241871 0.56194924 0.42656030
0.76973022 0.58310783 0.44829035
0.79675863 0.60541037 0.47083607
0.82350450 0.62866279 0.49409614
0.84997165 0.65269372 0.51798719
0.87616597 0.67735713 0.54244133
0.90209459 0.70253178 0.56740357
0.91886608 0.72811892 0.59282945
0.91886608 0.75403923 0.61868301
0.91886608 0.78022961 0.64493511
0.91886608 0.80664026 0.67156199
0.91886608 0.83323201 0.69854420
0.91886608 0.85997418 0.72586569
0.91886608 0.88684278 0.75351311
0.38844378 0.47093509 0.29566387
0.38884007 0.47095234 0.29569641
0.39028033 0.47101566 0.29581580
0.39336022 0.47115451 0.29607727
0.39875707 0.47140956 0.29655623
0.40711144 0.47183547 0.29735235
0.41887334 0.47250452 0.29859379
0.43417434 0.47351055 0.30044000
0.45279860 0.47497275 0.30308140
0.47426709 0.47703875 0.30673384
0.49797870 0.47988555 0.31162610
0.52333644 0.48371692 0.31798013
0.54982276 0.48875556 0.32598649
0.57702620 0.49522870 0.33578040
0.60463776 0.50334775 0.34742522
0.63243424 0.51328441 0.36090819
0.66025884 0.52514863 0.37614929
0.68800393 0.53897393 0.39301914
0.71559728 0.55471466 0.41136017
0.74299169 0.57225544 0.43100578
0.77015756 0.59142975 0.45179465
0.79707745 0.61204202 0.47357954
0.82374236 0.63388821 0.49623151
0.85014904 0.65677169 0.51964088
0.87629816 0.68051348 0.54371620
0.90219297 0.70495733 0.56838224
0.91886608 0.72997101 0.59357767
0.91886608 0.75544520 0.61925272
0.91886608 0.78129106 0.64536708
0.91886608 0.80743732 0.67188810
0.91886608 0.83382735 0.69878925
0.91886608 0.86041642 0.72604891
0.91886608 0.88716943 0.75364937
0.41951459 0.50491607 0.32195264
0.41979204 0.50492798 0.32197583
0.42080382 0.50497171 0.32206096
0.42298526 0.50506765 0.32224754
0.42686517 0.50524399 0.32258984
0.43301024 0.50553881 0.32316030
0.44193175 0.50600283 0.32405357
0.45397142 0.50670257 0.32539025
0.46921381 0.50772394 0.32731957
0.48747061 0.50917571 0.33001940
0.50834310 0.51119258 0.33369207
0.53132580 0.51393656 0.33855430
0.55590378 0.51759573 0.34482073
0.58161638 0.52237853 0.35268252
0.60808493 0.52850256 0.36228510
0.63501550 0.53617758 0.37371055
0.66218886 0.54558430 0.38696989
0.68944614 0.55685276 0.40200697
0.71667480 0.57004542 0.41871215
0.74379678 0.58514955 0.43694097
0.77075911 0.60208120 0.45653297
0.79752686 0.62069899 0.47732703
0.82407799 0.64082377 0.49917197
0.85039954 0.66225900 0.52193252
0.87648493 0.68480816 0.54549161
0.90233204 0.70828712 0.56975039
0.91886608 0.73253150 0.59462676
0.91886608 0.75739968 0.62005333
0.91886608 0.78277295 0.64597519
0.91886608 0.80855381 0.67234779
0.91886608 0.83466340 0.69913502
0.91886608 0.86103870 0.72630765
0.91886608 0.88762974 0.75384191
0.45008912 0.53794084 0.34828609
0.45028605 0.53794919 0.34830282
0.45100578 0.53797985 0.34836427
0.45256603 0.53804713 0.34849901
0.45536929 0.53817085 0.34874647
0.45988122 0.53837786 0.34915958
0.46658264 0.53870408 0.34980824
0.47589274 0.53919696 0.35078295
0.48808196 0.53991841 0.35219826
0.50320859 0.54094799 0.35419534
0.52110905 0.54238627 0.35694228
0.54144517 0.54435776 0.36063094
0.56378332 0.54701273 0.36546863
0.58767191 0.55052674 0.37166415
0.61269602 0.55509662 0.37940880
0.63850494 0.56093156 0.38885564
0.66481879 0.56823876 0.40010153
0.69142315 0.57720452 0.41317693
0.71815856 0.58797349 0.42804606
0.74490914 0.60063056 0.44461691
0.77159234 0.61518999 0.46275749
0.79815055 0.63159483 0.48231384
0.82454445 0.64972664 0.50312601
0.85074805 0.66942232 0.52503995
0.87674500 0.69049384 0.54791502
0.90252581 0.71274637 0.57162760
0.91886608 0.73599240 0.59607201
0.91886608 0.76006100 0.62115973
0.91886608 0.78480250 0.64681759
0.91886608 0.81008985 0.67298577
0.91886608 0.83581768 0.69961559
0.91886608 0.86190015 0.72666765
0.91886608 0.88826830 0.75411003
0.48021416 0.57011133 0.37466081
0.48035549 0.57011726 0.37467301
0.48087284 0.57013902 0.37471781
0.48199849 0.57018678 0.37481607
0.48403504 0.57027463 0.37499665
0.48735031 0.57042170 0.37529848
0.49235707 0.57065365 0.37577328
0.49946983 0.57100456 0.37648878
0.50904117 0.57151918 0.37753202
0.52129326 0.57225559 0.37901265
0.53626962 0.57328824 0.38106538
0.55382814 0.57471108 0.38385061
0.57367756 0.57664051 0.38755197
0.59543969 0.57921736 0.39236945
0.61871288 0.58260719 0.39850721
0.64311957 0.58699733 0.40615665
0.66833290 0.59258981 0.41547690
0.69408578 0.59958907 0.42657681
0.72016890 0.60818501 0.43950300
0.74642312 0.61853324 0.45423717
0.77273033 0.63073639 0.47070292
0.79900456 0.64483093 0.48877978
0.82518441 0.66078305 0.50832020
0.85122691 0.67849472 0.52916585
0.87710274 0.69781792 0.55116051
0.90279258 0.71857323 0.57415887
0.91886608 0.74056836 0.59803137
0.91886608 0.76361356 0.62266603
0.91886608 0.78753252 0.64796824
0.91886608 0.81216855 0.67385941
0.91886608 0.83738714 0.70027496
0.91886608 0.86307576 0.72716232
0.91886608 0.88914220 0.75447886
0.50992863 0.60151134 0.40107394
0.51003100 0.60151559 0.40108290
0.51040611 0.60153119 0.40111582
0.51122435 0.60156543 0.40118805
0.51271189 0.60162843 0.40132086
0.51515298 0.60173393 0.40154301
0.51888444 0.60190043 0.40189293
0.52427549 0.60215253 0.40242128
0.53168919 0.60252272 0.40319387
0.54142916 0.60305346 0.40429487
0.55368408 0.60379968 0.40582993
0.56848936 0.60483159 0.40792855
0.58572134 0.60623777 0.41074500
0.60512591 0.60812803 0.41445645
0.62636869 0.61063561 0.41925717
0.64908811 0.61391793 0.42534781
0.67293743 0.61815460 0.43292001
0.69761018 0.62354165 0.44213798
0.72285081 0.63028098 0.45312064
0.74845503 0.63856498 0.46592831
0.77426463 0.64855779 0.48055775
0.80016001 0.66037637 0.49694635
0.82605257 0.67407567 0.51498404
0.85187783 0.68964163 0.53452934
0.87758976 0.70699421 0.55542559
0.90315618 0.72599909 0.57751479
0.91886608 0.74648504 0.60064742
0.91886608 0.76826256 0.62468841
0.91886608 0.79114030 0.64951989
0.91886608 0.81493730 0.67504151
0.91886608 0.83949066 0.70116949
0.91886608 0.86465913 0.72783477
0.91886608 0.89032369 0.75498103
0.53926548 0.63221086 0.42752298
0.53934018 0.63221393 0.42752961
0.53961412 0.63222521 0.42755396
0.54021273 0.63224996 0.42760740
0.54130471 0.63229551 0.42770570
0.54310695 0.63237181 0.42787021
0.54588620 0.63249226 0.42812958
0.54995232 0.63267476 0.42852174
0.55563876 0.63294298 0.42909636
0.56326846 0.63332804 0.42991763
0.57310844 0.63387044 0.43106731
0.58532372 0.63462242 0.43264772
0.59994562 0.63565073 0.43478418
0.61686635 0.63703950 0.43762607
0.63586179 0.63889314 0.44134549
0.65663277 0.64133873 0.44613231
0.67885044 0.64452707 0.45218460
0.70219372 0.64863150 0.45969455
0.72637363 0.65384316 0.46883092
0.75114486 0.66036178 0.47972130
0.77630795 0.66838171 0.49243784
0.80170591 0.67807402 0.50699040
0.82721820 0.68956755 0.52332851
0.85275415 0.70293277 0.54135141
0.87824677 0.71817258 0.56092302
0.90364745 0.73522260 0.58188827
0.91886608 0.75396067 0.60408742
0.91886608 0.77422297 0.62736701
0.91886608 0.79582258 0.65158679
0.91886608 0.81856675 0.67662326
0.91886608 0.84227038 0.70237063
0.91886608 0.86676489 0.72874017
0.91886608 0.89190286 0.75565858
0.56825290 0.66226919 0.45400578
0.56830775 0.66227143 0.45401071
0.56850899 0.66227963 0.45402882
0.56894931 0.66229765 0.45406857
0.56975447 0.66233080 0.45414170
0.57108881 0.66238634 0.45426415
0.57315971 0.66247406 0.45445731
0.57621790 0.66260701 0.45474966
0.58054997 0.66280254 0.45517866
0.58646008 0.66308350 0.45579307
0.59423961 0.66347978 0.45665570
0.60412789 0.66403020 0.45784626
0.61627300 0.66478477 0.45946436
0.63070461 0.66580728 0.46163191
0.64732869 0.66717818 0.46449442
0.66594573 0.66899746 0.46822005
0.68628538 0.67138715 0.47299534
0.70804575 0.67449270 0.47901669
0.73092734 0.67848237 0.48647717
0.75465615 0.68354341 0.49554982
0.77899597 0.68987393 0.50636993
0.80375180 0.69767002 0.51902009
0.82876800 0.70710866 0.53352165
0.85392344 0.71832879 0.54983480
0.87912585 0.73141415 0.56786694
0.90430615 0.74638223 0.58748675
0.91886608 0.76318215 0.60854029
0.91886608 0.78170231 0.63086606
0.91886608 0.80178525 0.65430670
0.91886608 0.82324617 0.67871693
0.91886608 0.84589080 0.70396784
0.91886608 0.86953007 0.72994844
0.91886608 0.89399008 0.75656528
0.59691531 0.69173713 0.48052045
0.59695579 0.69173877 0.48052413
0.59710435 0.69174477 0.48053766
0.59742968 0.69175796 0.48056736
0.59802563 0.69178222 0.48062199
0.59901619 0.69182287 0.48071349
0.60056075 0.69188709 0.48085792
0.60285749 0.69198445 0.48107665
0.60614266 0.69212772 0.48139795
0.61068296 0.69233371 0.48185882
0.61675852 0.69262452 0.48250725
0.62463570 0.69302899 0.48340480
0.63453267 0.69358447 0.48462950
0.64658527 0.69433904 0.48627871
0.66082316 0.69535403 0.48847159
0.67716427 0.69670682 0.49135062
0.69542962 0.69849375 0.49508095
0.71537272 0.70083271 0.49984677
0.73671420 0.70386485 0.50584354
0.75917276 0.70775440 0.51326563
0.78248731 0.71268563 0.52229027
0.80642958 0.71885558 0.53305984
0.83080867 0.72646213 0.54566625
0.85547028 0.73568760 0.56014105
0.88029295 0.74667974 0.57645379
0.90518310 0.75953380 0.59451895
0.91886608 0.77427982 0.61420909
0.91886608 0.79087855 0.63537097
0.91886608 0.80922729 0.65784099
0.91886608 0.82917376 0.68145786
0.91886608 0.85053450 0.70607130
0.91886608 0.87311341 0.73154714
0.91886608 0.89671739 0.75776934
0.62527405 0.72065865 0.50706532
0.62530404 0.72065985 0.50706808
0.62541414 0.72066427 0.50707822
0.62565540 0.72067396 0.50710048
0.62609790 0.72069179 0.50714143
0.62683500 0.72072169 0.50721003
0.62798830 0.72076890 0.50731834
0.62971205 0.72084051 0.50748247
0.63219572 0.72094592 0.50772374
0.63566266 0.72109754 0.50807020
0.64036264 0.72131175 0.50855842
0.64655601 0.72160996 0.50923566
0.65448916 0.72202006 0.51016245
0.66436400 0.72257813 0.51141538
0.67630756 0.72333061 0.51308996
0.69035049 0.72433673 0.51530320
0.70642131 0.72567130 0.51819521
0.72435834 0.72742764 0.52192895
0.74393511 0.72972032 0.52668707
0.76489120 0.73268703 0.53266481
0.78696074 0.73648892 0.54005830
0.80989374 0.74130805 0.54904899
0.83346887 0.74734105 0.55978594
0.85749887 0.75478780 0.57236960
0.88183072 0.76383561 0.58684059
0.90634275 0.77464018 0.60317670
0.91886608 0.78730689 0.62129838
0.91886608 0.80187665 0.64108125
0.91886608 0.81832008 0.66237207
0.91886608 0.83654175 0.68500480
0.91886608 0.85639325 0.70881395
0.91886608 0.87769154 0.73364424
0.91886608 0.90023811 0.75935628
0.65334793 0.74907215 0.53363889
0.65337022 0.74907304 0.53364096
0.65345206 0.74907629 0.53364858
0.65363150 0.74908344 0.53366530
0.65396091 0.74909660 0.53369608
0.65451049 0.74911866 0.53374764
0.65537257 0.74915350 0.53382906
0.65666598 0.74920635 0.53395250
0.65853985 0.74928416 0.53413404
0.66117555 0.74939612 0.53439495
0.66478506 0.74955439 0.53476303
0.66960371 0.74977487 0.53527444
0.67587553 0.75007836 0.53597580
0.68383097 0.75049190 0.53692675
0.69365935 0.75105050 0.53820266
0.70548143 0.75179914 0.53989758
0.71932959 0.75279529 0.54212680
0.73514175 0.75411162 0.54502868
0.75277107 0.75583898 0.54876470
0.77200799 0.75808924 0.55351670
0.79260816 0.76099741 0.55948035
0.81431885 0.76472234 0.56685402
0.83689957 0.76944472 0.57582353
0.86013500 0.77536133 0.58654442
0.88384108 0.78267441 0.59912503
0.90786593 0.79157615 0.61361421
0.91886608 0.80222962 0.62999688
0.91886608 0.81474926 0.64819845
0.91886608 0.82918541 0.66809665
0.91886608 0.84551691 0.68953755
0.91886608 0.86365402 0.71235209
0.91886608 0.88345080 0.73637031
0.91886608 0.90472353 0.76143177
0.68115363 0.77701143 0.56023982
0.68117024 0.77701209 0.56024138
0.68123122 0.77701450 0.56024711
0.68136497 0.77701979 0.56025970
0.68161068 0.77702952 0.56028287
0.68202109 0.77704584 0.56032169
0.68266607 0.77707162 0.56038301
0.68363650 0.77711073 0.56047599
0.68504825 0.77716831 0.56061280
0.68704547 0.77725120 0.56080953
0.68980212 0.77736841 0.56108731
0.69352016 0.77753177 0.56147371
0.69842264 0.77775681 0.56200449
0.70474012 0.77806375 0.56272572
0.71269027 0.77847888 0.56369624
0.72245269 0.77903624 0.56499045
0.73414380 0.77977959 0.56670120
0.74779825 0.78076488 0.56894251
0.76336243 0.78206300 0.57185152
0.78070228 0.78376280 0.57558881
0.79962276 0.78597401 0.58033609
0.81989314 0.78882966 0.58629010
0.84127192 0.79248699 0.59365196
0.86352672 0.79712608 0.60261211
0.88644739 0.80294448 0.61333245
0.90985256 0.81014720 0.62592877
0.91886608 0.81893141 0.64045740
0.91886608 0.82946715 0.65690946
0.91886608 0.84187709 0.67521427
0.91886608 0.85621975 0.69525069
0.91886608 0.87248068 0.71686325
0.91886608 0.89057421 0.73987928
0.91886608 0.91035541 0.76412394
0.70870609 0.80450645 0.58686688
0.70871848 0.80450694 0.58686806
0.70876400 0.80450872 0.58687238
0.70886385 0.80451264 0.58688187
0.70904737 0.80451986 0.58689934
0.70935419 0.80453196 0.58692860
0.70983704 0.80455107 0.58697483
0.71056507 0.80458007 0.58704494
0.71162748 0.80462277 0.58714814
0.71313708 0.80468425 0.58729661
0.71523327 0.80477120 0.58750636
0.71808324 0.80489245 0.58779839
0.72188019 0.80505955 0.58820002
0.72683673 0.80528763 0.58874666
0.73317227 0.80559642 0.58948387
0.74109425 0.80601153 0.59046982
0.75077484 0.80656614 0.59177810
0.76232765 0.80730295 0.59350063
0.77578994 0.80827663 0.59575052
0.79111586 0.80955661 0.59866415
0.80818254 0.81123013 0.60240179
0.82680737 0.81340530 0.60714564
0.84677131 0.81621372 0.61309413
0.86784242 0.81981176 0.62045160
0.88979521 0.82437951 0.62941345
0.91242386 0.83011600 0.64014798
0.91886608 0.83722949 0.65277813
0.91886608 0.84592229 0.66736704
0.91886608 0.85637127 0.68391113
0.91886608 0.86870664 0.70234261
0.91886608 0.88299401 0.72254045
0.91886608 0.89922416 0.74434672
0.91886608 0.91731390 0.76758442
0.73601869 0.83158393 0.61351899
0.73602795 0.83158429 0.61351988
0.73606196 0.83158561 0.61352314
0.73613658 0.83158852 0.61353029
0.73627378 0.83159388 0.61354347
0.73650330 0.83160286 0.61356554
0.73686487 0.83161705 0.61360041
0.73741092 0.83163858 0.61365331
0.73820962 0.83167028 0.61373119
0.73934829 0.83171594 0.61384327
0.74093669 0.83178052 0.61400169
0.74310973 0.83187061 0.61422239
0.74602850 0.83199481 0.61452619
0.74987849 0.83216442 0.61494020
0.75486344 0.83239422 0.61549946
0.76119359 0.83270345 0.61624907
0.76906819 0.83311714 0.61724665
0.77865384 0.83366768 0.61856512
0.79006252 0.83439688 0.62029574
0.80333448 0.83535833 0.62255101
0.81843099 0.83662026 0.62546699
0.83523906 0.83826865 0.62920415
0.85358688 0.84041044 0.63394576
0.87326540 0.84317637 0.63989253
0.89405079 0.84672253 0.64725261
0.91572336 0.85122975 0.65622671
0.91886608 0.85689917 0.66698966
