src/ffmpeg_scripts/luts/sRGB-rec2020_-2p00.cube
TITLE "sRGB-rec2020_-2p00"
LUT_3D_SIZE 9
# PQ (EOTF Only)/sRGB -> PQ (EOTF Only)/Rec2020, CineEI Shift -2.00, Black Level 0.00% IRE, Input 100% -> Output 109% - Created with LUTCalc v4.01 by Ben Turley October 2020
0.06256172 0.06256172 0.06256172
0.11435927 0.08119677 0.07136894
0.18190964 0.11337133 0.08907735
0.25937934 0.15725892 0.11609191
0.34479272 0.21242819 0.15326277
0.43704112 0.27877028 0.20155138
0.53539149 0.35631158 0.26197732
0.63931382 0.44514863 0.33560254
0.74840243 0.54541888 0.42352566
0.10165154 0.12334170 0.08357366
0.12433845 0.12517500 0.08540602
0.18436238 0.13694967 0.09579017
0.26010914 0.16742296 0.11890873
0.34503242 0.21645180 0.15442324
0.43712297 0.28031940 0.20202531
0.53541946 0.35689240 0.26216608
0.63932310 0.44535724 0.33567435
0.74840534 0.54548903 0.42355114
0.15725186 0.19851436 0.11884005
0.16440612 0.19890625 0.11934144
0.20032094 0.20183199 0.12297420
0.26547614 0.21290638 0.13543335
0.34684998 0.24102856 0.16250892
0.43774898 0.29124656 0.20554468
0.53563395 0.36122199 0.26359907
0.63939437 0.44694319 0.33622365
0.74842769 0.54602593 0.42374656
0.22429103 0.28224322 0.16603273
0.22659951 0.28235537 0.16620102
0.24204791 0.28321092 0.16747502
0.28469808 0.28674667 0.17257145
0.35416667 0.29791429 0.18728967
0.44036582 0.32558156 0.21860460
0.53654155 0.37749645 0.26939698
0.63969717 0.45339789 0.33852116
0.74852279 0.54827769 0.42457367
0.30098371 0.37261956 0.22447557
0.30177441 0.37265559 0.22453677
0.30758957 0.37293179 0.22500477
0.32840866 0.37409756 0.22695991
0.37557694 0.37804058 0.23335078
0.44893344 0.38956388 0.25047157
0.53963845 0.41791868 0.28661733
0.64074526 0.47286130 0.34605830
0.74885357 0.55573010 0.42739818
0.38631395 0.46858928 0.29387993
0.38659209 0.46860138 0.29390272
0.38869831 0.46869429 0.29407749
0.39712840 0.46908873 0.29481701
0.42140607 0.47045063 0.29734022
0.47191411 0.47467989 0.30490197
0.54891804 0.48671097 0.32459949
0.64402569 0.51664364 0.36639306
0.74990505 0.57625867 0.43588237
0.47960422 0.56946342 0.37412272
0.47970159 0.56946751 0.37413112
0.48044584 0.56949884 0.37419558
0.48354806 0.56963212 0.37446947
0.49360961 0.57009530 0.37541743
0.51998006 0.57156347 0.37838383
0.57302853 0.57599057 0.38700330
0.65356072 0.58866522 0.40951346
0.75310274 0.62109311 0.45807194
0.58036197 0.67474847 0.46516826
0.58039498 0.67474980 0.46517124
0.58064805 0.67476009 0.46519414
0.58171782 0.67480386 0.46529154
0.58535517 0.67495628 0.46563031
0.59614146 0.67544276 0.46670676
0.62348976 0.67694062 0.46997687
0.67843284 0.68149072 0.47953374
0.76247413 0.69497013 0.50518937
0.68820881 0.78406955 0.56703288
0.68821936 0.78406997 0.56703387
0.68830028 0.78407316 0.56704150
0.68864399 0.78408674 0.56707397
0.68983254 0.78413409 0.56718709
0.69354099 0.78428555 0.56754842
0.70422565 0.78475524 0.56866394
0.73152409 0.78621328 0.57207982
0.78775725 0.79081497 0.58243279
0.07726734 0.06977479 0.12268467
0.11584627 0.08266309 0.12313570
0.18223856 0.11377968 0.12642831
0.25947577 0.15739820 0.13798527
0.34482429 0.21247953 0.16394144
0.43705189 0.27878962 0.20620750
0.53539517 0.35631878 0.26387511
0.63931504 0.44515121 0.33633031
0.74840281 0.54541975 0.42378461
0.10386560 0.12364943 0.12504455
0.12546806 0.12546806 0.12546806
0.18467707 0.13716794 0.12857220
0.26020458 0.16753653 0.13960771
0.34506390 0.21649994 0.16487607
0.43713373 0.28033834 0.20664626
0.53542314 0.35689955 0.26405892
0.63932433 0.44535982 0.33640148
0.74840572 0.54548990 0.42381002
0.15778074 0.19857898 0.13956732
0.16486401 0.19897044 0.13986306
0.20055952 0.20189310 0.14206869
0.26556465 0.21295732 0.15039340
0.34688076 0.24106157 0.17153336
0.43775966 0.29126292 0.20991399
0.53563762 0.36122878 0.26545473
0.63939559 0.44694572 0.33694588
0.74842808 0.54602679 0.42400487
0.22445307 0.28226167 0.17450671
0.22675588 0.28237380 0.17464971
0.24217178 0.28322913 0.17573509
0.28476611 0.28676404 0.18012465
0.35419484 0.29792927 0.19316730
0.44037620 0.32559206 0.22217034
0.53654518 0.37750205 0.27111052
0.63969838 0.45340024 0.33922328
0.74852317 0.54827853 0.42482958
0.30103856 0.37262548 0.22773717
0.30182870 0.37266152 0.22779537
0.30763991 0.37293770 0.22824047
0.32844731 0.37410338 0.23010199
0.37559875 0.37804614 0.23620805
0.44894287 0.38956874 0.25270183
0.53964197 0.41792218 0.28797655
0.64074646 0.47286320 0.34669867
0.74885395 0.55573088 0.42764606
0.38633318 0.46859127 0.29511521
0.38661126 0.46860337 0.29513763
0.38871702 0.46869628 0.29530958
0.39714536 0.46909071 0.29603724
0.42141892 0.47045258 0.29852096
0.47192143 0.47468176 0.30597269
0.54892123 0.48671260 0.32543369
0.64402685 0.51664482 0.36689461
0.74990542 0.57625929 0.43610771
0.47961094 0.56946410 0.37458042
0.47970831 0.56946818 0.37458877
0.48045250 0.56949951 0.37465289
0.48355450 0.56963279 0.37492530
0.49361538 0.57009597 0.37586820
0.51998440 0.57156412 0.37881915
0.57303099 0.57599119 0.38739689
0.65356177 0.58866577 0.40981709
0.75310311 0.62109350 0.45824800
0.58036425 0.67474869 0.46533106
0.58039726 0.67475003 0.46533404
0.58065032 0.67476031 0.46535689
0.58172006 0.67480408 0.46545412
0.58535733 0.67495650 0.46579228
0.59614338 0.67544298 0.46686683
0.62349121 0.67694083 0.47013129
0.67843365 0.68149092 0.47967281
0.76247446 0.69497031 0.50529460
0.68820954 0.78406962 0.56708715
0.68822008 0.78407003 0.56708815
0.68830101 0.78407323 0.56709577
0.68864471 0.78408681 0.56712822
0.68983325 0.78413416 0.56724127
0.69354167 0.78428562 0.56760240
0.70422626 0.78475531 0.56871728
0.73152455 0.78621334 0.57213126
0.78775750 0.79081503 0.58247888
0.10402762 0.08477854 0.19731976
0.12555285 0.09122844 0.19741487
0.18470100 0.11675981 0.19814013
0.26021185 0.15845456 0.20113147
0.34506630 0.21287234 0.21052819
0.43713455 0.27893797 0.23362403
0.53542342 0.35637406 0.27698573
0.63932442 0.44517102 0.34171094
0.74840575 0.54542641 0.42574816
0.11698474 0.12593154 0.19782867
0.13318991 0.12764618 0.19792296
0.18703615 0.13880725 0.19864201
0.26093315 0.16840037 0.20160873
0.34530520 0.21686831 0.21093710
0.43721632 0.28048361 0.23390917
0.53545138 0.35695444 0.27713909
0.63933370 0.44537959 0.34177755
0.74840866 0.54549655 0.42577301
0.16166134 0.19907284 0.20159668
0.16824873 0.19946105 0.20168516
0.20236025 0.20236025 0.20236025
0.26624065 0.21334713 0.20515190
0.34711678 0.24131452 0.21399002
0.43784167 0.29138842 0.23605871
0.53566580 0.36128089 0.27830619
0.63940496 0.44696514 0.34228718
0.74843102 0.54603341 0.42596359
0.22568401 0.28240322 0.21543214
0.22794417 0.28251513 0.21550270
0.24311547 0.28336884 0.21604190
0.28528646 0.28689728 0.21828682
0.35441083 0.29804421 0.22554521
0.44045584 0.32567270 0.24450771
0.53657309 0.37754500 0.28307753
0.63970772 0.45341832 0.34442173
0.74852611 0.54828499 0.42677033
0.30145843 0.37267098 0.24853269
0.30224427 0.37270699 0.24857534
0.30802542 0.37298302 0.24890198
0.32874352 0.37414809 0.25027541
0.37576607 0.37808882 0.25486117
0.44901526 0.38960603 0.26780958
0.53966896 0.41794910 0.29766844
0.64075570 0.47287778 0.35145622
0.74885688 0.55573684 0.42952673
0.38648070 0.46860655 0.30398709
0.38675831 0.46861866 0.30400706
0.38886050 0.46871155 0.30416020
0.39727548 0.46910591 0.30480873
0.42151749 0.47046756 0.30702802
0.47197759 0.47469605 0.31373623
0.54894567 0.48672513 0.33156441
0.64403577 0.51665389 0.37064919
0.74990832 0.57626409 0.43781936
0.47966257 0.56946925 0.37801488
0.47975988 0.56947333 0.37802290
0.48050366 0.56950466 0.37808448
0.48360395 0.56963794 0.37834610
0.49365970 0.57010109 0.37925194
0.52001773 0.57156916 0.38208962
0.57304990 0.57599600 0.39036045
0.65356984 0.58866997 0.41211409
0.75310590 0.62109648 0.45958856
0.58038175 0.67475038 0.46657152
0.58041475 0.67475172 0.46657446
0.58066776 0.67476200 0.46659700
0.58173731 0.67480577 0.46669291
0.58537393 0.67495819 0.46702650
0.59615819 0.67544466 0.46808663
0.62350229 0.67694248 0.47130837
0.67843985 0.68149250 0.48073369
0.76247699 0.69497167 0.50609870
0.68821513 0.78407014 0.56750287
0.68822567 0.78407056 0.56750386
0.68830659 0.78407375 0.56751145
0.68865028 0.78408734 0.56754376
0.68983875 0.78413468 0.56765631
0.69354696 0.78428614 0.56801585
0.70423098 0.78475583 0.56912587
0.73152807 0.78621386 0.57252533
0.78775942 0.79081552 0.58283204
0.14189786 0.10830561 0.28061658
0.15153781 0.11110476 0.28064379
0.19412205 0.12721776 0.28085240
0.26326249 0.16271258 0.28173393
0.34608858 0.21451726 0.28472768
0.43748558 0.27956617 0.29357993
0.53554358 0.35660897 0.31595813
0.63936433 0.44525532 0.36133208
0.74841827 0.54545474 0.43365193
0.14721254 0.13437453 0.28076257
0.15589034 0.13576680 0.28078973
0.19610780 0.14516148 0.28099793
0.26395362 0.17192423 0.28187774
0.34632452 0.21841277 0.28486581
0.43756702 0.28109884 0.29370271
0.53557150 0.35718772 0.31605001
0.63937361 0.44546369 0.36138459
0.74842118 0.54552487 0.43367467
0.17548520 0.20113024 0.28187410
0.18061347 0.20150526 0.28190085
0.20947462 0.20430908 0.28210595
0.26904921 0.21497971 0.28297277
0.34811396 0.24238083 0.28591800
0.43818993 0.29192033 0.29463889
0.53578564 0.36150236 0.31675194
0.63944484 0.44704777 0.36178665
0.74844353 0.54606156 0.43384903
0.23067737 0.28300276 0.28642792
0.23277379 0.28311377 0.28645309
0.24699238 0.28396067 0.28664603
0.28746185 0.28746185 0.28746185
0.35532402 0.29853159 0.29023849
0.44079408 0.32601508 0.29849991
0.53669178 0.37772759 0.31967192
0.63974747 0.45349523 0.36347685
0.74853861 0.54831247 0.43458750
0.30322052 0.37286438 0.30044030
0.30398865 0.37290031 0.30046121
0.30964541 0.37317571 0.30062157
0.32999232 0.37433814 0.30130052
0.37647467 0.37827025 0.30362161
0.44932276 0.38976460 0.31061749
0.53978379 0.41806359 0.32908457
0.64079501 0.47293984 0.36911604
0.74886934 0.55576223 0.43711516
0.38710588 0.46867160 0.33337511
0.38738147 0.46868369 0.33338886
0.38946862 0.46877651 0.33349439
0.39782721 0.46917060 0.33394209
0.42193590 0.47053128 0.33548371
0.47221629 0.47475689 0.34023190
0.54904967 0.48677848 0.35345293
0.64407375 0.51669247 0.38499455
0.74992063 0.57628450 0.44475984
0.47988201 0.56949119 0.39125955
0.47997909 0.56949527 0.39126643
0.48072109 0.56952659 0.39131916
0.48381416 0.56965983 0.39154331
0.49384813 0.57012288 0.39232022
0.52015947 0.57159062 0.39476213
0.57313038 0.57601647 0.40194677
0.65360417 0.58868787 0.42127068
0.75311780 0.62110918 0.46508313
0.58045620 0.67475758 0.47167051
0.58048918 0.67475892 0.47167328
0.58074199 0.67476920 0.47169460
0.58181070 0.67481296 0.47178529
0.58544454 0.67496537 0.47210074
0.59622118 0.67545180 0.47310369
0.62354947 0.67694952 0.47615565
0.67846624 0.68149920 0.48511712
0.76248775 0.69497748 0.50944561
0.68823892 0.78407238 0.56925228
0.68824946 0.78407279 0.56925325
0.68833036 0.78407598 0.56926070
0.68867396 0.78408957 0.56929242
0.68986213 0.78413691 0.56940290
0.69356944 0.78428837 0.56975584
0.70425105 0.78475805 0.57084564
0.73154307 0.78621604 0.57418465
0.78776760 0.79081760 0.58432082
0.19091063 0.14143461 0.37065680
0.19484296 0.14261632 0.37066555
0.21862007 0.15077549 0.37073272
0.27298327 0.17525926 0.37101805
0.34955604 0.21993591 0.37200531
0.43869867 0.28171533 0.37509148
0.53596128 0.35742276 0.38403339
0.63950335 0.44554859 0.40723344
0.74846189 0.54555347 0.45675852
0.19300787 0.15507496 0.37070378
0.19680468 0.15595454 0.37071253
0.21995414 0.16222384 0.37077966
0.27358751 0.18264858 0.37106483
0.34978224 0.22352073 0.37205154
0.43877901 0.28320454 0.37513606
0.53598908 0.35799588 0.38407352
0.63951262 0.44575628 0.40726412
0.74846480 0.54562352 0.45677609
0.20701114 0.20779562 0.37106364
0.21003281 0.20813148 0.37107235
0.22936510 0.21065084 0.37113920
0.27806778 0.22036037 0.37142316
0.35149872 0.24597247 0.37240571
0.43939355 0.29374594 0.37547757
0.53620226 0.36226990 0.38438103
0.63958374 0.44733525 0.40749931
0.74848714 0.54615965 0.45691089
0.24562338 0.28505587 0.37257862
0.24730643 0.28516385 0.37258717
0.25902287 0.28598787 0.37265283
0.29458775 0.28939745 0.37293175
0.35843122 0.30020679 0.37389700
0.44196337 0.32719732 0.37691615
0.53710438 0.37836111 0.38567785
0.63988593 0.45376287 0.40849348
0.74858218 0.54840823 0.45748250
0.30906670 0.37353519 0.37765751
0.30977919 0.37357083 0.37766557
0.31504343 0.37384406 0.37772740
0.33420008 0.37499740 0.37799013
0.37889974 0.37889974 0.37889974
0.45038664 0.39031512 0.38174900
0.54018300 0.41846159 0.39005126
0.64093194 0.47315588 0.41187356
0.74891275 0.55585068 0.45944746
0.38925042 0.46889799 0.39214228
0.38951922 0.46891005 0.39214908
0.39155566 0.46900264 0.39220128
0.39972366 0.46939575 0.39242314
0.42337926 0.47075310 0.39319219
0.47304358 0.47496866 0.39560987
0.54941133 0.48696420 0.40272733
0.64420602 0.51682683 0.42189722
0.74996356 0.57635562 0.46546778
0.48064296 0.56956762 0.42604944
0.48073923 0.56957170 0.42605405
0.48147512 0.56960300 0.42608946
0.48454324 0.56973613 0.42624005
0.49450202 0.57019880 0.42676305
0.52065195 0.57166537 0.42841746
0.57341040 0.57608779 0.43337639
0.65372377 0.58875022 0.44735288
0.75315928 0.62115343 0.48199640
0.58071530 0.67478267 0.48750264
0.58074819 0.67478401 0.48750498
0.58100031 0.67479429 0.48752291
0.58206612 0.67483804 0.48759918
0.58569032 0.67499041 0.48786461
0.59644047 0.67547671 0.48870952
0.62371376 0.67697404 0.49128984
0.67855818 0.68152257 0.49894422
0.76252524 0.69499773 0.52025066
0.68832181 0.78408017 0.57510883
0.68833234 0.78408058 0.57510974
0.68841317 0.78408377 0.57511674
0.68875647 0.78409736 0.57514654
0.68994361 0.78414470 0.57525037
0.69364777 0.78429614 0.57558209
0.70432097 0.78476578 0.57660687
0.73159535 0.78622365 0.57975106
0.78779612 0.79082483 0.58933470
0.25131669 0.18535316 0.46637976
0.25286777 0.18584556 0.46638271
0.26375526 0.18948930 0.46640530
0.29754081 0.20284445 0.46650141
0.35977091 0.23472969 0.46683570
0.44247633 0.28820696 0.46789805
0.53728652 0.35997655 0.47112635
0.63994718 0.44648139 0.48056955
0.74860147 0.54586894 0.50597414
0.25213507 0.19157794 0.46639556
0.25366817 0.19201928 0.46639851
0.26444165 0.19530006 0.46642110
0.29797591 0.20752270 0.46651719
0.35997088 0.23760277 0.46685142
0.44255335 0.28957315 0.46791359
0.53731392 0.36053240 0.47114135
0.63995640 0.44668694 0.48058308
0.74860437 0.54593875 0.50598440
0.25811803 0.22529685 0.46651679
0.25952683 0.22555118 0.46651973
0.26950390 0.22747150 0.46654229
0.30123685 0.23506791 0.46663826
0.36149057 0.25635429 0.46697205
0.44314259 0.29931330 0.46803281
0.53752411 0.36468153 0.47125642
0.64002719 0.44824977 0.48068684
0.74862668 0.54647309 0.50606314
0.27912091 0.29127509 0.46703106
0.28017640 0.29137448 0.46703398
0.28781605 0.29213333 0.46705641
0.31375540 0.29528114 0.46715184
0.36766740 0.30533794 0.46748375
0.44560846 0.33086991 0.46853859
0.53841362 0.38035873 0.47174464
0.64032797 0.45461466 0.48112726
0.74872158 0.54871425 0.50639760
0.32529684 0.37564831 0.46880150
0.32587707 0.37568308 0.46880437
0.33019726 0.37594958 0.46882636
0.34636864 0.37707479 0.46891995
0.38623147 0.38088490 0.46924548
0.45371149 0.39205480 0.47028020
0.54145011 0.41972419 0.47342654
0.64136913 0.47384429 0.48264631
0.74905165 0.55613338 0.50755423
0.39577907 0.46961923 0.47425008
0.39602827 0.46963120 0.47425278
0.39791824 0.46972306 0.47427350
0.40553231 0.47011307 0.47436166
0.42784917 0.47145984 0.47466833
0.47564358 0.47564358 0.47564358
0.55056025 0.48755647 0.47861313
0.64462837 0.51725581 0.48734817
0.75010090 0.57658301 0.51116399
0.48303815 0.56981199 0.48938218
0.48313194 0.56981606 0.48938447
0.48384892 0.56984728 0.48940203
0.48683985 0.56998006 0.48947676
0.49656540 0.57044154 0.48973683
0.52221177 0.57190436 0.49056476
0.57430160 0.57631583 0.49309422
0.65410577 0.58894964 0.50060602
0.75329199 0.62129501 0.52157343
0.58154032 0.67486299 0.52519826
0.58157292 0.67486432 0.52519981
0.58182285 0.67487460 0.52521174
0.58287945 0.67491831 0.52526249
0.58647312 0.67507055 0.52543922
0.59713933 0.67555644 0.52600293
0.62423797 0.67705251 0.52773544
0.67885200 0.68159735 0.53297022
0.76264522 0.69506255 0.54825544
0.68858678 0.78410510 0.59173655
0.68859728 0.78410552 0.59173731
0.68867788 0.78410871 0.59174318
0.68902022 0.78412229 0.59176817
0.69020406 0.78416962 0.59185522
0.69389819 0.78432102 0.59213348
0.70454457 0.78479053 0.59299407
0.73176256 0.78624801 0.59564389
0.78788739 0.79084801 0.60380491
0.32345503 0.24132175 0.56709160
0.32404879 0.24152138 0.56709259
0.32846632 0.24303498 0.56710022
0.34495377 0.24912649 0.56713267
0.38535514 0.26696397 0.56724571
0.45330551 0.30543520 0.56760682
0.54129380 0.36745682 0.56872165
0.64131499 0.44932336 0.57213547
0.74903443 0.54684378 0.58248266
0.32376721 0.24393142 0.56709693
0.32435865 0.24412353 0.56709792
0.32875952 0.24558084 0.56710555
0.34519300 0.25145958 0.56713800
0.38550288 0.26878235 0.56725103
0.45337379 0.30652684 0.56761212
0.54132006 0.36796527 0.56872689
0.64132408 0.44952251 0.57214053
0.74903732 0.54691287 0.58248718
0.32612436 0.26122827 0.56713786
0.32669861 0.26137808 0.56713885
0.33097582 0.26251798 0.56714647
0.34700703 0.26717633 0.56717891
0.38662888 0.28140805 0.56729190
0.45389637 0.31443400 0.56765283
0.54152144 0.37177035 0.56876711
0.64139386 0.45103723 0.57217932
0.74905952 0.54744169 0.58252195
0.33544732 0.30789293 0.56731190
0.33595882 0.30797292 0.56731289
0.33978233 0.30858439 0.56732050
0.35431039 0.31113487 0.56735288
0.39126337 0.31942730 0.56746566
0.45608773 0.34133076 0.56782592
0.54237389 0.38629082 0.56893817
0.64169033 0.45721475 0.57234430
0.74915398 0.54966008 0.58266978
0.36150306 0.38190559 0.56791615
0.36187585 0.38193789 0.56791714
0.36468424 0.38218552 0.56792470
0.37568825 0.38323167 0.56795686
0.40571355 0.38678178 0.56806892
0.46333685 0.39725359 0.56842689
0.54528647 0.42354099 0.56953210
0.64271669 0.47595368 0.57291719
0.74948252 0.55700762 0.58318338
0.41342256 0.47182751 0.56982556
0.41362609 0.47183920 0.56982652
0.41517342 0.47192886 0.56983393
0.42147163 0.47230956 0.56986545
0.44047223 0.47362447 0.56997526
0.48329028 0.47771225 0.57032606
0.55404767 0.48937526 0.57140932
0.64593059 0.51857809 0.57472875
0.75052696 0.57728706 0.58480959
0.49011403 0.57056831 0.57553047
0.49020086 0.57057235 0.57553137
0.49086487 0.57060332 0.57553835
0.49363908 0.57073504 0.57556801
0.50270527 0.57119284 0.57567138
0.52690439 0.57264412 0.57600163
0.57702187 0.57702187 0.57702187
0.65528459 0.58956745 0.58015247
0.75370370 0.62173418 0.58969741
0.58406217 0.67511246 0.59146870
0.58409391 0.67511379 0.59146947
0.58433725 0.67512404 0.59147535
0.58536621 0.67516763 0.59150041
0.58886810 0.67531947 0.59158771
0.59928136 0.67580409 0.59186676
0.62585076 0.67729627 0.59272977
0.67976045 0.68182966 0.59538692
0.76301756 0.69526396 0.60356922
0.68940650 0.78418266 0.63017687
0.68941691 0.78418307 0.63017738
0.68949681 0.78418626 0.63018129
0.68983619 0.78419983 0.63019793
0.69100989 0.78424712 0.63025592
0.69467315 0.78439839 0.63044138
0.70523692 0.78486751 0.63101614
0.73228093 0.78632378 0.63279678
0.78817079 0.79092008 0.63838294
0.40770917 0.31066439 0.67229489
0.40792643 0.31074158 0.67229522
0.40957687 0.31133174 0.67229772
0.41627405 0.31379528 0.67230838
0.43630097 0.32182539 0.67234553
0.48071441 0.34316292 0.67246440
0.55285480 0.38736607 0.67283332
0.64548174 0.45769737 0.67398133
0.75037966 0.54983759 0.67763207
0.40782326 0.31168539 0.67229664
0.40804023 0.31176157 0.67229697
0.40968855 0.31234410 0.67229947
0.41637751 0.31477643 0.67231013
0.43638351 0.32271203 0.67234728
0.48076491 0.34384394 0.67246615
0.55287801 0.38776846 0.67283506
0.64549043 0.45787888 0.67398305
0.75038251 0.54990451 0.67763372
0.40869438 0.31911080 0.67231009
0.40890920 0.31918011 0.67231041
0.41054136 0.31971029 0.67231292
0.41716796 0.32192829 0.67232358
0.43701470 0.32920976 0.67236072
0.48115176 0.34889255 0.67247957
0.55305604 0.39079696 0.67284843
0.64555721 0.45926060 0.67399625
0.75040439 0.55041676 0.67764643
0.41230854 0.34470171 0.67236730
0.41251467 0.34475212 0.67236762
0.41408156 0.34513820 0.67237013
0.42045564 0.34676163 0.67238078
0.43965283 0.35218277 0.67241790
0.48278051 0.36748396 0.67253668
0.55381014 0.40261682 0.67290531
0.64584093 0.46491741 0.67405245
0.75049750 0.55256663 0.67770049
0.42385831 0.39900511 0.67256647
0.42403912 0.39903159 0.67256680
0.42541530 0.39923461 0.67256930
0.43104558 0.40009357 0.67257992
0.44828567 0.40302334 0.67261697
0.48824251 0.41179296 0.67273550
0.55639273 0.43454628 0.67310336
0.64682345 0.48227124 0.67424811
0.75082134 0.55969839 0.67788874
0.45313592 0.47842676 0.67320152
0.45326622 0.47843763 0.67320184
0.45426051 0.47852103 0.67320432
0.45837474 0.47887525 0.67321488
0.47141202 0.48009951 0.67325167
0.50382650 0.48391348 0.67336941
0.56421566 0.49485776 0.67373482
0.64990301 0.52260796 0.67487198
0.75185094 0.57946210 0.67848908
0.50932667 0.57290218 0.67515060
0.50939718 0.57290611 0.67515091
0.50993683 0.57293633 0.67515334
0.51219957 0.57306483 0.67516368
0.51968250 0.57351146 0.67519972
0.54025713 0.57492771 0.67531506
0.58507882 0.57920297 0.67567302
0.65888989 0.59147964 0.67678721
0.75498351 0.62309874 0.68033299
0.59156206 0.67589078 0.68101593
0.59159138 0.67589210 0.68101622
0.59181616 0.67590227 0.68101851
0.59276711 0.67594551 0.68102823
0.59600942 0.67609610 0.68106210
0.60570200 0.67657675 0.68117049
0.63073860 0.67805686 0.68150695
0.68255470 0.68255470 0.68255470
0.76417593 0.69589299 0.68589385
0.69193259 0.78442551 0.69795026
0.69194272 0.78442593 0.69795050
0.69202051 0.78442910 0.69795241
0.69235094 0.78444264 0.69796053
0.69349390 0.78448980 0.69798883
0.69706358 0.78464068 0.69807941
0.70737627 0.78510857 0.69836068
0.73388863 0.78656106 0.69923760
0.78905419 0.79114580 0.70204269
0.50448821 0.39476611 0.78161163
0.50456250 0.39479391 0.78161173
0.50513101 0.39500712 0.78161251
0.50751277 0.39590888 0.78161582
0.51536756 0.39898105 0.78162736
0.53681309 0.40814604 0.78166430
0.58295644 0.43174176 0.78177916
0.65792362 0.48062845 0.78213854
0.75463744 0.55898821 0.78330124
0.50452721 0.39513540 0.78161217
0.50460147 0.39516309 0.78161228
0.50516974 0.39537538 0.78161305
0.50755051 0.39627332 0.78161636
0.51540224 0.39933281 0.78162790
0.53684063 0.40846268 0.78166485
0.58297329 0.43198413 0.78177971
0.65793124 0.48076954 0.78213909
0.75464016 0.55904892 0.78330177
0.50482613 0.39791965 0.78161635
0.50490015 0.39794646 0.78161645
0.50546659 0.39815203 0.78161723
0.50783984 0.39902175 0.78162054
0.51566810 0.40198731 0.78163208
0.53705189 0.41085657 0.78166902
0.58310262 0.43382347 0.78178387
0.65798979 0.48184571 0.78214324
0.75466107 0.55951373 0.78330587
0.50608793 0.40886362 0.78163412
0.50616095 0.40888726 0.78163422
0.50671974 0.40906856 0.78163500
0.50906146 0.40983616 0.78163831
0.51679140 0.41246074 0.78164985
0.53794588 0.42037362 0.78168678
0.58365116 0.44125470 0.78180161
0.65823860 0.48629053 0.78216091
0.75475000 0.56146708 0.78332332
0.51035699 0.43894199 0.78169605
0.51042672 0.43895881 0.78169615
0.51096043 0.43908785 0.78169693
0.51319861 0.43963513 0.78170024
0.52060456 0.44151728 0.78171177
0.54099735 0.44729174 0.78174868
0.58553895 0.46320199 0.78186343
0.65910095 0.50029365 0.78222249
0.75505940 0.56797603 0.78338413
0.52283955 0.49714597 0.78189410
0.52290051 0.49715484 0.78189421
0.52336729 0.49722286 0.78189498
0.52532858 0.49751189 0.78189828
0.53186022 0.49851249 0.78190978
0.55014956 0.50164574 0.78194662
0.59134229 0.51076623 0.78206112
0.66181081 0.53465886 0.78241941
0.75604334 0.58622748 0.78357858
0.55353393 0.58013688 0.78250764
0.55357783 0.58014053 0.78250774
0.55391423 0.58016851 0.78250851
0.55533295 0.58028752 0.78251179
0.56011772 0.58070127 0.78252322
0.57398275 0.58201421 0.78255980
0.60740840 0.58598631 0.78267355
0.66977741 0.59746117 0.78302947
0.75903991 0.62741805 0.78418104
0.61256335 0.67838605 0.78440616
0.61258682 0.67838734 0.78440626
0.61276686 0.67839723 0.78440702
0.61352948 0.67843935 0.78441023
0.61614108 0.67858601 0.78442142
0.62405018 0.67905418 0.78445726
0.64512674 0.68049623 0.78456869
0.69113375 0.68488187 0.78491737
0.76785703 0.69791623 0.78604571
0.69973141 0.78521331 0.79034037
0.69974074 0.78521372 0.79034047
0.69981234 0.78521687 0.79034117
0.70011656 0.78523029 0.79034418
0.70116952 0.78527705 0.79035468
0.70446439 0.78542664 0.79038828
0.71403455 0.78589056 0.79049275
0.73894869 0.78733085 0.79081972
0.79187828 0.79187828 0.79187828
