src/ffmpeg_scripts/luts/sRGB-rec2020_-0p67.cube
TITLE "sRGB-rec2020_-0p67"
LUT_3D_SIZE 9
# PQ (EOTF Only)/sRGB -> PQ (EOTF Only)/Rec2020, CineEI Shift -0.67, Black Level 0.00% IRE, Input 100% -> Output 109% - Created with LUTCalc v4.01 by Ben Turley October 2020
0.06256172 0.06256172 0.06256172
0.13812235 0.09173865 0.07691217
0.22466204 0.13679275 0.10316193
0.31721166 0.19391160 0.14044827
0.41423902 0.26176842 0.18884931
0.51492078 0.33962860 0.24865256
0.61872948 0.42701788 0.32023002
0.72529333 0.52360381 0.40399635
0.83433375 0.62914100 0.50039082
0.12081436 0.15010300 0.09521966
0.15142113 0.15252576 0.09788120
0.22768081 0.16792407 0.11266109
0.31806003 0.20668576 0.14421398
0.41450560 0.26659212 0.19032181
0.51500856 0.34140866 0.24922644
0.61875856 0.42766053 0.32044914
0.72530272 0.52382691 0.40407655
0.83433662 0.62921373 0.50041828
0.19390267 0.24496966 0.14412239
0.20290887 0.24544542 0.14479079
0.24716157 0.24899238 0.14961646
0.32428751 0.26234247 0.16595600
0.41652608 0.29575136 0.20052746
0.51567985 0.35392163 0.25348114
0.61898157 0.43244599 0.32211177
0.72537485 0.52552248 0.40468994
0.83435871 0.62977036 0.50062887
0.27594851 0.34361714 0.20494678
0.27869358 0.34374581 0.20515742
0.29695011 0.34472713 0.20675084
0.34643181 0.34877775 0.21310408
0.42464323 0.36152084 0.23127476
0.51848444 0.39277818 0.26916698
0.61992509 0.45035619 0.32882438
0.72568125 0.53241391 0.40725386
0.83445265 0.63210395 0.50152001
0.36501012 0.44500180 0.27616812
0.36590807 0.44504140 0.27624095
0.37250086 0.44534492 0.27679772
0.39594837 0.44662564 0.27912173
0.44825001 0.45095293 0.28669593
0.52764900 0.46355988 0.30682578
0.62314273 0.49434227 0.34862972
0.72674167 0.55310461 0.41564621
0.83477939 0.63981680 0.50456117
0.46001018 0.54857453 0.35692609
0.46031416 0.54858738 0.35695208
0.46261492 0.54868596 0.35715132
0.47180462 0.54910448 0.35799420
0.49810576 0.55054910 0.36086763
0.55210075 0.55503116 0.36945629
0.63276731 0.56774831 0.39167594
0.73005900 0.59918299 0.43814999
0.83581787 0.66098195 0.51367776
0.56024217 0.65398893 0.44665327
0.56034513 0.65399314 0.44666250
0.56113197 0.65402542 0.44673330
0.56440973 0.65416270 0.44703410
0.57501866 0.65463974 0.44807492
0.60266935 0.65615145 0.45132930
0.65765938 0.66070629 0.46076350
0.73968665 0.67371726 0.48525177
0.83897467 0.70681355 0.53739486
0.66519858 0.76100384 0.54494232
0.66523248 0.76100518 0.54494548
0.66549238 0.76101550 0.54496981
0.66659086 0.76105943 0.54507328
0.67032354 0.76121241 0.54543312
0.68137178 0.76170062 0.54657630
0.70924896 0.76320348 0.55004664
0.76470018 0.76776565 0.56016765
0.84821441 0.78125357 0.58718766
0.77449305 0.86944041 0.65148456
0.77450360 0.86944082 0.65148559
0.77458457 0.86944395 0.65149345
0.77492848 0.86945728 0.65152692
0.77611751 0.86950371 0.65164350
0.77982544 0.86965226 0.65201590
0.79049170 0.87011289 0.65316534
0.81763150 0.87154252 0.65668298
0.87305598 0.87605191 0.66732486
0.08590413 0.07441951 0.14923294
0.14011897 0.09389006 0.14983030
0.22506727 0.13734262 0.15417793
0.31732378 0.19408762 0.16926580
0.41427413 0.26183006 0.20232604
0.51493233 0.33965083 0.25428110
0.61873330 0.42702585 0.32243189
0.72529456 0.52360657 0.40480903
0.83433413 0.62914189 0.50066987
0.12386406 0.15051018 0.15235361
0.15291239 0.15291239 0.15291239
0.22806763 0.16820702 0.15699657
0.31817095 0.20682772 0.17136402
0.41454061 0.26664973 0.20349801
0.51502010 0.34143041 0.25481040
0.61876238 0.42766844 0.32264501
0.72530396 0.52382967 0.40488848
0.83433700 0.62921463 0.50069725
0.19457091 0.24504812 0.17131185
0.20348290 0.24552333 0.17169383
0.24745078 0.24906637 0.17453792
0.32439004 0.26240362 0.18519973
0.41656029 0.29579019 0.21181267
0.51569131 0.35394030 0.25874669
0.61898539 0.43245349 0.32426270
0.72537608 0.52552519 0.40549620
0.83435908 0.62977125 0.50090720
0.27614135 0.34363831 0.21550803
0.27887935 0.34376695 0.21568547
0.29709573 0.34474802 0.21703150
0.34650976 0.34879763 0.22246076
0.42467443 0.36153788 0.23846252
0.51849555 0.39278997 0.27342272
0.61992887 0.45036233 0.33080386
0.72568248 0.53241642 0.40803686
0.83445302 0.63210482 0.50179567
0.36507242 0.44500831 0.28004473
0.36596971 0.44504791 0.28011381
0.37255785 0.44535141 0.28064212
0.39599169 0.44663203 0.28284983
0.44827396 0.45095903 0.29007139
0.52765908 0.46356518 0.30943154
0.62314638 0.49434605 0.35018489
0.72674289 0.55310662 0.41635794
0.83477976 0.63981760 0.50482792
0.46003120 0.54857664 0.35833399
0.46033511 0.54858949 0.35835954
0.46263534 0.54868807 0.35855544
0.47182308 0.54910658 0.35938427
0.49811961 0.55055116 0.36221094
0.55210850 0.55503314 0.37066973
0.63277060 0.56775003 0.39261225
0.73006017 0.59918423 0.43870256
0.83581824 0.66098260 0.51391954
0.56024928 0.65398963 0.44715593
0.56035223 0.65399383 0.44716510
0.56113902 0.65402611 0.44723551
0.56441653 0.65416339 0.44753463
0.57502474 0.65464042 0.44856971
0.60267388 0.65615213 0.45180655
0.65766191 0.66070693 0.46119352
0.73968771 0.67371782 0.48558065
0.83897503 0.70681394 0.53758232
0.66520092 0.76100406 0.54511526
0.66523482 0.76100540 0.54511842
0.66549472 0.76101572 0.54514270
0.66659317 0.76105965 0.54524598
0.67032576 0.76121263 0.54560516
0.68137375 0.76170084 0.54674625
0.70925043 0.76320369 0.55021042
0.76470099 0.76776586 0.56031470
0.84821474 0.78125375 0.58729805
0.77449378 0.86944048 0.65154050
0.77450433 0.86944089 0.65154153
0.77458530 0.86944402 0.65154939
0.77492920 0.86945734 0.65158283
0.77611822 0.86950378 0.65169935
0.77982613 0.86965233 0.65207153
0.79049231 0.87011296 0.65322030
0.81763195 0.87154259 0.65673593
0.87305622 0.87605197 0.66737217
0.12408663 0.09697183 0.24351846
0.15302421 0.10622655 0.24363405
0.22809705 0.14134288 0.24451520
0.31817940 0.19542171 0.24814390
0.41454328 0.26230161 0.25948542
0.51502098 0.33982136 0.28701902
0.61876268 0.42708702 0.33757608
0.72530405 0.52362776 0.41080906
0.83433703 0.62914880 0.50278496
0.14164392 0.15352347 0.24413686
0.16303640 0.15578026 0.24425141
0.23096387 0.17032941 0.24512465
0.31901747 0.20790686 0.24872202
0.41480894 0.26709060 0.25997704
0.51510867 0.34159726 0.28735611
0.61879175 0.42772917 0.33775255
0.72531345 0.52385081 0.41088324
0.83433991 0.62922152 0.50281172
0.19946197 0.24564761 0.24870742
0.20771750 0.24611868 0.24881457
0.24963188 0.24963188 0.24963188
0.32517296 0.26287139 0.25300689
0.41682253 0.29608773 0.26364257
0.51577924 0.35408358 0.28989514
0.61901468 0.43251103 0.33909503
0.72538556 0.52554595 0.41145076
0.83436199 0.62977811 0.50301693
0.27760547 0.34380071 0.26537109
0.28029045 0.34392909 0.26545562
0.29820469 0.34490822 0.26610138
0.34710587 0.34895012 0.26878715
0.42491365 0.36166865 0.27744045
0.51858087 0.39288046 0.29983950
0.61995787 0.45040943 0.34457416
0.72569193 0.53243570 0.41382636
0.83445593 0.63211151 0.50388542
0.36554927 0.44505831 0.30455744
0.36644150 0.44509789 0.30460737
0.37299421 0.44540122 0.30498970
0.39632359 0.44668114 0.30659641
0.44845761 0.45100582 0.31195097
0.52773639 0.46360589 0.32698883
0.62317442 0.49437512 0.36124112
0.72675224 0.55312208 0.42163929
0.83478265 0.63982377 0.50685096
0.46019243 0.54859286 0.36841895
0.46049580 0.54860571 0.36844160
0.46279200 0.54870427 0.36861527
0.47196469 0.54912271 0.36935060
0.49822592 0.55056705 0.37186507
0.55216803 0.55504828 0.37944845
0.63279593 0.56776325 0.39948211
0.73006919 0.59919371 0.44283547
0.83582110 0.66098753 0.51575532
0.56030387 0.65399493 0.45092475
0.56040676 0.65399914 0.45093355
0.56119309 0.65403141 0.45100107
0.56446876 0.65416869 0.45128794
0.57507139 0.65464569 0.45228095
0.60270869 0.65615732 0.45538937
0.65768138 0.66071187 0.46442923
0.73969585 0.67372213 0.48806746
0.83897779 0.70681698 0.53900938
0.66521889 0.76100576 0.54643270
0.66525278 0.76100710 0.54643582
0.66551263 0.76101742 0.54645976
0.66661088 0.76106135 0.54656160
0.67034278 0.76121432 0.54691578
0.68138889 0.76170252 0.54804111
0.70926169 0.76320535 0.55145860
0.76470721 0.76776744 0.56143625
0.84821723 0.78125512 0.58814145
0.77449937 0.86944100 0.65196895
0.77450992 0.86944140 0.65196997
0.77459089 0.86944453 0.65197780
0.77493477 0.86945786 0.65201109
0.77612372 0.86950429 0.65212708
0.77983141 0.86965284 0.65249759
0.79049701 0.87011347 0.65364122
0.81763545 0.87154309 0.65714152
0.87305811 0.87605245 0.66773467
0.17431794 0.12993465 0.34174997
0.18665682 0.13373276 0.34178122
0.23962660 0.15521694 0.34202077
0.32172138 0.20078333 0.34303273
0.41567988 0.26427474 0.34646573
0.51539742 0.34054334 0.35658403
0.61888761 0.42734695 0.38195465
0.72534444 0.52371792 0.43256756
0.83434940 0.62917818 0.51128372
0.18113906 0.16457923 0.34191762
0.19218053 0.16638916 0.34194880
0.24204466 0.17851214 0.34218786
0.32252292 0.21229908 0.34319776
0.41594213 0.26893770 0.34662399
0.51548475 0.34230371 0.35672403
0.61891664 0.42798723 0.38205823
0.72535384 0.52394075 0.43262554
0.83435227 0.62925088 0.51130813
0.21672173 0.24814241 0.34319358
0.22306395 0.24859670 0.34322428
0.25821802 0.25198876 0.34345964
0.32842239 0.26482902 0.34445402
0.41793021 0.29734145 0.34782912
0.51615262 0.35469074 0.35779122
0.61913929 0.43275557 0.38284937
0.72542592 0.52563426 0.43306945
0.83437435 0.62980730 0.51149535
0.28353164 0.34448842 0.34841291
0.28601349 0.34461572 0.34844172
0.30275339 0.34558672 0.34866256
0.34959612 0.34959612 0.34959612
0.42592482 0.36222302 0.35277037
0.51894318 0.39326459 0.36218699
0.62008124 0.45060969 0.38613754
0.72573216 0.53251773 0.43493477
0.83446827 0.63213998 0.51228814
0.36754939 0.44527085 0.36439277
0.36842072 0.44531033 0.36441653
0.37482696 0.44561295 0.36459873
0.39772238 0.44688987 0.36536994
0.44923525 0.45120477 0.36800441
0.52806481 0.46377896 0.37592599
0.62329366 0.49449875 0.39670569
0.72679201 0.55318784 0.44114861
0.83479496 0.63985002 0.51500018
0.46087558 0.54866188 0.40150734
0.46117667 0.54867472 0.40152272
0.46345590 0.54877321 0.40164070
0.47256506 0.54919134 0.40214115
0.49867711 0.55063463 0.40386363
0.55242104 0.55511271 0.40916122
0.63290365 0.56781953 0.42385256
0.73010758 0.59923403 0.45856779
0.83583326 0.66100851 0.52318797
0.56053590 0.65401753 0.46541015
0.56063853 0.65402173 0.46541764
0.56142293 0.65405400 0.46547517
0.56469074 0.65419124 0.46571966
0.57526975 0.65466813 0.46656690
0.60285673 0.65617940 0.46922818
0.65776419 0.66073292 0.47704372
0.73973048 0.67374047 0.49795974
0.83898954 0.70682988 0.54485187
0.66529535 0.76101298 0.55184252
0.66532922 0.76101433 0.55184546
0.66558886 0.76102465 0.55186806
0.66668623 0.76106857 0.55196419
0.67041521 0.76122153 0.55229857
0.68145333 0.76170970 0.55336146
0.70930962 0.76321241 0.55659370
0.76473367 0.76777415 0.56606635
0.84822782 0.78126092 0.59164975
0.77452317 0.86944319 0.65377144
0.77453372 0.86944359 0.65377244
0.77461467 0.86944673 0.65378012
0.77495846 0.86946005 0.65381279
0.77614711 0.86950648 0.65392659
0.77985388 0.86965503 0.65429012
0.79051702 0.87011565 0.65541241
0.81765032 0.87154523 0.65884891
0.87306612 0.87605448 0.66926245
0.23570725 0.17372115 0.44284384
0.24050493 0.17524279 0.44285346
0.26918546 0.18568644 0.44292734
0.33296503 0.21644159 0.44324115
0.41953124 0.27075722 0.44432664
0.51669797 0.34301138 0.44771708
0.61932188 0.42824722 0.45751655
0.72548512 0.52403154 0.48278095
0.83439249 0.62928054 0.53599598
0.23826804 0.19114788 0.44289551
0.24289228 0.19226179 0.44290513
0.27077898 0.20016920 0.44297896
0.33366182 0.22557224 0.44329259
0.41978227 0.27503152 0.44437747
0.51678409 0.34471982 0.44776602
0.61935078 0.42888105 0.45756045
0.72549450 0.52425362 0.48281421
0.83439537 0.62935316 0.53601470
0.25525044 0.25619607 0.44329129
0.25888962 0.25660075 0.44330086
0.28197625 0.25963290 0.44337437
0.33882087 0.27126390 0.44368662
0.42168642 0.30155786 0.44476677
0.51744271 0.35677332 0.44814093
0.61957240 0.43360290 0.45789682
0.72556648 0.52594151 0.48306918
0.83441743 0.62990898 0.53615830
0.30114849 0.34684172 0.44495681
0.30312136 0.34696542 0.44496621
0.31679714 0.34790911 0.44503836
0.35773293 0.35180940 0.44534488
0.42936239 0.36412745 0.44640535
0.52019535 0.39459055 0.44971963
0.62051008 0.45130439 0.45931489
0.72587225 0.53280314 0.48414670
0.83451131 0.63223919 0.53676714
0.37417242 0.44600789 0.45053283
0.37497825 0.44604705 0.45054167
0.38092324 0.44634720 0.45060949
0.40242950 0.44761379 0.45089760
0.45189490 0.45189490 0.45189490
0.52920080 0.46437976 0.45501644
0.62370821 0.49492848 0.46409182
0.72693053 0.55341675 0.48780714
0.83483784 0.63994146 0.53885921
0.46321771 0.54890210 0.46637286
0.46351113 0.54891490 0.46638028
0.46573313 0.54901314 0.46643720
0.47462770 0.54943020 0.46667912
0.50023305 0.55086985 0.46751749
0.55329777 0.55533697 0.47015149
0.63327824 0.56801546 0.47789152
0.73024128 0.59937450 0.49863541
0.83587565 0.66108163 0.54526049
0.56134034 0.65409626 0.50310936
0.56144210 0.65410046 0.50311432
0.56221985 0.65413270 0.50315245
0.56546054 0.65426982 0.50331458
0.57595802 0.65474633 0.50387759
0.60337102 0.65625635 0.50565788
0.65805233 0.66080625 0.51098784
0.73985110 0.67380437 0.52596035
0.83903047 0.70687486 0.56277068
0.66556145 0.76103817 0.56858343
0.66559523 0.76103951 0.56858590
0.66585414 0.76104983 0.56860481
0.66694845 0.76109374 0.56868526
0.67066729 0.76124666 0.56896520
0.68167762 0.76173469 0.56985615
0.70947651 0.76323700 0.57257563
0.76482587 0.76779757 0.58063007
0.84826476 0.78128115 0.60295196
0.77460612 0.86945083 0.65979953
0.77461665 0.86945123 0.65980047
0.77469753 0.86945436 0.65980767
0.77504102 0.86946769 0.65983832
0.77622861 0.86951412 0.65994510
0.77993217 0.86966265 0.66028625
0.79058675 0.87012323 0.66133994
0.81770214 0.87155269 0.66457108
0.87309407 0.87606157 0.67440331
0.30781362 0.22889830 0.54622908
0.30962527 0.22950296 0.54623220
0.32229291 0.23396907 0.54625619
0.36109589 0.25021782 0.54635826
0.43084311 0.28832575 0.54671321
0.52074450 0.35044840 0.54784096
0.62069936 0.43107033 0.55126562
0.72593423 0.52502886 0.56126275
0.83453037 0.62960760 0.58801081
0.30876971 0.23652257 0.54624586
0.31055945 0.23706153 0.54624898
0.32308872 0.24106157 0.54627297
0.36159095 0.25586715 0.54637501
0.43106406 0.29171668 0.54672990
0.52082695 0.35201020 0.54785745
0.62072784 0.43168439 0.55128152
0.72594356 0.52524858 0.56127704
0.83453324 0.62967998 0.58802157
0.31574454 0.27714511 0.54637459
0.31738314 0.27744755 0.54637771
0.32894795 0.27972929 0.54640166
0.36529763 0.28872527 0.54650357
0.43274256 0.31369109 0.54685797
0.52145763 0.36311191 0.54798399
0.62094627 0.43626345 0.55140352
0.72601519 0.52691869 0.56138673
0.83455527 0.63023388 0.58810416
0.34003164 0.35395419 0.54692062
0.34124441 0.35406767 0.54692372
0.35000131 0.35493384 0.54694754
0.37947009 0.35852304 0.54704885
0.43955375 0.36995046 0.54740120
0.52409556 0.39870488 0.54852075
0.62187048 0.45349376 0.55192111
0.72631951 0.53371132 0.56185223
0.83464901 0.63255620 0.58845490
0.39245868 0.44832835 0.54879972
0.39310975 0.44836651 0.54880276
0.39795184 0.44865902 0.54882610
0.41599117 0.44989366 0.54892541
0.45992004 0.45407015 0.54927078
0.53274835 0.46627748 0.55036835
0.62502371 0.49629132 0.55370353
0.72737277 0.55414610 0.56345728
0.83497504 0.64023372 0.58966760
0.47033573 0.54966727 0.55457594
0.47060707 0.54967997 0.55457879
0.47266409 0.54977741 0.55460074
0.48093609 0.55019110 0.55469412
0.50504647 0.55161919 0.55501892
0.55605160 0.55605160 0.55605160
0.63446797 0.56864021 0.55919404
0.73066818 0.59982293 0.56842050
0.83601128 0.66131542 0.59344962
0.56387119 0.65434795 0.57056530
0.56397025 0.65435214 0.57056771
0.56472744 0.65438430 0.57058623
0.56788427 0.65452106 0.57066500
0.57812895 0.65499630 0.57093913
0.60499944 0.65650237 0.57181168
0.65896922 0.66104072 0.57447604
0.74023634 0.67400873 0.58237623
0.83916143 0.70701877 0.60433312
0.66640863 0.76111878 0.60811522
0.66644210 0.76112012 0.60811684
0.66669870 0.76113043 0.60812927
0.66778333 0.76117430 0.60818220
0.67147007 0.76132709 0.60836649
0.68239233 0.76181470 0.60895426
0.71000898 0.76331572 0.61076011
0.76512051 0.76787251 0.61621101
0.84838294 0.78134592 0.63208089
0.77487124 0.86947529 0.67686361
0.77488174 0.86947569 0.67686439
0.77496239 0.86947882 0.67687040
0.77530489 0.86949214 0.67689599
0.77648912 0.86953856 0.67698514
0.78018244 0.86968705 0.67727006
0.79080969 0.87014750 0.67815113
0.81786789 0.87157658 0.68086280
0.87318352 0.87608427 0.68920277
0.39039079 0.29609623 0.65154508
0.39105763 0.29633102 0.65154611
0.39601299 0.29811013 0.65155397
0.41441813 0.30525244 0.65158741
0.45896207 0.32601033 0.65170392
0.53231539 0.37006068 0.65207609
0.62486146 0.43932183 0.65322480
0.72731800 0.52806545 0.65674027
0.83495802 0.63061809 0.66737604
0.39074141 0.29916299 0.65155058
0.39140556 0.29938853 0.65155160
0.39634152 0.30109859 0.65155946
0.41468417 0.30798059 0.65159291
0.45912359 0.32811386 0.65170941
0.53238821 0.37129748 0.65208155
0.62488872 0.43988176 0.65323020
0.72732720 0.52827814 0.65674547
0.83496088 0.63068970 0.66738069
0.39338719 0.31936025 0.65159277
0.39403131 0.31953423 0.65159379
0.39882342 0.32085756 0.65160164
0.41670059 0.32625612 0.65163507
0.46035437 0.34265869 0.65175153
0.53294550 0.38023580 0.65212350
0.62509775 0.44406835 0.65327164
0.72739778 0.52989527 0.65678540
0.83498281 0.63123774 0.66741637
0.40382298 0.37284426 0.65177215
0.40439423 0.37293479 0.65177317
0.40866012 0.37362676 0.65178101
0.42480241 0.37651073 0.65181437
0.46541431 0.38586227 0.65193060
0.53528132 0.41038559 0.65230188
0.62598247 0.45998491 0.65344787
0.72769764 0.53648196 0.65695520
0.83507610 0.63353585 0.66756812
0.43275635 0.45518789 0.65239486
0.43316792 0.45522326 0.65239587
0.43626643 0.45549435 0.65240366
0.44837219 0.45663938 0.65243681
0.48113270 0.46052145 0.65255228
0.54299617 0.47194087 0.65292112
0.62900370 0.50040735 0.65405967
0.72873559 0.55637989 0.65754480
0.83540059 0.64113738 0.66809526
0.48948309 0.55200895 0.65436193
0.48970324 0.55202134 0.65436292
0.49137629 0.55211638 0.65437055
0.49817646 0.55251989 0.65440301
0.51859842 0.55391322 0.65451611
0.56413749 0.55824103 0.65487738
0.63807696 0.57055800 0.65599276
0.73198414 0.60120479 0.65940861
0.83643199 0.66203918 0.66976389
0.57133668 0.65512684 0.66023316
0.57142819 0.65513100 0.66023409
0.57212790 0.65516289 0.66024126
0.57504968 0.65529853 0.66027177
0.58458078 0.65576989 0.66037806
0.60989400 0.65726378 0.66071766
0.66176658 0.66176658 0.66176658
0.74142496 0.67464178 0.66498340
0.83956772 0.70746513 0.67477494
0.66899706 0.76136915 0.67658932
0.66902962 0.76137049 0.67659011
0.66927930 0.76138077 0.67659614
0.67033486 0.76142452 0.67662180
0.67392517 0.76157690 0.67671120
0.68458217 0.76206320 0.67699695
0.71164674 0.76356024 0.67788057
0.76603134 0.76810530 0.68059991
0.84874966 0.78154715 0.68896216
0.77569133 0.86955135 0.71603668
0.77570175 0.86955175 0.71603720
0.77578168 0.86955488 0.71604116
0.77612116 0.86956819 0.71605804
0.77729503 0.86961457 0.71611685
0.78095685 0.86976293 0.71630494
0.79149994 0.87022299 0.71688779
0.81838170 0.87165086 0.71869300
0.87346127 0.87615486 0.72435118
0.48329667 0.37597901 0.75854058
0.48353215 0.37606625 0.75854091
0.48532045 0.37673319 0.75854342
0.49256577 0.37951510 0.75855413
0.51412687 0.38855957 0.75859143
0.56141586 0.41242568 0.75871080
0.63684290 0.46115985 0.75908125
0.73153059 0.53699598 0.76023382
0.83628654 0.63371968 0.76389707
0.48342034 0.37713275 0.75854234
0.48365550 0.37721881 0.75854267
0.48544142 0.37787678 0.75854518
0.49267756 0.38062209 0.75855589
0.51421540 0.38955606 0.75859319
0.56146924 0.41318356 0.75871256
0.63686691 0.46159942 0.75908300
0.73153939 0.53718927 0.76023555
0.83628936 0.63378897 0.76389873
0.48436439 0.38550604 0.75855584
0.48459715 0.38558405 0.75855617
0.48636499 0.38618072 0.75855868
0.49353149 0.38867525 0.75856939
0.51489244 0.39684592 0.75860668
0.56187812 0.41879475 0.75872604
0.63705111 0.46490550 0.75909642
0.73160686 0.53866032 0.76024880
0.83631097 0.63431940 0.76391147
0.48827787 0.41413779 0.75861329
0.48850092 0.41419386 0.75861362
0.49019581 0.41462323 0.75861613
0.49708055 0.41642791 0.75862683
0.51772055 0.42244487 0.75866410
0.56359905 0.43935173 0.75878338
0.63783126 0.47777151 0.75915354
0.73189355 0.54467582 0.76030522
0.83640290 0.63654472 0.76396570
0.50074929 0.47384636 0.75881330
0.50094411 0.47387515 0.75881363
0.50242651 0.47409593 0.75881614
0.50848380 0.47502985 0.75882681
0.52695704 0.47821297 0.75886400
0.56936372 0.48771991 0.75898303
0.64050182 0.51224390 0.75935239
0.73288619 0.56306106 0.76050162
0.83672266 0.64391732 0.76415450
0.53213451 0.55899691 0.75945095
0.53227348 0.55900841 0.75945127
0.53333376 0.55909663 0.75945376
0.53771727 0.55947128 0.75946436
0.55156849 0.56076585 0.75950130
0.58575767 0.56479562 0.75961951
0.64857972 0.57633240 0.75998635
0.73599597 0.60541294 0.76112780
0.83773912 0.66427425 0.76475657
0.59152513 0.65752936 0.76140742
0.59159901 0.65753341 0.76140774
0.59216436 0.65756450 0.76141018
0.59453386 0.65769674 0.76142056
0.60235855 0.65815632 0.76145673
0.62378519 0.65961325 0.76157247
0.67004007 0.66400803 0.76193169
0.74505821 0.67660053 0.76304958
0.84083043 0.70885172 0.76660529
0.67668493 0.76215019 0.76728982
0.67671495 0.76215152 0.76729012
0.67694514 0.76216172 0.76729240
0.67791879 0.76220510 0.76730214
0.68123672 0.76235620 0.76733609
0.69113899 0.76283845 0.76744472
0.71660636 0.76432312 0.76778192
0.76883178 0.76883178 0.76883178
0.84989042 0.78217555 0.77217602
0.77821764 0.86978953 0.78423015
0.77822777 0.86978993 0.78423040
0.77830555 0.86979305 0.78423230
0.77863589 0.86980632 0.78424041
0.77977838 0.86985258 0.78426866
0.78334473 0.87000054 0.78435910
0.79363214 0.87045937 0.78463993
0.81997490 0.87188347 0.78551535
0.87432693 0.87637594 0.78831453
0.58645204 0.46923251 0.86702912
0.58652999 0.46926280 0.86702922
0.58712644 0.46949504 0.86702998
0.58962414 0.47047708 0.86703323
0.59784866 0.47382019 0.86704455
0.62020733 0.48377017 0.86708081
0.66786235 0.50923194 0.86719351
0.74408475 0.56132500 0.86754614
0.84048902 0.64318381 0.86868680
0.58649296 0.46963476 0.86702965
0.58657088 0.46966491 0.86702975
0.58716707 0.46989613 0.86703052
0.58966370 0.47087387 0.86703377
0.59788493 0.47420271 0.86704509
0.62023596 0.48411332 0.86708134
0.66787965 0.50949235 0.86719405
0.74409243 0.56147414 0.86754667
0.84049170 0.64324651 0.86868732
0.58680659 0.47266563 0.86703375
0.58688425 0.47269479 0.86703385
0.58747847 0.47291845 0.86703461
0.58996699 0.47386445 0.86703786
0.59816296 0.47708776 0.86704918
0.62045552 0.48670629 0.86708544
0.66801237 0.51146791 0.86719814
0.74415142 0.56261146 0.86755074
0.84051233 0.64372660 0.86869135
0.58813015 0.48454777 0.86705119
0.58820673 0.48457338 0.86705129
0.58879271 0.48476980 0.86705205
0.59124726 0.48560130 0.86705530
0.59933746 0.48844256 0.86706662
0.62138452 0.49699207 0.86710286
0.66857532 0.51943651 0.86721554
0.74440210 0.56730471 0.86756808
0.84060007 0.64574351 0.86870846
0.59260447 0.51695877 0.86711196
0.59267750 0.51697680 0.86711206
0.59323645 0.51711510 0.86711282
0.59557954 0.51770158 0.86711607
0.60332153 0.51971770 0.86712738
0.62455372 0.52589501 0.86716360
0.67051204 0.54285282 0.86727620
0.74527081 0.58204807 0.86762850
0.84090529 0.65245655 0.86876811
0.60565463 0.57873955 0.86730630
0.60571824 0.57874887 0.86730639
0.60620531 0.57882040 0.86730716
0.60825112 0.57912433 0.86731039
0.61505587 0.58017628 0.86732168
0.63404273 0.58346828 0.86735782
0.67645987 0.59303308 0.86747018
0.74799953 0.61796762 0.86782171
0.84187586 0.67121818 0.86895885
0.63754553 0.66496739 0.86790827
0.63759094 0.66497113 0.86790837
0.63793894 0.66499987 0.86790912
0.63940617 0.66512211 0.86791234
0.64435036 0.66554704 0.86792355
0.65864120 0.66689516 0.86795944
0.69287978 0.67097086 0.86807104
0.75601173 0.68272144 0.86842020
0.84483047 0.71323769 0.86954976
0.69813413 0.76465325 0.86977055
0.69815804 0.76465455 0.86977065
0.69834143 0.76466447 0.86977139
0.69911814 0.76470670 0.86977454
0.70177686 0.76485378 0.86978551
0.70981824 0.76532323 0.86982066
0.73117185 0.76676892 0.86992995
0.77741889 0.77116276 0.87027188
0.85351378 0.78419617 0.87137824
0.78600824 0.87056208 0.87558702
0.78601755 0.87056248 0.87558711
0.78608902 0.87056557 0.87558780
0.78639265 0.87057873 0.87559075
0.78744338 0.87062458 0.87560103
0.79072974 0.87077127 0.87563395
0.80026186 0.87122613 0.87573629
0.82498585 0.87263806 0.87605656
0.87709332 0.87709332 0.87709332
