src/ffmpeg_scripts/luts/sRGB-rec2020_-3p00.cube
TITLE "sRGB-rec2020_-3p00"
LUT_3D_SIZE 5
# PQ (EOTF Only)/sRGB -> PQ (EOTF Only)/Rec2020, CineEI Shift -3.00, Black Level 0.00% IRE, Input 100% -> Output 109% - Created with LUTCalc v4.01 by Ben Turley October 2020
0.06256172 0.06256172 0.06256172
0.15556232 0.10003922 0.08146832
0.29785482 0.18130630 0.13191272
0.47550757 0.30830222 0.22410113
0.68369311 0.48510333 0.37006350
0.13517235 0.16950507 0.10432052
0.17103147 0.17230955 0.10757776
0.29971760 0.20587045 0.13948545
0.47573933 0.31276867 0.22552030
0.68371830 0.48568497 0.37026861
0.25852620 0.32316455 0.19160526
0.26441349 0.32344990 0.19205930
0.32586849 0.32812302 0.19923784
0.47956901 0.36486204 0.24577832
0.68414291 0.49499369 0.37366094
0.42254037 0.50820203 0.32453856
0.42333398 0.50823615 0.32460518
0.43576915 0.50881072 0.32572259
0.51163741 0.51449370 0.33634024
0.68838110 0.55820868 0.40229587
0.62399491 0.71935897 0.50586147
0.62408514 0.71936258 0.50586977
0.62559686 0.71942369 0.50600993
0.63981765 0.72004669 0.50743200
0.72305851 0.72612772 0.52071226
0.09280305 0.07827621 0.16849673
0.15789493 0.10268818 0.16918910
0.29810246 0.18168468 0.17968875
0.47553809 0.30835901 0.23727599
0.68369642 0.48511054 0.37212763
0.13878875 0.16997674 0.17211043
0.17275665 0.17275665 0.17275665
0.29995928 0.20611800 0.18263733
0.47576977 0.31282229 0.23843949
0.68372161 0.48569213 0.37232778
0.25894874 0.32321154 0.21237889
0.26480249 0.32349672 0.21269983
0.32604151 0.32816718 0.21788696
0.47959820 0.36489024 0.25557756
0.68414621 0.49500016 0.37564000
0.42259539 0.50820764 0.32809949
0.42338851 0.50824176 0.32816321
0.43581655 0.50881629 0.32923222
0.51165801 0.51449894 0.33942424
0.68838426 0.55821196 0.40371798
0.62400114 0.71935956 0.50631396
0.62409136 0.71936318 0.50632222
0.62560298 0.71942429 0.50646170
0.63982292 0.72004729 0.50787690
0.72306069 0.72612828 0.52109793
0.16310057 0.12231817 0.32137145
0.18659049 0.12988621 0.32144079
0.30216992 0.18771593 0.32260326
0.47605223 0.30931228 0.33361473
0.68375240 0.48523228 0.40106475
0.17669951 0.17736570 0.32174303
0.19580555 0.17979311 0.32181204
0.30393189 0.21015554 0.32296913
0.47628261 0.31372281 0.33393363
0.68377757 0.48581310 0.40120755
0.26573211 0.32400143 0.32777235
0.27107539 0.32428379 0.32783632
0.32890969 0.32890969 0.32890969
0.48009005 0.36536531 0.33914006
0.68420192 0.49510948 0.40358565
0.42351988 0.50830240 0.37240754
0.42430479 0.50833648 0.37244473
0.43661367 0.50891043 0.37307065
0.51200554 0.51458748 0.37922239
0.68843752 0.55826742 0.42479655
0.62410638 0.71936961 0.51364324
0.62419650 0.71937323 0.51365088
0.62570645 0.71943433 0.51377975
0.63991196 0.72005726 0.51508823
0.72309751 0.72613763 0.52738410
0.27861677 0.20612426 0.50591800
0.28312121 0.20760818 0.50592630
0.33482739 0.22846836 0.50606637
0.48115313 0.31845059 0.50748758
0.68432324 0.48646869 0.52076043
0.28101505 0.22344601 0.50596254
0.28538011 0.22457413 0.50597083
0.33599649 0.24117531 0.50611084
0.48137102 0.32238860 0.50753137
0.68434826 0.48704176 0.52079838
0.31302455 0.33166363 0.50671190
0.31592240 0.33192023 0.50672013
0.35356958 0.33613686 0.50685901
0.48497647 0.37007774 0.50826819
0.68477005 0.49622067 0.52143735
0.43246298 0.50926643 0.51404990
0.43317289 0.50930016 0.51405750
0.44438554 0.50986818 0.51418581
0.51548861 0.51548861 0.51548861
0.68898076 0.55883297 0.52773500
0.62517648 0.71947240 0.56706224
0.62526559 0.71947602 0.56706655
0.62675871 0.71953705 0.56713935
0.64081821 0.72015930 0.56788105
0.72347352 0.72623326 0.57507417
0.44607681 0.34347641 0.71689439
0.44668675 0.34369824 0.71689527
0.45641287 0.34735840 0.71691015
0.52121811 0.37770077 0.71706234
0.68991259 0.49812360 0.71858846
0.44639744 0.34638036 0.71689912
0.44700521 0.34659446 0.71690000
0.45669878 0.35013029 0.71691488
0.52135932 0.37963869 0.71706706
0.68993617 0.49862865 0.71859311
0.45164911 0.38440854 0.71697902
0.45222252 0.38454457 0.71697990
0.46139806 0.38681102 0.71699477
0.52371366 0.40710860 0.71714682
0.69033373 0.50676956 0.71867158
0.49288522 0.51849507 0.71779271
0.49325026 0.51852560 0.71779358
0.49920920 0.51904000 0.71780833
0.54490150 0.52414610 0.71795906
0.69430803 0.56437162 0.71947078
0.63537323 0.72050616 0.72565124
0.63545323 0.72050973 0.72565205
0.63679500 0.72057010 0.72566560
0.64953026 0.72118555 0.72580423
0.72719539 0.72719539 0.72719539
