src/ffmpeg_scripts/luts/sRGB-rec2020_3p67.cube
TITLE "sRGB-rec2020_3p67"
LUT_3D_SIZE 9
# PQ (EOTF Only)/sRGB -> PQ (EOTF Only)/Rec2020, CineEI Shift 3.67, Black Level 0.00% IRE, Input 100% -> Output 109% - Created with LUTCalc v4.01 by Ben Turley October 2020
0.06256172 0.06256172 0.06256172
0.27147336 0.16466860 0.12089855
0.42369608 0.26877340 0.19405702
0.55655099 0.37384488 0.27615986
0.67765123 0.47959526 0.36526623
0.79044738 0.58587667 0.46029950
0.89689716 0.69259744 0.56055367
0.91886608 0.79969460 0.66552166
0.91886608 0.90712200 0.77481746
0.23499264 0.29514686 0.17393053
0.29768446 0.29980149 0.18082035
0.42840275 0.32847286 0.21664179
0.55767778 0.39500038 0.28365222
0.67796512 0.48657601 0.36777355
0.79054121 0.58816686 0.46115378
0.89692583 0.69334376 0.56084358
0.91886608 0.79993130 0.66561717
0.91886608 0.90719317 0.77484718
0.37382985 0.45479457 0.28347134
0.38881566 0.45550791 0.28478980
0.45807561 0.46080547 0.29420702
0.56590718 0.48042918 0.32489050
0.68034119 0.52757009 0.38488634
0.79125852 0.60411486 0.46745826
0.89714563 0.69888555 0.56304034
0.91886608 0.80172876 0.66634735
0.91886608 0.90773768 0.77507514
0.49994878 0.59100070 0.39215986
0.50383166 0.59116555 0.39250456
0.52921407 0.59242186 0.39510644
0.59460038 0.59759045 0.40538254
0.68983534 0.61367534 0.43396674
0.79425088 0.65207741 0.49027789
0.89807517 0.71938751 0.57185698
0.91886608 0.80900805 0.66939407
0.91886608 0.91001818 0.77603927
0.61803464 0.71329702 0.50026009
0.61915343 0.71334219 0.50036329
0.62732990 0.71368829 0.50115191
0.65589397 0.71514753 0.50443566
0.71699565 0.72006428 0.51505002
0.80397944 0.73427004 0.54264240
0.90124047 0.76825182 0.59740204
0.91886608 0.83061676 0.67930711
0.91886608 0.91752932 0.77932386
0.73028775 0.82591665 0.60790577
0.73062931 0.82593000 0.60793849
0.73321125 0.82603247 0.60818937
0.74346754 0.82646738 0.60924997
0.77234120 0.82796743 0.61285715
0.82957669 0.83261047 0.62356219
0.91066577 0.84569502 0.65074719
0.91886608 0.87749419 0.70545539
0.91886608 0.91886608 0.78911798
0.83798786 0.91886608 0.71517900
0.83809389 0.91886608 0.71518950
0.83890387 0.91886608 0.71527012
0.84227262 0.91886608 0.71561253
0.85311732 0.91886608 0.71679659
0.88097516 0.91886608 0.72049092
0.91886608 0.91886608 0.73113402
0.91886608 0.91886608 0.75831678
0.91886608 0.91886608 0.81424343
0.91886608 0.91886608 0.82213571
0.91886608 0.91886608 0.82213901
0.91886608 0.91886608 0.82216437
0.91886608 0.91886608 0.82227223
0.91886608 0.91886608 0.82264726
0.91886608 0.91886608 0.82383797
0.91886608 0.91886608 0.82744588
0.91886608 0.91886608 0.83791112
0.91886608 0.91886608 0.86544865
0.91886608 0.91886608 0.91886608
0.91886608 0.91886608 0.91886608
0.91886608 0.91886608 0.91886608
0.91886608 0.91886608 0.91886608
0.91886608 0.91886608 0.91886608
0.91886608 0.91886608 0.91886608
0.91886608 0.91886608 0.91886608
0.91886608 0.91886608 0.91886608
0.91886608 0.91886608 0.91886608
0.14840162 0.11254736 0.29346496
0.27549914 0.17042802 0.29462031
0.42432967 0.26989188 0.30295194
0.55669998 0.37414110 0.33090223
0.67769258 0.47968484 0.38785615
0.79045973 0.58590531 0.46863795
0.89690093 0.69260670 0.56346269
0.91886608 0.79969753 0.66648905
0.91886608 0.90712288 0.77511951
0.24164705 0.29593209 0.29947213
0.30054044 0.30054044 0.30054044
0.42900366 0.32898603 0.30828361
0.55782500 0.39523172 0.33468080
0.67800633 0.48665903 0.38978416
0.79055355 0.58819482 0.46941755
0.89692960 0.69335295 0.56374378
0.91886608 0.79993422 0.66658358
0.91886608 0.90719405 0.77514914
0.37495372 0.45491226 0.33458715
0.38975934 0.45562467 0.33527250
0.45850748 0.46091559 0.34035011
0.56604207 0.48051795 0.35900817
0.68038137 0.52762340 0.40330620
0.79127076 0.60413847 0.47519124
0.89714939 0.69889421 0.56587455
0.91886608 0.80173162 0.66730636
0.91886608 0.90773856 0.77537635
0.50022215 0.59102783 0.40923112
0.50409379 0.59119263 0.40951435
0.52941356 0.59244858 0.41165915
0.59469988 0.59761575 0.42024449
0.68987168 0.61369669 0.44497019
0.79426273 0.65209163 0.49636004
0.89807889 0.71939447 0.57444116
0.91886608 0.80901069 0.67032279
0.91886608 0.91001903 0.77633737
0.61811230 0.71330445 0.50573628
0.61923018 0.71334961 0.50583354
0.62740030 0.71369569 0.50657701
0.65594602 0.71515482 0.50967674
0.71702288 0.72007119 0.51973816
0.80399010 0.73427598 0.54615211
0.90124405 0.76825594 0.59937956
0.91886608 0.83061884 0.68014366
0.91886608 0.91753010 0.77961154
0.73031137 0.82591885 0.60967721
0.73065285 0.82593220 0.60970933
0.73323414 0.82603466 0.60995556
0.74348805 0.82646956 0.61099664
0.77235623 0.82796957 0.61453902
0.82958473 0.83261251 0.62506551
0.91066899 0.84569678 0.65187727
0.91886608 0.87749543 0.70608981
0.91886608 0.91886608 0.78937666
0.83799519 0.91886608 0.71575120
0.83810120 0.91886608 0.71576164
0.83891112 0.91886608 0.71584177
0.84227960 0.91886608 0.71618210
0.85312350 0.91886608 0.71735903
0.88097968 0.91886608 0.72103170
0.91886608 0.91886608 0.73161682
0.91886608 0.91886608 0.75867765
0.91886608 0.91886608 0.81444004
0.91886608 0.91886608 0.82231599
0.91886608 0.91886608 0.82231928
0.91886608 0.91886608 0.82234459
0.91886608 0.91886608 0.82245224
0.91886608 0.91886608 0.82282653
0.91886608 0.91886608 0.82401490
0.91886608 0.91886608 0.82761591
0.91886608 0.91886608 0.83806255
0.91886608 0.91886608 0.86555999
0.91886608 0.91886608 0.91886608
0.91886608 0.91886608 0.91886608
0.91886608 0.91886608 0.91886608
0.91886608 0.91886608 0.91886608
0.91886608 0.91886608 0.91886608
0.91886608 0.91886608 0.91886608
0.91886608 0.91886608 0.91886608
0.91886608 0.91886608 0.91886608
0.91886608 0.91886608 0.91886608
0.24212858 0.17848387 0.45261453
0.30075397 0.20150247 0.45278841
0.42904932 0.27795029 0.45411253
0.55783622 0.37638177 0.45954152
0.67800947 0.48036985 0.47627013
0.79055449 0.58612495 0.51549986
0.89692989 0.69267776 0.58322914
0.91886608 0.79972001 0.67360454
0.91886608 0.90712964 0.77740654
0.27855128 0.30170625 0.45354427
0.31953367 0.30598943 0.45371637
0.43348711 0.33282073 0.45502703
0.55894778 0.39698783 0.46040295
0.67832217 0.48729399 0.47698734
0.79064821 0.58840919 0.51596894
0.89695854 0.69342345 0.58345707
0.91886608 0.79995665 0.67369222
0.91886608 0.90720080 0.77743545
0.38312069 0.45581088 0.46038121
0.39668001 0.45651627 0.46054077
0.46175675 0.46175675 0.46175675
0.56707137 0.48119677 0.46675804
0.68068938 0.52803170 0.48231464
0.79136469 0.60431958 0.51949399
0.89717826 0.69896068 0.58518913
0.91886608 0.80175362 0.67436277
0.91886608 0.90774526 0.77765711
0.50229470 0.59123587 0.48481465
0.50608219 0.59140031 0.48493670
0.53093131 0.59265352 0.48586857
0.59546045 0.59780978 0.48973287
0.69015023 0.61386039 0.50206135
0.79435364 0.65220076 0.53316399
0.89810745 0.71944791 0.59222613
0.91886608 0.80903100 0.67716518
0.91886608 0.91002556 0.77859478
0.61870654 0.71336147 0.53957594
0.61981746 0.71340661 0.53964355
0.62793912 0.71375248 0.54016111
0.65634478 0.71521073 0.54233281
0.71723163 0.72012425 0.54953262
0.80407185 0.73432156 0.56945434
0.90127160 0.76828757 0.61332506
0.91886608 0.83063485 0.68633136
0.91886608 0.91753609 0.78179114
0.73049254 0.82593571 0.62227525
0.73083335 0.82594906 0.62230336
0.73340974 0.82605150 0.62251893
0.74364540 0.82648632 0.62343114
0.77247154 0.82798606 0.62654424
0.82964643 0.83262816 0.63587596
0.91069371 0.84571032 0.66013206
0.91886608 0.87750490 0.71082360
0.91886608 0.91886608 0.79133914
0.83805140 0.91886608 0.72003233
0.83815735 0.91886608 0.72004230
0.83896676 0.91886608 0.72011886
0.84233320 0.91886608 0.72044404
0.85317100 0.91886608 0.72156898
0.88101439 0.91886608 0.72508327
0.91886608 0.91886608 0.73524326
0.91886608 0.91886608 0.76140282
0.91886608 0.91886608 0.81593581
0.91886608 0.91886608 0.82368846
0.91886608 0.91886608 0.82369171
0.91886608 0.91886608 0.82371663
0.91886608 0.91886608 0.82382267
0.91886608 0.91886608 0.82419135
0.91886608 0.91886608 0.82536208
0.91886608 0.91886608 0.82891094
0.91886608 0.91886608 0.83921696
0.91886608 0.91886608 0.86641038
0.91886608 0.91886608 0.91886608
0.91886608 0.91886608 0.91886608
0.91886608 0.91886608 0.91886608
0.91886608 0.91886608 0.91886608
0.91886608 0.91886608 0.91886608
0.91886608 0.91886608 0.91886608
0.91886608 0.91886608 0.91886608
0.91886608 0.91886608 0.91886608
0.91886608 0.91886608 0.91886608
0.33995894 0.25459052 0.58860536
0.36151424 0.26249956 0.58864550
0.44673708 0.30492356 0.58895313
0.56252500 0.38530966 0.59025161
0.67934670 0.48322986 0.59464368
0.79095678 0.58705424 0.60747490
0.89705302 0.69297966 0.63894143
0.91886608 0.79981566 0.69902598
0.91886608 0.90715839 0.78655352
0.35196982 0.32237083 0.58882068
0.37092438 0.32568090 0.58886072
0.45039416 0.34737278 0.58916766
0.56358276 0.40408898 0.59046321
0.67965500 0.48994893 0.59484567
0.79105009 0.58931636 0.60765127
0.89708164 0.69372297 0.63906792
0.91886608 0.80005206 0.69909294
0.91886608 0.90722952 0.78657969
0.41116613 0.45953931 0.59045785
0.42119195 0.46021630 0.59049721
0.47441822 0.46525268 0.59079887
0.57133132 0.48403146 0.59207238
0.68198941 0.52975008 0.59638245
0.79176345 0.60508669 0.60899467
0.89730105 0.69924312 0.64003360
0.91886608 0.80184717 0.69960552
0.91886608 0.90777381 0.78678043
0.51063175 0.59211640 0.59712603
0.51409906 0.59227932 0.59716271
0.53712960 0.59352099 0.59744385
0.59863136 0.59863136 0.59863136
0.69132689 0.61455414 0.60265839
0.79473965 0.65266389 0.61450906
0.89822894 0.71967506 0.64403762
0.91886608 0.80911739 0.70175684
0.91886608 0.91005337 0.78763009
0.62119521 0.71360384 0.61726475
0.62227745 0.71364886 0.61729438
0.63019913 0.71399383 0.61752166
0.65802369 0.71544836 0.61848310
0.71811515 0.72034977 0.62176051
0.80441906 0.73451537 0.63155199
0.90138877 0.76842213 0.65680366
0.91886608 0.83070296 0.70889388
0.91886608 0.91756158 0.79053226
0.73125987 0.82600744 0.66255337
0.73159790 0.82602078 0.66257173
0.73415358 0.82612315 0.66271261
0.74431224 0.82655762 0.66331000
0.77296084 0.82805619 0.66536359
0.82990862 0.83269478 0.67165502
0.91079884 0.84576793 0.68891412
0.91886608 0.87754522 0.72866568
0.91886608 0.91886608 0.79925330
0.83829031 0.91886608 0.73634042
0.83839597 0.91886608 0.73634879
0.83920325 0.91886608 0.73641311
0.84256102 0.91886608 0.73668639
0.85337291 0.91886608 0.73763291
0.88116200 0.91886608 0.74060110
0.91886608 0.91886608 0.74927498
0.91886608 0.91886608 0.77218279
0.91886608 0.91886608 0.82204142
0.91886608 0.91886608 0.82930901
0.91886608 0.91886608 0.82931206
0.91886608 0.91886608 0.82933549
0.91886608 0.91886608 0.82943514
0.91886608 0.91886608 0.82978171
0.91886608 0.91886608 0.83088274
0.91886608 0.91886608 0.83422522
0.91886608 0.91886608 0.84397195
0.91886608 0.91886608 0.86994197
0.91886608 0.91886608 0.91886608
0.91886608 0.91886608 0.91886608
0.91886608 0.91886608 0.91886608
0.91886608 0.91886608 0.91886608
0.91886608 0.91886608 0.91886608
0.91886608 0.91886608 0.91886608
0.91886608 0.91886608 0.91886608
0.91886608 0.91886608 0.91886608
0.91886608 0.91886608 0.91886608
0.44077148 0.33889642 0.71083317
0.44806751 0.34160174 0.71084417
0.49030441 0.35984640 0.71092860
0.57725446 0.41071997 0.71128720
0.68386571 0.49255586 0.71252674
0.79234564 0.59022423 0.71638965
0.89748097 0.69402466 0.72748205
0.91886608 0.80014836 0.75560218
0.91886608 0.90725854 0.81277527
0.44467460 0.36917581 0.71089222
0.45167195 0.37106179 0.71090322
0.49258698 0.38429319 0.71098760
0.57815972 0.42511844 0.71134597
0.68415962 0.49864767 0.71258474
0.79243755 0.59241251 0.71644531
0.89750944 0.69475980 0.72753150
0.91886608 0.80038389 0.75563876
0.91886608 0.90732959 0.81279492
0.47006509 0.47145483 0.71134448
0.47540010 0.47204882 0.71135542
0.50845155 0.47648535 0.71143940
0.58483566 0.49328033 0.71179605
0.68638641 0.53550471 0.71302893
0.79314025 0.60771336 0.71687164
0.89772778 0.70022119 0.72791034
0.91886608 0.80217257 0.75591916
0.91886608 0.90787325 0.81294571
0.53494763 0.59512350 0.71324570
0.53762912 0.59528131 0.71325643
0.55599991 0.59648438 0.71333872
0.60892134 0.60144099 0.71368824
0.69531776 0.61693367 0.71489667
0.79607282 0.65426099 0.71866513
0.89865118 0.72046269 0.72950612
0.91886608 0.80941794 0.75710344
0.91886608 0.91015023 0.81358483
0.62939258 0.71444391 0.71958788
0.63038546 0.71448853 0.71959791
0.63768096 0.71483044 0.71967482
0.66365405 0.71627215 0.72000155
0.72113178 0.72113178 0.72113178
0.80561931 0.73518790 0.72466221
0.90179600 0.76888969 0.73486563
0.91886608 0.83093999 0.76111784
0.91886608 0.91765040 0.81577849
0.73388676 0.82625709 0.73741620
0.73421544 0.82627039 0.73742449
0.73670144 0.82637247 0.73748806
0.74660040 0.82680575 0.73775822
0.77464665 0.82830025 0.73869399
0.83081679 0.83292666 0.74162914
0.91116435 0.84596850 0.75021208
0.91886608 0.87768563 0.77291562
0.91886608 0.91886608 0.82246736
0.83911828 0.91886608 0.77775693
0.83922298 0.91886608 0.77776230
0.84002291 0.91886608 0.77780347
0.84335077 0.91886608 0.77797855
0.85407328 0.91886608 0.77858633
0.88167467 0.91886608 0.78050620
0.91886608 0.91886608 0.78623621
0.91886608 0.91886608 0.80219252
0.91886608 0.91886608 0.84058914
0.91886608 0.91886608 0.84654972
0.91886608 0.91886608 0.84655224
0.91886608 0.91886608 0.84657159
0.91886608 0.91886608 0.84665390
0.91886608 0.91886608 0.84694026
0.91886608 0.91886608 0.84785121
0.91886608 0.91886608 0.85062788
0.91886608 0.91886608 0.85881774
0.91886608 0.91886608 0.88125694
0.91886608 0.91886608 0.91886608
0.91886608 0.91886608 0.91886608
0.91886608 0.91886608 0.91886608
0.91886608 0.91886608 0.91886608
0.91886608 0.91886608 0.91886608
0.91886608 0.91886608 0.91886608
0.91886608 0.91886608 0.91886608
0.91886608 0.91886608 0.91886608
0.91886608 0.91886608 0.91886608
0.54397454 0.43029236 0.82347643
0.54641250 0.43122902 0.82347968
0.56327934 0.43811047 0.82350467
0.61314314 0.46262734 0.82361095
0.69703241 0.51731684 0.82398050
0.79665705 0.59971423 0.82515393
0.89883750 0.69729529 0.82871080
0.91886608 0.80120574 0.83903844
0.91886608 0.90757849 0.86627869
0.54526198 0.44201638 0.82349390
0.54766708 0.44283819 0.82349716
0.56432870 0.44890946 0.82352214
0.61376312 0.47097172 0.82362840
0.69728803 0.52201407 0.82399787
0.79674475 0.60169549 0.82517109
0.89886554 0.69800542 0.82872729
0.91886608 0.80143857 0.83905315
0.91886608 0.90764928 0.86628954
0.55459910 0.50164358 0.82362795
0.55677886 0.50207139 0.82363120
0.57201850 0.50529202 0.82365614
0.61839300 0.51787160 0.82376225
0.69922809 0.55186013 0.82413118
0.79741532 0.61566548 0.82530268
0.89908051 0.70328673 0.82885382
0.91886608 0.80320694 0.83916601
0.91886608 0.90819095 0.86637279
0.58639569 0.60415603 0.82419640
0.58795577 0.60429946 0.82419962
0.59914633 0.60539365 0.82422441
0.63590247 0.60991483 0.82432985
0.70706637 0.62417468 0.82469649
0.80021627 0.65920135 0.82586075
0.89998978 0.72294143 0.82939048
0.91886608 0.81037381 0.83964486
0.91886608 0.91045972 0.86672629
0.65169200 0.71708471 0.82615070
0.65247723 0.71712809 0.82615386
0.65829885 0.71746053 0.82617812
0.67971264 0.71886267 0.82628131
0.73018645 0.72359310 0.82664015
0.80936025 0.73730966 0.82777984
0.90308751 0.77037136 0.83123688
0.91886608 0.83169493 0.84129462
0.91886608 0.91793420 0.86794780
0.74183417 0.82705197 0.83213965
0.74213607 0.82706516 0.83214260
0.74442221 0.82716635 0.83216531
0.75357127 0.82759585 0.83226189
0.77984718 0.82907747 0.83259781
0.83366524 0.83366524 0.83366524
0.91232465 0.84660781 0.83690805
0.91886608 0.87813381 0.84638301
0.91886608 0.91886608 0.87175021
0.84171972 0.91886608 0.84857583
0.84182144 0.91886608 0.84857830
0.84259869 0.91886608 0.84859721
0.84583421 0.91886608 0.84867768
0.85627996 0.91886608 0.84895766
0.88329670 0.91886608 0.84984844
0.91886608 0.91886608 0.85256479
0.91886608 0.91886608 0.86058663
0.91886608 0.91886608 0.88263322
0.91886608 0.91886608 0.88639490
0.91886608 0.91886608 0.88639651
0.91886608 0.91886608 0.88640886
0.91886608 0.91886608 0.88646143
0.91886608 0.91886608 0.88664445
0.91886608 0.91886608 0.88722802
0.91886608 0.91886608 0.88901939
0.91886608 0.91886608 0.89441250
0.91886608 0.91886608 0.90999567
0.91886608 0.91886608 0.91886608
0.91886608 0.91886608 0.91886608
0.91886608 0.91886608 0.91886608
0.91886608 0.91886608 0.91886608
0.91886608 0.91886608 0.91886608
0.91886608 0.91886608 0.91886608
0.91886608 0.91886608 0.91886608
0.91886608 0.91886608 0.91886608
0.91886608 0.91886608 0.91886608
0.64919410 0.52804337 0.91886608
0.65000026 0.52836543 0.91886608
0.65597162 0.53080200 0.91886608
0.67786214 0.54051660 0.91886608
0.72910930 0.56817101 0.91886608
0.80890427 0.62431124 0.91886608
0.90292828 0.70680038 0.91886608
0.91886608 0.80441974 0.91886608
0.91886608 0.90856656 0.91886608
0.64961805 0.53224075 0.91886608
0.65042062 0.53254866 0.91886608
0.65636632 0.53487971 0.91886608
0.67817533 0.54419951 0.91886608
0.72929099 0.57092768 0.91886608
0.80898098 0.62584236 0.91886608
0.90295504 0.70744247 0.91886608
0.91886608 0.80464454 0.91886608
0.91886608 0.90863655 0.91886608
0.65281166 0.55940205 0.91886608
0.65358769 0.55963252 0.91886608
0.65934336 0.56138368 0.91886608
0.68054617 0.56849353 0.91886608
0.73067448 0.58977187 0.91886608
0.80956782 0.63683999 0.91886608
0.90316017 0.71223191 0.91886608
0.91886608 0.80635252 0.91886608
0.91886608 0.90917211 0.91886608
0.66531518 0.62775399 0.91886608
0.66599539 0.62786577 0.91886608
0.67106149 0.62871970 0.91886608
0.69002071 0.63227103 0.91886608
0.73634507 0.64370301 0.91886608
0.81202456 0.67310388 0.91886608
0.90402804 0.73025935 0.91886608
0.91886608 0.81328551 0.91886608
0.91886608 0.91141567 0.91886608
0.69924401 0.72485581 0.91886608
0.69971920 0.72489574 0.91886608
0.70329016 0.72520178 0.91886608
0.71713455 0.72649348 0.91886608
0.75378787 0.73086216 0.91886608
0.82010530 0.74361893 0.91886608
0.90698765 0.77483535 0.91886608
0.91886608 0.83400439 0.91886608
0.91886608 0.91881136 0.91886608
0.76295139 0.82948154 0.91886608
0.76319203 0.82949438 0.91886608
0.76501927 0.82959289 0.91886608
0.77241790 0.83001105 0.91886608
0.79437235 0.83145393 0.91886608
0.84199315 0.83592545 0.91886608
0.91583849 0.84856838 0.91886608
0.91886608 0.87951395 0.91886608
0.91886608 0.91886608 0.91886608
0.84936360 0.91886608 0.91886608
0.84945702 0.91886608 0.91886608
0.85017113 0.91886608 0.91886608
0.85314890 0.91886608 0.91886608
0.86281655 0.91886608 0.91886608
0.88816051 0.91886608 0.91886608
0.91886608 0.91886608 0.91886608
0.91886608 0.91886608 0.91886608
0.91886608 0.91886608 0.91886608
0.91886608 0.91886608 0.91886608
0.91886608 0.91886608 0.91886608
0.91886608 0.91886608 0.91886608
0.91886608 0.91886608 0.91886608
0.91886608 0.91886608 0.91886608
0.91886608 0.91886608 0.91886608
0.91886608 0.91886608 0.91886608
0.91886608 0.91886608 0.91886608
0.91886608 0.91886608 0.91886608
0.91886608 0.91886608 0.91886608
0.91886608 0.91886608 0.91886608
0.91886608 0.91886608 0.91886608
0.91886608 0.91886608 0.91886608
0.91886608 0.91886608 0.91886608
0.91886608 0.91886608 0.91886608
0.91886608 0.91886608 0.91886608
0.91886608 0.91886608 0.91886608
0.91886608 0.91886608 0.91886608
0.75616929 0.63161720 0.91886608
0.75642815 0.63172451 0.91886608
0.75839216 0.63254447 0.91886608
0.76631669 0.63595760 0.91886608
0.78959846 0.64697712 0.91886608
0.83919598 0.67551372 0.91886608
0.91463794 0.73157902 0.91886608
0.91886608 0.81382496 0.91886608
0.91886608 0.91159498 0.91886608
0.75630524 0.63303538 0.91886608
0.75656372 0.63314109 0.91886608
0.75852489 0.63394892 0.91886608
0.76643855 0.63731264 0.91886608
0.78969316 0.64818411 0.91886608
0.83925090 0.67640759 0.91886608
0.91466132 0.73207235 0.91886608
0.91886608 0.81402776 0.91886608
0.91886608 0.91166257 0.91886608
0.75734256 0.64326983 0.91886608
0.75759817 0.64336471 0.91886608
0.75953784 0.64409010 0.91886608
0.76736903 0.64711730 0.91886608
0.79041709 0.65697202 0.91886608
0.83967149 0.68300299 0.91886608
0.91484057 0.73577610 0.91886608
0.91886608 0.81557010 0.91886608
0.91886608 0.91217981 0.91886608
0.76163311 0.67753202 0.91886608
0.76187719 0.67759806 0.91886608
0.76373028 0.67810360 0.91886608
0.77122858 0.68022586 0.91886608
0.79343656 0.68727212 0.91886608
0.84144024 0.70683467 0.91886608
0.91559954 0.75007947 0.91886608
0.91886608 0.82185786 0.91886608
0.91886608 0.91434771 0.91886608
0.77520547 0.74573415 0.91886608
0.77541629 0.74576609 0.91886608
0.77701926 0.74601092 0.91886608
0.78354754 0.74704601 0.91886608
0.80324752 0.75056720 0.91886608
0.84734780 0.76102233 0.91886608
0.91819449 0.78758268 0.91886608
0.91886608 0.84088755 0.91886608
0.91886608 0.91886608 0.91886608
0.80871373 0.83670486 0.91886608
0.80886013 0.83671671 0.91886608
0.80997651 0.83680765 0.91886608
0.81458156 0.83719376 0.91886608
0.82902489 0.83852704 0.91886608
0.86400546 0.84266865 0.91886608
0.91886608 0.85445409 0.91886608
0.91886608 0.88370828 0.91886608
0.91886608 0.91886608 0.91886608
0.86981668 0.91886608 0.91886608
0.86989096 0.91886608 0.91886608
0.87045922 0.91886608 0.91886608
0.87283833 0.91886608 0.91886608
0.88066520 0.91886608 0.91886608
0.90187161 0.91886608 0.91886608
0.91886608 0.91886608 0.91886608
0.91886608 0.91886608 0.91886608
0.91886608 0.91886608 0.91886608
0.91886608 0.91886608 0.91886608
0.91886608 0.91886608 0.91886608
0.91886608 0.91886608 0.91886608
0.91886608 0.91886608 0.91886608
0.91886608 0.91886608 0.91886608
0.91886608 0.91886608 0.91886608
0.91886608 0.91886608 0.91886608
0.91886608 0.91886608 0.91886608
0.91886608 0.91886608 0.91886608
0.91886608 0.91886608 0.91886608
0.91886608 0.91886608 0.91886608
0.91886608 0.91886608 0.91886608
0.91886608 0.91886608 0.91886608
0.91886608 0.91886608 0.91886608
0.91886608 0.91886608 0.91886608
0.91886608 0.91886608 0.91886608
0.91886608 0.91886608 0.91886608
0.91886608 0.91886608 0.91886608
0.86470643 0.74060593 0.91886608
0.86478510 0.74063966 0.91886608
0.86538689 0.74089832 0.91886608
0.86790404 0.74199144 0.91886608
0.87615956 0.74570513 0.91886608
0.89835310 0.75668974 0.91886608
0.91886608 0.78435145 0.91886608
0.91886608 0.83910250 0.91886608
0.91886608 0.91886608 0.91886608
0.86474773 0.74105391 0.91886608
0.86482637 0.74108748 0.91886608
0.86542788 0.74134490 0.91886608
0.86794388 0.74243283 0.91886608
0.87619585 0.74612932 0.91886608
0.89838130 0.75706677 0.91886608
0.91886608 0.78463115 0.91886608
0.91886608 0.83925593 0.91886608
0.91886608 0.91886608 0.91886608
0.86506421 0.74442391 0.91886608
0.86514257 0.74445629 0.91886608
0.86574195 0.74470458 0.91886608
0.86824919 0.74575422 0.91886608
0.87647405 0.74932367 0.91886608
0.89859747 0.75991194 0.91886608
0.91886608 0.78675100 0.91886608
0.91886608 0.84042550 0.91886608
0.91886608 0.91886608 0.91886608
0.86639899 0.75754395 0.91886608
0.86647618 0.75757207 0.91886608
0.86706666 0.75778775 0.91886608
0.86953728 0.75870031 0.91886608
0.87764861 0.76181334 0.91886608
0.89951175 0.77113251 0.91886608
0.91886608 0.79526506 0.91886608
0.91886608 0.84524080 0.91886608
0.91886608 0.91886608 0.91886608
0.87090143 0.79262395 0.91886608
0.87097480 0.79264319 0.91886608
0.87153618 0.79279076 0.91886608
0.87388691 0.79341633 0.91886608
0.88162535 0.79556445 0.91886608
0.90262623 0.80212332 0.91886608
0.91886608 0.81995561 0.91886608
0.91886608 0.86025438 0.91886608
0.91886608 0.91886608 0.91886608
0.88394877 0.85689995 0.91886608
0.88401207 0.85690941 0.91886608
0.88449660 0.85698203 0.91886608
0.88652988 0.85729051 0.91886608
0.89327136 0.85835766 0.91886608
0.91191004 0.86169171 0.91886608
0.91886608 0.87133195 0.91886608
0.91886608 0.89614600 0.91886608
0.91886608 0.91886608 0.91886608
0.91532161 0.91886608 0.91886608
0.91536579 0.91886608 0.91886608
0.91570426 0.91886608 0.91886608
0.91713044 0.91886608 0.91886608
0.91886608 0.91886608 0.91886608
0.91886608 0.91886608 0.91886608
0.91886608 0.91886608 0.91886608
0.91886608 0.91886608 0.91886608
0.91886608 0.91886608 0.91886608
0.91886608 0.91886608 0.91886608
0.91886608 0.91886608 0.91886608
0.91886608 0.91886608 0.91886608
0.91886608 0.91886608 0.91886608
0.91886608 0.91886608 0.91886608
0.91886608 0.91886608 0.91886608
0.91886608 0.91886608 0.91886608
0.91886608 0.91886608 0.91886608
0.91886608 0.91886608 0.91886608
0.91886608 0.91886608 0.91886608
0.91886608 0.91886608 0.91886608
0.91886608 0.91886608 0.91886608
0.91886608 0.91886608 0.91886608
0.91886608 0.91886608 0.91886608
0.91886608 0.91886608 0.91886608
0.91886608 0.91886608 0.91886608
0.91886608 0.91886608 0.91886608
0.91886608 0.91886608 0.91886608
