src/ffmpeg_scripts/luts/sRGB-rec2020_0-Native.cube
TITLE "sRGB-rec2020_0-Native"
LUT_3D_SIZE 5
# PQ (EOTF Only)/sRGB -> PQ (EOTF Only)/Rec2020, CineEI Shift 0.00, Black Level 0.00% IRE, Input 100% -> Output 109% - Created with LUTCalc v4.01 by Ben Turley October 2020
0.06256172 0.06256172 0.06256172
0.24940415 0.15125409 0.11224389
0.45155958 0.28979290 0.20989754
0.66138923 0.46487683 0.35251952
0.87672275 0.67190983 0.54076716
0.21550780 0.27157004 0.15961940
0.27395336 0.27594273 0.16586352
0.45394533 0.32637656 0.22284397
0.66164413 0.47052416 0.35452252
0.87674740 0.67254535 0.54101189
0.39994555 0.48356595 0.30533831
0.40783273 0.48392195 0.30601650
0.48693518 0.48973734 0.31666259
0.66585040 0.53454579 0.38265354
0.87716284 0.68268331 0.54505324
0.60202332 0.69696334 0.48527919
0.60293001 0.69700007 0.48536220
0.61706576 0.69761851 0.48675361
0.70065774 0.70372331 0.49989716
0.88130496 0.74998020 0.57870328
0.81745355 0.91133571 0.69444169
0.81754447 0.91133920 0.69445064
0.81906717 0.91139802 0.69460175
0.83333386 0.91199764 0.69613415
0.91489404 0.91784166 0.71037859
0.13664788 0.10492045 0.26999116
0.25316461 0.15645201 0.27107568
0.45187703 0.29036972 0.28732203
0.66142280 0.46494880 0.37094876
0.87672600 0.67191771 0.54322808
0.22166547 0.27230738 0.27563317
0.27663734 0.27663734 0.27663734
0.45425450 0.32673693 0.29181997
0.66167760 0.47059179 0.37255895
0.87675064 0.67255317 0.54346646
0.40051366 0.48362459 0.33580041
0.40835175 0.48398036 0.33626243
0.48715044 0.48979216 0.34369592
0.66588242 0.53457959 0.39597229
0.87716607 0.68269034 0.54740539
0.60208619 0.69696938 0.48970813
0.60299228 0.69700611 0.48978723
0.61711939 0.69762451 0.49111363
0.70067988 0.70372893 0.50368903
0.88130803 0.74998362 0.58035372
0.81745983 0.91133629 0.69492948
0.81755074 0.91133977 0.69493838
0.81907334 0.91139859 0.69508871
0.83333913 0.91199820 0.69661327
0.91489613 0.91784219 0.71079050
0.26147945 0.19302363 0.48132653
0.29780841 0.20637961 0.48141320
0.45707861 0.29950470 0.48286540
0.66198821 0.46615630 0.49653651
0.87678077 0.67205074 0.57727297
0.28273392 0.28375893 0.48179094
0.31159002 0.28748170 0.48187717
0.45932459 0.33259286 0.48332209
0.66224150 0.47172708 0.49693019
0.87680540 0.67268532 0.57743894
0.40959105 0.48460973 0.48930190
0.41668602 0.48496170 0.48938135
0.49071359 0.49071359 0.49071359
0.66642185 0.53514900 0.50334011
0.87722056 0.68280903 0.58020022
0.60314232 0.69707139 0.54356145
0.60403838 0.69710808 0.54360573
0.61802099 0.69772581 0.54435087
0.70105316 0.70382387 0.55165284
0.88136003 0.75004155 0.60459952
0.81756587 0.91134596 0.70281112
0.81765668 0.91134944 0.70281931
0.81917751 0.91140826 0.70295757
0.83342813 0.91200781 0.70436071
0.91493153 0.91785116 0.71749055
0.42661968 0.32674605 0.69450263
0.43250972 0.32890297 0.69451158
0.49803288 0.35866933 0.69466259
0.66758712 0.47766975 0.69619401
0.87733925 0.67340129 0.71043004
0.42975965 0.35159340 0.69455065
0.43545159 0.35318760 0.69455959
0.49947380 0.37633446 0.69471053
0.66782586 0.48259737 0.69624118
0.87736372 0.67402688 0.71047057
0.47084689 0.49412516 0.69535835
0.47449557 0.49444256 0.69536721
0.52093800 0.49964669 0.69551686
0.67177119 0.54078415 0.69703456
0.87777628 0.68401498 0.71115293
0.61332038 0.69810885 0.70324736
0.61412537 0.69814514 0.70325551
0.62678381 0.69875612 0.70339313
0.70478983 0.70478983 0.70478983
0.88189035 0.75063215 0.71786378
0.81864386 0.91144491 0.75920424
0.81873360 0.91144839 0.75920872
0.82023666 0.91150714 0.75928438
0.83433379 0.91210600 0.76005496
0.91529284 0.91794294 0.76751154
0.62868412 0.50865407 0.90896194
0.62936887 0.50892532 0.90896279
0.64024748 0.51339253 0.90897713
0.71091883 0.54985033 0.90912379
0.88279970 0.68607818 0.91059388
0.62904412 0.51220036 0.90896650
0.62972628 0.51246144 0.90896735
0.64056613 0.51676532 0.90898169
0.71106962 0.55214556 0.90912834
0.88282271 0.68662534 0.91059836
0.63492873 0.55777862 0.90904350
0.63556989 0.55793893 0.90904434
0.64579426 0.56060723 0.90905868
0.71358159 0.58428110 0.90920519
0.88321055 0.69542048 0.91067392
0.68039245 0.70800864 0.90982747
0.68078929 0.70804130 0.90982831
0.68725406 0.70859143 0.90984251
0.73602700 0.71404259 0.90998771
0.88708378 0.75640597 0.91144334
0.82888616 0.91243975 0.91738432
0.82896631 0.91244318 0.91738509
0.83031007 0.91250126 0.91739810
0.84301921 0.91309331 0.91753117
0.91886608 0.91886608 0.91886608
