src/ffmpeg_scripts/luts/sRGB-rec2020_4p00.cube
TITLE "sRGB-rec2020_4p00"
LUT_3D_SIZE 9
# PQ (EOTF Only)/sRGB -> PQ (EOTF Only)/Rec2020, CineEI Shift 4.00, Black Level 0.00% IRE, Input 100% -> Output 109% - Created with LUTCalc v4.01 by Ben Turley October 2020
0.06256172 0.06256172 0.06256172
0.28560251 0.17349985 0.12670788
0.44236527 0.28279482 0.20458876
0.57730495 0.39132234 0.29047333
0.69918041 0.49931972 0.38251235
0.81191273 0.60690726 0.47969099
0.91770754 0.71415883 0.58134896
0.91886608 0.82112479 0.68701502
0.91886608 0.91886608 0.79633234
0.24756518 0.31017367 0.18332196
0.31280267 0.31499528 0.19061354
0.44717174 0.34463101 0.22834171
0.57844349 0.41301452 0.29825348
0.69949511 0.50641319 0.38508813
0.81200622 0.60921654 0.48056068
0.91773596 0.71490642 0.58164181
0.91886608 0.82136054 0.68711084
0.91886608 0.91886608 0.79636199
0.39130692 0.47408515 0.29806575
0.40667778 0.47481172 0.29943403
0.47742665 0.48020610 0.30919974
0.58675597 0.50016732 0.34093398
0.70187713 0.54798987 0.40264981
0.81272095 0.62528766 0.48697700
0.91795386 0.72045662 0.58386073
0.91886608 0.82315064 0.68784343
0.91886608 0.91886608 0.79658931
0.51999069 0.61207351 0.41010467
0.52393031 0.61223968 0.41045783
0.54965447 0.61350606 0.41312316
0.61570178 0.61871494 0.42364310
0.71139176 0.63491385 0.45285101
0.81570229 0.67352073 0.51017320
0.91886608 0.74097452 0.59276284
0.91886608 0.83039850 0.69089981
0.91886608 0.91886608 0.79755074
0.63930113 0.73488177 0.52030660
0.64042690 0.73492697 0.52041132
0.64865194 0.73527325 0.52121153
0.67735261 0.73673319 0.52454303
0.73858203 0.74165143 0.53530589
0.82539189 0.75585395 0.56324372
0.91886608 0.78978376 0.61852510
0.91886608 0.85189856 0.70084050
0.91886608 0.91886608 0.80082574
0.75187369 0.84722403 0.62910534
0.75221511 0.84723731 0.62913829
0.75479578 0.84733923 0.62939091
0.76504348 0.84777181 0.63045881
0.79386278 0.84926378 0.63409027
0.85086424 0.85388110 0.64486238
0.91886608 0.86688762 0.67218495
0.91886608 0.89846359 0.72703416
0.91886608 0.91886608 0.81058802
0.85922742 0.91886608 0.73676467
0.85933282 0.91886608 0.73677518
0.86013799 0.91886608 0.73685583
0.86348643 0.91886608 0.73719839
0.87426205 0.91886608 0.73838289
0.90191728 0.91886608 0.74207813
0.91886608 0.91886608 0.75271959
0.91886608 0.91886608 0.77987026
0.91886608 0.91886608 0.83560966
0.91886608 0.91886608 0.84346288
0.91886608 0.91886608 0.84346616
0.91886608 0.91886608 0.84349139
0.91886608 0.91886608 0.84359870
0.91886608 0.91886608 0.84397179
0.91886608 0.91886608 0.84515632
0.91886608 0.91886608 0.84874506
0.91886608 0.91886608 0.85915113
0.91886608 0.91886608 0.88650813
0.91886608 0.91886608 0.91886608
0.91886608 0.91886608 0.91886608
0.91886608 0.91886608 0.91886608
0.91886608 0.91886608 0.91886608
0.91886608 0.91886608 0.91886608
0.91886608 0.91886608 0.91886608
0.91886608 0.91886608 0.91886608
0.91886608 0.91886608 0.91886608
0.91886608 0.91886608 0.91886608
0.15618797 0.11769241 0.30843068
0.28978683 0.17961040 0.30962804
0.44301242 0.28395806 0.31825705
0.57745549 0.39162641 0.34713722
0.69922187 0.49941078 0.40569433
0.81192503 0.60693614 0.48817725
0.91771128 0.71416810 0.58428730
0.91886608 0.82112770 0.68798559
0.91886608 0.91886608 0.79663356
0.25452048 0.31098727 0.31465420
0.31576046 0.31576046 0.31576046
0.44778523 0.34516047 0.32377402
0.57859223 0.41325148 0.35103385
0.69953643 0.50649752 0.40767034
0.81201851 0.60924472 0.48897035
0.91773970 0.71491562 0.58457118
0.91886608 0.82136344 0.68808043
0.91886608 0.91886608 0.79666311
0.39246050 0.47420503 0.35093730
0.40764491 0.47493064 0.35164388
0.47786641 0.48031821 0.35687703
0.58689217 0.50025755 0.37608037
0.70191741 0.54804385 0.42151835
0.81273315 0.62531144 0.49484250
0.91795759 0.72046529 0.58672301
0.91886608 0.82315349 0.68880554
0.91886608 0.91886608 0.79688968
0.52026809 0.61210085 0.42758029
0.52419623 0.61226698 0.42786998
0.54985645 0.61353299 0.43006345
0.61580206 0.61874043 0.43883915
0.71142816 0.63493533 0.46407402
0.81571409 0.67353501 0.51634844
0.91886608 0.74098149 0.59537103
0.91886608 0.83040114 0.69183138
0.91886608 0.91886608 0.79784798
0.63937928 0.73488921 0.52586232
0.64050413 0.73493440 0.52596098
0.64872274 0.73528066 0.52671505
0.67740487 0.73674048 0.52985855
0.73860926 0.74165834 0.54005682
0.82540250 0.75585988 0.56679328
0.91886608 0.78978787 0.62051758
0.91886608 0.85190064 0.70167912
0.91886608 0.91886608 0.80111256
0.75189730 0.84722621 0.63088897
0.75223863 0.84723949 0.63092131
0.75481866 0.84734141 0.63116921
0.76506397 0.84777398 0.63221734
0.79387777 0.84926591 0.63578317
0.85087224 0.85388313 0.64637453
0.91886608 0.86688938 0.67331976
0.91886608 0.89846481 0.72766919
0.91886608 0.91886608 0.81084580
0.85923470 0.91886608 0.73733711
0.85934009 0.91886608 0.73734756
0.86014520 0.91886608 0.73742772
0.86349337 0.91886608 0.73776819
0.87426820 0.91886608 0.73894552
0.90192177 0.91886608 0.74261897
0.91886608 0.91886608 0.75320217
0.91886608 0.91886608 0.78023044
0.91886608 0.91886608 0.83580534
0.91886608 0.91886608 0.84364223
0.91886608 0.91886608 0.84364551
0.91886608 0.91886608 0.84367068
0.91886608 0.91886608 0.84377777
0.91886608 0.91886608 0.84415013
0.91886608 0.91886608 0.84533232
0.91886608 0.91886608 0.84891416
0.91886608 0.91886608 0.85930167
0.91886608 0.91886608 0.88661867
0.91886608 0.91886608 0.91886608
0.91886608 0.91886608 0.91886608
0.91886608 0.91886608 0.91886608
0.91886608 0.91886608 0.91886608
0.91886608 0.91886608 0.91886608
0.91886608 0.91886608 0.91886608
0.91886608 0.91886608 0.91886608
0.91886608 0.91886608 0.91886608
0.91886608 0.91886608 0.91886608
0.25502347 0.18814219 0.47186442
0.31598155 0.21243157 0.47204156
0.44783185 0.29233330 0.47339043
0.57860357 0.39392610 0.47891927
0.69953958 0.50010703 0.49593948
0.81201945 0.60715762 0.53576184
0.91773998 0.71423929 0.60423721
0.91886608 0.82115010 0.69512274
0.91886608 0.91886608 0.79891409
0.29295753 0.31696750 0.47281156
0.33540266 0.32140057 0.47298688
0.45236155 0.34911589 0.47432193
0.57972663 0.41504999 0.47979630
0.69985308 0.50714253 0.49666865
0.81211283 0.60946087 0.53623726
0.91776839 0.71498624 0.60446709
0.91886608 0.82138578 0.69521067
0.91886608 0.91886608 0.79894291
0.40083929 0.47512029 0.47977417
0.41473476 0.47583870 0.47993662
0.48117450 0.48117450 0.48117450
0.58793152 0.50094746 0.48626453
0.70222617 0.54845729 0.50208350
0.81282673 0.62549385 0.53980942
0.91798621 0.72053185 0.60621391
0.91886608 0.82317539 0.69588311
0.91886608 0.91886608 0.79916392
0.52237104 0.61231057 0.50462377
0.52621318 0.61247633 0.50474778
0.55139305 0.61373956 0.50569451
0.61656856 0.61893595 0.50961970
0.71170724 0.63510011 0.52213429
0.81580466 0.67364458 0.55365313
0.91886608 0.74103494 0.61330877
0.91886608 0.83042135 0.69869309
0.91886608 0.91886608 0.80009884
0.63997722 0.73494626 0.56014170
0.64109503 0.73499142 0.56021011
0.64926461 0.73533747 0.56073370
0.67780517 0.73679641 0.56293057
0.73881809 0.74171140 0.57021131
0.82548391 0.75590544 0.59033744
0.91886608 0.78981943 0.63456126
0.91886608 0.85191655 0.70788083
0.91886608 0.91886608 0.80328546
0.75207840 0.84724298 0.64356777
0.75241906 0.84725626 0.64359605
0.75499416 0.84735816 0.64381291
0.76522113 0.84779065 0.64473055
0.79399278 0.84928231 0.64786181
0.85093360 0.85389870 0.65724422
0.91886608 0.86690283 0.68160668
0.91886608 0.89847422 0.73240684
0.91886608 0.91886608 0.81280128
0.85929058 0.91886608 0.74161947
0.85939591 0.91886608 0.74162944
0.86020051 0.91886608 0.74170601
0.86354664 0.91886608 0.74203124
0.87431538 0.91886608 0.74315630
0.90195620 0.91886608 0.74667054
0.91886608 0.91886608 0.75682654
0.91886608 0.91886608 0.78295016
0.91886608 0.91886608 0.83729393
0.91886608 0.91886608 0.84500758
0.91886608 0.91886608 0.84501081
0.91886608 0.91886608 0.84503561
0.91886608 0.91886608 0.84514109
0.91886608 0.91886608 0.84550785
0.91886608 0.91886608 0.84667240
0.91886608 0.91886608 0.85020215
0.91886608 0.91886608 0.86044922
0.91886608 0.91886608 0.88746291
0.91886608 0.91886608 0.91886608
0.91886608 0.91886608 0.91886608
0.91886608 0.91886608 0.91886608
0.91886608 0.91886608 0.91886608
0.91886608 0.91886608 0.91886608
0.91886608 0.91886608 0.91886608
0.91886608 0.91886608 0.91886608
0.91886608 0.91886608 0.91886608
0.91886608 0.91886608 0.91886608
0.35647399 0.26802698 0.60965865
0.37865662 0.27626622 0.60969912
0.46587513 0.32029764 0.61000928
0.58334022 0.40308383 0.61131836
0.70088019 0.50301352 0.61574542
0.81242030 0.60809468 0.62867148
0.91786206 0.71454170 0.66032515
0.91886608 0.82124537 0.72059724
0.91886608 0.91886608 0.80803237
0.36884110 0.33833269 0.60987574
0.38832400 0.34174982 0.60991611
0.46960217 0.36410973 0.61022556
0.58440856 0.42231944 0.61153167
0.70118926 0.50983913 0.61594899
0.81251327 0.61037549 0.62884907
0.91789043 0.71528626 0.66045226
0.91886608 0.82148080 0.72066429
0.91886608 0.91886608 0.80805846
0.42955929 0.47891702 0.61152627
0.43980718 0.47960628 0.61156594
0.49405647 0.48473269 0.61187005
0.59223223 0.50382802 0.61315379
0.70352928 0.55019717 0.61749769
0.81322405 0.62626644 0.63020176
0.91810794 0.72081467 0.66142268
0.91886608 0.82326856 0.72117755
0.91886608 0.91886608 0.80825852
0.53082689 0.61319817 0.61824698
0.53434199 0.61336238 0.61828394
0.55766649 0.61461391 0.61856722
0.61976376 0.61976376 0.61976376
0.71288605 0.63579839 0.62382065
0.81618921 0.67410962 0.63575302
0.91886608 0.74126213 0.66544573
0.91886608 0.83050736 0.72333158
0.91886608 0.91886608 0.80910528
0.64248121 0.73518875 0.63852638
0.64356998 0.73523380 0.63855621
0.65153721 0.73557895 0.63878492
0.67949049 0.73703415 0.63975240
0.73970187 0.74193696 0.64304993
0.82582964 0.75609913 0.65289744
0.91886608 0.78995366 0.67826582
0.91886608 0.85198428 0.73047570
0.91886608 0.91886608 0.81199730
0.75284539 0.84731433 0.68403662
0.75318327 0.84732760 0.68405505
0.75573756 0.84742942 0.68419642
0.76588722 0.84786157 0.68479588
0.79448077 0.84935205 0.68685643
0.85119435 0.85396494 0.69316758
0.91886608 0.86696008 0.71046878
0.91886608 0.89851422 0.75025219
0.91886608 0.91886608 0.82068526
0.85952808 0.91886608 0.75792293
0.85963312 0.91886608 0.75793130
0.86043560 0.91886608 0.75799557
0.86377307 0.91886608 0.75826865
0.87451595 0.91886608 0.75921443
0.90210264 0.91886608 0.76218002
0.91886608 0.91886608 0.77084354
0.91886608 0.91886608 0.79370479
0.91886608 0.91886608 0.84336908
0.91886608 0.91886608 0.85059804
0.91886608 0.91886608 0.85060107
0.91886608 0.91886608 0.85062437
0.91886608 0.91886608 0.85072348
0.91886608 0.91886608 0.85106814
0.91886608 0.91886608 0.85216306
0.91886608 0.91886608 0.85548667
0.91886608 0.91886608 0.86517530
0.91886608 0.91886608 0.89096863
0.91886608 0.91886608 0.91886608
0.91886608 0.91886608 0.91886608
0.91886608 0.91886608 0.91886608
0.91886608 0.91886608 0.91886608
0.91886608 0.91886608 0.91886608
0.91886608 0.91886608 0.91886608
0.91886608 0.91886608 0.91886608
0.91886608 0.91886608 0.91886608
0.91886608 0.91886608 0.91886608
0.45979283 0.35537914 0.73241641
0.46723115 0.35816653 0.73242742
0.51020013 0.37694215 0.73251191
0.59820994 0.42910301 0.73287075
0.70540987 0.51248639 0.73411105
0.81380412 0.61129076 0.73797581
0.91828630 0.71558845 0.74906889
0.91886608 0.82157671 0.77716064
0.91886608 0.91886608 0.83414843
0.46377267 0.38652837 0.73247551
0.47090411 0.38846509 0.73248651
0.51251799 0.40204162 0.73257095
0.59912334 0.44381801 0.73292956
0.70570443 0.51867030 0.73416909
0.81389569 0.61349663 0.73803149
0.91831453 0.71632478 0.74911833
0.91886608 0.82181129 0.77719716
0.91886608 0.91886608 0.83416799
0.48962908 0.49104270 0.73292807
0.49505487 0.49164685 0.73293902
0.52861615 0.49615829 0.73302305
0.60585745 0.51322197 0.73337992
0.70793600 0.55602217 0.73461354
0.81459580 0.62891160 0.73845797
0.91853098 0.72179403 0.74949707
0.91886608 0.82359261 0.77747706
0.91886608 0.91886608 0.83431807
0.55545839 0.61622898 0.73483043
0.55817194 0.61638802 0.73484116
0.57674809 0.61760040 0.73492350
0.63012792 0.62259434 0.73527320
0.71688362 0.63819321 0.73648222
0.81751729 0.67571318 0.74025199
0.91886608 0.74204990 0.75109235
0.91886608 0.83080654 0.77865920
0.91886608 0.91886608 0.83495418
0.65072620 0.73602925 0.74117494
0.65172456 0.73607389 0.74118497
0.65905839 0.73641596 0.74126190
0.68514112 0.73785827 0.74158868
0.74271906 0.74271906 0.74271906
0.82702473 0.75677122 0.74624952
0.91886608 0.79042008 0.75644916
0.91886608 0.85222000 0.78266578
0.91886608 0.91886608 0.83713737
0.75547090 0.84756265 0.75899790
0.75579938 0.84757588 0.75900618
0.75828369 0.84767741 0.75906971
0.76817258 0.84810837 0.75933965
0.79616201 0.84959479 0.76027464
0.85209748 0.85419550 0.76320704
0.91886608 0.86715939 0.77177928
0.91886608 0.89865354 0.79443567
0.91886608 0.91886608 0.84379282
0.86035113 0.91886608 0.79926346
0.86045520 0.91886608 0.79926881
0.86125035 0.91886608 0.79930986
0.86455796 0.91886608 0.79948443
0.87521166 0.91886608 0.80009041
0.90261125 0.91886608 0.80200450
0.91886608 0.91886608 0.80771613
0.91886608 0.91886608 0.82361248
0.91886608 0.91886608 0.86181317
0.91886608 0.91886608 0.86773695
0.91886608 0.91886608 0.86773946
0.91886608 0.91886608 0.86775868
0.91886608 0.91886608 0.86784047
0.91886608 0.91886608 0.86812501
0.91886608 0.91886608 0.86903018
0.91886608 0.91886608 0.87178896
0.91886608 0.91886608 0.87992394
0.91886608 0.91886608 0.90219684
0.91886608 0.91886608 0.91886608
0.91886608 0.91886608 0.91886608
0.91886608 0.91886608 0.91886608
0.91886608 0.91886608 0.91886608
0.91886608 0.91886608 0.91886608
0.91886608 0.91886608 0.91886608
0.91886608 0.91886608 0.91886608
0.91886608 0.91886608 0.91886608
0.91886608 0.91886608 0.91886608
0.56459109 0.44910082 0.84479666
0.56705659 0.45005692 0.84479990
0.58410212 0.45707873 0.84482475
0.63437815 0.48206069 0.84493048
0.71860086 0.53760329 0.84529810
0.81809927 0.62085476 0.84646536
0.91886608 0.71886412 0.85000311
0.91886608 0.82262978 0.86027177
0.91886608 0.91886608 0.88733218
0.56589313 0.46106236 0.84481404
0.56832517 0.46190034 0.84481728
0.58516192 0.46808921 0.84484213
0.63500221 0.49055130 0.84494783
0.71885686 0.54236260 0.84531538
0.81818662 0.62285071 0.84648242
0.91886608 0.71957527 0.85001951
0.91886608 0.82286165 0.86028639
0.91886608 0.91886608 0.88734295
0.57533248 0.52171041 0.84494739
0.57753520 0.52214447 0.84495062
0.59292587 0.52541170 0.84497544
0.63966173 0.53816547 0.84508099
0.72079962 0.57256418 0.84544799
0.81885458 0.63691692 0.84661332
0.91886608 0.72486323 0.85014534
0.91886608 0.82462265 0.86039857
0.91886608 0.91886608 0.88742559
0.60743064 0.62532913 0.84551286
0.60900370 0.62547359 0.84551607
0.62028260 0.62657559 0.84554073
0.65727086 0.63112821 0.84564562
0.72864665 0.64547848 0.84601032
0.82164434 0.68067255 0.84716842
0.91886608 0.74452882 0.85067906
0.91886608 0.83175808 0.86087457
0.91886608 0.91886608 0.88777653
0.67313372 0.73867111 0.84745683
0.67392220 0.73871451 0.84745997
0.67976669 0.73904705 0.84748410
0.70124704 0.74044957 0.84758674
0.75177242 0.74518048 0.84794365
0.83074912 0.75889144 0.84907720
0.91886608 0.79189804 0.85251523
0.91886608 0.85297072 0.86251439
0.91886608 0.91886608 0.88898914
0.76341186 0.84835327 0.85341294
0.76371344 0.84836638 0.85341588
0.76599706 0.84846703 0.85343846
0.77513320 0.84889421 0.85353450
0.80134749 0.85036776 0.85386852
0.85492989 0.85492989 0.85492989
0.91886608 0.86779467 0.85815396
0.91886608 0.89909824 0.86757129
0.91886608 0.91886608 0.89276340
0.86293690 0.91886608 0.86975017
0.86303800 0.91886608 0.86975262
0.86381051 0.91886608 0.86977141
0.86702594 0.91886608 0.86985136
0.87740351 0.91886608 0.87012954
0.90422033 0.91886608 0.87101458
0.91886608 0.91886608 0.87371318
0.91886608 0.91886608 0.88168057
0.91886608 0.91886608 0.90356217
0.91886608 0.91886608 0.90729347
0.91886608 0.91886608 0.90729506
0.91886608 0.91886608 0.90730732
0.91886608 0.91886608 0.90735946
0.91886608 0.91886608 0.90754098
0.91886608 0.91886608 0.90811977
0.91886608 0.91886608 0.90989638
0.91886608 0.91886608 0.91524419
0.91886608 0.91886608 0.91886608
0.91886608 0.91886608 0.91886608
0.91886608 0.91886608 0.91886608
0.91886608 0.91886608 0.91886608
0.91886608 0.91886608 0.91886608
0.91886608 0.91886608 0.91886608
0.91886608 0.91886608 0.91886608
0.91886608 0.91886608 0.91886608
0.91886608 0.91886608 0.91886608
0.91886608 0.91886608 0.91886608
0.67062525 0.54846911 0.91886608
0.67143486 0.54879521 0.91886608
0.67743056 0.55126214 0.91886608
0.69939187 0.56109334 0.91886608
0.75069567 0.58904180 0.91886608
0.83029520 0.64561585 0.91886608
0.91886608 0.72838042 0.91886608
0.91886608 0.82583031 0.91886608
0.91886608 0.91886608 0.91886608
0.67105103 0.55271861 0.91886608
0.67185701 0.55303028 0.91886608
0.67782679 0.55538965 0.91886608
0.69970586 0.56481862 0.91886608
0.75087729 0.59182479 0.91886608
0.83037156 0.64715588 0.91886608
0.91886608 0.72902309 0.91886608
0.91886608 0.82605415 0.91886608
0.91886608 0.91886608 0.91886608
0.67425800 0.58018556 0.91886608
0.67503718 0.58041840 0.91886608
0.68081508 0.58218740 0.91886608
0.70208261 0.58936743 0.91886608
0.75226026 0.61083472 0.91886608
0.83095575 0.65821317 0.91886608
0.91886608 0.73381605 0.91886608
0.91886608 0.82775475 0.91886608
0.91886608 0.91886608 0.91886608
0.68680785 0.64907843 0.91886608
0.68749032 0.64919084 0.91886608
0.69257229 0.65004958 0.91886608
0.71157747 0.65362036 0.91886608
0.75792758 0.66510956 0.91886608
0.83340122 0.69462066 0.91886608
0.91886608 0.75184529 0.91886608
0.91886608 0.83465627 0.91886608
0.91886608 0.91886608 0.91886608
0.72081557 0.74644311 0.91886608
0.72129139 0.74648303 0.91886608
0.72486667 0.74678903 0.91886608
0.73872097 0.74808054 0.91886608
0.77534944 0.75244786 0.91886608
0.84144281 0.76519470 0.91886608
0.91886608 0.79635019 0.91886608
0.91886608 0.85526711 0.91886608
0.91886608 0.91886608 0.91886608
0.78449547 0.85076962 0.91886608
0.78473559 0.85078239 0.91886608
0.78655879 0.85088036 0.91886608
0.79393928 0.85129621 0.91886608
0.81582330 0.85273107 0.91886608
0.86320867 0.85717709 0.91886608
0.91886608 0.86974276 0.91886608
0.91886608 0.90046759 0.91886608
0.91886608 0.91886608 0.91886608
0.87053287 0.91886608 0.91886608
0.87062568 0.91886608 0.91886608
0.87133517 0.91886608 0.91886608
0.87429343 0.91886608 0.91886608
0.88389482 0.91886608 0.91886608
0.90904460 0.91886608 0.91886608
0.91886608 0.91886608 0.91886608
0.91886608 0.91886608 0.91886608
0.91886608 0.91886608 0.91886608
0.91886608 0.91886608 0.91886608
0.91886608 0.91886608 0.91886608
0.91886608 0.91886608 0.91886608
0.91886608 0.91886608 0.91886608
0.91886608 0.91886608 0.91886608
0.91886608 0.91886608 0.91886608
0.91886608 0.91886608 0.91886608
0.91886608 0.91886608 0.91886608
0.91886608 0.91886608 0.91886608
0.91886608 0.91886608 0.91886608
0.91886608 0.91886608 0.91886608
0.91886608 0.91886608 0.91886608
0.91886608 0.91886608 0.91886608
0.91886608 0.91886608 0.91886608
0.91886608 0.91886608 0.91886608
0.91886608 0.91886608 0.91886608
0.91886608 0.91886608 0.91886608
0.91886608 0.91886608 0.91886608
0.77772675 0.65296301 0.91886608
0.77798514 0.65307090 0.91886608
0.77994550 0.65389526 0.91886608
0.78785323 0.65732628 0.91886608
0.81106681 0.66839856 0.91886608
0.86042837 0.69703722 0.91886608
0.91886608 0.75316439 0.91886608
0.91886608 0.83519318 0.91886608
0.91886608 0.91886608 0.91886608
0.77786245 0.65438879 0.91886608
0.77812046 0.65449507 0.91886608
0.78007798 0.65530716 0.91886608
0.78797482 0.65868822 0.91886608
0.81116118 0.66961087 0.91886608
0.86048296 0.69793350 0.91886608
0.91886608 0.75365748 0.91886608
0.91886608 0.83539502 0.91886608
0.91886608 0.91886608 0.91886608
0.77889787 0.66467437 0.91886608
0.77915301 0.66476969 0.91886608
0.78108895 0.66549845 0.91886608
0.78890310 0.66853937 0.91886608
0.81188254 0.67843483 0.91886608
0.86090103 0.70454520 0.91886608
0.91886608 0.75735902 0.91886608
0.91886608 0.83692998 0.91886608
0.91886608 0.91886608 0.91886608
0.78317998 0.69906089 0.91886608
0.78342355 0.69912710 0.91886608
0.78527267 0.69963395 0.91886608
0.79275307 0.70176152 0.91886608
0.81489101 0.70882353 0.91886608
0.86265912 0.72841474 0.91886608
0.91886608 0.77164686 0.91886608
0.91886608 0.84318645 0.91886608
0.91886608 0.91886608 0.91886608
0.79671927 0.76730743 0.91886608
0.79692950 0.76733932 0.91886608
0.79852792 0.76758385 0.91886608
0.80503629 0.76861762 0.91886608
0.82466307 0.77213387 0.91886608
0.86852998 0.78257046 0.91886608
0.91886608 0.80905804 0.91886608
0.91886608 0.86210978 0.91886608
0.91886608 0.91886608 0.91886608
0.83010551 0.85795196 0.91886608
0.83025125 0.85796374 0.91886608
0.83136259 0.85805415 0.91886608
0.83594618 0.85843799 0.91886608
0.85031548 0.85976341 0.91886608
0.88507528 0.86388004 0.91886608
0.91886608 0.87558992 0.91886608
0.91886608 0.90462860 0.91886608
0.91886608 0.91886608 0.91886608
0.89084427 0.91886608 0.91886608
0.89091799 0.91886608 0.91886608
0.89148204 0.91886608 0.91886608
0.89384334 0.91886608 0.91886608
0.90160978 0.91886608 0.91886608
0.91886608 0.91886608 0.91886608
0.91886608 0.91886608 0.91886608
0.91886608 0.91886608 0.91886608
0.91886608 0.91886608 0.91886608
0.91886608 0.91886608 0.91886608
0.91886608 0.91886608 0.91886608
0.91886608 0.91886608 0.91886608
0.91886608 0.91886608 0.91886608
0.91886608 0.91886608 0.91886608
0.91886608 0.91886608 0.91886608
0.91886608 0.91886608 0.91886608
0.91886608 0.91886608 0.91886608
0.91886608 0.91886608 0.91886608
0.91886608 0.91886608 0.91886608
0.91886608 0.91886608 0.91886608
0.91886608 0.91886608 0.91886608
0.91886608 0.91886608 0.91886608
0.91886608 0.91886608 0.91886608
0.91886608 0.91886608 0.91886608
0.91886608 0.91886608 0.91886608
0.91886608 0.91886608 0.91886608
0.91886608 0.91886608 0.91886608
0.88577124 0.76218484 0.91886608
0.88584935 0.76221854 0.91886608
0.88644682 0.76247694 0.91886608
0.88894570 0.76356897 0.91886608
0.89713927 0.76727844 0.91886608
0.91886608 0.77824625 0.91886608
0.91886608 0.80583760 0.91886608
0.91886608 0.86033544 0.91886608
0.91886608 0.91886608 0.91886608
0.88581225 0.76263238 0.91886608
0.88589032 0.76266592 0.91886608
0.88648751 0.76292308 0.91886608
0.88898524 0.76400989 0.91886608
0.89717528 0.76770209 0.91886608
0.91886608 0.77862259 0.91886608
0.91886608 0.80611639 0.91886608
0.91886608 0.86048796 0.91886608
0.91886608 0.91886608 0.91886608
0.88612645 0.76599876 0.91886608
0.88620425 0.76603110 0.91886608
0.88679931 0.76627910 0.91886608
0.88928832 0.76732746 0.91886608
0.89745133 0.77089216 0.91886608
0.91886608 0.78146232 0.91886608
0.91886608 0.80822919 0.91886608
0.91886608 0.86165051 0.91886608
0.91886608 0.91886608 0.91886608
0.88745160 0.77909889 0.91886608
0.88752823 0.77912696 0.91886608
0.88811442 0.77934223 0.91886608
0.89056693 0.78025306 0.91886608
0.89861681 0.78335983 0.91886608
0.91886608 0.79265724 0.91886608
0.91886608 0.81671263 0.91886608
0.91886608 0.86643625 0.91886608
0.91886608 0.91886608 0.91886608
0.89192096 0.81408141 0.91886608
0.89199378 0.81410058 0.91886608
0.89255097 0.81424761 0.91886608
0.89488399 0.81487086 0.91886608
0.90256231 0.81701087 0.91886608
0.91886608 0.82354357 0.91886608
0.91886608 0.84129387 0.91886608
0.91886608 0.88135063 0.91886608
0.91886608 0.91886608 0.91886608
0.90486717 0.87801929 0.91886608
0.90492995 0.87802869 0.91886608
0.90541058 0.87810081 0.91886608
0.90742735 0.87840718 0.91886608
0.91411275 0.87946703 0.91886608
0.91886608 0.88277791 0.91886608
0.91886608 0.89234827 0.91886608
0.91886608 0.91696286 0.91886608
0.91886608 0.91886608 0.91886608
0.91886608 0.91886608 0.91886608
0.91886608 0.91886608 0.91886608
0.91886608 0.91886608 0.91886608
0.91886608 0.91886608 0.91886608
0.91886608 0.91886608 0.91886608
0.91886608 0.91886608 0.91886608
0.91886608 0.91886608 0.91886608
0.91886608 0.91886608 0.91886608
0.91886608 0.91886608 0.91886608
0.91886608 0.91886608 0.91886608
0.91886608 0.91886608 0.91886608
0.91886608 0.91886608 0.91886608
0.91886608 0.91886608 0.91886608
0.91886608 0.91886608 0.91886608
0.91886608 0.91886608 0.91886608
0.91886608 0.91886608 0.91886608
0.91886608 0.91886608 0.91886608
0.91886608 0.91886608 0.91886608
0.91886608 0.91886608 0.91886608
0.91886608 0.91886608 0.91886608
0.91886608 0.91886608 0.91886608
0.91886608 0.91886608 0.91886608
0.91886608 0.91886608 0.91886608
0.91886608 0.91886608 0.91886608
0.91886608 0.91886608 0.91886608
0.91886608 0.91886608 0.91886608
0.91886608 0.91886608 0.91886608
