src/ffmpeg_scripts/luts/sRGB-rec2020_-2p33.cube
TITLE "sRGB-rec2020_-2p33"
LUT_3D_SIZE 33
# PQ (EOTF Only)/sRGB -> PQ (EOTF Only)/Rec2020, CineEI Shift -2.33, Black Level 0.00% IRE, Input 100% -> Output 109% - Created with LUTCalc v4.01 by Ben Turley October 2020
0.06256172 0.06256172 0.06256172
0.07183954 0.06525011 0.06371839
0.08314020 0.06901733 0.06541568
0.09576995 0.07367667 0.06762249
0.10946813 0.07915038 0.07033000
0.12408630 0.08539663 0.07354111
0.13952562 0.09238987 0.07726399
0.15571434 0.10011349 0.08150975
0.17259739 0.10855637 0.08629127
0.19013083 0.11771104 0.09162261
0.20827857 0.12757260 0.09751873
0.22701033 0.13813802 0.10399522
0.24630018 0.14940565 0.11106819
0.26612567 0.16137496 0.11875418
0.28646709 0.17404624 0.12707008
0.30730694 0.18742049 0.13603312
0.32862959 0.20149926 0.14566079
0.35042095 0.21628456 0.15597087
0.37266824 0.23177879 0.16698136
0.39535978 0.24798467 0.17871051
0.41848490 0.26490519 0.19117677
0.44203372 0.28254360 0.20439883
0.46599714 0.30090332 0.21839557
0.49036668 0.31998797 0.23318607
0.51513447 0.33980131 0.24878964
0.54029313 0.36034726 0.26522575
0.56583575 0.38162982 0.28251410
0.59175583 0.40365312 0.30067455
0.61804725 0.42642140 0.31972718
0.64470425 0.44993895 0.33969226
0.67172136 0.47421015 0.36059025
0.69909339 0.49923945 0.38244180
0.72681544 0.52503137 0.40526776
0.06908736 0.07393654 0.06565405
0.07417662 0.07437924 0.06597355
0.08424634 0.07587891 0.06698644
0.09639210 0.07867406 0.06872241
0.10985257 0.08276687 0.07111907
0.12433800 0.08803186 0.07412123
0.13969698 0.09433236 0.07769924
0.15583430 0.10156260 0.08184154
0.17268313 0.10964920 0.08654734
0.19019310 0.11854286 0.09182216
0.20832437 0.12821065 0.09767541
0.22704435 0.13863053 0.10411895
0.24632565 0.14978778 0.11116634
0.26614487 0.16167264 0.11883230
0.28648163 0.17427887 0.12713242
0.30731800 0.18760272 0.13608295
0.32863803 0.20164225 0.14570067
0.35042740 0.21639688 0.15600279
0.37267318 0.23186707 0.16700692
0.39536357 0.24805406 0.17873096
0.41848780 0.26495971 0.19119312
0.44203595 0.28258639 0.20441188
0.46599885 0.30093687 0.21840597
0.49036799 0.32001422 0.23319435
0.51513547 0.33982182 0.24879621
0.54029389 0.36036323 0.26523095
0.56583633 0.38164223 0.28251819
0.59175627 0.40366273 0.30067777
0.61804759 0.42642881 0.31972970
0.64470451 0.44994464 0.33969422
0.67172155 0.47421451 0.36059177
0.69909354 0.49924277 0.38244297
0.72681554 0.52503388 0.40526866
0.07743505 0.08735592 0.06993809
0.08025833 0.08754689 0.07009770
0.08783238 0.08823356 0.07065940
0.09855539 0.08966662 0.07178153
0.11122604 0.09208113 0.07356438
0.12524840 0.09563699 0.07603885
0.14032064 0.10039342 0.07919430
0.15627240 0.10632683 0.08300810
0.17299691 0.11336923 0.08746085
0.19042128 0.12144096 0.09254066
0.20849233 0.13046880 0.09824296
0.22716917 0.14039242 0.10456898
0.24641915 0.15116495 0.11152433
0.26621534 0.16275110 0.11911780
0.28653501 0.17512480 0.12736055
0.30735860 0.18826714 0.13626548
0.32866900 0.20216461 0.14584683
0.35045109 0.21680779 0.15611987
0.37269132 0.23219036 0.16710069
0.39537748 0.24830835 0.17880601
0.41849847 0.26515960 0.19125314
0.44204413 0.28274337 0.20445981
0.46600512 0.30105997 0.21844418
0.49037280 0.32011059 0.23322475
0.51513915 0.33989710 0.24882033
0.54029670 0.36042189 0.26525003
0.56583846 0.38168780 0.28253325
0.59175789 0.40369803 0.30068960
0.61804882 0.42645604 0.31973896
0.64470543 0.44996557 0.33970144
0.67172225 0.47423052 0.36059737
0.69909406 0.49925496 0.38244730
0.72681593 0.52504311 0.40527198
0.08706819 0.10206120 0.07518483
0.08876321 0.10216520 0.07528088
0.09405589 0.10254398 0.07562755
0.10276584 0.10335818 0.07635730
0.11405107 0.10479908 0.07760472
0.12717349 0.10706627 0.07947862
0.14165902 0.11033684 0.08204538
0.15722045 0.11473602 0.08533087
0.17367932 0.12032318 0.08933457
0.19091907 0.12709793 0.09404459
0.20885945 0.13501914 0.09944756
0.22744238 0.14402586 0.10553337
0.24662397 0.15405296 0.11229663
0.26636981 0.16504023 0.11973664
0.28665208 0.17693622 0.12785670
0.30744766 0.18969905 0.13666343
0.32873696 0.20329567 0.14616607
0.35050307 0.21770061 0.15637592
0.37273113 0.23289461 0.16730595
0.39540801 0.24886336 0.17897044
0.41852189 0.26559652 0.19138469
0.44206210 0.28308685 0.20456491
0.46601889 0.30132954 0.21852798
0.49038335 0.32032175 0.23329143
0.51514722 0.34006212 0.24887325
0.54030286 0.36055052 0.26529192
0.56584316 0.38178777 0.28256629
0.59176145 0.40377546 0.30071557
0.61805152 0.42651580 0.31975929
0.64470747 0.45001150 0.33971729
0.67172378 0.47426565 0.36060967
0.69909520 0.49928171 0.38245678
0.72681678 0.52506336 0.40527926
0.09777504 0.11777671 0.08129877
0.09886131 0.11783979 0.08136185
0.10251236 0.11807054 0.08159155
0.10919530 0.11857186 0.08208513
0.11870066 0.11947641 0.08295829
0.13048404 0.12094281 0.08433208
0.14402006 0.12314544 0.08631583
0.15891843 0.12625615 0.08899198
0.17491290 0.13042198 0.09240988
0.19182420 0.13574611 0.09658986
0.20952953 0.14227950 0.10153293
0.22794230 0.15002492 0.10723064
0.24699939 0.15894980 0.11367218
0.26665329 0.16900128 0.12084843
0.28686709 0.18011912 0.12875371
0.30761134 0.19224425 0.13738621
0.32886192 0.20532356 0.14674784
0.35059866 0.21931175 0.15684370
0.37280438 0.23417164 0.16768166
0.39546418 0.24987345 0.17927180
0.41856499 0.26639387 0.19162606
0.44209516 0.28371498 0.20475788
0.46604424 0.30182330 0.21868195
0.49040276 0.32070898 0.23341399
0.51516207 0.34036502 0.24897056
0.54031420 0.36078678 0.26536895
0.56585179 0.38197148 0.28262706
0.59176801 0.40391782 0.30076335
0.61805648 0.42662569 0.31979670
0.64471122 0.45009597 0.33974646
0.67172659 0.47433030 0.36063229
0.69909731 0.49933092 0.38247425
0.72681835 0.52510063 0.40529266
0.10943340 0.13434739 0.08822695
0.11016269 0.13438814 0.08827054
0.11270716 0.13453750 0.08842987
0.11768914 0.13486352 0.08877548
0.12534174 0.13545697 0.08939730
0.13548168 0.13643303 0.09040097
0.14771583 0.13793050 0.09189981
0.16163856 0.14010627 0.09400250
0.17691859 0.14312381 0.09680020
0.19331006 0.14713663 0.10035784
0.21063654 0.15227074 0.10471274
0.22877173 0.15861129 0.10987943
0.24762409 0.16619780 0.11585739
0.26712596 0.17502848 0.12263850
0.28722612 0.18507070 0.13021255
0.30788492 0.19627327 0.13857056
0.32907092 0.20857727 0.14770648
0.35075864 0.22192375 0.15761775
0.37292701 0.23625848 0.16830530
0.39555826 0.25153409 0.17977322
0.41863718 0.26771081 0.19202837
0.44215055 0.28475607 0.20507996
0.46608672 0.30264387 0.21893920
0.49043530 0.32135381 0.23361893
0.51518695 0.34087021 0.24913336
0.54033320 0.36118131 0.26549788
0.56586626 0.38227853 0.28272882
0.59177901 0.40415591 0.30084336
0.61806481 0.42680959 0.31985937
0.64471750 0.45023739 0.33979532
0.67173131 0.47443855 0.36067021
0.69910084 0.49941336 0.38250351
0.72682098 0.52516307 0.40531512
0.12196119 0.15167089 0.09593564
0.12246743 0.15169834 0.09596677
0.12426959 0.15179903 0.09608080
0.12794683 0.15201934 0.09632935
0.13392386 0.15242217 0.09678056
0.14232804 0.15308973 0.09751937
0.15300655 0.15412579 0.09864554
0.16565498 0.15565604 0.10026780
0.17994325 0.15782499 0.10249444
0.19558302 0.16078834 0.10542223
0.21234644 0.16470063 0.10912725
0.23006140 0.16970016 0.11366045
0.24859990 0.17589471 0.11904894
0.26786665 0.18335219 0.12530120
0.28779001 0.19209877 0.13241381
0.30831532 0.20212407 0.14037745
0.32940012 0.21339085 0.14918142
0.35101084 0.22584576 0.15881635
0.37312044 0.23942877 0.16927571
0.39570672 0.25408002 0.18055634
0.41875115 0.26974411 0.19265847
0.44223802 0.28637227 0.20558549
0.46615380 0.30392308 0.21934362
0.49048670 0.32236230 0.23394150
0.51522627 0.34166226 0.24938986
0.54036321 0.36180102 0.26570116
0.56588913 0.38276154 0.28288936
0.59179638 0.40453086 0.30096965
0.61807796 0.42709943 0.31995831
0.64472742 0.45046044 0.33987247
0.67173877 0.47460936 0.36073009
0.69910641 0.49954350 0.38254974
0.72682513 0.52526166 0.40535060
0.13529846 0.16967343 0.10440172
0.13565865 0.16969247 0.10442449
0.13695563 0.16976236 0.10450795
0.13967011 0.16991546 0.10469035
0.14425868 0.17019612 0.10502317
0.15102583 0.17066317 0.10557271
0.16004939 0.17139285 0.10642094
0.17120156 0.17248107 0.10766410
0.18423518 0.17404437 0.10940832
0.19887151 0.17621826 0.11176200
0.21485439 0.17915206 0.11482622
0.23197127 0.18299945 0.11868561
0.25005479 0.18790577 0.12340237
0.26897632 0.19399422 0.12901490
0.28863771 0.20135440 0.13554086
0.30896393 0.21003635 0.14298254
0.32989712 0.22005124 0.15133295
0.35139210 0.23137771 0.16058084
0.37341314 0.24397132 0.17071443
0.39593152 0.25777441 0.18172374
0.41892381 0.27272443 0.19360169
0.44237059 0.28876001 0.20634467
0.46625551 0.30582464 0.21995246
0.49056464 0.32386864 0.23442805
0.51528590 0.34284969 0.24977730
0.54040875 0.36273275 0.26600855
0.56592382 0.38348933 0.28313231
0.59182273 0.40509680 0.30116090
0.61809791 0.42753747 0.32010821
0.64474248 0.45079786 0.33998942
0.67175008 0.47486796 0.36082088
0.69911488 0.49974063 0.38261984
0.72683143 0.52541107 0.40540442
0.14939903 0.18829871 0.11360865
0.14966013 0.18831221 0.11362558
0.15060680 0.18836178 0.11368769
0.15261981 0.18847046 0.11382366
0.15611415 0.18866998 0.11407249
0.16145611 0.18900283 0.11448544
0.16887783 0.18952491 0.11512786
0.17843204 0.19030813 0.11608000
0.19001051 0.19144279 0.11743614
0.20340552 0.19303879 0.11930112
0.21837511 0.19522506 0.12178401
0.23468781 0.19814586 0.12498964
0.25214391 0.20195360 0.12900974
0.27058068 0.20679799 0.13391605
0.28986941 0.21281324 0.13975720
0.30990976 0.22010582 0.14655969
0.33062376 0.22874585 0.15433209
0.35195060 0.23876424 0.16307055
0.37384253 0.25015580 0.17276423
0.39626166 0.26288675 0.18339967
0.41917758 0.27690412 0.19496387
0.44256555 0.29214494 0.20744611
0.46640515 0.30854362 0.22083893
0.49067934 0.32603714 0.23513841
0.51537369 0.34456821 0.25034416
0.54047579 0.36408678 0.26645904
0.56597490 0.38455040 0.28348881
0.59186154 0.40592393 0.30144180
0.61812731 0.42817890 0.32032853
0.64476465 0.45129268 0.34016142
0.67176675 0.47524763 0.36095445
0.69912735 0.50003030 0.38272302
0.72684071 0.52563076 0.40548365
0.16422591 0.20750202 0.12354425
0.16441795 0.20751176 0.12355700
0.16511718 0.20754751 0.12360382
0.16661926 0.20762594 0.12370640
0.16927372 0.20777004 0.12389448
0.17343904 0.20801081 0.12420763
0.17941878 0.20838938 0.12469721
0.18739948 0.20895945 0.12542819
0.19742045 0.20978975 0.12648002
0.20938879 0.21096644 0.12794607
0.22312532 0.21259457 0.12993087
0.23841544 0.21479817 0.13254467
0.25504702 0.21771770 0.13589589
0.27283104 0.22150438 0.14008253
0.29160897 0.22631102 0.14518476
0.31125237 0.23228019 0.15126049
0.33165908 0.23953186 0.15834473
0.35274854 0.24815311 0.16645245
0.37445726 0.25819260 0.17558352
0.39673503 0.26966077 0.18572812
0.41954187 0.28253517 0.19687168
0.44284564 0.29676895 0.20899858
0.46662027 0.31230030 0.22209462
0.49084433 0.32906081 0.23614855
0.51550000 0.34698198 0.25115266
0.54057229 0.36599959 0.26710304
0.56604844 0.38605611 0.28399936
0.59191742 0.40710181 0.30184464
0.61816963 0.42909483 0.32064485
0.64479660 0.45200075 0.34040854
0.67179075 0.47579179 0.36114650
0.69914530 0.50044598 0.38287143
0.72685407 0.52594632 0.40559765
0.17974867 0.22724682 0.13419941
0.17989152 0.22725394 0.13420912
0.18041312 0.22728007 0.13424476
0.18154109 0.22733739 0.13432288
0.18355874 0.22744279 0.13446631
0.18678430 0.22761906 0.13470560
0.19153253 0.22789667 0.13508095
0.19806276 0.22831570 0.13564411
0.20653153 0.22892817 0.13646011
0.21697084 0.22980047 0.13760825
0.22929995 0.23101567 0.13918179
0.24336112 0.23267528 0.14128568
0.25896071 0.23489969 0.14403189
0.27590196 0.23782659 0.14753241
0.29400473 0.24160642 0.15189107
0.31311417 0.24639451 0.15719579
0.33310216 0.25234021 0.16351303
0.35386503 0.25957467 0.17088595
0.37531987 0.26819958 0.17933592
0.39740070 0.27827950 0.18886680
0.42005496 0.28983956 0.19947025
0.44324063 0.30286870 0.21113095
0.46692392 0.31732695 0.22383094
0.49107736 0.33315468 0.23755271
0.51567850 0.35028166 0.25228121
0.54070871 0.36863471 0.26800488
0.56615243 0.38814318 0.28471612
0.59199646 0.40874238 0.30241128
0.61822951 0.43037539 0.32109044
0.64484179 0.45299360 0.34075706
0.67182472 0.47655654 0.36141759
0.69917072 0.50103120 0.38308107
0.72687299 0.52639118 0.40575878
0.19594168 0.24750253 0.14556730
0.19604891 0.24750778 0.14557475
0.19644117 0.24752708 0.14560208
0.19729324 0.24756942 0.14566204
0.19883006 0.24764729 0.14577218
0.20131959 0.24777761 0.14595621
0.20505358 0.24798307 0.14624550
0.21031322 0.24829369 0.14668099
0.21732598 0.24874878 0.14731501
0.22622810 0.24939910 0.14821303
0.23704756 0.25030928 0.14945468
0.24971351 0.25156013 0.15113374
0.26408478 0.25325052 0.15335622
0.27998417 0.25549827 0.15623621
0.29722724 0.25843918 0.15988948
0.31564120 0.26222339 0.16442550
0.33507434 0.26700857 0.16993944
0.35539879 0.27294997 0.17650588
0.37650951 0.28018840 0.18417574
0.39832144 0.28883835 0.19297676
0.42076624 0.29897869 0.20291691
0.44378912 0.31064830 0.21398955
0.46734609 0.32384720 0.22617890
0.49140168 0.33854251 0.23946481
0.51592710 0.35467737 0.25382654
0.54089882 0.37218039 0.26924519
0.56629741 0.39097423 0.28570527
0.59210669 0.41098220 0.30319536
0.61831304 0.43213264 0.32170831
0.64490484 0.45436153 0.34124110
0.67187212 0.47761350 0.36179455
0.69920618 0.50184199 0.38337285
0.72689939 0.52700865 0.40598320
0.21278302 0.26824310 0.15764278
0.21286410 0.26824701 0.15764852
0.21316106 0.26826138 0.15766962
0.21380807 0.26829291 0.15771590
0.21498178 0.26835091 0.15780097
0.21690100 0.26844804 0.15794323
0.21981954 0.26860126 0.15816720
0.22400728 0.26883316 0.15850513
0.22971954 0.26917347 0.15899875
0.23716051 0.26966088 0.15970118
0.24645227 0.27034524 0.16067857
0.25762085 0.27128987 0.16201136
0.27060351 0.27257393 0.16379432
0.28527225 0.27429445 0.16613504
0.30146291 0.27656748 0.16915020
0.31900106 0.27952768 0.17295955
0.33771993 0.28332540 0.17767818
0.35747039 0.28812077 0.18340828
0.37812473 0.29407445 0.19023224
0.39957655 0.30133594 0.19820848
0.42173876 0.31003124 0.20737095
0.44454078 0.32025228 0.21773179
0.46792566 0.33205068 0.22928619
0.49184750 0.34543706 0.24201798
0.51626918 0.36038559 0.25590493
0.54116061 0.37684236 0.27092303
0.56649717 0.39473515 0.28704949
0.59225864 0.41398277 0.30426473
0.61842821 0.43450267 0.32255336
0.64499181 0.45621636 0.34190457
0.67193751 0.47905271 0.36231212
0.69925512 0.50294961 0.38377399
0.72693583 0.52785433 0.40629204
0.23025366 0.28944601 0.17042203
0.23031532 0.28944894 0.17042648
0.23054134 0.28945971 0.17044283
0.23103485 0.28948335 0.17047872
0.23193369 0.28952684 0.17054472
0.23341331 0.28959969 0.17065515
0.23568616 0.28971468 0.17082920
0.23899355 0.28988884 0.17109222
0.24358753 0.29014469 0.17147732
0.24970338 0.29051173 0.17202713
0.25752801 0.29102824 0.17279568
0.26717358 0.29174338 0.17385009
0.27866539 0.29271955 0.17527193
0.29194754 0.29403475 0.17715742
0.30690262 0.29578478 0.17961619
0.32337702 0.29808462 0.18276793
0.34120442 0.30106844 0.18673667
0.36022298 0.30488736 0.19164321
0.38028560 0.30970417 0.19759668
0.40126450 0.31568479 0.20468708
0.42305194 0.32298682 0.21298017
0.44555887 0.33174686 0.22251596
0.46871251 0.34206892 0.23331073
0.49245385 0.35401652 0.24536147
0.51673508 0.36761026 0.25865167
0.54151752 0.38283107 0.27315696
0.56676974 0.39962793 0.28884997
0.59246610 0.41792782 0.30570390
0.61858554 0.43764577 0.32369491
0.64511064 0.45869341 0.34280347
0.67202688 0.48098542 0.36301495
0.69932201 0.50444354 0.38431968
0.72698564 0.52899884 0.40671273
0.24833689 0.31109155 0.18390227
0.24838400 0.31109376 0.18390574
0.24855677 0.31110188 0.18391846
0.24893458 0.31111970 0.18394639
0.24962466 0.31115249 0.18399777
0.25076609 0.31120742 0.18408378
0.25253244 0.31129415 0.18421943
0.25513003 0.31142558 0.18442467
0.25878940 0.31161881 0.18472565
0.26374814 0.31189633 0.18515639
0.27022601 0.31228748 0.18576048
0.27839701 0.31283024 0.18659300
0.28836632 0.31357333 0.18772228
0.30015932 0.31457852 0.18923130
0.31372597 0.31592306 0.19121814
0.32895754 0.31770202 0.19379491
0.34570901 0.32002991 0.19708472
0.36382063 0.32304104 0.20121620
0.38313453 0.32688778 0.20631605
0.40350512 0.33173596 0.21250042
0.42480433 0.33775676 0.21986682
0.44692301 0.34511560 0.22848820
0.46977013 0.35395911 0.23841056
0.49327081 0.36440261 0.24965419
0.51736397 0.37652076 0.26221783
0.54199998 0.39034354 0.27608449
0.56713858 0.40585817 0.29122755
0.59274706 0.42301625 0.30761611
0.61879874 0.44174376 0.32521915
0.64527176 0.46195176 0.34400837
0.67214809 0.48354599 0.36395990
0.69941277 0.50643413 0.38505509
0.72705323 0.53053073 0.40728074
0.26701788 0.33316231 0.19808159
0.26705399 0.33316398 0.19808430
0.26718652 0.33317012 0.19809423
0.26747661 0.33318361 0.19811602
0.26800757 0.33320844 0.19815612
0.26888885 0.33325003 0.19822328
0.27026000 0.33331571 0.19832925
0.27229237 0.33341529 0.19848970
0.27518670 0.33356176 0.19872530
0.27916443 0.33377230 0.19906304
0.28445149 0.33406939 0.19953784
0.29125559 0.33448228 0.20019433
0.29974112 0.33504878 0.20108875
0.31000841 0.33581732 0.20229087
0.32208350 0.33684929 0.20388538
0.33592146 0.33822158 0.20597254
0.35142073 0.34002896 0.20866738
0.36844334 0.34238598 0.21209683
0.38683488 0.34542762 0.21639451
0.40644053 0.34930809 0.22169328
0.42711575 0.35419659 0.22811644
0.44873191 0.36026981 0.23576904
0.47117836 0.36770088 0.24473118
0.49436208 0.37664613 0.25505473
0.51820607 0.38723165 0.26676384
0.54264722 0.39954262 0.27985883
0.56763411 0.41361774 0.29432206
0.59312494 0.42944999 0.31012440
0.61908573 0.44699308 0.32723119
0.64548878 0.46617157 0.34560692
0.67231145 0.48689225 0.36521858
0.69953512 0.50905463 0.38603774
0.72714439 0.53255918 0.40804154
0.28628336 0.35564272 0.21295876
0.28631113 0.35564399 0.21296087
0.28641304 0.35564866 0.21296864
0.28663630 0.35565890 0.21298568
0.28704554 0.35567776 0.21301704
0.28772651 0.35570935 0.21306956
0.28879022 0.35575926 0.21315249
0.29037617 0.35583493 0.21327811
0.29265346 0.35594630 0.21346273
0.29581788 0.35610646 0.21372772
0.30008330 0.35633265 0.21410090
0.30566634 0.35664736 0.21461813
0.31276543 0.35707984 0.21532513
0.32153784 0.35766780 0.21627948
0.33208065 0.35845953 0.21755251
0.34442104 0.35951631 0.21923091
0.35851853 0.36091492 0.22141750
0.37427764 0.36275025 0.22423058
0.39156613 0.36513734 0.22780135
0.41023388 0.36821241 0.23226882
0.43012839 0.37213196 0.23777237
0.45110563 0.37706909 0.24444266
0.47303618 0.38320626 0.25239238
0.49580775 0.39072444 0.26170879
0.51932525 0.39978951 0.27244951
0.54350958 0.41053796 0.28464241
0.56829561 0.42306495 0.29828912
0.59363013 0.43741731 0.31337106
0.61946983 0.45359309 0.32985630
0.64577948 0.47154745 0.34770604
0.67253041 0.49120294 0.36687997
0.69969921 0.51246155 0.38734007
0.72726668 0.53521610 0.40905308
0.30612139 0.37851882 0.22853311
0.30614278 0.37851978 0.22853476
0.30622130 0.37852334 0.22854084
0.30639342 0.37853114 0.22855418
0.30670925 0.37854550 0.22857874
0.30723577 0.37856956 0.22861987
0.30806062 0.37860757 0.22868483
0.30929585 0.37866521 0.22878328
0.31108065 0.37875008 0.22892805
0.31358196 0.37887217 0.22913604
0.31699131 0.37904470 0.22942932
0.32151637 0.37928496 0.22983653
0.32736642 0.37961550 0.23039451
0.33473282 0.38006558 0.23115016
0.34376769 0.38067291 0.23216247
0.35456616 0.38148581 0.23350455
0.36715683 0.38256559 0.23526534
0.38150328 0.38398925 0.23755052
0.39751513 0.38585211 0.24048211
0.41506486 0.38827016 0.24419602
0.43400569 0.39138134 0.24883708
0.45418675 0.39534499 0.25455157
0.47546409 0.40033859 0.26147783
0.49770717 0.40655082 0.26973638
0.52080190 0.41417072 0.27942167
0.54465109 0.42337371 0.29059700
0.56917344 0.43430652 0.30329370
0.59430185 0.44707382 0.31751446
0.61998132 0.46172991 0.33323934
0.64616704 0.47827718 0.35043316
0.67282259 0.49667145 0.36905261
0.69991831 0.51683248 0.38905216
0.72743005 0.53865670 0.41038843
0.32652113 0.40177794 0.24480446
0.32653763 0.40177868 0.24480576
0.32659821 0.40178139 0.24481052
0.32673105 0.40178734 0.24482098
0.32697500 0.40179829 0.24484021
0.32738223 0.40181665 0.24487245
0.32802161 0.40184565 0.24492336
0.32898223 0.40188964 0.24500055
0.33037680 0.40195441 0.24511410
0.33234406 0.40204763 0.24527736
0.33504900 0.40217942 0.24550778
0.33867958 0.40236305 0.24582814
0.34343848 0.40261589 0.24626790
0.34952931 0.40296057 0.24686491
0.35713816 0.40342640 0.24766731
0.36641364 0.40405120 0.24873563
0.37744991 0.40488339 0.25014493
0.39027733 0.40598453 0.25198666
0.40486314 0.40743205 0.25436969
0.42112131 0.40932207 0.25742017
0.43892817 0.41177193 0.26127916
0.45813947 0.41492175 0.26609782
0.47860535 0.41893430 0.27202979
0.50018144 0.42399199 0.27922143
0.52273583 0.43029017 0.28780139
0.54615243 0.43802634 0.29787137
0.57033181 0.44738567 0.30950023
0.59519050 0.45852495 0.32272258
0.62065933 0.47155805 0.33754170
0.64668157 0.48654608 0.35393586
0.67321092 0.50349492 0.37186611
0.70020977 0.52236009 0.39128407
0.72764754 0.54305756 0.41213854
0.34747270 0.42540857 0.26177305
0.34748543 0.42540914 0.26177407
0.34753220 0.42541121 0.26177780
0.34763479 0.42541575 0.26178599
0.34782329 0.42542412 0.26180107
0.34813828 0.42543814 0.26182633
0.34863363 0.42546029 0.26186624
0.34937969 0.42549390 0.26192675
0.35046665 0.42554339 0.26201581
0.35200766 0.42561463 0.26214392
0.35414092 0.42571538 0.26232485
0.35702975 0.42585582 0.26257666
0.36085920 0.42604933 0.26292279
0.36582806 0.42631334 0.26339355
0.37213566 0.42667057 0.26402783
0.37996439 0.42715043 0.26487505
0.38946063 0.42779090 0.26599742
0.40071846 0.42864065 0.26747214
0.41377025 0.42976163 0.26939337
0.42858664 0.43123193 0.27187357
0.44508532 0.43314879 0.27504338
0.46314572 0.43563128 0.27904956
0.48262538 0.43882224 0.28405009
0.50337485 0.44288837 0.29020649
0.52524893 0.44801762 0.29767362
0.54811398 0.45441264 0.30658852
0.57185173 0.46227984 0.31706027
0.59636040 0.47181441 0.32916324
0.62155423 0.48318325 0.34293496
0.64736204 0.49650903 0.35837887
0.67372531 0.51185905 0.37547084
0.70059630 0.52924171 0.39416751
0.72793621 0.54861109 0.41441485
0.36896703 0.44940017 0.27943945
0.36897686 0.44940060 0.27944025
0.36901297 0.44940218 0.27944317
0.36909221 0.44940566 0.27944959
0.36923786 0.44941205 0.27946140
0.36948143 0.44942276 0.27948119
0.36986493 0.44943970 0.27951246
0.37044358 0.44946539 0.27955988
0.37128893 0.44950322 0.27962970
0.37249197 0.44955769 0.27973015
0.37416611 0.44963474 0.27987211
0.37644907 0.44974219 0.28006982
0.37950275 0.44989030 0.28034186
0.38350993 0.45009250 0.28071238
0.38866647 0.45036633 0.28121252
0.39516867 0.45073460 0.28188223
0.40319649 0.45122687 0.28277233
0.41289525 0.45188133 0.28394677
0.42435969 0.45274700 0.28548506
0.43762444 0.45388639 0.28748439
0.45266331 0.45537848 0.29006110
0.46939722 0.45732190 0.29335080
0.48770801 0.45983787 0.29750642
0.50745440 0.46307241 0.30269339
0.52848674 0.46719679 0.30908167
0.55065855 0.47240513 0.31683513
0.57383416 0.47890803 0.32609957
0.59789288 0.48692141 0.33699160
0.62273044 0.49665087 0.34959099
0.64825875 0.50827350 0.36393784
0.67440451 0.52192049 0.38003518
0.70110747 0.53766458 0.39785575
0.72831843 0.55551559 0.41735106
0.39099579 0.47374303 0.29780454
0.39100338 0.47374336 0.29780516
0.39103125 0.47374457 0.29780745
0.39109243 0.47374723 0.29781247
0.39120491 0.47375211 0.29782171
0.39139313 0.47376030 0.29783721
0.39168975 0.47377325 0.29786169
0.39213794 0.47379288 0.29789882
0.39279401 0.47382181 0.29795350
0.39373042 0.47386345 0.29803219
0.39503876 0.47392238 0.29814344
0.39683259 0.47400456 0.29829846
0.39924919 0.47411789 0.29851195
0.40244937 0.47427269 0.29880300
0.40661420 0.47448245 0.29919644
0.41193749 0.47476481 0.29972427
0.41861358 0.47514268 0.30042753
0.42682117 0.47564581 0.30135848
0.43670548 0.47631268 0.30258297
0.44836260 0.47719273 0.30418300
0.46182966 0.47834918 0.30625901
0.47708351 0.47986211 0.30893160
0.49404784 0.48183186 0.31234181
0.51260633 0.48438218 0.31664934
0.53261825 0.48766280 0.32202763
0.55393322 0.49185014 0.32865580
0.57640302 0.49714524 0.33670727
