src/ffmpeg_scripts/luts/sRGB-rec2020_2p00.cube
TITLE "sRGB-rec2020_2p00"
LUT_3D_SIZE 33
# PQ (EOTF Only)/sRGB -> PQ (EOTF Only)/Rec2020, CineEI Shift 2.00, Black Level 0.00% IRE, Input 100% -> Output 109% - Created with LUTCalc v4.01 by Ben Turley October 2020
0.06256172 0.06256172 0.06256172
0.10343562 0.07669107 0.06909993
0.14030937 0.09275490 0.07746164
0.17536803 0.10997754 0.08710932
0.20920839 0.12808799 0.09783095
0.24212785 0.14693623 0.10950413
0.27430632 0.16642438 0.12204668
0.30586481 0.18648253 0.13539858
0.33689043 0.20705773 0.14951355
0.36744891 0.22810824 0.16435458
0.39759167 0.24960010 0.17989117
0.42736002 0.27150510 0.19609768
0.45678787 0.29379928 0.21295214
0.48590360 0.31646204 0.23043550
0.51473125 0.33947544 0.24853102
0.54329151 0.36282366 0.26722385
0.57160231 0.38649263 0.28650071
0.59967938 0.41046977 0.30634962
0.62753663 0.43474369 0.32675973
0.65518642 0.45930410 0.34772115
0.68263982 0.48414156 0.36922479
0.70990683 0.50924746 0.39126232
0.73699646 0.53461383 0.41382599
0.76391695 0.56023333 0.43690866
0.79067579 0.58609913 0.46050365
0.81727987 0.61220487 0.48460473
0.84373553 0.63854462 0.50920609
0.87004861 0.66511283 0.53430225
0.89622454 0.69190428 0.55988806
0.91886608 0.71891407 0.58595867
0.91886608 0.74613756 0.61250951
0.91886608 0.77357038 0.63953623
0.91886608 0.80120840 0.66703472
0.09303105 0.11088114 0.07855745
0.11171153 0.11240907 0.08000295
0.14358138 0.11748459 0.08443136
0.17698496 0.12658003 0.09158466
0.21011139 0.13919441 0.10078898
0.24267174 0.15445259 0.11152031
0.27465111 0.17159782 0.12345741
0.30609157 0.19010505 0.13640677
0.33704373 0.20963398 0.15024632
0.36755479 0.22996513 0.16489439
0.39766604 0.25095374 0.18029314
0.42741296 0.27250125 0.19639962
0.45682599 0.29453814 0.21318054
0.48593128 0.31701365 0.23060925
0.51475151 0.33988944 0.24866378
0.54330642 0.36313571 0.26732565
0.57161334 0.38672865 0.28657897
0.59968757 0.41064875 0.30640991
0.62754273 0.43487969 0.32680624
0.65519097 0.45940757 0.34775705
0.68264323 0.48422035 0.36925251
0.70990938 0.50930746 0.39128371
0.73699837 0.53465951 0.41384249
0.76391838 0.56026808 0.43692137
0.79067686 0.58612553 0.46051343
0.81728067 0.61222490 0.48461224
0.84373612 0.63855978 0.50921184
0.87004905 0.66512428 0.53430663
0.89622487 0.69191290 0.55989140
0.91886608 0.71892053 0.58596120
0.91886608 0.74614239 0.61251142
0.91886608 0.77357398 0.63953766
0.91886608 0.80121106 0.66703579
0.12260238 0.15254604 0.09633681
0.13155286 0.15308614 0.09694739
0.15389143 0.15501877 0.09907369
0.18254122 0.15900634 0.10322435
0.21331940 0.16559336 0.10958549
0.24463314 0.17502133 0.11801728
0.27590390 0.18718548 0.12822647
0.30691889 0.20174340 0.13991549
0.33760439 0.21827048 0.15284295
0.36794257 0.23636863 0.16682937
0.39793867 0.25571126 0.18174492
0.42760719 0.27604787 0.19749563
0.45696585 0.29719226 0.21401244
0.48603290 0.31900742 0.23124357
0.51482588 0.34139241 0.24914929
0.54336117 0.36427216 0.26769838
0.57165384 0.38759014 0.28686579
0.59971765 0.41130314 0.30663100
0.62756513 0.43537751 0.32697686
0.65520770 0.45978666 0.34788880
0.68265574 0.48450918 0.36935427
0.70991874 0.50952753 0.39136227
0.73700538 0.53482712 0.41390309
0.76392363 0.56039563 0.43696806
0.79068079 0.58622247 0.46054934
0.81728361 0.61229844 0.48463981
0.84373832 0.63861546 0.50923294
0.87005069 0.66516632 0.53432275
0.89622608 0.69194455 0.55990366
0.91886608 0.71894428 0.58597050
0.91886608 0.74616014 0.61251844
0.91886608 0.77358718 0.63954294
0.91886608 0.80122084 0.66703974
0.15173010 0.19134219 0.11515411
0.15649963 0.19159965 0.11547848
0.17086716 0.19253564 0.11664418
0.19308265 0.19453875 0.11907322
0.21983211 0.19805464 0.12315196
0.24875122 0.20351481 0.12912062
0.27858141 0.21124572 0.13702387
0.30870483 0.22139446 0.14674571
0.33882187 0.23391078 0.15808775
0.36878772 0.24859033 0.17083724
0.39853422 0.26514738 0.18480401
0.42803211 0.28328063 0.19983250
0.45727217 0.30271431 0.21580082
0.48625561 0.32321579 0.23261511
0.51498895 0.34459797 0.25020335
0.54348126 0.36671435 0.26850997
0.57174270 0.38945169 0.28749166
0.59978365 0.41272288 0.30711419
0.62761430 0.43646079 0.32735018
0.65524441 0.46061341 0.34817732
0.68268319 0.48514012 0.36957723
0.70993929 0.51000886 0.39153448
0.73702077 0.53519405 0.41403598
0.76393515 0.56067505 0.43707047
0.79068941 0.58643494 0.46062813
0.81729005 0.61245971 0.48470030
0.84374313 0.63873759 0.50927927
0.87005427 0.66525857 0.53435812
0.89622874 0.69201401 0.55993058
0.91886608 0.71899640 0.58599091
0.91886608 0.74619909 0.61253385
0.91886608 0.77361617 0.63955452
0.91886608 0.80124230 0.66704840
0.18054850 0.22825515 0.13475504
0.18331896 0.22839622 0.13494764
0.19245762 0.22891182 0.13564755
0.20856620 0.23002973 0.13714401
0.23031643 0.23203892 0.13976677
0.25574320 0.23527509 0.14383307
0.28326916 0.24008858 0.14958395
0.31188869 0.24679380 0.15713667
0.34101629 0.25561314 0.16647814
0.37032156 0.26663705 0.17749709
0.39961990 0.27981771 0.19003126
0.42880901 0.29499616 0.20390736
0.45783333 0.31194733 0.21896514
0.48666415 0.33042411 0.23506758
0.51528836 0.35018912 0.25210257
0.54370192 0.37103214 0.26998044
0.57190605 0.39277631 0.28863021
0.59990503 0.41527764 0.30799583
0.62770475 0.43842109 0.32803283
0.65531195 0.46211579 0.34870578
0.68273371 0.48629029 0.36998610
0.70997711 0.51088837 0.39185058
0.73704910 0.53586574 0.41428008
0.76395636 0.56118723 0.43725869
0.79070528 0.58682480 0.46077299
0.81730191 0.61275584 0.48481154
0.84375198 0.63896198 0.50936448
0.87006086 0.66542813 0.53442320
0.89623364 0.69214174 0.55998012
0.91886608 0.71909227 0.58602848
0.91886608 0.74627076 0.61256221
0.91886608 0.77366950 0.63957584
0.91886608 0.80128180 0.66706434
0.20912671 0.26376658 0.15500025
0.21083821 0.26385047 0.15512244
0.21674798 0.26415778 0.15556862
0.22805924 0.26482786 0.15653385
0.24483371 0.26604513 0.15826154
0.26609573 0.26804026 0.16102665
0.29051894 0.27108474 0.16510413
0.31695053 0.27547365 0.17072586
0.34456685 0.28149497 0.17804089
0.37283153 0.28938967 0.18709623
0.40140973 0.29931351 0.19784500
0.43009615 0.31131416 0.21017441
0.45876617 0.32533185 0.22393865
0.48734489 0.34122146 0.23898569
0.51578808 0.35878576 0.25517395
0.54407061 0.37780795 0.27238005
0.57217923 0.39807651 0.29050072
0.60010812 0.41939993 0.30945149
0.62785615 0.44161337 0.32916418
0.65542506 0.46457950 0.34958401
0.68281832 0.48818641 0.37066703
0.71004047 0.51234413 0.39237783
0.73709655 0.53698087 0.41468771
0.76399190 0.56203952 0.43757328
0.79073188 0.58747468 0.46101528
0.81732180 0.61325014 0.48499771
0.84376682 0.63933692 0.50950714
0.87007191 0.66571167 0.53453218
0.89624184 0.69235544 0.56006309
0.91886608 0.71925273 0.58609140
0.91886608 0.74639076 0.61260973
0.91886608 0.77375883 0.63961156
0.91886608 0.80134796 0.66709104
0.23750754 0.29816388 0.17579950
0.23861285 0.29821654 0.17588050
0.24252397 0.29840968 0.17617701
0.25039455 0.29883200 0.17682227
0.26289387 0.29960333 0.17799015
0.27991430 0.30087904 0.17989282
0.30072024 0.30285280 0.18277061
0.32434056 0.30575457 0.18687022
0.34988154 0.30984055 0.19241337
0.37665218 0.31537340 0.19956401
0.40416515 0.32259346 0.20840583
0.43209301 0.33168649 0.21893826
0.46022107 0.34275699 0.23109067
0.48841050 0.35581587 0.24474661
0.51657237 0.37078612 0.25976870
0.54465034 0.38752332 0.27601784
0.57260933 0.40584277 0.29336519
0.60042820 0.42554532 0.31169781
0.62809494 0.44643710 0.33092014
0.65560353 0.46834159 0.35095310
0.68295189 0.49110534 0.37173205
0.71014051 0.51459914 0.39320454
0.73717150 0.53871649 0.41532808
0.76404803 0.56337089 0.43806820
0.79077389 0.58849269 0.46139687
0.81735321 0.61402609 0.48529115
0.84379026 0.63992644 0.50973214
0.87008937 0.66615803 0.53470416
0.89625481 0.69269217 0.56019406
0.91886608 0.71950576 0.58619076
0.91886608 0.74658008 0.61268479
0.91886608 0.77389983 0.63966798
0.91886608 0.80145243 0.66713324
0.26572031 0.33163825 0.19708870
0.26645807 0.33167261 0.19714411
0.26910500 0.33179870 0.19734719
0.27459707 0.33207483 0.19779061
0.28374046 0.33258066 0.19859818
0.29692475 0.33342145 0.19992750
0.31399898 0.33473255 0.20196935
0.33438912 0.33668241 0.20494050
0.35734363 0.33947211 0.20906772
0.38214018 0.34332952 0.21456372
0.40818679 0.34849586 0.22159972
0.43504018 0.35520448 0.23028295
0.46238520 0.36365432 0.24064644
0.49000435 0.37398393 0.25265405
0.51775006 0.38625344 0.26621693
0.54552330 0.40043992 0.28121475
0.57325830 0.41644714 0.29751509
0.60091187 0.43412550 0.31498780
0.62845615 0.45329550 0.33351365
0.65587372 0.47376901 0.35298825
0.68315423 0.49536514 0.37332301
0.71029212 0.51791982 0.39444416
0.73728512 0.54129030 0.41629103
0.76413316 0.56535595 0.43881406
0.79083762 0.59001688 0.46197290
0.81740085 0.61519158 0.48573468
0.84382582 0.64081410 0.51007255
0.87011586 0.66683139 0.53496453
0.89627449 0.69320089 0.56039247
0.91886608 0.71988845 0.58634134
0.91886608 0.74686665 0.61279857
0.91886608 0.77411338 0.63975353
0.91886608 0.80161073 0.66719723
0.29378646 0.36432609 0.21881957
0.29429146 0.36434917 0.21885837
0.29611822 0.36443386 0.21900067
0.29998134 0.36461951 0.21931198
0.30662020 0.36496018 0.21988106
0.31661247 0.36552810 0.22082363
0.33020082 0.36641785 0.22228537
0.34723205 0.36775031 0.22444173
0.36724431 0.36967566 0.22749267
0.38963221 0.37237403 0.23165036
0.41379354 0.37605197 0.23712001
0.43921196 0.38093315 0.24407657
0.46548227 0.38724227 0.25264316
0.49230328 0.39518327 0.26287778
0.51945834 0.40491546 0.27477222
0.54679475 0.41653338 0.28826229
0.57420633 0.43005602 0.30324494
0.60161996 0.44542855 0.31959663
0.62898582 0.46253523 0.33718869
0.65627039 0.48121905 0.35589811
0.68345153 0.50130253 0.37561369
0.71051504 0.52260550 0.39623861
0.73745226 0.54495770 0.41769076
0.76425843 0.56820619 0.43990168
0.79093142 0.59221852 0.46281492
0.81747100 0.61688292 0.48638422
0.84387819 0.64210688 0.51057180
0.87015487 0.66781478 0.53534681
0.89630348 0.69394540 0.56068402
0.91886608 0.72044942 0.58656276
0.91886608 0.74728725 0.61296594
0.91886608 0.77442711 0.63987944
0.91886608 0.80184345 0.66729144
0.32172238 0.39632956 0.24095419
0.32207492 0.39634540 0.24098185
0.32335670 0.39640356 0.24108334
0.32610032 0.39653112 0.24130563
0.33091655 0.39676542 0.24171290
0.33839348 0.39715674 0.24239011
0.34896335 0.39777158 0.24344672
0.36278766 0.39869635 0.24501942
0.37972427 0.40004105 0.24727232
0.39939201 0.40194220 0.25039294
0.42128827 0.40456410 0.25458257
0.44489864 0.40809690 0.26004039
0.46976581 0.41275002 0.26694337
0.49551711 0.41873968 0.27542597
0.52186526 0.42627086 0.28556529
0.54859651 0.43551578 0.29737587
0.57555544 0.44659343 0.31081505
0.60263075 0.45955525 0.32579630
0.62974365 0.47438105 0.34220582
0.65683890 0.49098592 0.35991813
0.68387816 0.50923564 0.37880829
0.71083523 0.52896582 0.39875978
0.73769251 0.55000034 0.41966877
0.76443858 0.57216601 0.44144555
0.79106638 0.59530244 0.46401430
0.81757196 0.61926739 0.48731190
0.84395358 0.64393864 0.51128628
0.87021104 0.66921362 0.53589475
0.89634522 0.69500765 0.56110243
0.91886608 0.72125166 0.58688080
0.91886608 0.74788982 0.61320654
0.91886608 0.77487717 0.64006052
0.91886608 0.80217766 0.66742697
0.34954104 0.42772799 0.26346186
0.34979104 0.42773905 0.26348186
0.35070294 0.42777969 0.26355526
0.35267029 0.42786886 0.26371614
0.35617358 0.42803275 0.26401133
0.36173302 0.42830678 0.26450341
0.36982770 0.42873813 0.26527422
0.38079477 0.42938874 0.26642832
0.39474894 0.43033866 0.26809550
0.41156263 0.43168944 0.27043124
0.43091467 0.43356705 0.27361374
0.45237779 0.43612359 0.27783601
0.47550396 0.43953635 0.28329254
0.49988278 0.44400319 0.29016159
0.52516922 0.44973268 0.29858617
0.55108912 0.45692899 0.30865844
0.57743268 0.46577264 0.32041171
0.60404330 0.47640040 0.33382205
0.63080610 0.48888903 0.34881816
0.65763782 0.50324710 0.36529606
0.68447879 0.51941698 0.38313443
0.71128661 0.53728616 0.40220758
0.73803154 0.55670420 0.42239487
0.76469299 0.57750093 0.44358635
0.79125707 0.59950248 0.46568537
0.81771468 0.62254306 0.48860921
0.84406019 0.64647235 0.51228831
0.87029049 0.67115894 0.53666493
0.89640426 0.69649107 0.56169152
0.91886608 0.72237563 0.58732917
0.91886608 0.74873615 0.61354606
0.91886608 0.77551052 0.64031625
0.91886608 0.80264867 0.66761850
0.37725297 0.45858473 0.28631713
0.37743251 0.45859257 0.28633175
0.37808878 0.45862137 0.28638543
0.37951205 0.45868457 0.28650314
0.38207128 0.45880078 0.28671933
0.38619595 0.45899524 0.28708032
0.39233466 0.45930171 0.28764727
0.40088746 0.45976481 0.28849952
0.41212750 0.46044280 0.28973773
0.42614160 0.46141062 0.29148631
0.44281689 0.46276314 0.29389413
0.46187809 0.46461805 0.29713225
0.48295496 0.46711782 0.30138742
0.50565101 0.47042955 0.30685060
0.52959369 0.47474170 0.31370110
0.55446145 0.48025626 0.32208878
0.57999221 0.48717588 0.33211805
0.60598050 0.49568660 0.34383799
0.63226954 0.50593855 0.35724090
0.65874190 0.51802855 0.37226937
0.68531088 0.53198908 0.38882889
0.71191310 0.54778631 0.40680262
0.73850274 0.56532773 0.42606490
0.76504698 0.58447665 0.44649176
0.79152261 0.60506979 0.46796783
0.81791353 0.62693396 0.49039008
0.84420879 0.64989947 0.51366923
0.87040127 0.67380917 0.53772954
0.89648662 0.69852352 0.56250773
0.91886608 0.72392241 0.58795152
0.91886608 0.74990486 0.61401799
0.91886608 0.77638744 0.64067208
0.91886608 0.80330213 0.66788521
0.40486691 0.48895155 0.30949849
0.40499717 0.48895717 0.30950928
0.40547400 0.48897781 0.30954889
0.40651181 0.48902312 0.30963578
0.40839044 0.48910645 0.30979547
0.41145148 0.48924595 0.31006240
0.41608091 0.48946599 0.31048239
0.42267116 0.48979891 0.31111544
0.43156423 0.49028720 0.31203884
0.44298901 0.49098606 0.31335012
0.45701540 0.49196632 0.31516946
0.47354416 0.49331746 0.31764062
0.49233596 0.49515055 0.32092924
0.51306498 0.49760038 0.32521733
0.53537553 0.50082589 0.33069332
0.55892603 0.50500794 0.33753767
0.58341493 0.51034300 0.34590598
0.60859099 0.51703208 0.35591303
0.63425317 0.52526518 0.36762132
0.66024508 0.53520276 0.38103740
0.68644756 0.54695792 0.39611631
0.71277110 0.56058313 0.41277241
0.73914931 0.57606523 0.43089337
0.76553340 0.59332972 0.45035391
0.79188790 0.61225293 0.47102722
0.81818730 0.63267862 0.49279301
0.84441352 0.65443501 0.51554227
0.87055397 0.67734943 0.53917947
0.89660018 0.70125886 0.56362290
0.91886608 0.72601644 0.58880393
0.91886608 0.75149438 0.61466559
0.91886608 0.77758440 0.64116108
0.91886608 0.80419655 0.66825214
0.43239022 0.51887149 0.33298748
0.43248552 0.51887555 0.33299550
0.43283473 0.51889049 0.33302494
0.43359664 0.51892326 0.33308954
0.43498230 0.51898356 0.33320832
0.43725764 0.51908455 0.33340701
0.44073924 0.51924393 0.33372003
0.44577673 0.51948526 0.33419273
0.45271844 0.51983968 0.33488414
0.46186303 0.52034786 0.33586985
0.47340818 0.52106248 0.33724489
0.48741345 0.52205095 0.33912615
0.50379188 0.52339840 0.34165343
0.52233294 0.52521054 0.34498822
0.54274609 0.52761597 0.34930912
0.56470856 0.53076710 0.35480288
0.58790437 0.53483865 0.36165129
0.61204902 0.54002259 0.37001514
0.63690094 0.54651853 0.38001817
0.66226332 0.55451951 0.39173463
0.68798054 0.56419440 0.40518358
0.71393219 0.57566973 0.42033125
0.74002655 0.58901496 0.43710011
0.76619467 0.60423482 0.45538208
0.79238524 0.62127084 0.47505235
0.81856047 0.64001128 0.49598153
0.84469281 0.66030658 0.51804469
0.87076242 0.68198660 0.54112710
0.89675527 0.70487617 0.56512723
0.91886608 0.72880704 0.58995760
0.91886608 0.75362561 0.61554432
0.91886608 0.77919697 0.64182591
0.91886608 0.80540602 0.66875176
0.45982919 0.54838089 0.35676806
0.45989940 0.54838385 0.35677406
0.46015682 0.54839474 0.35679607
0.46071943 0.54841863 0.35684438
0.46174601 0.54846260 0.35693322
0.46344107 0.54853625 0.35708194
0.46605690 0.54865252 0.35731641
0.46988795 0.54882870 0.35767098
0.47525366 0.54908765 0.35819060
0.48246756 0.54945943 0.35893348
0.49179562 0.54998317 0.35997382
0.50341303 0.55070943 0.36140468
0.51737319 0.55170280 0.36334036
0.53360011 0.55304481 0.36591762
0.55190672 0.55483682 0.36929493
0.57203104 0.55720245 0.37364844
0.59367726 0.56028885 0.37916404
0.61655070 0.56426586 0.38602517
0.64038146 0.56932190 0.39439747
0.66493649 0.57565554 0.40441275
0.69002294 0.58346250 0.41615565
0.71548609 0.59291874 0.42965641
0.74120463 0.60416224 0.44489123
0.76708506 0.61727702 0.46178992
0.79305626 0.63228337 0.48024818
0.81906473 0.64913695 0.50014155
0.84507065 0.66773663 0.52133808
0.87104467 0.68793891 0.54370835
0.89696543 0.70957509 0.56713207
0.91886608 0.73246764 0.59150184
0.91886608 0.75644336 0.61672455
0.91886608 0.78134237 0.64272122
0.91886608 0.80702304 0.66942596
0.48718928 0.57751084 0.38082614
0.48724128 0.57751302 0.38083064
0.48743207 0.57752100 0.38084717
0.48784954 0.57753853 0.38088347
0.48861308 0.57757078 0.38095023
0.48987884 0.57762482 0.38106203
0.49184430 0.57771016 0.38123840
0.49474896 0.57783952 0.38150537
0.49886800 0.57802978 0.38189716
0.50449587 0.57830318 0.38245840
0.51191849 0.57868883 0.38324658
0.52137684 0.57922455 0.38433481
0.53302979 0.57995909 0.38581459
0.54692725 0.58095468 0.38779821
0.56300303 0.58228990 0.39042020
0.58108951 0.58406256 0.39383683
0.60094818 0.58639225 0.39822272
0.62230553 0.58942194 0.40376361
0.64488479 0.59331766 0.41064496
0.66842852 0.59826513 0.41903716
0.69271113 0.60446240 0.42907944
0.71754336 0.61210775 0.44086589
0.74277143 0.62138345 0.45443674
0.76827338 0.63243746 0.46977716
0.79395420 0.64536651 0.48682342
0.81974090 0.66020447 0.50547449
0.84557810 0.67691936 0.52560590
0.87142420 0.69541927 0.54708304
0.89724827 0.71556585 0.56977193
0.91886608 0.73719135 0.59354681
0.91886608 0.76011574 0.61829449
0.91886608 0.78416096 0.64391631
0.91886608 0.80916105 0.67032834
0.51447524 0.60628824 0.40514920
0.51451394 0.60628984 0.40515260
0.51465595 0.60629573 0.40516506
0.51496697 0.60630865 0.40519243
0.51553678 0.60633244 0.40524279
0.51648409 0.60637229 0.40532713
0.51796175 0.60643523 0.40546025
0.52016020 0.60653067 0.40566188
0.52330725 0.60667110 0.40595808
0.52766140 0.60687303 0.40638301
0.53349646 0.60715813 0.40698099
0.54107632 0.60755469 0.40780893
0.55062274 0.60809937 0.40893906
0.56228262 0.60883939 0.41046167
0.57610423 0.60983502 0.41248757
0.59203017 0.61116239 0.41514967
0.60990917 0.61291641 0.41860282
0.62952227 0.61521347 0.42302086
0.65061458 0.61819323 0.42859005
0.67292445 0.62201882 0.43549828
0.69620510 0.62687413 0.44392069
0.72023740 0.63295719 0.45400360
0.74483527 0.64046894 0.46584980
0.76984584 0.64959754 0.47950858
0.79514660 0.66049992 0.49497312
0.82064125 0.67328404 0.51218532
0.84625521 0.68799572 0.53104676
0.87193143 0.70461364 0.55143252
0.89762673 0.72305376 0.57320502
0.91886608 0.74318173 0.59622561
0.91886608 0.76483007 0.62036295
0.91886608 0.78781585 0.64549810
0.91886608 0.81195603 0.67152696
0.54169129 0.63473656 0.42972608
0.54172019 0.63473775 0.42972865
0.54182626 0.63474210 0.42973808
0.54205873 0.63475167 0.42975877
0.54248513 0.63476928 0.42979686
0.54319552 0.63479878 0.42986066
0.54430732 0.63484539 0.42996140
0.54596969 0.63491608 0.43011406
0.54836627 0.63502012 0.43033848
0.55171433 0.63516980 0.43066078
0.55625809 0.63538127 0.43111500
0.56225426 0.63567568 0.43174522
0.56994910 0.63608058 0.43260789
0.57954947 0.63663165 0.43377455
0.59119358 0.63737481 0.43533457
0.60492933 0.63836866 0.43739772
0.62070725 0.63968733 0.44009584
0.63839001 0.64142339 0.44358301
0.65777510 0.64369066 0.44803298
0.67862332 0.64662631 0.45363315
0.70068583 0.65039137 0.46057428
0.72372490 0.65516863 0.46903643
0.74752698 0.66115672 0.47917278
0.77190875 0.66855950 0.49109427
0.79671810 0.67757080 0.50485854
0.82183207 0.68835585 0.52046587
0.84715323 0.70103272 0.53786298
0.87260556 0.71565774 0.55695331
0.89813054 0.73221876 0.57761094
0.91886608 0.75063812 0.59969489
0.91886608 0.77078432 0.62306157
0.91886608 0.79248919 0.64757393
0.91886608 0.81556631 0.67310724
0.56884116 0.66287647 0.45454671
0.56886280 0.66287735 0.45454866
0.56894224 0.66288059 0.45455581
0.56911643 0.66288769 0.45457149
0.56943621 0.66290077 0.45460036
0.56996981 0.66292268 0.45464872
0.57080695 0.66295730 0.45472511
0.57206331 0.66300982 0.45484089
0.57388424 0.66308713 0.45501121
0.57644697 0.66319840 0.45525600
0.57995937 0.66335567 0.45560136
0.58465345 0.66357478 0.45608127
0.59077176 0.66387640 0.45673957
0.59854643 0.66428743 0.45763236
0.60817280 0.66484269 0.45883067
0.61978279 0.66558697 0.46042322
0.63342489 0.66657752 0.46251909
0.64905687 0.66788679 0.46524956
0.66655343 0.66960549 0.46876850
0.68572602 0.67184547 0.47325021
0.70634873 0.67474206 0.47888382
0.72818357 0.67845494 0.48586342
0.75100052 0.68316652 0.49437424
0.77459077 0.68907663 0.50457626
0.79877329 0.69639242 0.51658820
0.82339661 0.70531338 0.53047539
0.84833730 0.71601262 0.54624445
0.87349689 0.72861747 0.56384605
0.89879810 0.74319352 0.58318473
0.91886608 0.75973635 0.60413285
0.91886608 0.77817326 0.62654554
0.91886608 0.79837425 0.65027387
0.91886608 0.82016939 0.67517486
0.59592819 0.69072631 0.47960199
0.59594443 0.69072696 0.47960347
0.59600405 0.69072937 0.47960889
0.59613480 0.69073466 0.47962079
0.59637502 0.69074439 0.47964271
0.59677631 0.69076071 0.47967942
0.59740702 0.69078649 0.47973741
0.59835619 0.69082559 0.47982535
0.59973741 0.69088318 0.47995475
0.60169228 0.69096607 0.48014083
0.60439205 0.69108327 0.48040359
0.60803630 0.69124664 0.48076913
0.61284660 0.69147169 0.48127133
0.61905380 0.69177867 0.48195385
0.62687870 0.69219389 0.48287252
0.63650778 0.69275142 0.48409800
0.64806857 0.69349511 0.48571862
0.66161085 0.69448103 0.48784310
0.67709907 0.69578032 0.49060258
0.69441839 0.69748222 0.49415123
0.71339228 0.69969711 0.49866452
0.73380610 0.70255909 0.50433388
0.75543105 0.70622717 0.51135723
0.77804363 0.71088407 0.51992525
0.80143894 0.71673144 0.53020480
0.82543786 0.72398017 0.54232215
0.84988932 0.73283558 0.55634976
0.87466941 0.74347842 0.57229986
0.89967871 0.75604459 0.59012623
0.91886608 0.77060789 0.60973363
0.91886608 0.78717029 0.63099193
0.91886608 0.80566252 0.65375171
0.91886608 0.82595466 0.67785827
0.62295540 0.71830243 0.50488360
0.62296760 0.71830292 0.50488472
0.62301240 0.71830472 0.50488884
0.62311068 0.71830866 0.50489789
0.62329133 0.71831592 0.50491453
0.62359335 0.71832809 0.50494243
0.62406869 0.71834732 0.50498649
0.62478551 0.71837649 0.50505332
0.62583178 0.71841944 0.50515170
0.62731892 0.71848129 0.50529322
0.62938480 0.71856877 0.50549319
0.63219524 0.71869074 0.50577160
0.63594248 0.71885885 0.50615455
0.64083921 0.71908832 0.50667583
0.64710666 0.71939901 0.50737897
0.65495657 0.71981671 0.50831959
0.66456867 0.72037483 0.50956812
0.67606764 0.72111641 0.51121270
0.68950507 0.72209657 0.51336200
0.70485167 0.72338538 0.51614739
0.72200184 0.72507098 0.51972390
0.74078938 0.72726275 0.52426864
0.76100930 0.73009409 0.52997595
0.78244053 0.73372397 0.53704812
0.80486499 0.73833612 0.54568166
0.82808101 0.74413464 0.55605044
0.85191090 0.75133469 0.56828812
0.87620381 0.76014769 0.58247389
0.90083529 0.77076196 0.59862484
0.91886608 0.78332147 0.61669702
0.91886608 0.79790724 0.63659444
0.91886608 0.81452632 0.65818363
0.91886608 0.83311130 0.68130988
0.64992552 0.74561955 0.53038395
0.64993469 0.74561992 0.53038480
0.64996838 0.74562126 0.53038793
0.65004230 0.74562421 0.53039481
0.65017823 0.74562963 0.53040745
0.65040562 0.74563871 0.53042865
0.65076387 0.74565307 0.53046215
0.65130495 0.74567485 0.53051295
0.65209651 0.74570693 0.53058775
0.65322525 0.74575312 0.53069539
0.65480031 0.74581846 0.53084754
0.65695602 0.74590961 0.53105953
0.65985323 0.74603527 0.53135136
0.66367776 0.74620690 0.53174909
0.66863476 0.74643942 0.53228643
0.67493753 0.74675235 0.53300680
0.68279067 0.74717100 0.53396569
0.69236889 0.74772821 0.53523342
0.70379524 0.74846634 0.53689815
0.71712365 0.74943973 0.53906873
0.73233066 0.75071763 0.54187719
0.74931897 0.75238739 0.54547979
0.76793131 0.75455780 0.55005591
0.78797093 0.75736210 0.55580335
0.80922325 0.76095979 0.56292929
0.83147463 0.76553628 0.57163657
0.85452591 0.77129882 0.58210626
