src/ffmpeg_scripts/luts/sRGB-rec2020_3p33.cube
TITLE "sRGB-rec2020_3p33"
LUT_3D_SIZE 9
# PQ (EOTF Only)/sRGB -> PQ (EOTF Only)/Rec2020, CineEI Shift 3.33, Black Level 0.00% IRE, Input 100% -> Output 109% - Created with LUTCalc v4.01 by Ben Turley October 2020
0.06256172 0.06256172 0.06256172
0.25789759 0.15636078 0.11551362
0.40543432 0.25530662 0.18407810
0.53602725 0.35683413 0.26239740
0.65619144 0.46020547 0.34849623
0.76891707 0.56503645 0.44126831
0.87591558 0.67108656 0.53998315
0.91886608 0.77818934 0.64411320
0.91886608 0.88622203 0.75325500
0.22298380 0.28065955 0.16507424
0.28310397 0.28514393 0.17156948
0.41003526 0.31282753 0.20550421
0.53714076 0.37742865 0.26959778
0.65650411 0.46706415 0.35093238
0.76901113 0.56730445 0.44210604
0.87594447 0.67183068 0.54026971
0.91886608 0.77842674 0.64420827
0.91886608 0.88629378 0.75328478
0.35681952 0.43587150 0.26942386
0.37140322 0.43657068 0.27069172
0.43908777 0.44176447 0.27975443
0.54527588 0.46102460 0.30936304
0.65887121 0.50742007 0.36757710
0.76973022 0.58310783 0.44829035
0.87616597 0.67735713 0.54244133
0.91886608 0.78022961 0.64493511
0.91886608 0.88684278 0.75351311
0.48021416 0.57011133 0.37466081
0.48403504 0.57027463 0.37499665
0.50904117 0.57151918 0.37753202
0.57367756 0.57664051 0.38755197
0.66833290 0.59258981 0.41547690
0.77273033 0.63073639 0.47070292
0.87710274 0.69781792 0.55116051
0.91886608 0.78753252 0.64796824
0.91886608 0.88914220 0.75447886
0.59691531 0.69173713 0.48052045
0.59802563 0.69178222 0.48062199
0.60614266 0.69212772 0.48139795
0.63453267 0.69358447 0.48462950
0.69542962 0.69849375 0.49508095
0.78248731 0.71268563 0.52229027
0.88029295 0.74667974 0.57645379
0.91886608 0.80922729 0.65784099
0.91886608 0.89671739 0.75776934
0.70870609 0.80450645 0.58686688
0.70904737 0.80451986 0.58689934
0.71162748 0.80462277 0.58714814
0.72188019 0.80505955 0.58820002
0.75077484 0.80656614 0.59177810
0.80818254 0.81123013 0.60240179
0.88979521 0.82437951 0.62941345
0.91886608 0.85637127 0.68391113
0.91886608 0.91731390 0.76758442
0.81663314 0.91053921 0.69361589
0.81673968 0.91054330 0.69362637
0.81755365 0.91057463 0.69370686
0.82093934 0.91070791 0.69404871
0.83184236 0.91117095 0.69523086
0.85987627 0.91263739 0.69891981
0.91409876 0.91704740 0.70955169
0.91886608 0.91886608 0.73673456
0.91886608 0.91886608 0.79278657
0.91886608 0.91886608 0.80070964
0.91886608 0.91886608 0.80071296
0.91886608 0.91886608 0.80073842
0.91886608 0.91886608 0.80084672
0.91886608 0.91886608 0.80122330
0.91886608 0.91886608 0.80241896
0.91886608 0.91886608 0.80604231
0.91886608 0.91886608 0.81655602
0.91886608 0.91886608 0.84424700
0.91886608 0.91886608 0.90810579
0.91886608 0.91886608 0.90810678
0.91886608 0.91886608 0.90811443
0.91886608 0.91886608 0.90814697
0.91886608 0.91886608 0.90826034
0.91886608 0.91886608 0.90862240
0.91886608 0.91886608 0.90973938
0.91886608 0.91886608 0.91315266
0.91886608 0.91886608 0.91886608
0.14111141 0.10779626 0.27903987
0.26176281 0.16177665 0.28015244
0.40605355 0.25637981 0.28818075
0.53617448 0.35712218 0.31517785
0.65623262 0.46029347 0.37046876
0.76892944 0.56506481 0.44944794
0.87591938 0.67109579 0.54285889
0.91886608 0.77819228 0.64507616
0.91886608 0.88622291 0.75355755
0.22933662 0.28141585 0.28482652
0.28585611 0.28585611 0.28585611
0.41062282 0.31332395 0.29332306
0.53728625 0.37765412 0.31883484
0.65654517 0.46714574 0.37234652
0.76902349 0.56733214 0.45021298
0.87594827 0.67183984 0.54313679
0.91886608 0.77842967 0.64517027
0.91886608 0.88629466 0.75358723
0.35791242 0.43598685 0.31874419
0.37232234 0.43668513 0.31940765
0.43951119 0.44187246 0.32432487
0.54540926 0.46111180 0.34241877
0.65891125 0.50747263 0.38552655
0.76974249 0.58313124 0.45588054
0.87616976 0.67736577 0.54524361
0.91886608 0.78023249 0.64588979
0.91886608 0.88684366 0.75381482
0.48048312 0.57013820 0.39130728
0.48429303 0.57030145 0.39158370
0.50923790 0.57154565 0.39367719
0.57377615 0.57666558 0.40206156
0.66836912 0.59261098 0.42624667
0.77274221 0.63075053 0.47668379
0.87710649 0.69782487 0.55371716
0.91886608 0.78753517 0.64889294
0.91886608 0.88914306 0.75477747
0.59699238 0.69174455 0.48590968
0.59810180 0.69178963 0.48600542
0.60621256 0.69213510 0.48673728
0.63458445 0.69359174 0.48978904
0.69545680 0.69850065 0.49969992
0.78249799 0.71269156 0.52575535
0.88029657 0.74668386 0.57841368
0.91886608 0.80922938 0.65867441
0.91886608 0.89671817 0.75805756
0.70872969 0.80450866 0.58862377
0.70907089 0.80452207 0.58865562
0.71165036 0.80462497 0.58889985
0.72190070 0.80506174 0.58993249
0.75078990 0.80656829 0.59344669
0.80819061 0.81123218 0.60389429
0.88979846 0.82438128 0.63053733
0.91886608 0.85637251 0.68454415
0.91886608 0.91731452 0.76784373
0.81664050 0.91053989 0.69418714
0.81674703 0.91054397 0.69419757
0.81756093 0.91057531 0.69427756
0.82094635 0.91070858 0.69461735
0.83184858 0.91117162 0.69579244
0.85988083 0.91263804 0.69945985
0.91410121 0.91704802 0.71003413
0.91886608 0.91886608 0.73709570
0.91886608 0.91886608 0.79298391
0.91886608 0.91886608 0.80089066
0.91886608 0.91886608 0.80089397
0.91886608 0.91886608 0.80091938
0.91886608 0.91886608 0.80102747
0.91886608 0.91886608 0.80140330
0.91886608 0.91886608 0.80259663
0.91886608 0.91886608 0.80621308
0.91886608 0.91886608 0.81670819
0.91886608 0.91886608 0.84435904
0.91886608 0.91886608 0.90816018
0.91886608 0.91886608 0.90816118
0.91886608 0.91886608 0.90816882
0.91886608 0.91886608 0.90820135
0.91886608 0.91886608 0.90831464
0.91886608 0.91886608 0.90867647
0.91886608 0.91886608 0.90979276
0.91886608 0.91886608 0.91320398
0.91886608 0.91886608 0.91886608
0.22979660 0.16936557 0.43373500
0.28606191 0.19113040 0.43390540
0.41066747 0.26411734 0.43520304
0.53729733 0.35930132 0.44052506
0.65654830 0.46096632 0.45693991
0.76902444 0.56528230 0.49552408
0.87594856 0.67116664 0.56241502
0.91886608 0.77821483 0.65216087
0.91886608 0.88622972 0.75584852
0.26469477 0.28697983 0.43464612
0.30418535 0.29110991 0.43481478
0.41500770 0.31703441 0.43609934
0.53839589 0.37936573 0.44136974
0.65685980 0.46776981 0.45764419
0.76911839 0.56754446 0.49598618
0.87597743 0.67191013 0.56264068
0.91886608 0.77845217 0.65224819
0.91886608 0.88630147 0.75587747
0.36585834 0.43686765 0.44134842
0.37906569 0.43755910 0.44150490
0.44269737 0.44269737 0.44269737
0.54642712 0.46177863 0.44760331
0.65921812 0.50787523 0.46287683
0.76983665 0.58331081 0.49945931
0.87619885 0.67743207 0.56435564
0.91886608 0.78025454 0.65291601
0.91886608 0.88685042 0.75609953
0.48252248 0.57034429 0.46533321
0.48625018 0.57050718 0.46545315
0.51073474 0.57174868 0.46636890
0.57452977 0.57685788 0.47016712
0.66864680 0.59277340 0.48229285
0.77283336 0.63085907 0.51293697
0.87713528 0.69787823 0.57132527
0.91886608 0.78755555 0.65570726
0.91886608 0.88914965 0.75703890
0.59758211 0.69180147 0.51926356
0.59868466 0.69184653 0.51933029
0.60674762 0.69219179 0.51984109
0.63498114 0.69364756 0.52198466
0.69566524 0.69855363 0.52909371
0.78258001 0.71273712 0.54878388
0.88032433 0.74671554 0.59224229
0.91886608 0.80924546 0.66484027
0.91886608 0.89672422 0.76024142
0.70891071 0.80452559 0.60112424
0.70925126 0.80453900 0.60115215
0.71182584 0.80464188 0.60136613
0.72205804 0.80507857 0.60227169
0.75090539 0.80658485 0.60536253
0.80825259 0.81124791 0.61463121
0.88982338 0.82439489 0.63874929
0.91886608 0.85638205 0.68926826
0.91886608 0.91731929 0.76981104
0.81669699 0.91054504 0.69846184
0.81680345 0.91054912 0.69847180
0.81761685 0.91058046 0.69854825
0.82100023 0.91071373 0.69887299
0.83189634 0.91117673 0.69999643
0.85991578 0.91264307 0.70350653
0.91412007 0.91705280 0.71365832
0.91886608 0.91886608 0.73982317
0.91886608 0.91886608 0.79448529
0.91886608 0.91886608 0.80226882
0.91886608 0.91886608 0.80227208
0.91886608 0.91886608 0.80229711
0.91886608 0.91886608 0.80240359
0.91886608 0.91886608 0.80277382
0.91886608 0.91886608 0.80394951
0.91886608 0.91886608 0.80751382
0.91886608 0.91886608 0.81786829
0.91886608 0.91886608 0.84521476
0.91886608 0.91886608 0.90857676
0.91886608 0.91886608 0.90857775
0.91886608 0.91886608 0.90858535
0.91886608 0.91886608 0.90861772
0.91886608 0.91886608 0.90873047
0.91886608 0.91886608 0.90909058
0.91886608 0.91886608 0.91020158
0.91886608 0.91886608 0.91359705
0.91886608 0.91886608 0.91886608
0.32394596 0.24171410 0.56773875
0.34485201 0.24929018 0.56777850
0.42797704 0.29008192 0.56808319
0.54193186 0.36798922 0.56936932
0.65788043 0.46377602 0.57372046
0.76942772 0.56620256 0.58643959
0.87607265 0.67146764 0.61767719
0.91886608 0.77831077 0.67749720
0.91886608 0.88625871 0.76501399
0.33558866 0.30692719 0.56795200
0.35399472 0.31012730 0.56799166
0.43155942 0.33113061 0.56829566
0.54297760 0.38629009 0.56957891
0.65818758 0.47037953 0.57392060
0.76952127 0.56844295 0.58661449
0.87610149 0.67220878 0.61780289
0.91886608 0.77854786 0.67756398
0.91886608 0.88633043 0.76504022
0.39319593 0.44052288 0.56957360
0.40298727 0.44118672 0.56961259
0.45512157 0.44612642 0.56991141
0.55064051 0.46456364 0.57117296
0.66051341 0.50956977 0.57544339
0.77023642 0.58407140 0.58794681
0.87632260 0.67771377 0.61876256
0.91886608 0.78034838 0.67807524
0.91886608 0.88687920 0.76524141
0.49072943 0.57121657 0.57618027
0.49414423 0.57137796 0.57621661
0.51684942 0.57260811 0.57649522
0.57767212 0.57767212 0.57767212
0.66981983 0.59346169 0.58166386
0.77322041 0.63131969 0.59341696
0.87725771 0.69810507 0.62274230
0.91886608 0.78764224 0.68022119
0.91886608 0.88917769 0.76609302
0.60005216 0.69204341 0.59615129
0.60112642 0.69208835 0.59618070
0.60899206 0.69243273 0.59640624
0.63665146 0.69388480 0.59736036
0.69654741 0.69877885 0.60061329
0.78292833 0.71293082 0.61033575
0.88044243 0.74685027 0.63543766
0.91886608 0.80931388 0.68734233
0.91886608 0.89674993 0.76900215
0.70967745 0.80459763 0.64115884
0.71001523 0.80461103 0.64117711
0.71256924 0.80471383 0.64131732
0.72272486 0.80515018 0.64191187
0.75139543 0.80665528 0.64395586
0.80851596 0.81131484 0.65021948
0.88992939 0.82445281 0.66741459
0.91886608 0.85642264 0.70708538
0.91886608 0.91733957 0.77774674
0.81693707 0.91056698 0.71475493
0.81704325 0.91057106 0.71476331
0.81785452 0.91060239 0.71482759
0.82122922 0.91073562 0.71510075
0.83209939 0.91119851 0.71604687
0.86006442 0.91266448 0.71901416
0.91420028 0.91707315 0.72768819
0.91886608 0.91886608 0.75061620
0.91886608 0.91886608 0.80061497
0.91886608 0.91886608 0.80791366
0.91886608 0.91886608 0.80791673
0.91886608 0.91886608 0.80794026
0.91886608 0.91886608 0.80804036
0.91886608 0.91886608 0.80838848
0.91886608 0.91886608 0.80949448
0.91886608 0.91886608 0.81285242
0.91886608 0.91886608 0.82264742
0.91886608 0.91886608 0.84876887
0.91886608 0.91886608 0.91032804
0.91886608 0.91886608 0.91032901
0.91886608 0.91886608 0.91033646
0.91886608 0.91886608 0.91036818
0.91886608 0.91886608 0.91047868
0.91886608 0.91886608 0.91083161
0.91886608 0.91886608 0.91192065
0.91886608 0.91886608 0.91525059
0.91886608 0.91886608 0.91886608
0.42213584 0.32291680 0.68927780
0.42928016 0.32553743 0.68928878
0.47072899 0.34323256 0.68937306
0.55650102 0.39276043 0.68973097
0.66238305 0.47294261 0.69096822
0.77082010 0.56934220 0.69482457
0.87650391 0.67250959 0.70590285
0.91886608 0.77864445 0.73401812
0.91886608 0.88635968 0.79131303
0.42595721 0.35229513 0.68933675
0.43281138 0.35412829 0.68934772
0.47297321 0.36699967 0.68943195
0.55739694 0.40682451 0.68978964
0.66267594 0.47893409 0.69102612
0.77091225 0.57150991 0.69488014
0.87653261 0.67324263 0.70595225
0.91886608 0.77888068 0.73405472
0.91886608 0.88643132 0.79133276
0.45084848 0.45221249 0.68978815
0.45608561 0.45279554 0.68979907
0.48858272 0.45715124 0.68988289
0.56400564 0.47365499 0.69023888
0.66489514 0.51524617 0.69146952
0.77161677 0.58667607 0.69530580
0.87675265 0.67868935 0.70633074
0.91886608 0.78067478 0.73433529
0.91886608 0.88697946 0.79148409
0.51469656 0.57419589 0.69168590
0.51734233 0.57435226 0.69169661
0.53548271 0.57554440 0.69177876
0.58787408 0.58045701 0.69212766
0.67379900 0.59582276 0.69333403
0.77455722 0.63290825 0.69709658
0.87768325 0.69889161 0.70792510
0.91886608 0.78794382 0.73552034
0.91886608 0.88927536 0.79212554
0.60819103 0.69288203 0.69801801
0.60917712 0.69292657 0.69802802
0.61642466 0.69326791 0.69810483
0.64225429 0.69470726 0.69843110
0.69955980 0.69955980 0.69955980
0.78413245 0.71360299 0.70308593
0.88085291 0.74731845 0.71328089
0.91886608 0.80955199 0.73953794
0.91886608 0.89683952 0.79432738
0.71230257 0.80484835 0.71583026
0.71263106 0.80486171 0.71583854
0.71511579 0.80496423 0.71590209
0.72501313 0.80539939 0.71617214
0.75308391 0.80690043 0.71710758
0.80942823 0.81154778 0.72004200
0.89029798 0.82465444 0.72862556
0.91886608 0.85656401 0.75135013
0.91886608 0.91741025 0.80104265
0.81776912 0.91064341 0.75619953
0.81787434 0.91064749 0.75620491
0.81867825 0.91067879 0.75624616
0.82202303 0.91081191 0.75642155
0.83280374 0.91127439 0.75703043
0.86058069 0.91273909 0.75895394
0.91447935 0.91714405 0.76469596
0.91886608 0.91886608 0.78069479
0.91886608 0.91886608 0.81924733
0.91886608 0.91886608 0.82523875
0.91886608 0.91886608 0.82524128
0.91886608 0.91886608 0.82526073
0.91886608 0.91886608 0.82534348
0.91886608 0.91886608 0.82563136
0.91886608 0.91886608 0.82654721
0.91886608 0.91886608 0.82933901
0.91886608 0.91886608 0.83757575
0.91886608 0.91886608 0.86016003
0.91886608 0.91886608 0.91617047
0.91886608 0.91886608 0.91617138
0.91886608 0.91886608 0.91617835
0.91886608 0.91886608 0.91620800
0.91886608 0.91886608 0.91631129
0.91886608 0.91886608 0.91664124
0.91886608 0.91886608 0.91765992
0.91886608 0.91886608 0.91886608
0.91886608 0.91886608 0.91886608
0.52360537 0.41188301 0.80205591
0.52601246 0.41279903 0.80205917
0.54267762 0.41953135 0.80208426
0.59206181 0.44355120 0.80219099
0.67550892 0.49731412 0.80256208
0.77514307 0.57874539 0.80374047
0.87787103 0.67577108 0.80731279
0.91886608 0.77970500 0.81768889
0.91886608 0.88668227 0.84508225
0.52487645 0.42335452 0.80207345
0.52725132 0.42415909 0.80207672
0.54371510 0.43010490 0.80210180
0.59267689 0.45173831 0.80220850
0.67576385 0.50194287 0.80257953
0.77523101 0.58070930 0.80375770
0.87789929 0.67647932 0.80732936
0.91886608 0.77993854 0.81770367
0.91886608 0.88675365 0.84509316
0.53409859 0.48188175 0.80220806
0.53625243 0.48230273 0.80221132
0.55132030 0.48547239 0.80223637
0.59727095 0.49786070 0.80234292
0.67769878 0.53139269 0.80271340
0.77590348 0.59456436 0.80388985
0.87811595 0.68174743 0.80745645
0.91886608 0.78171237 0.81781708
0.91886608 0.88729979 0.84517693
0.56555041 0.58314865 0.80277889
0.56709539 0.58329086 0.80278213
0.57818251 0.58437577 0.80280702
0.61465755 0.58885946 0.80291290
0.68551861 0.60300986 0.80328109
0.77871256 0.63782321 0.80445031
0.87903236 0.70136716 0.80799550
0.91886608 0.78890302 0.81829832
0.91886608 0.88958743 0.84553266
0.63035308 0.69551853 0.80474150
0.63113404 0.69556185 0.80474468
0.63692523 0.69589378 0.80476904
0.65824500 0.69729383 0.80487268
0.70860486 0.70201806 0.80523306
0.78788593 0.71572376 0.80637772
0.88215476 0.74880213 0.80985023
0.91886608 0.81031038 0.81995636
0.91886608 0.89712580 0.84676191
0.72024700 0.80564668 0.81075713
0.72054885 0.80565992 0.81076010
0.72283482 0.80576155 0.81078291
0.73198609 0.80619293 0.81087994
0.75829366 0.80768109 0.81121741
0.81228981 0.81228981 0.81228981
0.89146806 0.82529714 0.81554806
0.91886608 0.85701526 0.82507115
0.91886608 0.91763621 0.85058888
0.82038362 0.91088775 0.82727574
0.82048586 0.91089181 0.82727822
0.82126708 0.91092303 0.82729723
0.82451944 0.91105577 0.82737814
0.83502310 0.91151696 0.82765964
0.86221417 0.91297759 0.82855529
0.91536705 0.91737071 0.83128672
0.91886608 0.91886608 0.83935519
0.91886608 0.91886608 0.86154600
0.91886608 0.91886608 0.86533460
0.91886608 0.91886608 0.86533622
0.91886608 0.91886608 0.86534867
0.91886608 0.91886608 0.86540161
0.91886608 0.91886608 0.86558596
0.91886608 0.91886608 0.86617377
0.91886608 0.91886608 0.86797827
0.91886608 0.91886608 0.87341182
0.91886608 0.91886608 0.88911951
0.91886608 0.91886608 0.91886608
0.91886608 0.91886608 0.91886608
0.91886608 0.91886608 0.91886608
0.91886608 0.91886608 0.91886608
0.91886608 0.91886608 0.91886608
0.91886608 0.91886608 0.91886608
0.91886608 0.91886608 0.91886608
0.91886608 0.91886608 0.91886608
0.91886608 0.91886608 0.91886608
0.62786900 0.50788674 0.90816464
0.62867066 0.50820431 0.90816563
0.63460992 0.51060720 0.90817328
0.65640153 0.52019195 0.90820580
0.70752861 0.54751462 0.90831909
0.78742839 0.60314544 0.90868090
0.88199425 0.68525318 0.90979713
0.91886608 0.78292901 0.91320819
0.91886608 0.88767851 0.91886608
0.62829058 0.51202628 0.90816998
0.62908869 0.51232999 0.90817098
0.63500257 0.51462955 0.90817862
0.65671351 0.52382747 0.90821114
0.70771014 0.55024123 0.90832442
0.78750536 0.60466561 0.90868621
0.88202121 0.68589392 0.90980238
0.91886608 0.78315453 0.91321323
0.91886608 0.88774908 0.91886608
0.63146667 0.53884487 0.90821101
0.63223853 0.53907267 0.90821200
0.63796450 0.54080360 0.90821964
0.65907544 0.54783359 0.90825214
0.70909251 0.56889413 0.90836537
0.78809422 0.61558905 0.90872699
0.88222799 0.69067393 0.90984263
0.91886608 0.78486806 0.91325193
0.91886608 0.88828909 0.91886608
0.64390767 0.60656378 0.90838542
0.64458476 0.60667478 0.90838641
0.64962847 0.60752279 0.90839403
0.66851768 0.61104997 0.90842647
0.71475958 0.62240968 0.90853947
0.79055961 0.65166228 0.90890037
0.88310285 0.70867770 0.91001380
0.91886608 0.79182513 0.91341649
0.91886608 0.89055141 0.91886608
0.67771467 0.70327932 0.90899074
0.67818863 0.70331920 0.90899172
0.68175085 0.70362491 0.90899929
0.69556830 0.70491525 0.90903151
0.73220280 0.70928004 0.90914372
0.79867101 0.72203157 0.90950212
0.88608657 0.75327292 0.91060790
0.91886608 0.81263056 0.91398777
0.91886608 0.89801061 0.91886608
0.74137323 0.80808697 0.91090131
0.74161411 0.80809986 0.91090228
0.74344331 0.80819881 0.91090968
0.75085166 0.80861885 0.91094119
0.77285212 0.81006827 0.91105096
0.82065844 0.81456073 0.91140157
0.89501191 0.82726825 0.91248351
0.91886608 0.85840490 0.91579226
0.91886608 0.91833554 0.91886608
0.82806779 0.91164362 0.91658990
0.82816172 0.91164765 0.91659080
0.82887975 0.91167859 0.91659774
0.83187412 0.91181018 0.91662724
0.84159863 0.91226738 0.91673003
0.86711308 0.91371551 0.91705839
0.91807218 0.91807218 0.91807218
0.91886608 0.91886608 0.91886608
0.91886608 0.91886608 0.91886608
0.91886608 0.91886608 0.91886608
0.91886608 0.91886608 0.91886608
0.91886608 0.91886608 0.91886608
0.91886608 0.91886608 0.91886608
0.91886608 0.91886608 0.91886608
0.91886608 0.91886608 0.91886608
0.91886608 0.91886608 0.91886608
0.91886608 0.91886608 0.91886608
0.91886608 0.91886608 0.91886608
0.91886608 0.91886608 0.91886608
0.91886608 0.91886608 0.91886608
0.91886608 0.91886608 0.91886608
0.91886608 0.91886608 0.91886608
0.91886608 0.91886608 0.91886608
0.91886608 0.91886608 0.91886608
0.91886608 0.91886608 0.91886608
0.91886608 0.91886608 0.91886608
0.91886608 0.91886608 0.91886608
0.73458558 0.61040052 0.91886608
0.73484460 0.61050711 0.91886608
0.73680999 0.61132158 0.91886608
0.74474221 0.61471232 0.91886608
0.76806606 0.62566462 0.91886608
0.81784721 0.65406232 0.91886608
0.89380105 0.70999636 0.91886608
0.91886608 0.79236656 0.91886608
0.91886608 0.89073223 0.91886608
0.73472161 0.61180923 0.91886608
0.73498026 0.61191424 0.91886608
0.73694283 0.61271673 0.91886608
0.74486423 0.61605868 0.91886608
0.76816099 0.62686471 0.91886608
0.81790240 0.65495265 0.91886608
0.89382462 0.71048934 0.91886608
0.91886608 0.79257010 0.91886608
0.91886608 0.89080039 0.91886608
0.73575963 0.62197909 0.91886608
0.73601542 0.62207340 0.91886608
0.73795657 0.62279447 0.91886608
0.74579583 0.62580400 0.91886608
0.76888670 0.63560516 0.91886608
0.81832508 0.66152337 0.91886608
0.89400542 0.71419088 0.91886608
0.91886608 0.79411820 0.91886608
0.91886608 0.89132199 0.91886608
0.74005368 0.65607268 0.91886608
0.74029799 0.65613847 0.91886608
0.74215292 0.65664206 0.91886608
0.74966058 0.65875631 0.91886608
0.77191385 0.66577791 0.91886608
0.82010272 0.68528740 0.91886608
0.89477090 0.72849291 0.91886608
0.91886608 0.80043065 0.91886608
0.91886608 0.89350833 0.91886608
0.75364365 0.72414680 0.91886608
0.75385482 0.72417874 0.91886608
0.75546055 0.72442358 0.91886608
0.76200144 0.72545879 0.91886608
0.78175308 0.72898079 0.91886608
0.82604109 0.73944234 0.91886608
0.89738835 0.76604551 0.91886608
0.91886608 0.81954724 0.91886608
0.91886608 0.90072940 0.91886608
0.78723720 0.81534389 0.91886608
0.78738410 0.81535580 0.91886608
0.78850433 0.81544718 0.91886608
0.79312596 0.81583516 0.91886608
0.80762828 0.81717496 0.91886608
0.84279485 0.82133740 0.91886608
0.90527840 0.83318672 0.91886608
0.91886608 0.86262868 0.91886608
0.91886608 0.91886608 0.91886608
0.84864278 0.91397281 0.91886608
0.84871753 0.91397673 0.91886608
0.84928947 0.91400685 0.91886608
0.85168415 0.91413495 0.91886608
0.85956416 0.91458005 0.91886608
0.88092912 0.91599026 0.91886608
0.91886608 0.91886608 0.91886608
0.91886608 0.91886608 0.91886608
0.91886608 0.91886608 0.91886608
0.91886608 0.91886608 0.91886608
0.91886608 0.91886608 0.91886608
0.91886608 0.91886608 0.91886608
0.91886608 0.91886608 0.91886608
0.91886608 0.91886608 0.91886608
0.91886608 0.91886608 0.91886608
0.91886608 0.91886608 0.91886608
0.91886608 0.91886608 0.91886608
0.91886608 0.91886608 0.91886608
0.91886608 0.91886608 0.91886608
0.91886608 0.91886608 0.91886608
0.91886608 0.91886608 0.91886608
0.91886608 0.91886608 0.91886608
0.91886608 0.91886608 0.91886608
0.91886608 0.91886608 0.91886608
0.91886608 0.91886608 0.91886608
0.91886608 0.91886608 0.91886608
0.91886608 0.91886608 0.91886608
0.84350016 0.71901899 0.91886608
0.84357933 0.71905272 0.91886608
0.84418486 0.71931132 0.91886608
0.84671787 0.72040425 0.91886608
0.85502757 0.72411778 0.91886608
0.87738284 0.73510637 0.91886608
0.91886608 0.76280706 0.91886608
0.91886608 0.81775326 0.91886608
0.91886608 0.90001249 0.91886608
0.84354172 0.71946687 0.91886608
0.84362084 0.71950044 0.91886608
0.84422610 0.71975781 0.91886608
0.84675796 0.72084558 0.91886608
0.85506411 0.72454199 0.91886608
0.87741126 0.73548365 0.91886608
0.91886608 0.76308736 0.91886608
0.91886608 0.81790746 0.91886608
0.91886608 0.90007379 0.91886608
0.84386017 0.72283652 0.91886608
0.84393901 0.72286891 0.91886608
0.84454214 0.72311720 0.91886608
0.84706522 0.72416687 0.91886608
0.85534418 0.72773690 0.91886608
0.87762912 0.73833099 0.91886608
0.91886608 0.76521192 0.91886608
0.91886608 0.81908286 0.91886608
0.91886608 0.90054303 0.91886608
0.84520330 0.73596116 0.91886608
0.84528097 0.73598930 0.91886608
0.84587518 0.73620513 0.91886608
0.84836157 0.73711838 0.91886608
0.85652674 0.74023407 0.91886608
0.87855057 0.74956436 0.91886608
0.91886608 0.77374724 0.91886608
0.91886608 0.82392290 0.91886608
0.91886608 0.90251279 0.91886608
0.84973455 0.77109913 0.91886608
0.84980840 0.77111842 0.91886608
0.85037344 0.77126637 0.91886608
0.85273968 0.77189357 0.91886608
0.86053102 0.77404744 0.91886608
0.88168977 0.78062539 0.91886608
0.91886608 0.79852072 0.91886608
0.91886608 0.83902095 0.91886608
0.91886608 0.90905070 0.91886608
0.86287089 0.83564669 0.91886608
0.86293464 0.83565621 0.91886608
0.86342263 0.83572925 0.91886608
0.86547056 0.83603953 0.91886608
0.87226202 0.83711295 0.91886608
0.89104995 0.84046694 0.91886608
0.91886608 0.85016788 0.91886608
0.91886608 0.87515862 0.91886608
0.91886608 0.91886608 0.91886608
0.89449059 0.91886608 0.91886608
0.89453514 0.91886608 0.91886608
0.89487652 0.91886608 0.91886608
0.89631504 0.91886608 0.91886608
0.90115248 0.91886608 0.91886608
0.91504953 0.91886608 0.91886608
0.91886608 0.91886608 0.91886608
0.91886608 0.91886608 0.91886608
0.91886608 0.91886608 0.91886608
0.91886608 0.91886608 0.91886608
0.91886608 0.91886608 0.91886608
0.91886608 0.91886608 0.91886608
0.91886608 0.91886608 0.91886608
0.91886608 0.91886608 0.91886608
0.91886608 0.91886608 0.91886608
0.91886608 0.91886608 0.91886608
0.91886608 0.91886608 0.91886608
0.91886608 0.91886608 0.91886608
0.91886608 0.91886608 0.91886608
0.91886608 0.91886608 0.91886608
0.91886608 0.91886608 0.91886608
0.91886608 0.91886608 0.91886608
0.91886608 0.91886608 0.91886608
0.91886608 0.91886608 0.91886608
0.91886608 0.91886608 0.91886608
0.91886608 0.91886608 0.91886608
0.91886608 0.91886608 0.91886608
