src/ffmpeg_scripts/luts/sRGB-rec2020_0-Native.cube
TITLE "sRGB-rec2020_0-Native"
LUT_3D_SIZE 33
# PQ (EOTF Only)/sRGB -> PQ (EOTF Only)/Rec2020, CineEI Shift 0.00, Black Level 0.00% IRE, Input 100% -> Output 109% - Created with LUTCalc v4.01 by Ben Turley October 2020
0.06256172 0.06256172 0.06256172
0.08391898 0.06929226 0.06554293
0.10634427 0.07786768 0.06968582
0.12934844 0.08773679 0.07477294
0.15277466 0.09868295 0.08071362
0.17653919 0.11058121 0.08745790
0.20058884 0.12334765 0.09497424
0.22488638 0.13692101 0.10324127
0.24940415 0.15125409 0.11224389
0.27412064 0.16630907 0.12197117
0.29901863 0.18205483 0.13241513
0.32408396 0.19846518 0.14356991
0.34930475 0.21551770 0.15543130
0.37467090 0.23319290 0.16799634
0.40017368 0.25147369 0.18126306
0.42580548 0.27034489 0.19523030
0.45155958 0.28979290 0.20989754
0.47743001 0.30980550 0.22526481
0.50341142 0.33037157 0.24133261
0.52949901 0.35148098 0.25810180
0.55568840 0.37312444 0.27557357
0.58197561 0.39529339 0.29374940
0.60835701 0.41797991 0.31263102
0.63482924 0.44117667 0.33222036
0.66138923 0.46487683 0.35251952
0.68803410 0.48907399 0.37353080
0.71476121 0.51376218 0.39525662
0.74156808 0.53893578 0.41769953
0.76845239 0.56458950 0.44086220
0.79541199 0.59071835 0.46474739
0.82244484 0.61731763 0.48935797
0.84954903 0.64438287 0.51469689
0.87672275 0.67190983 0.54076716
0.07802102 0.08827020 0.07024905
0.08876165 0.08917540 0.07099817
0.10842929 0.09221057 0.07333353
0.13044231 0.09775216 0.07721983
0.15341432 0.10563695 0.08239746
0.17693921 0.11545263 0.08864838
0.20085061 0.12680844 0.09583539
0.22506336 0.13941559 0.10387570
0.24952676 0.15307605 0.11271810
0.27420721 0.16765496 0.12232971
0.29908067 0.18305859 0.13268867
0.32412894 0.19921975 0.14378013
0.34933769 0.21608865 0.15559378
0.37469521 0.23362723 0.16812248
0.40019174 0.25180550 0.18136134
0.42581896 0.27059924 0.19530706
0.45156968 0.28998839 0.20995762
0.47743760 0.30995604 0.22531189
0.50341715 0.33048764 0.24136952
0.52950333 0.35157054 0.25813075
0.55569166 0.37319355 0.27559626
0.58197808 0.39534671 0.29376718
0.60835888 0.41802102 0.31264493
0.63483065 0.44120833 0.33223122
0.66139029 0.46490117 0.35252799
0.68803490 0.48909266 0.37353739
0.71476181 0.51377647 0.39526173
0.74156853 0.53894669 0.41770348
0.76845273 0.56459779 0.44086524
0.79541224 0.59072464 0.46474972
0.82244503 0.61732237 0.48935976
0.84954917 0.64438643 0.51469824
0.87672286 0.67191249 0.54076818
0.09531309 0.11421055 0.07987005
0.10083405 0.11456198 0.08021420
0.11508660 0.11582232 0.08141885
0.13422151 0.11843651 0.08379702
0.15569258 0.12279443 0.08750580
0.17838367 0.12911425 0.09253157
0.20180247 0.13740409 0.09876860
0.22570938 0.14751448 0.10609421
0.24997534 0.15922622 0.11440370
0.27452435 0.17231770 0.12361752
0.29930812 0.18659741 0.13367798
0.32429399 0.20191193 0.14454389
0.34945858 0.21814258 0.15618594
0.37478444 0.23519870 0.16858323
0.40025801 0.25301098 0.18172085
0.42586843 0.27152603 0.19558820
0.45160676 0.29070221 0.21017781
0.47746549 0.31050655 0.22548453
0.50343817 0.33091258 0.24150495
0.52951920 0.35189869 0.25823698
0.55570366 0.37344696 0.27567957
0.58198715 0.39554231 0.29383245
0.60836574 0.41817187 0.31269600
0.63483584 0.44132452 0.33227112
0.66139421 0.46499051 0.35255909
0.68803786 0.48916122 0.37356158
0.71476404 0.51382895 0.39528049
0.74157020 0.53898674 0.41771798
0.76845398 0.56462826 0.44087641
0.79541317 0.59074773 0.46475829
0.82244572 0.61733980 0.48936630
0.84954968 0.64439952 0.51470322
0.87672323 0.67192228 0.54077194
0.11368031 0.14027042 0.09081164
0.11679100 0.14044851 0.09100582
0.12631793 0.14109646 0.09170507
0.14147552 0.14248593 0.09316923
0.16034512 0.14493387 0.09564867
0.18142607 0.14875817 0.09932225
0.20384051 0.15421887 0.10426470
0.22710543 0.16146660 0.11045862
0.25095006 0.17052411 0.11783267
0.27521581 0.18130696 0.12629785
0.29980514 0.19366607 0.13576948
0.32465514 0.20742947 0.14617608
0.34972337 0.22243084 0.15746096
0.37498002 0.23852387 0.16958055
0.40040335 0.25558656 0.18250199
0.42597696 0.27352018 0.19620071
0.45168813 0.29224602 0.21065849
0.47752668 0.31170169 0.22586195
0.50348430 0.33183770 0.24180132
0.52955403 0.35261459 0.25846966
0.55572999 0.37400065 0.27586212
0.58200707 0.39597018 0.29397554
0.60838080 0.41850214 0.31280800
0.63484723 0.44157907 0.33235863
0.66140281 0.46518634 0.35262734
0.68804434 0.48931155 0.37361466
0.71476892 0.51394405 0.39532166
0.74157386 0.53907461 0.41774981
0.76845672 0.56469512 0.44090093
0.79541522 0.59079840 0.46477710
0.82244724 0.61737805 0.48938067
0.84955081 0.64442826 0.51471414
0.87672406 0.67194376 0.54078020
0.13286253 0.16641546 0.10283704
0.13475298 0.16651762 0.10295796
0.14104242 0.16689117 0.10339782
0.15232018 0.16770184 0.10434049
0.16790991 0.16916139 0.10599985
0.18662123 0.17151910 0.10859023
0.20742069 0.17504143 0.11228942
0.22959932 0.17997832 0.11720849
0.25270919 0.18652425 0.12338346
0.27647177 0.19478794 0.13078933
0.30071167 0.20478323 0.13936465
0.32531568 0.21644276 0.14903415
0.35020857 0.22964531 0.15972368
0.37533885 0.24424494 0.17136767
0.40067023 0.26009343 0.18391158
0.42617639 0.27705407 0.19731166
0.45183772 0.29500786 0.21153362
0.47763922 0.31385494 0.22655096
0.50356915 0.33351329 0.24234350
0.52961812 0.35391637 0.25889596
0.55577844 0.37501047 0.27619698
0.58204371 0.39675230 0.29423823
0.60840852 0.41910687 0.31301376
0.63486818 0.44204576 0.33251949
0.66141863 0.46554573 0.35275281
0.68805628 0.48958763 0.37371228
0.71477790 0.51415555 0.39539739
0.74158061 0.53923614 0.41780837
0.76846177 0.56481805 0.44094604
0.79541899 0.59089161 0.46481172
0.82245004 0.61744841 0.48940711
0.84955288 0.64448113 0.51473424
0.87672559 0.67198328 0.54079539
0.15271683 0.19262763 0.11581022
0.15392970 0.19269068 0.11589004
0.15813735 0.19292169 0.11618169
0.16627359 0.19342565 0.11681341
0.17853155 0.19434198 0.11794683
0.19438009 0.19584616 0.11976796
0.21298728 0.19814698 0.12246910
0.23357752 0.20147545 0.12622313
0.25556152 0.20606390 0.13115811
0.27852988 0.21211784 0.13734273
0.30220754 0.21978751 0.14478759
0.32641072 0.22914882 0.15345899
0.35101548 0.24020001 0.16329725
0.37593693 0.25287381 0.17423276
0.40111575 0.26705858 0.18619689
0.42650967 0.28262079 0.19912791
0.45208790 0.29942314 0.21297324
0.47782754 0.31733648 0.22768970
0.50371121 0.33624603 0.24324265
0.52972544 0.35605346 0.25960478
0.55585960 0.37667657 0.27675484
0.58210511 0.39804761 0.29467651
0.60845496 0.42011129 0.31335743
0.63490329 0.44282259 0.33278839
0.66144515 0.46614494 0.35296269
0.68807628 0.49004853 0.37387566
0.71479295 0.51450899 0.39552418
0.74159191 0.53950626 0.41790644
0.76847024 0.56502376 0.44102161
0.79542531 0.59104764 0.46486971
0.82245474 0.61756624 0.48945141
0.84955636 0.64456968 0.51476791
0.87672816 0.67204948 0.54082085
0.17315044 0.21889566 0.12964007
0.17395960 0.21893649 0.12969484
0.17683051 0.21908627 0.12989539
0.18264377 0.21941386 0.13033213
0.19197202 0.22001248 0.13112368
0.20485693 0.22100340 0.13241625
0.22088000 0.22253865 0.13437820
0.23941447 0.22480035 0.13718738
0.25984502 0.22799429 0.14101177
0.28166944 0.23233628 0.14598830
0.30451373 0.23803145 0.15220675
0.32811120 0.24525014 0.15970443
0.35227481 0.25410664 0.16847213
0.37687358 0.26464748 0.17846733
0.40181520 0.27685243 0.18962884
0.42703382 0.29064682 0.20188910
0.45248186 0.30591979 0.21518243
0.47812436 0.32254286 0.22944962
0.50393526 0.34038494 0.24463980
0.52989480 0.35932242 0.26071068
0.55598771 0.37924464 0.27762790
0.58220206 0.40005595 0.29536403
0.60852831 0.42167565 0.31389749
0.63495876 0.44403670 0.33321152
0.66148705 0.46708393 0.35329331
0.68810787 0.49077225 0.37413322
0.71481674 0.51506482 0.39572419
0.74160977 0.53993158 0.41806120
0.76848361 0.56534794 0.44114091
0.79543529 0.59129369 0.46496128
0.82246216 0.61775215 0.48952138
0.84956185 0.64470946 0.51482111
0.87673220 0.67215402 0.54086107
0.19409736 0.24521171 0.14426019
0.19465307 0.24523909 0.14429881
0.19665007 0.24533954 0.14444038
0.20080958 0.24555957 0.14474964
0.20778148 0.24596274 0.14531334
0.21793535 0.24663323 0.14624254
0.23125586 0.24767965 0.14767296
0.24740545 0.24923778 0.14976118
0.26588715 0.25147102 0.15267508
0.28619332 0.25456667 0.15657867
0.30788688 0.25872660 0.16161409
0.33062462 0.26415176 0.16788560
0.35414992 0.27102208 0.17545083
0.37827553 0.27947599 0.18432139
0.40286599 0.28959482 0.19447139
0.42782337 0.30139680 0.20584980
0.45307644 0.31484177 0.21839273
0.47857297 0.32984410 0.23203304
0.50427424 0.34628934 0.24670678
0.53015121 0.36405027 0.26235663
0.55618179 0.38299943 0.27893329
0.58234899 0.40301752 0.29639562
0.60863952 0.42399790 0.31471000
0.63504287 0.44584830 0.33384942
0.66155059 0.46849061 0.35379251
0.68815580 0.49185974 0.37452258
0.71485282 0.51590200 0.39602681
0.74163687 0.54057334 0.41829554
0.76850390 0.56583777 0.44132164
0.79545044 0.59166587 0.46510007
0.82247342 0.61803359 0.48962746
0.84957019 0.64492119 0.51490178
0.87673835 0.67231244 0.54092208
0.21550780 0.27157004 0.15961940
0.21589798 0.27158886 0.15964719
0.21731085 0.27165797 0.15974914
0.22030600 0.27180946 0.15997222
0.22547610 0.27208749 0.16038022
0.23331133 0.27255114 0.16105661
0.24406724 0.27327789 0.16210703
0.25770752 0.27436710 0.16365988
0.27395336 0.27594273 0.16586352
0.29239583 0.27815447 0.16887886
0.31260368 0.28117569 0.17286697
0.33418984 0.28519691 0.17797349
0.35683729 0.29041392 0.18431329
0.38029972 0.29701108 0.19195994
0.40439131 0.30514241 0.20094259
0.42897392 0.31491456 0.21125072
0.45394533 0.32637656 0.22284397
0.47922990 0.33951863 0.23566359
0.50477140 0.35428000 0.24964272
0.53052770 0.37056266 0.26471418
0.55646700 0.38824679 0.28081527
0.58256504 0.40720479 0.29789039
0.60880311 0.42731178 0.31589191
0.63516664 0.44845237 0.33478012
0.66164413 0.47052416 0.35452252
0.68822637 0.49343884 0.37509297
0.71490595 0.51712180 0.39647074
0.74167678 0.54151087 0.41863965
0.76853379 0.56655480 0.44158725
0.79547274 0.59221152 0.46530416
0.82249001 0.61844669 0.48978353
0.84958247 0.64523227 0.51502050
0.87674740 0.67254535 0.54101189
0.23734262 0.29796620 0.17567679
0.23762135 0.29797940 0.17569710
0.23863541 0.29802788 0.17577163
0.24080941 0.29813421 0.17593491
0.24463694 0.29832955 0.17623416
0.25060699 0.29865586 0.17673205
0.25910380 0.29916871 0.17750958
0.27031555 0.29994048 0.17866850
0.28419979 0.30106350 0.18033197
0.30052134 0.30265289 0.18264258
0.31893422 0.30484796 0.18575632
0.33906365 0.30781139 0.18983226
0.36056171 0.31172455 0.19501883
0.38313354 0.31677827 0.20143921
0.40654264 0.32315881 0.20917985
0.43060553 0.33103063 0.21828485
0.45518246 0.34051927 0.22875762
0.48016802 0.35169837 0.24056828
0.50548290 0.36458430 0.25366396
0.53106739 0.37913949 0.26797924
0.55687634 0.39528288 0.28344478
0.58287540 0.41290406 0.29999343
0.60903828 0.43187774 0.31756384
0.63534466 0.45207579 0.33610224
0.66177871 0.47337594 0.35556294
0.68832794 0.49566698 0.37590794
0.71498244 0.51885126 0.39710626
0.74173424 0.54284512 0.41913300
0.76857683 0.56757819 0.44196848
0.79550487 0.59299205 0.46559735
0.82251391 0.61903863 0.49000787
0.84960017 0.64567859 0.51519125
0.87676044 0.67287986 0.54114111
0.25957009 0.32439665 0.19239865
0.25977194 0.32440605 0.19241368
0.26050853 0.32444059 0.19246883
0.26209931 0.32451638 0.19258972
0.26493762 0.32465568 0.19281160
0.26945633 0.32488864 0.19318160
0.27606724 0.32525541 0.19376153
0.28508273 0.32580879 0.19463065
0.29664937 0.32661713 0.19588785
0.31072491 0.32776737 0.19765256
0.32710751 0.32936776 0.20006327
0.34549796 0.33154967 0.20327263
0.36556454 0.33446743 0.20743859
0.38699058 0.33829513 0.21271205
0.40949991 0.34321923 0.21922316
0.43286503 0.34942672 0.22706915
0.45690514 0.35708948 0.23630705
0.48147969 0.36634750 0.24695285
0.50648077 0.37729437 0.25898663
0.53182603 0.38996885 0.27236168
0.55745272 0.40435437 0.28701467
0.58331299 0.42038636 0.30287490
0.60937017 0.43796467 0.31987139
0.63559608 0.45696780 0.33793752
0.66196888 0.47726600 0.35701368
0.68847152 0.49873156 0.37704831
0.71509061 0.52124559 0.39799793
0.74181551 0.54470182 0.41982666
0.76863772 0.56900804 0.44250536
0.79555033 0.59408599 0.46601076
0.82254772 0.61987024 0.49032451
0.84962520 0.64630678 0.51543242
0.87677889 0.67335134 0.54132372
0.28216388 0.35085850 0.20975665
0.28231167 0.35086529 0.20976787
0.28285205 0.35089020 0.20980906
0.28402482 0.35094488 0.20989941
0.28613642 0.35104543 0.21006537
0.28954721 0.35121370 0.21034254
0.29464062 0.35147892 0.21077805
0.30177087 0.35187978 0.21143312
0.31120037 0.35246682 0.21238572
0.32304905 0.35330522 0.21373274
0.33727762 0.35447762 0.21559097
0.35371033 0.35608693 0.21809609
0.37208382 0.35825832 0.22139860
0.39210006 0.36113960 0.22565604
0.41346764 0.36489906 0.23102186
0.43592619 0.36971958 0.23763230
0.45925627 0.37578842 0.24559401
0.48327984 0.38328312 0.25497538
0.50785599 0.39235515 0.26580376
0.53287483 0.40311457 0.27806861
0.55825145 0.41561933 0.29172931
0.58392045 0.42987166 0.30672494
0.60983153 0.44582253 0.32298393
0.63594594 0.46338208 0.34043191
0.66223371 0.48243338 0.35899735
0.68867159 0.50284610 0.37861499
0.71524139 0.52448809 0.39922749
0.74192885 0.54723359 0.42078592
0.76872265 0.57096839 0.44324948
0.79561375 0.59559218 0.46658472
0.82259489 0.62101904 0.49076470
0.84966014 0.64717679 0.51576803
0.87680464 0.67400559 0.54157803
0.30510172 0.37734936 0.22772649
0.30521089 0.37735430 0.22773494
0.30561059 0.37737246 0.22776594
0.30648095 0.37741230 0.22783396
0.30805792 0.37748559 0.22795899
0.31063137 0.37760830 0.22816801
0.31453266 0.37780186 0.22849698
0.32010547 0.37809476 0.22899305
0.32766071 0.37852444 0.22971709
0.33742520 0.37913962 0.23074621
0.34950140 0.38000287 0.23217589
0.36385412 0.38119347 0.23412114
0.38032851 0.38281009 0.23671582
0.39868936 0.38497301 0.24010923
0.41866551 0.38782495 0.24445923
0.43998623 0.39152968 0.24992194
0.46240452 0.39626728 0.25663926
0.48570803 0.40222531 0.26472628
0.50972136 0.40958588 0.27426161
0.53430350 0.41850998 0.28528293
0.55934296 0.42912162 0.29778846
0.58475261 0.44149532 0.31174341
0.61046471 0.45565013 0.32708937
0.63642676 0.47155127 0.34375411
0.66259807 0.48911880 0.36166014
0.68894706 0.50824056 0.38073124
0.71544914 0.52878619 0.40089659
0.74208507 0.55061969 0.42209317
0.76883975 0.57360907 0.44426660
0.79570122 0.59763261 0.46737109
0.82265997 0.62258225 0.49136888
0.84970835 0.64836474 0.51622933
0.87684017 0.67490132 0.54192796
0.32836447 0.40386717 0.24628711
0.32844569 0.40387080 0.24629350
0.32874335 0.40388414 0.24631698
0.32939299 0.40391341 0.24636850
0.33057521 0.40396726 0.24646323
0.33251859 0.40405745 0.24662172
0.33549724 0.40419980 0.24687144
0.33981765 0.40441536 0.24724868
0.34579167 0.40473199 0.24780070
0.35369728 0.40518608 0.24858818
0.36373552 0.40582482 0.24968769
0.37599718 0.40670872 0.25119381
0.39045160 0.40791431 0.25322048
0.40696096 0.40953693 0.25590053
0.42531266 0.41169302 0.25938287
0.44525730 0.41452135 0.26382625
0.46654122 0.41818224 0.26938977
0.48892873 0.42285374 0.27622076
0.51221365 0.42872390 0.28444213
0.53622302 0.43597894 0.29414186
0.56081580 0.44478805 0.30536713
0.58587917 0.45528730 0.31812425
0.61132403 0.46756583 0.33238396
0.63708054 0.48165759 0.34809024
0.66309421 0.49754083 0.36517024
0.68932258 0.51514482 0.38354344
0.71573257 0.53436196 0.40312898
0.74229835 0.55506198 0.42385057
0.76899970 0.57710538 0.44563948
0.79582074 0.60035420 0.46843587
0.82274892 0.62467956 0.49218897
0.84977425 0.64996594 0.51685664
0.87688876 0.67611299 0.54240451
0.35193551 0.43041019 0.26541997
0.35199629 0.43041288 0.26542483
0.35221918 0.43042274 0.26544269
0.35270642 0.43044438 0.26548190
0.35359586 0.43048421 0.26555401
0.35506560 0.43055093 0.26567471
0.35733640 0.43065627 0.26586506
0.36066804 0.43081589 0.26615295
0.36534598 0.43105052 0.26657500
0.37165657 0.43138744 0.26717865
0.37985251 0.43186218 0.26802453
0.39011588 0.43252068 0.26918897
0.40252967 0.43342173 0.27076608
0.41706786 0.43463968 0.27286925
0.43360674 0.43626723 0.27563099
0.45195218 0.43841783 0.27920047
0.47187261 0.44122724 0.28373795
0.49312857 0.44485326 0.28940580
0.51549392 0.44947263 0.29635675
0.53876781 0.45527429 0.30472116
0.56277939 0.46244831 0.31459575
0.58738761 0.47117134 0.32603651
0.61247846 0.48159018 0.33905729
0.63796108 0.49380694 0.35363391
0.66376373 0.50786899 0.36971251
0.68983008 0.52376626 0.38721947
0.71611604 0.54143636 0.40607123
0.74258715 0.56077579 0.42618221
0.76921644 0.58165416 0.44747061
0.79598278 0.60392846 0.46986198
0.82286955 0.62745490 0.49329093
0.84986365 0.65209758 0.51770168
0.87695468 0.67773370 0.54304771
0.37580020 0.45697690 0.28510861
0.37584589 0.45697889 0.28511232
0.37601354 0.45698622 0.28512597
0.37638045 0.45700232 0.28515591
0.37705171 0.45703193 0.28521101
0.37816508 0.45708154 0.28530326
0.37989539 0.45715990 0.28544882
0.38245579 0.45727868 0.28566918
0.38609325 0.45745338 0.28599264
0.39107563 0.45770446 0.28645614
0.39766878 0.45805868 0.28710735
0.40610588 0.45855083 0.28800704
0.41655494 0.45922583 0.28923146
0.42909386 0.46014107 0.29087466
0.44370116 0.46136918 0.29304996
0.46026505 0.46300076 0.29589010
0.47860666 0.46514699 0.29954515
0.49850919 0.46794142 0.30417740
0.51974507 0.47154012 0.30995285
0.54209618 0.47611924 0.31702975
0.56536619 0.48186902 0.32554568
0.58938602 0.48898347 0.33560570
0.61401456 0.49764620 0.34727407
0.63913669 0.50801385 0.36057159
0.66465992 0.52020027 0.37547876
0.69051074 0.53426489 0.39194347
0.71663115 0.55020810 0.40989113
0.74297554 0.56797487 0.42923488
0.76950817 0.58746506 0.44988432
0.79620102 0.60854774 0.47175199
0.82303211 0.63107610 0.49475759
0.84998417 0.65490046 0.51883017
0.87704358 0.67987792 0.54390888
0.39994555 0.48356595 0.30533831
0.39998003 0.48356744 0.30534116
0.40010658 0.48357291 0.30535161
0.40038376 0.48358493 0.30537455
0.40089169 0.48360704 0.30541676
0.40173645 0.48364409 0.30548746
0.40305495 0.48370262 0.30559906
0.40501838 0.48379136 0.30576811
0.40783273 0.48392195 0.30601650
0.41173377 0.48410974 0.30637291
0.41697463 0.48437490 0.30687462
0.42380473 0.48474377 0.30756959
0.43244206 0.48525052 0.30851879
0.44304422 0.48593921 0.30979869
0.45568592 0.48686612 0.31150354
0.47035011 0.48810249 0.31374701
0.48693518 0.48973734 0.31666259
0.50527503 0.49188016 0.32040180
0.52516524 0.49466297 0.32512949
0.54638813 0.49824083 0.33101569
0.56873233 0.50278998 0.33822435
0.59200527 0.50850247 0.34690026
0.61603927 0.51557643 0.35715650
0.64069305 0.52420224 0.36906516
0.66585040 0.53454579 0.38265354
0.69141730 0.54673173 0.39790626
0.71731858 0.56083039 0.41477257
0.74349466 0.57685147 0.43317652
0.76989856 0.59474621 0.45302762
0.79649334 0.61441696 0.47423037
0.82325000 0.63573156 0.49669148
0.85014579 0.65853897 0.52032464
0.87716284 0.68268331 0.54505324
0.42435996 0.51017617 0.32609580
0.42438605 0.51017728 0.32609798
0.42448184 0.51018138 0.32610600
0.42469177 0.51019038 0.32612361
0.42507691 0.51020695 0.32615602
0.42571874 0.51023471 0.32621031
0.42672367 0.51027857 0.32629604
0.42822723 0.51034509 0.32642596
0.43039695 0.51044300 0.32661697
0.43343219 0.51058386 0.32689134
0.43755903 0.51078289 0.32727810
0.44301837 0.51106000 0.32781489
0.45004641 0.51144118 0.32854999
0.45884939 0.51196006 0.32954472
0.46957722 0.51265998 0.33087592
0.48230285 0.51359636 0.33263832
0.49701353 0.51483936 0.33494633
0.51361648 0.51647681 0.33793466
0.53195641 0.51861705 0.34175678
0.55183926 0.52139116 0.34658063
0.57305565 0.52495386 0.35258070
0.59539980 0.52948213 0.35992692
0.61868218 0.53517035 0.36877133
0.64273614 0.54222111 0.37923489
0.66742012 0.55083158 0.39139720
0.69261674 0.56117651 0.40529154
0.71823053 0.57339066 0.42090619
0.74418474 0.58755429 0.43819123
0.77041833 0.60368530 0.45706879
0.79688299 0.62174005 0.47744439
0.82354071 0.64162234 0.49921704
0.85036158 0.66319791 0.52228733
0.87732216 0.68631085 0.54656278
0.44903295 0.53680649 0.34736900
0.44905274 0.53680733 0.34737068
0.44912539 0.53681041 0.34737684
0.44928470 0.53681717 0.34739038
0.44957720 0.53682961 0.34741530
0.45006535 0.53685047 0.34745705
0.45083145 0.53688342 0.34752299
0.45198173 0.53693340 0.34762295
0.45365008 0.53700699 0.34777000
0.45600040 0.53711289 0.34798136
0.45922609 0.53726259 0.34827962
0.46354491 0.53747116 0.34869417
0.46918763 0.53775831 0.34926301
0.47637989 0.53814968 0.35003479
0.48531885 0.53867847 0.35107128
0.49614889 0.53938746 0.35244987
0.50894228 0.54033136 0.35426600
0.52369047 0.54157954 0.35663520
0.54030840 0.54321902 0.35969380
0.55865004 0.54535741 0.36359774
0.57853003 0.54812541 0.36851853
0.59974591 0.55167802 0.37463562
0.62209647 0.55619358 0.38212526
0.64539456 0.56186940 0.39114690
0.66947421 0.56891293 0.40182932
0.69419331 0.57752828 0.41425935
0.71943335 0.58789893 0.42847586
0.74509737 0.60016923 0.44447019
0.77110714 0.61442852 0.46219264
0.79740020 0.63070179 0.48156288
0.82392705 0.64894935 0.50248182
0.85064862 0.66907527 0.52484259
0.87753423 0.69094216 0.54853926
0.47395506 0.56345597 0.36914690
0.47397009 0.56345660 0.36914820
0.47402527 0.56345892 0.36915294
0.47414631 0.56346401 0.36916336
0.47436869 0.56347338 0.36918254
0.47474022 0.56348907 0.36921467
0.47532431 0.56351387 0.36926542
0.47620361 0.56355149 0.36934239
0.47748381 0.56360689 0.36945565
0.47929701 0.56368664 0.36961853
0.48180366 0.56379941 0.36984856
0.48519185 0.56395661 0.37016862
0.48967224 0.56417317 0.37060845
0.49546730 0.56446860 0.37120638
0.50279427 0.56486825 0.37201155
0.51184341 0.56540498 0.37308622
0.52275526 0.56612110 0.37450849
0.53560230 0.56707079 0.37637478
0.55038008 0.56832286 0.37880202
0.56701044 0.56996384 0.38192859
0.58535525 0.57210104 0.38591338
0.60523653 0.57486527 0.39093202
0.62645751 0.57841239 0.39716938
0.64882064 0.58292274 0.40480845
0.67214053 0.58859714 0.41401634
0.69625146 0.59564844 0.42492970
0.72101065 0.60428798 0.43764238
0.74629830 0.61470797 0.45219839
0.77201601 0.62706196 0.46859156
0.79808406 0.64144761 0.48677172
0.82443869 0.65789597 0.50665536
0.85102923 0.67637001 0.52813816
0.87781569 0.69677275 0.55110676
0.49911763 0.59012376 0.39141942
0.49912905 0.59012423 0.39142041
0.49917100 0.59012598 0.39142407
0.49926303 0.59012982 0.39143209
0.49943220 0.59013687 0.39144685
0.49971506 0.59014870 0.39147158
0.50016031 0.59016739 0.39151066
0.50083193 0.59019574 0.39156993
0.50181258 0.59023750 0.39165717
0.50320719 0.59029762 0.39178269
0.50514596 0.59038265 0.39196005
0.50778615 0.59050123 0.39220704
0.51131117 0.59066467 0.39254680
0.51592569 0.59088778 0.39300941
0.52184539 0.59118988 0.39363360
0.52928094 0.59159609 0.39446896
0.53841750 0.59213895 0.39557838
0.54939318 0.59286044 0.39704080
0.56228136 0.59381434 0.39895386
0.57708167 0.59506915 0.40143616
0.59372214 0.59671115 0.40462855
0.61207149 0.59884776 0.40869335
0.63195791 0.60161036 0.41381084
0.65318929 0.60515625 0.42017187
0.67557092 0.60966838 0.42796664
0.69891853 0.61535175 0.43737024
0.72306631 0.62242516 0.44852727
0.74787052 0.63110763 0.46153846
0.77321005 0.64160020 0.47645255
0.79898496 0.65406536 0.49326522
0.82511413 0.66860845 0.51192501
0.85153249 0.68526544 0.53234445
0.87818831 0.70400061 0.55441321
0.52451275 0.61680907 0.41417722
0.52452144 0.61680943 0.41417799
0.52455333 0.61681075 0.41418080
0.52462333 0.61681364 0.41418697
0.52475203 0.61681896 0.41419833
0.52496735 0.61682788 0.41421737
0.52530663 0.61684197 0.41424745
0.52581915 0.61686335 0.41429308
0.52656913 0.61689484 0.41436026
0.52763899 0.61694019 0.41445694
0.52913270 0.61700434 0.41459362
0.53117860 0.61709382 0.41478405
0.53393099 0.61721720 0.41504625
0.53756920 0.61738571 0.41540364
0.54229290 0.61761403 0.41588660
0.54831232 0.61792133 0.41653426
0.55583307 0.61833250 0.41739672
0.56503671 0.61887986 0.41853758
0.57606011 0.61960510 0.42003676
0.58897819 0.62056178 0.42199330
0.60379463 0.62181825 0.42452783
0.62044308 0.62346085 0.42778401
0.63879823 0.62559741 0.43192812
0.65869345 0.62836039 0.43714561
0.67994033 0.63190905 0.44363391
0.70234618 0.63642961 0.45159095
0.72572734 0.64213192 0.46120023
