src/ffmpeg_scripts/luts/sRGB-rec2020_3p67.cube
TITLE "sRGB-rec2020_3p67"
LUT_3D_SIZE 5
# PQ (EOTF Only)/sRGB -> PQ (EOTF Only)/Rec2020, CineEI Shift 3.67, Black Level 0.00% IRE, Input 100% -> Output 109% - Created with LUTCalc v4.01 by Ben Turley October 2020
0.06256172 0.06256172 0.06256172
0.42369608 0.26877340 0.19405702
0.67765123 0.47959526 0.36526623
0.89689716 0.69259744 0.56055367
0.91886608 0.90712200 0.77481746
0.37382985 0.45479457 0.28347134
0.45807561 0.46080547 0.29420702
0.68034119 0.52757009 0.38488634
0.89714563 0.69888555 0.56304034
0.91886608 0.90773768 0.77507514
0.61803464 0.71329702 0.50026009
0.62732990 0.71368829 0.50115191
0.71699565 0.72006428 0.51505002
0.90124047 0.76825182 0.59740204
0.91886608 0.91752932 0.77932386
0.83798786 0.91886608 0.71517900
0.83890387 0.91886608 0.71527012
0.85311732 0.91886608 0.71679659
0.91886608 0.91886608 0.73113402
0.91886608 0.91886608 0.81424343
0.91886608 0.91886608 0.91886608
0.91886608 0.91886608 0.91886608
0.91886608 0.91886608 0.91886608
0.91886608 0.91886608 0.91886608
0.91886608 0.91886608 0.91886608
0.24212858 0.17848387 0.45261453
0.42904932 0.27795029 0.45411253
0.67800947 0.48036985 0.47627013
0.89692989 0.69267776 0.58322914
0.91886608 0.90712964 0.77740654
0.38312069 0.45581088 0.46038121
0.46175675 0.46175675 0.46175675
0.68068938 0.52803170 0.48231464
0.89717826 0.69896068 0.58518913
0.91886608 0.90774526 0.77765711
0.61870654 0.71336147 0.53957594
0.62793912 0.71375248 0.54016111
0.71723163 0.72012425 0.54953262
0.90127160 0.76828757 0.61332506
0.91886608 0.91753609 0.78179114
0.83805140 0.91886608 0.72003233
0.83896676 0.91886608 0.72011886
0.85317100 0.91886608 0.72156898
0.91886608 0.91886608 0.73524326
0.91886608 0.91886608 0.81593581
0.91886608 0.91886608 0.91886608
0.91886608 0.91886608 0.91886608
0.91886608 0.91886608 0.91886608
0.91886608 0.91886608 0.91886608
0.91886608 0.91886608 0.91886608
0.44077148 0.33889642 0.71083317
0.49030441 0.35984640 0.71092860
0.68386571 0.49255586 0.71252674
0.89748097 0.69402466 0.72748205
0.91886608 0.90725854 0.81277527
0.47006509 0.47145483 0.71134448
0.50845155 0.47648535 0.71143940
0.68638641 0.53550471 0.71302893
0.89772778 0.70022119 0.72791034
0.91886608 0.90787325 0.81294571
0.62939258 0.71444391 0.71958788
0.63768096 0.71483044 0.71967482
0.72113178 0.72113178 0.72113178
0.90179600 0.76888969 0.73486563
0.91886608 0.91765040 0.81577849
0.83911828 0.91886608 0.77775693
0.84002291 0.91886608 0.77780347
0.85407328 0.91886608 0.77858633
0.91886608 0.91886608 0.78623621
0.91886608 0.91886608 0.84058914
0.91886608 0.91886608 0.91886608
0.91886608 0.91886608 0.91886608
0.91886608 0.91886608 0.91886608
0.91886608 0.91886608 0.91886608
0.91886608 0.91886608 0.91886608
0.64919410 0.52804337 0.91886608
0.65597162 0.53080200 0.91886608
0.72910930 0.56817101 0.91886608
0.90292828 0.70680038 0.91886608
0.91886608 0.90856656 0.91886608
0.65281166 0.55940205 0.91886608
0.65934336 0.56138368 0.91886608
0.73067448 0.58977187 0.91886608
0.90316017 0.71223191 0.91886608
0.91886608 0.90917211 0.91886608
0.69924401 0.72485581 0.91886608
0.70329016 0.72520178 0.91886608
0.75378787 0.73086216 0.91886608
0.90698765 0.77483535 0.91886608
0.91886608 0.91881136 0.91886608
0.84936360 0.91886608 0.91886608
0.85017113 0.91886608 0.91886608
0.86281655 0.91886608 0.91886608
0.91886608 0.91886608 0.91886608
0.91886608 0.91886608 0.91886608
0.91886608 0.91886608 0.91886608
0.91886608 0.91886608 0.91886608
0.91886608 0.91886608 0.91886608
0.91886608 0.91886608 0.91886608
0.91886608 0.91886608 0.91886608
0.86470643 0.74060593 0.91886608
0.86538689 0.74089832 0.91886608
0.87615956 0.74570513 0.91886608
0.91886608 0.78435145 0.91886608
0.91886608 0.91886608 0.91886608
0.86506421 0.74442391 0.91886608
0.86574195 0.74470458 0.91886608
0.87647405 0.74932367 0.91886608
0.91886608 0.78675100 0.91886608
0.91886608 0.91886608 0.91886608
0.87090143 0.79262395 0.91886608
0.87153618 0.79279076 0.91886608
0.88162535 0.79556445 0.91886608
0.91886608 0.81995561 0.91886608
0.91886608 0.91886608 0.91886608
0.91532161 0.91886608 0.91886608
0.91570426 0.91886608 0.91886608
0.91886608 0.91886608 0.91886608
0.91886608 0.91886608 0.91886608
0.91886608 0.91886608 0.91886608
0.91886608 0.91886608 0.91886608
0.91886608 0.91886608 0.91886608
0.91886608 0.91886608 0.91886608
0.91886608 0.91886608 0.91886608
0.91886608 0.91886608 0.91886608
