src/ffmpeg_scripts/luts/sRGB-rec2020_2p67.cube
TITLE "sRGB-rec2020_2p67"
LUT_3D_SIZE 5
# PQ (EOTF Only)/sRGB -> PQ (EOTF Only)/Rec2020, CineEI Shift 2.67, Black Level 0.00% IRE, Input 100% -> Output 109% - Created with LUTCalc v4.01 by Ben Turley October 2020
0.06256172 0.06256172 0.06256172
0.37022174 0.23005557 0.16574677
0.61359064 0.42253192 0.31645290
0.83351644 0.62832577 0.49962828
0.91886608 0.84395703 0.71008695
0.32427080 0.39922470 0.24299721
0.40229930 0.40485949 0.25250331
0.61623960 0.46803835 0.33439722
0.83376997 0.63453715 0.50201947
0.91886608 0.84458619 0.71034499
0.55523136 0.64879938 0.44206728
0.56428568 0.64918712 0.44291264
0.65246564 0.65550922 0.45611080
0.83794953 0.70351572 0.53519494
0.91886608 0.85459955 0.71460130
0.77366723 0.86863127 0.65066459
0.77459381 0.86866725 0.65075491
0.78898798 0.86927303 0.65226825
0.87224780 0.87524455 0.66650224
0.91886608 0.91886608 0.74969421
0.91886608 0.91886608 0.86615957
0.91886608 0.91886608 0.86616835
0.91886608 0.91886608 0.86631654
0.91886608 0.91886608 0.86781879
0.91886608 0.91886608 0.88173743
0.20682293 0.15270605 0.39718334
0.37519602 0.23812583 0.39858592
0.61394334 0.42326232 0.41939817
0.83354983 0.62840506 0.52148156
0.91886608 0.84396483 0.71268020
0.33277766 0.40017677 0.40446147
0.40575209 0.40575209 0.40575209
0.61658258 0.46847879 0.42509680
0.83380327 0.63461140 0.52337553
0.91886608 0.84459394 0.71293122
0.55588527 0.64886325 0.47950920
0.56487970 0.64925072 0.48006911
0.65269963 0.65556871 0.48904639
0.83798131 0.70355149 0.55065036
0.91886608 0.85460648 0.71707435
0.77373150 0.86863719 0.65547752
0.77465744 0.86867316 0.65556336
0.78904240 0.86927891 0.65700224
0.87226945 0.87525004 0.67058840
0.91886608 0.91886608 0.75139996
0.91886608 0.91886608 0.86663790
0.91886608 0.91886608 0.86664663
0.91886608 0.91886608 0.86679403
0.91886608 0.91886608 0.86828829
0.91886608 0.91886608 0.88213871
0.38611508 0.29252359 0.64635844
0.43264297 0.31151669 0.64645297
0.61971242 0.43477219 0.64803615
0.83411216 0.62973495 0.66287323
0.91886608 0.84409655 0.74821483
0.41355753 0.41486483 0.64686491
0.44983905 0.41960092 0.64695893
0.62219752 0.47561578 0.64853374
0.83436402 0.63585741 0.66329871
0.91886608 0.84472473 0.74838656
0.56629719 0.64993597 0.65503660
0.57438828 0.65031909 0.65512285
0.65656839 0.65656839 0.65656839
0.83851675 0.70415382 0.67021277
0.91886608 0.85472346 0.75124138
0.77481072 0.86873712 0.71303123
0.77572596 0.86877306 0.71307786
0.78995721 0.86937812 0.71386224
0.87263455 0.87534279 0.72153231
0.91886608 0.91886608 0.77629890
0.91886608 0.91886608 0.87435323
0.91886608 0.91886608 0.87436124
0.91886608 0.91886608 0.87449635
0.91886608 0.91886608 0.87586717
0.91886608 0.91886608 0.88865638
0.58564932 0.46848993 0.86621934
0.59229024 0.47112307 0.86622811
0.66448997 0.50695731 0.86637620
0.83967298 0.64236545 0.86787746
0.91886608 0.84543330 0.88178756
0.58919289 0.49852132 0.86626643
0.59559724 0.50042627 0.86627520
0.66604547 0.52780703 0.86642321
0.83990979 0.64774404 0.86792367
0.91886608 0.84605223 0.88182705
0.63489145 0.66026493 0.86705837
0.63889224 0.66060846 0.86706706
0.68906475 0.66623202 0.86721376
0.84381975 0.71010487 0.86870104
0.91886608 0.85591164 0.88249173
0.78518352 0.86975323 0.87477953
0.78600178 0.86978876 0.87478750
0.79882825 0.87038695 0.87492197
0.87628625 0.87628625 0.87628625
0.91886608 0.91886608 0.88901893
0.91886608 0.91886608 0.91886608
0.91886608 0.91886608 0.91886608
0.91886608 0.91886608 0.91886608
0.91886608 0.91886608 0.91886608
0.91886608 0.91886608 0.91886608
0.80074727 0.67592531 0.91886608
0.80143836 0.67621644 0.91886608
0.81238851 0.68100457 0.91886608
0.88226372 0.71964169 0.91886608
0.91886608 0.85794304 0.91886608
0.80111063 0.67972794 0.91886608
0.80179899 0.68000759 0.91886608
0.81270844 0.68461165 0.91886608
0.88241059 0.72204881 0.91886608
0.91886608 0.85848147 0.91886608
0.80704157 0.72794422 0.91886608
0.80768682 0.72811175 0.91886608
0.81795099 0.73089806 0.91886608
0.88485598 0.75545331 0.91886608
0.91886608 0.86711928 0.91886608
0.85234064 0.87942735 0.91886608
0.85273211 0.87945920 0.91886608
0.85910001 0.87999562 0.91886608
0.90659697 0.88530449 0.91886608
0.91886608 0.91886608 0.91886608
0.91886608 0.91886608 0.91886608
0.91886608 0.91886608 0.91886608
0.91886608 0.91886608 0.91886608
0.91886608 0.91886608 0.91886608
0.91886608 0.91886608 0.91886608
