src/ffmpeg_scripts/luts/sRGB-rec2020_-2p67.cube
TITLE "sRGB-rec2020_-2p67"
LUT_3D_SIZE 33
# PQ (EOTF Only)/sRGB -> PQ (EOTF Only)/Rec2020, CineEI Shift -2.67, Black Level 0.00% IRE, Input 100% -> Output 109% - Created with LUTCalc v4.01 by Ben Turley October 2020
0.06256172 0.06256172 0.06256172
0.07074956 0.06491221 0.06357099
0.08090661 0.06823884 0.06505766
0.09239140 0.07239056 0.06700331
0.10495839 0.07730490 0.06940497
0.11846689 0.08294977 0.07226931
0.13282282 0.08930685 0.07560746
0.14795768 0.09636531 0.07943298
0.16381874 0.10411895 0.08376101
0.18036388 0.11256458 0.08860770
0.19755841 0.12170119 0.09399004
0.21537316 0.13152928 0.09992561
0.23378319 0.14205050 0.10643249
0.25276681 0.15326740 0.11352922
0.27230499 0.16518323 0.12123472
0.29238081 0.17780180 0.12956825
0.31297914 0.19112736 0.13854941
0.33408635 0.20516454 0.14819812
0.35569005 0.21991827 0.15853458
0.37777892 0.23539376 0.16957929
0.40034259 0.25159643 0.18135303
0.42337149 0.26853188 0.19387686
0.44685678 0.28620587 0.20717211
0.47079022 0.30462433 0.22126039
0.49516414 0.32379327 0.23616358
0.51997139 0.34371885 0.25190381
0.54520524 0.36440730 0.26850351
0.57085937 0.38586494 0.28598536
0.59692783 0.40809816 0.30437233
0.62340499 0.43111344 0.32368764
0.65028554 0.45491728 0.34395479
0.67756444 0.47951629 0.36519755
0.70523688 0.50491707 0.38743999
0.06830097 0.07262306 0.06526719
0.07283793 0.07301934 0.06554831
0.08190768 0.07436357 0.06644130
0.09295993 0.07687594 0.06797728
0.10531246 0.08056898 0.07010737
0.11870025 0.08534109 0.07278835
0.13298261 0.09107862 0.07599877
0.14807011 0.09769349 0.07973267
0.16389948 0.10512515 0.08399332
0.18042276 0.11333377 0.08878950
0.19760188 0.12229360 0.09413336
0.21540558 0.13198834 0.10003922
0.23380754 0.14240797 0.10652295
0.25278522 0.15354686 0.11360148
0.27231897 0.16540236 0.12129258
0.29239147 0.17797401 0.12961465
0.31298730 0.19126291 0.13858667
0.33409261 0.20527134 0.14822804
0.35569485 0.22000246 0.15855861
0.37778261 0.23546012 0.16959857
0.40034543 0.25164870 0.18136849
0.42337367 0.26857301 0.19388924
0.44685845 0.28623820 0.20718201
0.47079150 0.30464969 0.22126829
0.49516513 0.32381313 0.23616986
0.51997214 0.34373436 0.25190879
0.54520581 0.36441938 0.26850745
0.57085981 0.38587431 0.28598847
0.59692816 0.40810541 0.30437477
0.62340524 0.43111902 0.32368954
0.65028573 0.45492156 0.34395627
0.67756458 0.47951955 0.36519870
0.70523699 0.50491955 0.38744087
0.07576123 0.08472721 0.06905649
0.07830357 0.08490061 0.06919838
0.08515989 0.08552434 0.06969806
0.09493855 0.08682716 0.07069783
0.10657798 0.08902548 0.07229012
0.11954449 0.09226993 0.07450709
0.13356424 0.09662179 0.07734446
0.14848076 0.10206791 0.08078713
0.16419495 0.10855442 0.08482249
0.18063854 0.11601585 0.08944430
0.19776132 0.12439142 0.09465262
0.21552450 0.13363118 0.10045253
0.23389692 0.14369669 0.10685294
0.25285281 0.15455952 0.11386559
0.27237032 0.16619931 0.12150434
0.29243064 0.17860197 0.12978465
0.31301727 0.19175813 0.13872324
0.33411558 0.20566206 0.14833778
0.35571249 0.22031075 0.15864677
0.37779617 0.23570329 0.16966936
0.40035585 0.25184038 0.18142526
0.42338169 0.26872393 0.19393471
0.44686461 0.28635686 0.20721835
0.47079623 0.30474281 0.22129728
0.49516875 0.32388605 0.23619292
0.51997491 0.34379132 0.25192709
0.54520793 0.36446373 0.26852192
0.57086141 0.38590874 0.28599987
0.59692938 0.40813203 0.30438372
0.62340617 0.43113952 0.32369653
0.65028643 0.45493728 0.34396171
0.67756510 0.47953154 0.36520291
0.70523738 0.50492864 0.38744411
0.08446600 0.09815074 0.07374109
0.08600568 0.09824613 0.07382720
0.09082631 0.09859360 0.07413807
0.09879716 0.09934078 0.07479295
0.10918365 0.10066389 0.07591378
0.12133070 0.10274788 0.07760064
0.13481282 0.10575857 0.07991683
0.14936958 0.10981595 0.08289017
0.16483763 0.11498099 0.08652515
0.18110930 0.12126056 0.09081599
0.19810986 0.12862410 0.09575535
0.21578481 0.13702222 0.10133857
0.23409273 0.14640095 0.10756502
0.25300096 0.15670999 0.11443816
0.27248294 0.16790643 0.12196496
0.29251656 0.17995561 0.13015533
0.31308301 0.19283060 0.13902155
0.33416599 0.20651112 0.14857780
0.35575120 0.22098240 0.15883978
0.37782592 0.23623408 0.16982442
0.40037873 0.25225935 0.18154969
0.42339928 0.26905417 0.19403439
0.44687812 0.28661671 0.20729807
0.47080660 0.30494686 0.22136088
0.49517670 0.32404591 0.23624354
0.51998099 0.34391621 0.25196725
0.54521257 0.36456102 0.26855369
0.57086494 0.38598427 0.28602490
0.59693206 0.40819045 0.30440336
0.62340819 0.43118451 0.32371188
0.65028795 0.45497178 0.34397364
0.67756624 0.47955786 0.36521214
0.70523823 0.50494861 0.38745121
0.09422450 0.11262530 0.07924247
0.09521858 0.11268362 0.07929942
0.09856460 0.11289698 0.07950685
0.10470716 0.11336060 0.07995275
0.11347972 0.11419736 0.08074208
0.12440559 0.11555459 0.08198531
0.13701680 0.11759483 0.08378329
0.15096209 0.12047937 0.08621365
0.16599967 0.12434791 0.08932509
0.18196542 0.12930097 0.09314069
0.19874608 0.13539186 0.09766627
0.21626117 0.14262985 0.10289907
0.23445167 0.15099152 0.10883397
0.25327284 0.16043424 0.11546721
0.27268978 0.17090790 0.12279794
0.29267447 0.18236280 0.13082869
0.31320388 0.19475408 0.13956526
0.33425871 0.20804366 0.14901634
0.35582242 0.22220052 0.15919307
0.37788067 0.23720021 0.17010865
0.40042083 0.25302403 0.18177800
0.42343164 0.26965813 0.19421745
0.44690299 0.28709267 0.20744453
0.47082569 0.30532106 0.22147779
0.49519133 0.32433932 0.23633660
0.51999218 0.34414562 0.25204112
0.54522110 0.36473982 0.26861212
0.57087144 0.38612313 0.28607095
0.59693698 0.40829788 0.30443951
0.62341191 0.43126728 0.32374013
0.65029075 0.45503524 0.34399561
0.67756834 0.47960628 0.36522914
0.70523979 0.50498535 0.38746429
0.10492641 0.12799879 0.08551834
0.10559813 0.12803673 0.08555794
0.10794365 0.12817574 0.08570272
0.11254434 0.12847922 0.08601684
0.11963106 0.12903174 0.08658220
0.12905474 0.12994071 0.08749533
0.14047016 0.13133587 0.08886025
0.15351487 0.13336430 0.09077759
0.16788981 0.13617997 0.09333298
0.18337121 0.13992868 0.09658919
0.19979734 0.14473184 0.10058458
0.21705160 0.15067397 0.10533721
0.23504897 0.15779794 0.11085155
0.25372620 0.16610856 0.11712510
0.27303517 0.17558184 0.12415327
0.29293840 0.18617613 0.13193243
0.31340607 0.19784196 0.14046141
0.33441387 0.21052925 0.14974213
0.35594165 0.22419170 0.15977958
0.37797235 0.23878892 0.17058160
0.40049135 0.25428721 0.18215856
0.42348587 0.27065929 0.19452298
0.44694466 0.28788374 0.20768924
0.47085767 0.30594423 0.22167327
0.49521584 0.32482872 0.23649231
0.52001093 0.34452871 0.25216476
0.54523541 0.36503865 0.26870995
0.57088233 0.38635538 0.28614808
0.59694524 0.40847765 0.30450006
0.62341816 0.43140583 0.32378746
0.65029545 0.45514152 0.34403243
0.67757186 0.47968739 0.36525762
0.70524242 0.50504690 0.38748620
0.11649765 0.14417026 0.09254279
0.11696661 0.14419596 0.09257124
0.11863682 0.14429022 0.09267543
0.12204864 0.14449646 0.09290258
0.12760463 0.14487363 0.09331502
0.13543716 0.14549874 0.09399063
0.14542084 0.14646917 0.09502107
0.15728773 0.14790303 0.09650669
0.17074200 0.14993648 0.09854815
0.18552259 0.15271674 0.10123644
0.20142159 0.15639087 0.10464451
0.21828087 0.16109175 0.10882315
0.23598211 0.16692480 0.11380188
0.25443671 0.17395907 0.11959346
0.27357768 0.18222516 0.12619977
0.29335365 0.19171969 0.13361722
0.31372453 0.20241395 0.14184074
0.33465848 0.21426375 0.15086633
0.35612972 0.22721805 0.16069241
0.37811704 0.24122542 0.17132038
0.40060268 0.25623801 0.18275468
0.42357150 0.27221377 0.19500259
0.44701048 0.28911713 0.20807398
0.47090820 0.30691895 0.22198098
0.49525457 0.32559606 0.23673764
0.52004056 0.34513049 0.25235970
0.54525802 0.36550876 0.26886429
0.57089954 0.38672113 0.28626981
0.59695830 0.40876101 0.30459566
0.62342802 0.43162435 0.32386220
0.65030288 0.45530923 0.34409057
0.67757742 0.47981542 0.36530261
0.70524657 0.50514410 0.38752082
0.12888415 0.16106659 0.10029891
0.12921953 0.16108451 0.10031982
0.13042753 0.16115027 0.10039647
0.13295756 0.16129433 0.10056402
0.13723965 0.16155842 0.10086976
0.14356647 0.16199795 0.10137472
0.15202323 0.16268473 0.10215444
0.16250468 0.16370922 0.10329783
0.17479279 0.16518147 0.10490332
0.18863707 0.16722972 0.10707205
0.20380491 0.16999571 0.10989922
0.22010182 0.17362606 0.11346581
0.23737367 0.17826042 0.11783293
0.25550131 0.18401866 0.12304055
0.27439332 0.19099004 0.12910984
0.29397948 0.19922735 0.13604809
0.31420536 0.20874724 0.14385393
0.33502827 0.21953583 0.15252198
0.35641432 0.23155727 0.16204619
0.37833615 0.24476280 0.17242194
0.40077135 0.25909851 0.18364719
0.42370129 0.27451100 0.19572293
0.44711027 0.29095097 0.20865324
0.47098482 0.30837508 0.22244514
0.49531331 0.32674660 0.23710823
0.52008550 0.34603535 0.25265449
0.54529233 0.36621716 0.26909789
0.57092564 0.38727321 0.28645415
0.59697810 0.40918926 0.30474051
0.62344299 0.43195494 0.32397549
0.65031414 0.45556313 0.34417872
0.67758587 0.48000937 0.36537085
0.70525286 0.50529140 0.38757332
0.14204430 0.17863180 0.10877535
0.14228856 0.17864456 0.10879097
0.14317432 0.17869142 0.10884829
0.14505869 0.17879415 0.10897376
0.14833242 0.17898274 0.10920341
0.15334358 0.17929739 0.10958461
0.16031811 0.17979096 0.11017775
0.16931669 0.18053154 0.11105719
0.18025011 0.18160464 0.11231045
0.19293477 0.18311453 0.11403519
0.20715265 0.18518370 0.11633355
0.22269296 0.18794963 0.11930450
0.23937244 0.19155807 0.12303575
0.25704082 0.19615311 0.12759737
0.27557861 0.20186510 0.13303877
0.29489218 0.20879917 0.13938942
0.31490840 0.21702694 0.14666244
0.33557001 0.22658356 0.15485954
0.35683185 0.23747030 0.16397584
0.37865792 0.24966132 0.17400390
0.40101925 0.26311230 0.18493645
0.42389216 0.27776895 0.19676823
0.44725708 0.29357393 0.20949678
0.47109760 0.31047178 0.22312289
0.49539979 0.32841200 0.23765049
0.52015168 0.34735049 0.25308653
0.54534284 0.36725005 0.26944066
0.57096409 0.38808015 0.28672492
0.59700727 0.40981640 0.30495342
0.62346504 0.43243977 0.32414209
0.65033074 0.45593590 0.34430843
0.67759830 0.48029436 0.36547127
0.70526213 0.50550798 0.38765061
0.15594484 0.19682129 0.11796443
0.15612527 0.19683053 0.11797626
0.15678230 0.19686447 0.11801965
0.15819414 0.19693890 0.11811473
0.16069054 0.19707568 0.11828907
0.16461133 0.19730422 0.11857937
0.17024728 0.19766360 0.11903332
0.17778194 0.19820480 0.11971125
0.18726251 0.19899317 0.12068710
0.19861244 0.20011067 0.12204793
0.21167308 0.20165734 0.12389152
0.22625055 0.20375147 0.12632149
0.24215112 0.20652737 0.12944045
0.25920086 0.21013009 0.13334216
0.27725299 0.21470694 0.13810467
0.29618795 0.22039642 0.14378611
0.31591021 0.22731649 0.15042394
0.33634407 0.23555484 0.15803733
0.35742963 0.24516336 0.16663154
0.37911932 0.25615805 0.17620282
0.40137513 0.26852377 0.18674280
0.42416639 0.28222198 0.19824195
0.44746814 0.29719948 0.21069189
0.47125980 0.31339628 0.22408679
0.49552422 0.33075173 0.23842398
0.52024692 0.34920870 0.25370422
0.54541556 0.36871598 0.26993159
0.57101945 0.38922939 0.28711324
0.59704927 0.41071197 0.30525908
0.62349679 0.43313356 0.32438148
0.65035464 0.45647021 0.34449491
0.67761621 0.48070335 0.36561572
0.70527548 0.50581909 0.38776184
0.17055844 0.21559849 0.12786107
0.17069320 0.21560527 0.12787011
0.17118526 0.21563016 0.12790327
0.17224957 0.21568478 0.12797599
0.17415408 0.21578520 0.12810948
0.17720064 0.21595316 0.12833222
0.18168953 0.21621769 0.12868164
0.18787090 0.21661700 0.12920599
0.19590025 0.21720070 0.12996594
0.20581710 0.21803214 0.13103558
0.21755505 0.21919064 0.13250224
0.23097418 0.22077321 0.13446447
0.24589913 0.22289511 0.13702785
0.26214969 0.22568840 0.14029867
0.27955963 0.22929781 0.14437639
0.29798518 0.23387336 0.14934646
0.31730679 0.23956028 0.15527515
0.33742725 0.24648732 0.16220761
0.35826851 0.25475610 0.17016913
0.37976818 0.26443363 0.17916880
0.40187639 0.27554988 0.18920436
0.42455312 0.28810050 0.20026692
0.44776606 0.30205346 0.21234491
0.47148891 0.31735762 0.22542697
0.49570006 0.33395126 0.23950382
0.52038157 0.35176925 0.25456931
0.54551839 0.37074829 0.27062086
0.57109775 0.39083030 0.28765950
0.59710870 0.41196419 0.30568971
0.62354172 0.43410647 0.32471911
0.65038847 0.45722115 0.34475815
0.67764156 0.48127918 0.36581977
0.70529438 0.50625769 0.38791903
0.18586216 0.23493273 0.13846206
0.18596369 0.23493776 0.13846902
0.18633512 0.23495621 0.13849456
0.18714203 0.23499669 0.13855057
0.18859779 0.23507115 0.13865349
0.19095704 0.23519577 0.13882544
0.19449796 0.23539224 0.13909578
0.19949027 0.23568928 0.13950278
0.20615483 0.23612450 0.14009544
0.21462795 0.23674648 0.14093505
0.22494480 0.23761712 0.14209636
0.23704721 0.23881383 0.14366748
0.25080982 0.24043146 0.14574832
0.26607170 0.24258315 0.14844683
0.28266348 0.24539955 0.15187317
0.30042526 0.24902548 0.15613236
0.31921581 0.25361361 0.16131689
0.33891550 0.25931503 0.16750079
0.35942557 0.26626797 0.17473666
0.38066576 0.27458638 0.18305584
0.40257132 0.28435101 0.19247143
0.42509016 0.29560493 0.20298292
0.44818029 0.30835435 0.21458109
0.47180777 0.32257404 0.22725247
0.49594496 0.33821545 0.24098279
0.52056921 0.35521574 0.25575929
0.54566176 0.37350576 0.27157220
0.57120695 0.39301639 0.28841545
0.59719159 0.41368282 0.30628684
0.62360440 0.43544707 0.32518803
0.65043567 0.45825910 0.34512421
0.67767694 0.48207699 0.36610378
0.70532076 0.50686649 0.38813798
0.20183638 0.25479785 0.14976560
0.20191343 0.25480160 0.14977099
0.20219559 0.25481538 0.14979077
0.20281044 0.25484563 0.14983417
0.20392600 0.25490128 0.14991395
0.20575069 0.25499446 0.15004737
0.20852677 0.25514146 0.15025743
0.21251283 0.25536396 0.15057439
0.21795500 0.25569046 0.15103744
0.22505260 0.25615815 0.15169648
0.23392859 0.25681487 0.15261372
0.24461573 0.25772147 0.15386488
0.25706274 0.25895403 0.15553938
0.27115572 0.26060592 0.15773895
0.28674527 0.26278893 0.16057433
0.30367074 0.26563300 0.16415977
0.32177740 0.26928354 0.16860588
0.34092602 0.27389592 0.17401202
0.36099678 0.27962677 0.18045977
0.38188943 0.28662288 0.18800895
0.40352156 0.29500941 0.19669689
0.42582617 0.30487973 0.20654077
0.44874898 0.31628917 0.21754193
0.47224610 0.32925412 0.22969095
0.49628196 0.34375607 0.24297251
0.52082760 0.35974933 0.25736938
0.54585929 0.37717018 0.27286524
0.57135748 0.39594573 0.28944657
0.59730589 0.41600120 0.30710363
0.62369085 0.43726511 0.32583084
0.65050078 0.45967258 0.34562684
0.67772574 0.48316697 0.36649425
0.70535715 0.50770034 0.38843930
0.21846415 0.27517114 0.16177101
0.21852293 0.27517396 0.16177520
0.21873841 0.27518433 0.16179059
0.21920892 0.27520708 0.16182436
0.22006598 0.27524894 0.16188647
0.22147713 0.27531904 0.16199040
0.22364554 0.27542970 0.16215421
0.22680250 0.27559732 0.16240176
0.23119053 0.27584355 0.16276425
0.23703753 0.27619682 0.16328184
0.24452681 0.27669397 0.16400546
0.25377188 0.27738238 0.16499848
0.26480441 0.27832216 0.16633794
0.27757892 0.27958854 0.16811494
0.29199077 0.28127396 0.17043349
0.30789982 0.28348951 0.17340751
0.32515249 0.28636502 0.17715564
0.34359818 0.29004701 0.18179422
0.36309920 0.29469378 0.18742944
0.38353533 0.30046736 0.19415029
0.40480480 0.30752262 0.20202371
0.42682314 0.31599515 0.21109297
0.44952110 0.32599007 0.22137929
0.47284230 0.33757424 0.23288586
0.49674096 0.35077370 0.24560309
0.52117990 0.36557643 0.25951375
0.54612883 0.38193952 0.27459757
0.57156301 0.39979844 0.29083452
0.59746202 0.41907658 0.30820713
0.62380899 0.43969349 0.32670181
0.65058978 0.46157100 0.34630943
0.67779247 0.48463726 0.36702545
0.70540692 0.50882893 0.38884977
0.23573059 0.29603273 0.17447843
0.23577564 0.29603487 0.17448171
0.23594087 0.29604270 0.17449372
0.23630219 0.29605990 0.17452010
0.23696223 0.29609155 0.17456861
0.23805413 0.29614456 0.17464982
0.23974424 0.29622828 0.17477792
0.24223059 0.29635514 0.17497172
0.24573503 0.29654165 0.17525597
0.25048708 0.29680953 0.17566278
0.25670045 0.29718710 0.17623339
0.26454654 0.29771107 0.17701989
0.27413218 0.29842849 0.17808700
0.28548878 0.29939905 0.17951338
0.29857586 0.30069747 0.18139216
0.31329638 0.30241577 0.18383004
0.32951772 0.30466485 0.18694455
0.34709197 0.30757503 0.19085904
0.36587181 0.31129442 0.19569577
0.38572058 0.31598461 0.20156788
0.40651748 0.32181307 0.20857176
0.42815914 0.32894254 0.21678139
0.45055901 0.33751854 0.22624589
0.47364563 0.34765728 0.23699048
0.49736055 0.35943651 0.24902015
0.52165612 0.37289139 0.26232501
0.54649358 0.38801600 0.27688582
0.57184135 0.40476993 0.29267907
0.59767361 0.42308763 0.30968081
0.62396916 0.44288863 0.32786942
0.65071048 0.46408663 0.34722724
0.67788299 0.48659663 0.36774138
0.70547445 0.51033967 0.38940398
0.25362253 0.31736500 0.18788875
0.25365718 0.31736662 0.18789131
0.25378429 0.31737257 0.18790071
0.25406256 0.31738563 0.18792136
0.25457190 0.31740965 0.18795935
0.25541739 0.31744991 0.18802296
0.25673308 0.31751348 0.18812335
0.25868375 0.31760986 0.18827535
0.26146275 0.31775164 0.18849855
0.26528393 0.31795542 0.18881854
0.27036637 0.31824299 0.18926841
0.27691281 0.31864267 0.18989051
0.28508575 0.31919107 0.19073824
0.29498738 0.31993512 0.19187784
0.30664948 0.32093432 0.19338986
0.32003595 0.32226322 0.19536983
0.33505605 0.32401378 0.19792751
0.35158327 0.32629727 0.20118445
0.36947426 0.32924498 0.20526908
0.38858418 0.33300711 0.21030988
0.40877697 0.33774896 0.21642712
0.42993097 0.34364366 0.22372462
0.45194113 0.35086176 0.23228345
0.47471877 0.35955845 0.24215850
0.49819025 0.36986062 0.25337887
0.52229504 0.38185634 0.26595124
0.54698364 0.39558932 0.27986521
0.57221573 0.41105926 0.29509932
0.59795843 0.42822777 0.31162655
0.62418491 0.44702791 0.32941877
0.65087315 0.46737496 0.34844994
0.67800503 0.48917649 0.36869809
0.70556551 0.51234038 0.39014638
0.27212825 0.33915221 0.20200337
0.27215496 0.33915344 0.20200538
0.27225300 0.33915797 0.20201275
0.27246776 0.33916791 0.20202895
0.27286145 0.33918621 0.20205874
0.27351659 0.33921687 0.20210866
0.27454007 0.33926530 0.20218745
0.27606634 0.33933874 0.20230682
0.27825853 0.33944682 0.20248226
0.28130585 0.33960225 0.20273408
0.28541552 0.33982176 0.20308874
0.29079829 0.34012720 0.20358034
0.29764850 0.34054695 0.20425239
0.30612209 0.34111763 0.20515971
0.31631817 0.34188617 0.20637027
0.32826936 0.34291208 0.20796676
0.34194344 0.34427004 0.21004740
0.35725495 0.34605235 0.21272545
0.37408238 0.34837102 0.21612686
0.39228597 0.35135885 0.22038558
0.41172265 0.35516866 0.22563665
0.43225649 0.35996987 0.23200770
0.45376477 0.36594163 0.23961020
0.47614057 0.37326243 0.24853228
0.49929304 0.38209706 0.25883459
0.52314634 0.39258277 0.27054998
0.54763784 0.40481752 0.28368656
0.57271624 0.41885302 0.29823320
0.59833965 0.43469397 0.31416587
0.62447392 0.45230340 0.33145371
0.65109120 0.47161238 0.35006408
0.67816870 0.49253140 0.36996620
0.70568768 0.51496143 0.39113353
0.29123720 0.36138017 0.21682419
0.29125783 0.36138111 0.21682577
0.29133357 0.36138457 0.21683156
0.29149959 0.36139216 0.21684427
0.29180424 0.36140613 0.21686767
0.29231215 0.36142954 0.21690688
0.29310792 0.36146651 0.21696878
0.29429976 0.36152260 0.21706261
0.29602221 0.36160516 0.21720059
0.29843682 0.36172395 0.21739882
0.30172925 0.36189181 0.21767836
0.30610134 0.36212557 0.21806651
0.31175734 0.36244718 0.21859843
0.31888520 0.36288511 0.21931886
0.32763618 0.36347609 0.22028415
0.33810754 0.36426716 0.22156417
0.35033310 0.36531805 0.22324399
0.36428416 0.36670379 0.22542487
0.37987973 0.36851736 0.22822395
0.39700235 0.37087195 0.23177200
0.41551500 0.37390235 0.23620895
0.43527578 0.37776450 0.24167682
0.45614844 0.38263246 0.24831093
0.47800889 0.38869179 0.25623060
0.50074821 0.39612925 0.26553113
0.52427330 0.40511926 0.27627888
0.54850605 0.41580930 0.28851027
0.57338177 0.42830685 0.30223458
0.59884730 0.44267105 0.31743956
0.62485923 0.45891090 0.33409820
0.65138216 0.47699009 0.35217539
0.67838723 0.49683691 0.37163355
0.70585090 0.51835637 0.39243682
0.31093983 0.38403604 0.23235349
0.31095578 0.38403676 0.23235473
0.31101437 0.38403940 0.23235928
0.31114284 0.38404521 0.23236927
0.31137877 0.38405589 0.23238766
0.31177263 0.38407379 0.23241846
0.31239104 0.38410207 0.23246712
0.31332027 0.38414498 0.23254089
0.31466946 0.38420814 0.23264943
0.31657309 0.38429906 0.23280547
0.31919129 0.38442758 0.23302571
0.32270679 0.38460667 0.23333194
0.32731715 0.38485327 0.23375233
0.33322164 0.38518944 0.23432309
0.34060355 0.38564380 0.23509030
0.34961098 0.38625323 0.23611192
0.36034031 0.38706502 0.23745990
0.37282689 0.38813928 0.23922196
0.38704527 0.38955163 0.24150270
0.40291825 0.39139604 0.24442353
0.42033162 0.39378729 0.24812054
0.43915039 0.39686260 0.25274010
0.45923320 0.40078160 0.25843168
0.48044307 0.40572351 0.26533871
0.50265426 0.41188086 0.27358863
0.52575566 0.41944902 0.28328405
0.54965181 0.42861229 0.29449698
0.57426227 0.43952833 0.30726720
0.59952025 0.45231381 0.32160481
0.62537077 0.46703474 0.33749598
0.65176888 0.48370363 0.35491020
0.67867796 0.50228391 0.37380760
0.70606818 0.52270011 0.39414518
0.33122747 0.40710810 0.24859387
0.33123982 0.40710865 0.24859484
0.33128517 0.40711068 0.24859842
0.33138463 0.40711512 0.24860627
0.33156739 0.40712330 0.24862072
0.33187280 0.40713700 0.24864493
0.33235310 0.40715865 0.24868318
0.33307655 0.40719151 0.24874117
0.33413068 0.40723988 0.24882653
0.33562536 0.40730952 0.24894931
0.33769494 0.40740800 0.24912273
0.34049834 0.40754529 0.24936409
0.34421594 0.40773445 0.24969587
0.34904205 0.40799253 0.25014714
0.35517226 0.40834175 0.25075521
0.36278665 0.40881087 0.25156753
0.37203139 0.40943704 0.25264382
0.38300286 0.41026787 0.25405826
0.39573823 0.41136399 0.25590146
0.41021506 0.41280188 0.25828172
0.42635941 0.41467676 0.26132511
0.44405964 0.41710539 0.26517355
0.46318212 0.42022794 0.26998037
0.48358546 0.42420823 0.27590303
0.50513155 0.42923129 0.28309353
0.52769266 0.43549717 0.29168778
0.55115531 0.44321039 0.30179585
0.57542154 0.45256544 0.31349537
0.60040853 0.46373022 0.32682922
0.62604733 0.47683033 0.34180787
0.65228115 0.49193804 0.35841534
0.67906351 0.50906843 0.37661701
0.70635658 0.52818359 0.39636762
0.35209221 0.43058561 0.26554822
0.35210177 0.43058603 0.26554898
0.35213686 0.43058758 0.26555179
0.35221387 0.43059099 0.26555796
0.35235542 0.43059725 0.26556931
0.35259216 0.43060775 0.26558833
0.35296490 0.43062434 0.26561838
0.35352735 0.43064950 0.26566395
0.35434909 0.43068657 0.26573104
0.35551867 0.43073993 0.26582757
0.35714650 0.43081541 0.26596400
0.35936678 0.43092068 0.26615400
0.36233747 0.43106578 0.26641546
0.36623721 0.43126387 0.26677158
0.37125792 0.43153215 0.26725230
0.37759266 0.43189296 0.26789607
0.38541954 0.43237528 0.26875178
0.39488393 0.43301655 0.26988102
0.40608289 0.43386482 0.27136040
0.41905571 0.43498141 0.27328365
0.43378280 0.43644381 0.27576310
0.45019303 0.43834886 0.27892995
0.46817673 0.44081564 0.28293245
0.48760101 0.44398774 0.28793148
0.50832394 0.44803380 0.29409309
0.53020580 0.45314530 0.30157839
0.55311659 0.45953048 0.31053215
0.57694023 0.46740362 0.32107212
0.60157610 0.47696985 0.33328146
0.62693893 0.48840743 0.34720582
0.65295758 0.50185064 0.36285553
0.67957341 0.51737733 0.38021178
0.70673845 0.53500415 0.39923509
0.37352676 0.45445869 0.28321966
0.37353415 0.45445901 0.28322026
0.37356131 0.45446020 0.28322247
0.37362090 0.45446281 0.28322731
0.37373048 0.45446760 0.28323621
0.37391384 0.45447565 0.28325114
0.37420281 0.45448835 0.28327473
0.37463945 0.45450763 0.28331050
0.37527867 0.45453603 0.28336318
0.37619108 0.45457691 0.28343900
0.37746606 0.45463476 0.28354619
0.37921442 0.45471545 0.28369556
0.38157025 0.45482671 0.28390126
0.38469086 0.45497869 0.28418172
0.38875363 0.45518463 0.28456085
0.39394891 0.45546185 0.28506950
0.40046829 0.45583285 0.28574728
0.40848897 0.45632687 0.28664460
0.41815646 0.45698168 0.28782502
0.42956921 0.45784588 0.28936776
0.44276887 0.45898160 0.29136994
0.45773863 0.46046759 0.29394828
0.47440974 0.46240252 0.29723956
0.49267399 0.46490826 0.30139893
0.51239864 0.46813230 0.30659548
0.53344071 0.47224870 0.31300449
0.55565844 0.47745613 0.32079680
