src/ffmpeg_scripts/luts/sRGB-rec2020_1p67.cube
TITLE "sRGB-rec2020_1p67"
LUT_3D_SIZE 33
# PQ (EOTF Only)/sRGB -> PQ (EOTF Only)/Rec2020, CineEI Shift 1.67, Black Level 0.00% IRE, Input 100% -> Output 109% - Created with LUTCalc v4.01 by Ben Turley October 2020
0.06256172 0.06256172 0.06256172
0.09941186 0.07509267 0.06831212
0.13355372 0.08963962 0.07578513
0.16642849 0.10542758 0.08450334
0.19844116 0.12217970 0.09427565
0.22979591 0.13974135 0.10499155
0.26061732 0.15801094 0.11657684
0.29098972 0.17691552 0.12897736
0.32097415 0.19639961 0.14215143
0.35061692 0.21641930 0.15606573
0.37995435 0.23693874 0.17069287
0.40901577 0.25792804 0.18600987
0.43782535 0.27936179 0.20199708
0.46640333 0.30121803 0.21863751
0.49476695 0.32347763 0.23591624
0.52293106 0.34612364 0.25382010
0.55090857 0.36914101 0.27233732
0.57871085 0.39251621 0.29145734
0.60634794 0.41623700 0.31117058
0.63382881 0.44029226 0.33146836
0.66116149 0.46467182 0.35234273
0.68835326 0.48936636 0.37378640
0.71541069 0.51436725 0.39579265
0.74233979 0.53966651 0.41835527
0.76914604 0.56525674 0.44146849
0.79583448 0.59113101 0.46512694
0.82240977 0.61728287 0.48932562
0.84887620 0.64370626 0.51405985
0.87523776 0.67039547 0.53932524
0.90149814 0.69734516 0.56511765
0.91886608 0.72455024 0.59143322
0.91886608 0.75200592 0.61826828
0.91886608 0.77970767 0.64561937
0.08989141 0.10626011 0.07677095
0.10702552 0.10766872 0.07807327
0.13660718 0.11235523 0.08207522
0.16795237 0.12077990 0.08857313
0.19929861 0.13251401 0.09698428
0.23031552 0.14677533 0.10684923
0.26094840 0.16287768 0.11788395
0.29120843 0.18033950 0.12991625
0.32112259 0.19884526 0.14283701
0.35071979 0.21818910 0.15657294
0.38002684 0.23823365 0.17107207
0.40906754 0.25888426 0.18629577
0.43786271 0.28007331 0.20221411
0.46643053 0.30175082 0.21880315
0.49478690 0.32387863 0.23604321
0.52294578 0.34642672 0.25391775
0.55091948 0.36937083 0.27241261
0.57871897 0.39269091 0.29151549
0.60635400 0.41637005 0.31121556
0.63383334 0.44039371 0.33150317
0.66116489 0.46474924 0.35236967
0.68835580 0.48942543 0.37380725
0.71541260 0.51441231 0.39580877
0.74234122 0.53970086 0.41836771
0.76914711 0.56528288 0.44147808
0.79583529 0.59115088 0.46513432
0.82241037 0.61729794 0.48933128
0.84887665 0.64371765 0.51406418
0.87523809 0.67040407 0.53932854
0.90149839 0.69735161 0.56512016
0.91886608 0.72455507 0.59143512
0.91886608 0.75200952 0.61826970
0.91886608 0.77971034 0.64562044
0.11709163 0.14498961 0.09290940
0.12539915 0.14549537 0.09346755
0.14624963 0.14730583 0.09541301
0.17319350 0.15104456 0.09921794
0.20234606 0.15722981 0.10506648
0.23218975 0.16610183 0.11284773
0.26215155 0.17757972 0.12230829
0.29200646 0.19135880 0.13318638
0.32166552 0.20705314 0.14526764
0.35109662 0.22429682 0.15839167
0.38029261 0.24278707 0.17244193
0.40925742 0.26228984 0.18733372
0.43799982 0.28262978 0.20300467
0.46653040 0.30367689 0.21940793
0.49486016 0.32533462 0.23650755
0.52299983 0.34753056 0.25427529
0.55095955 0.37020972 0.27268853
0.57874878 0.39332967 0.29172876
0.60637625 0.41685710 0.31138057
0.63384998 0.44076542 0.33163091
0.66117735 0.46503305 0.35246856
0.68836515 0.48964212 0.37388377
0.71541961 0.51457767 0.39586793
0.74234647 0.53982693 0.41841340
0.76915105 0.56537887 0.44151330
0.79583823 0.59122384 0.46516141
0.82241257 0.61735327 0.48935207
0.84887829 0.64375950 0.51408008
0.87523931 0.67043563 0.53934066
0.90149930 0.69737533 0.56512937
0.91886608 0.72457282 0.59144208
0.91886608 0.75202275 0.61827495
0.91886608 0.77972015 0.64562436
0.14422570 0.18150949 0.11020199
0.14869377 0.18175301 0.11050156
0.16218993 0.18263847 0.11157847
0.18315603 0.18453404 0.11382435
0.20853874 0.18786322 0.11760087
0.23612683 0.19303842 0.12313875
0.26472372 0.20037594 0.13049110
0.29372948 0.21002547 0.13956327
0.32284459 0.22195167 0.15018291
0.35191794 0.23597296 0.16216177
0.38087320 0.25182866 0.17532997
0.40967287 0.26924049 0.18954763
0.43830011 0.28795164 0.20470461
0.46674927 0.30774396 0.22071582
0.49502079 0.32844084 0.23751578
0.52311838 0.34990316 0.25505388
0.55104746 0.37202269 0.27329063
0.57881420 0.39471565 0.29219487
0.60642507 0.41791703 0.31174162
0.63388650 0.44157613 0.33191065
0.66120471 0.46565304 0.35268527
0.68838566 0.49011606 0.37405154
0.71543499 0.51493968 0.39599769
0.74235801 0.54010313 0.41851362
0.76915969 0.56558928 0.44159056
0.79584470 0.59138382 0.46522085
0.82241741 0.61747463 0.48939768
0.84888190 0.64385132 0.51411498
0.87524199 0.67050488 0.53936727
0.90150128 0.69742737 0.56514958
0.91886608 0.72461178 0.59145737
0.91886608 0.75205178 0.61828646
0.91886608 0.77974167 0.64563298
0.17131299 0.21655930 0.12837824
0.17392769 0.21669373 0.12855753
0.18256465 0.21718512 0.12920919
0.19783145 0.21825068 0.13060303
0.21852399 0.22016634 0.13304769
0.24281765 0.22325330 0.13684219
0.26922947 0.22784812 0.14221729
0.29680216 0.23425510 0.14929102
0.32497023 0.24269312 0.15806148
0.35340874 0.25325726 0.16843516
0.38193169 0.26591172 0.18026973
0.41043249 0.28051440 0.19341071
0.43885024 0.29685876 0.20771391
0.46715078 0.31471523 0.22305530
0.49531574 0.33386152 0.23933288
0.52333622 0.35409946 0.25646480
0.55120905 0.37526143 0.27438611
0.57893451 0.39721013 0.29304540
0.60651489 0.41983534 0.31240190
0.63395369 0.44304949 0.33242306
0.66125504 0.46678335 0.35308268
0.68842340 0.49098213 0.37435949
0.71546330 0.51560238 0.39623603
0.74237924 0.54060941 0.41869779
0.76917560 0.56597535 0.44173262
0.79585661 0.59167759 0.46533017
0.82242631 0.61769762 0.48948158
0.84888853 0.64402010 0.51417918
0.87524693 0.67063222 0.53941623
0.90150494 0.69752310 0.56518677
0.91886608 0.72468345 0.59148550
0.91886608 0.75210520 0.61830764
0.91886608 0.77978129 0.64564885
0.19836361 0.25050475 0.14728847
0.19998888 0.25058517 0.14740297
0.20560519 0.25087980 0.14782111
0.21637260 0.25152228 0.14872585
0.23238144 0.25268957 0.15034591
0.25273810 0.25460325 0.15294043
0.27620376 0.25752458 0.15677003
0.30168986 0.26173833 0.16205695
0.32841068 0.26752380 0.16894786
0.35584882 0.27511693 0.17749538
0.38367696 0.28467366 0.18766464
0.41169112 0.29624759 0.19935846
0.43976483 0.30978978 0.21244747
0.46781983 0.32516901 0.22679499
0.49580801 0.34220285 0.24227264
0.52370021 0.36068862 0.25876791
0.55147930 0.38042698 0.27618622
0.57913581 0.40123647 0.29444995
0.60666524 0.42295998 0.31349628
0.63406620 0.44546604 0.33327469
0.66133936 0.46864696 0.35374456
0.68848664 0.49241576 0.37487317
0.71551074 0.51670267 0.39663406
0.74241482 0.54145193 0.41900565
0.76920226 0.56661894 0.44197022
0.79587657 0.59216797 0.46551310
0.82244122 0.61807021 0.48962205
0.84889965 0.64430233 0.51428670
0.87525520 0.67084527 0.53949824
0.90151108 0.69768333 0.56524909
0.91886608 0.72480346 0.59153265
0.91886608 0.75219467 0.61834314
0.91886608 0.77984765 0.64567544
0.22538385 0.28356588 0.16683507
0.22643902 0.28361662 0.16691141
0.23017434 0.28380272 0.16719084
0.23769869 0.28420966 0.16779902
0.24966815 0.28495296 0.16890002
0.26600455 0.28618246 0.17069443
0.28602941 0.28808517 0.17341003
0.30883133 0.29088339 0.17728182
0.33356322 0.29482539 0.18252279
0.35956434 0.30016664 0.18929321
0.38636439 0.30714239 0.19767921
0.41364405 0.31593673 0.20768835
0.44119139 0.32665677 0.21926214
0.46886723 0.33932024 0.23229820
0.49658066 0.35386031 0.24667321
0.52427256 0.37014465 0.26226100
0.55190479 0.38800097 0.27894380
0.57945308 0.40724177 0.29661790
0.60690236 0.42768323 0.31519518
0.63424374 0.44915711 0.33460248
0.66147245 0.47151642 0.35477987
0.68858648 0.49463681 0.37567867
0.71558565 0.51841537 0.39725938
0.74247101 0.54276813 0.41948998
0.76924438 0.56762716 0.44234443
0.79590810 0.59293778 0.46580146
0.82246479 0.61865607 0.48984359
0.84891723 0.64474665 0.51445636
0.87526827 0.67118101 0.53962770
0.90152077 0.69793601 0.56534748
0.91886608 0.72499280 0.59160710
0.91886608 0.75233589 0.61839921
0.91886608 0.77995244 0.64571744
0.25237807 0.31589006 0.18694832
0.25308561 0.31592330 0.18700080
0.25562477 0.31604532 0.18719314
0.26089651 0.31631254 0.18761312
0.26968264 0.31680206 0.18837812
0.28237207 0.31761582 0.18963765
0.29883946 0.31888494 0.19157301
0.31855249 0.32077273 0.19439068
0.34080298 0.32347439 0.19830760
0.36490401 0.32721156 0.20352862
0.39028812 0.33221951 0.21022083
0.41652706 0.33872694 0.21849207
0.44331372 0.34693043 0.22838089
0.47043401 0.35696935 0.23986061
0.49774094 0.36890811 0.25285433
0.52513446 0.38273125 0.26725444
0.55254684 0.39835225 0.28294079
0.57993251 0.41563222 0.29979427
0.60726106 0.43440232 0.31770506
0.63451253 0.45448419 0.33657662
0.66167407 0.47570525 0.35632669
0.68873780 0.49790821 0.37688660
0.71569923 0.52095562 0.39819978
0.74255623 0.54473081 0.42021993
0.76930827 0.56913681 0.44290935
0.79595593 0.59409415 0.46623732
0.82250054 0.61953825 0.49017878
0.84894389 0.64541696 0.51471323
0.87528810 0.67168822 0.53982381
0.90153547 0.69831816 0.56549659
0.91886608 0.72527941 0.59171998
0.91886608 0.75254978 0.61848423
0.91886608 0.78011122 0.64578115
0.27934945 0.34758295 0.20757544
0.27983574 0.34760536 0.20761235
0.28159514 0.34768764 0.20774772
0.28531726 0.34786798 0.20804388
0.29171834 0.34819891 0.20858531
0.30136333 0.34875063 0.20948222
0.31449919 0.34961507 0.21087346
0.33099417 0.35090979 0.21292653
0.35041810 0.35278094 0.21583273
0.37219852 0.35540401 0.21979581
0.39576097 0.35898055 0.22501395
0.42060936 0.36372933 0.23165785
0.44635166 0.36987096 0.23985019
0.47269425 0.37760689 0.24965273
0.49942418 0.38709631 0.26106471
0.52638991 0.39843647 0.27403209
0.55348481 0.41165188 0.28846325
0.58063442 0.42669553 0.30424619
0.60778707 0.44346087 0.32126297
0.63490714 0.46180051 0.33940005
0.66197032 0.48154616 0.35855427
0.68896028 0.50252580 0.37863545
0.71586630 0.52457603 0.39956688
0.74268163 0.54754941 0.42128445
0.76940230 0.57131774 0.44373519
0.79602635 0.59577240 0.46687567
0.82255318 0.62082314 0.49067039
0.84898315 0.64639593 0.51509038
0.87531731 0.67243056 0.54011200
0.90155713 0.69887836 0.56571585
0.91886608 0.72570006 0.59188602
0.91886608 0.75286401 0.61860936
0.91886608 0.78034466 0.64587493
0.30630045 0.37872410 0.22867482
0.30664118 0.37873954 0.22870123
0.30788018 0.37879623 0.22879817
0.31053288 0.37892056 0.22901049
0.31519170 0.37914894 0.22939952
0.32242970 0.37953038 0.23004645
0.33267281 0.38012972 0.23105598
0.34608868 0.38103126 0.23255894
0.36255301 0.38234233 0.23471262
0.38170950 0.38419623 0.23769715
0.40308138 0.38675355 0.24170649
0.42617660 0.39020040 0.24693352
0.45055476 0.39474214 0.25355107
0.47585472 0.40059148 0.26169253
0.50179620 0.40795100 0.27143756
0.52816919 0.41699238 0.28280667
0.55481972 0.42783635 0.29576586
0.58163646 0.44053852 0.31023890
0.60853969 0.45508507 0.32612271
0.63547271 0.47139900 0.34330220
0.66239546 0.48935472 0.36166180
0.68927986 0.50879636 0.38109310
0.71610646 0.52955567 0.40149910
0.74286198 0.55146622 0.42279569
0.76953760 0.57437319 0.44491161
0.79612770 0.59813873 0.46778741
0.82262896 0.62264391 0.49137397
0.84903968 0.64778859 0.51563101
0.87535937 0.67348977 0.54052558
0.90158833 0.69967953 0.56603081
0.91886608 0.72630273 0.59212471
0.91886608 0.75331481 0.61878932
0.91886608 0.78067990 0.64600986
0.33323302 0.40937553 0.25021263
0.33347545 0.40938635 0.25023179
0.33435985 0.40942608 0.25030216
0.33626816 0.40951326 0.25045639
0.33966739 0.40967349 0.25073940
0.34506446 0.40994143 0.25121118
0.35292871 0.41036319 0.25195028
0.36359467 0.41099936 0.25305707
0.37718361 0.41192828 0.25465625
0.39358297 0.41324933 0.25689741
0.41249160 0.41508591 0.25995232
0.43350302 0.41758708 0.26400754
0.45618759 0.42092687 0.26925194
0.48014922 0.42529976 0.27585981
0.50505296 0.43091136 0.28397278
0.53063110 0.43796368 0.29368472
0.55667741 0.44663652 0.30503379
0.58303689 0.45706782 0.31800357
0.60959490 0.46933761 0.33253203
0.63626755 0.48345974 0.34852521
0.66299400 0.49938343 0.36587171
0.68973039 0.51700391 0.38445505
0.71644535 0.53617865 0.40416270
0.74311667 0.55674494 0.42489161
0.76972877 0.57853551 0.44655091
0.79627097 0.60139009 0.46906256
0.82273612 0.62516277 0.49236078
0.84911965 0.64972551 0.51639092
0.87541887 0.67496906 0.54110791
0.90163246 0.70080206 0.56647483
0.91886608 0.72714923 0.59246155
0.91886608 0.75394922 0.61904347
0.91886608 0.78115235 0.64620052
0.36014874 0.43958694 0.27216074
0.36032338 0.43959462 0.27217480
0.36096181 0.43962286 0.27222644
0.36234652 0.43968482 0.27233967
0.36483695 0.43979876 0.27254764
0.36885214 0.43998943 0.27289490
0.37483112 0.44028992 0.27344035
0.38316766 0.44074400 0.27426035
0.39413440 0.44140882 0.27545189
0.40782465 0.44235791 0.27713491
0.42413824 0.44368440 0.27945313
0.44281637 0.44550386 0.28257197
0.46350593 0.44795631 0.28667250
0.48582575 0.45120618 0.29194059
0.50941554 0.45543916 0.29855185
0.53396260 0.46085474 0.30665458
0.55921066 0.46765372 0.31635437
0.58495768 0.47602142 0.32770430
0.61104848 0.48610879 0.34070328
0.63736606 0.49801534 0.35530225
0.66382324 0.51177804 0.37141610
0.69035571 0.52736907 0.38893747
0.71691639 0.54470290 0.40774967
0.74347104 0.56365018 0.42773677
0.76999498 0.58405465 0.44879036
0.79647059 0.60574950 0.47081321
0.82288549 0.62857043 0.49372085
0.84923115 0.65236467 0.51744142
0.87550186 0.67699605 0.54191479
0.90169403 0.70234698 0.56709118
0.91886608 0.72831824 0.59292975
0.91886608 0.75482762 0.61939710
0.91886608 0.78180785 0.64646604
0.38704895 0.46939907 0.29449530
0.38717602 0.46940459 0.29450571
0.38764120 0.46942488 0.29454393
0.38865372 0.46946942 0.29462778
0.39048685 0.46955133 0.29478188
0.39347447 0.46968847 0.29503948
0.39799457 0.46990477 0.29544480
0.40443269 0.47023204 0.29605579
0.41312687 0.47071207 0.29694709
0.42430676 0.47139915 0.29821297
0.43804839 0.47236293 0.29996969
0.45426345 0.47369150 0.30235645
0.47272638 0.47549420 0.30553391
0.49312571 0.47790383 0.30967905
0.51511872 0.48107716 0.31497571
0.53837439 0.48519278 0.32160090
0.56259896 0.49044509 0.32970866
0.58754645 0.49703357 0.33941453
0.61301898 0.50514757 0.35078444
0.63886176 0.51494827 0.36383078
0.66495608 0.52655103 0.37851625
0.69121215 0.54001226 0.39476400
0.71756275 0.55532417 0.41247076
0.74395802 0.57241860 0.43151998
0.77036120 0.59117869 0.45179279
0.79674543 0.61145484 0.47317580
0.82309128 0.63308136 0.49556586
0.84938483 0.65589080 0.51887228
0.87561630 0.67972443 0.54301728
0.90177895 0.70443870 0.56793541
0.91886608 0.72990830 0.59357227
0.91886608 0.75602669 0.61988310
0.91886608 0.78270510 0.64683134
0.41393476 0.49884591 0.31719580
0.41402798 0.49884992 0.31720356
0.41436956 0.49886463 0.31723205
0.41511485 0.49889693 0.31729458
0.41647043 0.49895635 0.31740954
0.41869676 0.49905586 0.31760185
0.42210429 0.49921290 0.31790482
0.42703650 0.49945071 0.31836238
0.43383683 0.49979996 0.31903169
0.44280160 0.50030075 0.31998598
0.45412996 0.50100501 0.32131739
0.46788722 0.50197922 0.32313931
0.48399589 0.50330734 0.32558751
0.50225715 0.50509371 0.32881908
0.52239263 0.50746531 0.33300811
0.54409069 0.51057278 0.33833724
0.56704448 0.51458904 0.34498509
0.59097641 0.51970438 0.35311091
0.61564960 0.52611716 0.36283898
0.64087018 0.53401996 0.37424653
0.66648402 0.54358232 0.38735787
0.69237119 0.55493281 0.40214632
0.71843975 0.56814442 0.41854262
0.74462005 0.58322677 0.43644735
0.77085981 0.60012723 0.45574417
0.79712006 0.61874038 0.47631149
0.82337203 0.63892295 0.49803124
0.84959464 0.66051061 0.52079453
0.87577259 0.68333321 0.54450466
0.90189499 0.70722662 0.56907809
0.91886608 0.73204046 0.59444414
0.91886608 0.75764221 0.62054388
0.91886608 0.78391846 0.64732876
0.44080713 0.52795625 0.34024435
0.44087597 0.52795917 0.34025016
0.44112839 0.52796992 0.34027153
0.44168010 0.52799352 0.34031841
0.44268684 0.52803694 0.34040465
0.44434934 0.52810968 0.34054898
0.44691540 0.52822451 0.34077656
0.45067463 0.52839850 0.34112072
0.45594183 0.52865424 0.34162511
0.46302706 0.52902143 0.34234626
0.47219509 0.52953871 0.34335627
0.48362304 0.53025606 0.34474562
0.49736963 0.53123729 0.34662548
0.51336719 0.53256301 0.34912906
0.53143872 0.53433348 0.35241090
0.55133270 0.53667102 0.35664312
0.57276293 0.53972138 0.36200791
0.59544273 0.54365297 0.36868585
0.61910828 0.54865289 0.37684111
0.64353074 0.55491877 0.38660592
0.66851991 0.56264606 0.39806757
0.69392247 0.57201144 0.41126110
0.71961757 0.58315482 0.42616934
0.74551151 0.59616347 0.44272990
0.77153256 0.61106222 0.46084681
0.79762630 0.62781218 0.48040382
0.82375186 0.64631813 0.50127663
0.84987873 0.66644252 0.52334257
0.87598437 0.68802217 0.54648714
0.90205229 0.71088436 0.57060776
0.91886608 0.73485983 0.59561524
0.91886608 0.75979175 0.62143377
0.91886608 0.78554080 0.64800000
0.46766689 0.55675476 0.36362519
0.46771800 0.55675691 0.36362957
0.46790552 0.55676481 0.36364567
0.46831585 0.55678215 0.36368098
0.46906636 0.55681408 0.36374595
0.47031062 0.55686756 0.36385475
0.47224296 0.55695202 0.36402639
0.47509924 0.55708004 0.36428619
0.47915085 0.55726833 0.36466748
0.48468877 0.55753892 0.36521371
0.49199657 0.55792060 0.36598087
0.50131483 0.55845084 0.36704018
0.51280460 0.55917788 0.36848083
0.52652075 0.56016337 0.37041234
0.54240444 0.56148516 0.37296606
0.56029684 0.56324017 0.37629477
0.57996851 0.56554700 0.38056952
0.60115430 0.56854753 0.38597271
0.62358446 0.57240666 0.39268721
0.64700694 0.57730915 0.40088207
0.67119991 0.58345242 0.41069692
0.69597648 0.59103467 0.42222825
0.72118414 0.60023900 0.43552079
0.74670133 0.61121529 0.45056590
0.77243286 0.62406335 0.46730731
0.79830515 0.63882135 0.48565200
0.82426198 0.65546240 0.50548347
0.85026074 0.67390023 0.52667458
0.87626941 0.69400210 0.54909802
0.90226415 0.71560549 0.57263369
0.91886608 0.73853496 0.59717318
0.91886608 0.76261617 0.62262172
0.91886608 0.78768605 0.64889847
0.49451477 0.58526283 0.38732434
0.49455289 0.58526442 0.38732765
0.49469278 0.58527026 0.38733981
0.49499915 0.58528307 0.38736651
0.49556045 0.58530666 0.38741564
0.49649368 0.58534617 0.38749791
0.49794953 0.58540859 0.38762778
0.50011583 0.58550323 0.38782449
0.50321749 0.58564249 0.38811347
0.50751011 0.58584273 0.38852806
0.51326494 0.58612546 0.38911151
0.52074441 0.58651871 0.38991939
0.53017042 0.58705888 0.39102225
0.54169224 0.58779280 0.39250831
0.55536276 0.58878029 0.39448592
0.57113114 0.59009690 0.39708517
0.58885384 0.59183688 0.40045778
0.60831983 0.59411586 0.40477443
0.62928157 0.59707269 0.41021840
0.65148360 0.60086970 0.41697526
0.67468387 0.60569008 0.42521899
0.69866663 0.61173155 0.43509629
0.72324788 0.61919522 0.44671222
0.74827588 0.62827018 0.46012034
0.77362846 0.63911535 0.47531970
0.79920910 0.65184170 0.49225935
0.82494267 0.66649915 0.51084860
0.85077128 0.68307127 0.53097029
0.87665081 0.70147935 0.55249413
0.90254789 0.72159441 0.57528798
0.91886608 0.74325390 0.59922608
0.91886608 0.76627922 0.62419418
0.91886608 0.79049084 0.65009197
0.52135142 0.61349921 0.41132923
0.52137994 0.61350039 0.41133174
0.52148465 0.61350472 0.41134097
0.52171411 0.61351422 0.41136120
0.52213502 0.61353171 0.41139845
0.52283630 0.61356102 0.41146084
0.52393390 0.61360733 0.41155935
0.52557522 0.61367755 0.41170863
0.52794181 0.61378092 0.41192810
0.53124867 0.61392963 0.41224329
0.53573783 0.61413972 0.41268752
0.54166421 0.61443222 0.41330389
0.54927325 0.61483451 0.41414767
0.55877244 0.61538204 0.41528889
0.57030239 0.61612045 0.41681509
0.58391537 0.61710802 0.41883385
0.59956781 0.61841844 0.42147450
0.61712923 0.62014381 0.42488834
0.63640414 0.62239740 0.42924633
0.65715980 0.62531583 0.43473323
0.67915282 0.62905960 0.44153776
0.70214969 0.63381111 0.44983897
0.72593983 0.63976893 0.45979051
0.75034175 0.64713734 0.47150553
0.77520429 0.65611131 0.48504573
0.80040476 0.66685811 0.50041705
0.82584547 0.67949885 0.51757310
0.85144984 0.69409384 0.53642482
0.87715854 0.71063565 0.55685381
0.90292609 0.72905173 0.57872622
0.91886608 0.74921568 0.60190482
0.91886608 0.77096402 0.62625801
0.91886608 0.79411439 0.65166562
0.54817741 0.64148040 0.43562857
0.54819881 0.64148128 0.43563048
0.54827738 0.64148450 0.43563748
0.54844966 0.64149157 0.43565286
0.54876595 0.64150458 0.43568115
0.54929373 0.64152639 0.43572855
0.55012180 0.64156085 0.43580342
0.55136462 0.64161311 0.43591690
0.55316613 0.64169006 0.43608384
0.55570193 0.64180080 0.43632376
0.55917816 0.64195732 0.43666228
0.56382523 0.64217539 0.43713269
0.56988455 0.64247559 0.43777800
0.57758794 0.64288469 0.43865323
0.58713170 0.64343737 0.43982806
0.59865026 0.64417821 0.44138962
0.61219616 0.64516424 0.44344504
0.62773255 0.64646762 0.44612337
0.64514025 0.64817874 0.44957604
0.66423697 0.65040913 0.45397488
0.68480251 0.65329376 0.45950670
0.70660371 0.65699205 0.46636385
0.72941426 0.66168632 0.47473073
0.75302794 0.66757658 0.48476788
0.77726534 0.67487068 0.49659625
0.80197575 0.68376943 0.51028509
0.82703591 0.69444815 0.52584652
0.85234706 0.70703722 0.54323791
0.87783132 0.72160619 0.56237106
0.90342804 0.73815525 0.58312568
0.91886608 0.75661661 0.60536381
0.91886608 0.77686514 0.62894275
0.91886608 0.79873536 0.65372482
0.57499325 0.66922109 0.46021208
0.57500934 0.66922174 0.46021353
0.57506842 0.66922415 0.46021886
0.57519799 0.66922942 0.46023055
0.57543603 0.66923912 0.46025208
0.57583369 0.66925539 0.46028814
0.57645873 0.66928109 0.46034510
0.57739940 0.66932007 0.46043148
0.57876837 0.66937748 0.46055858
0.58070611 0.66946011 0.46074136
0.58338266 0.66957696 0.46099947
0.58699634 0.66973983 0.46135854
0.59176762 0.66996419 0.46185187
0.59792674 0.67027024 0.46252237
0.60569462 0.67068421 0.46342493
0.61525896 0.67124008 0.46462902
0.62674983 0.67198158 0.46622154
0.64022086 0.67296466 0.46830952
0.65564141 0.67426028 0.47102212
0.67290220 0.67595751 0.47451142
0.69183222 0.67816660 0.47895067
0.71222197 0.68102151 0.48452933
0.73384689 0.68468121 0.49144384
0.75648674 0.68932861 0.49988429
0.77993891 0.69516582 0.51001822
0.80402561 0.70240467 0.52197414
0.82859639 0.71125205 0.53582841
0.85352740 0.72189107 0.55159864
0.87871885 0.73446080 0.56924513
0.90409164 0.74903899 0.58867973
0.91886608 0.76563217 0.60977947
0.91886608 0.78417579 0.63240168
0.91886608 0.80454462 0.65639767
0.60179942 0.69673442 0.48507039
0.60181153 0.69673491 0.48507149
0.60185600 0.69673670 0.48507555
0.60195357 0.69674064 0.48508445
0.60213290 0.69674789 0.48510084
0.60243273 0.69676004 0.48512829
0.60290464 0.69677924 0.48517166
0.60361630 0.69680836 0.48523745
0.60465511 0.69685126 0.48533427
0.60613175 0.69691301 0.48547358
0.60818330 0.69700036 0.48567040
0.61097468 0.69712215 0.48594445
0.61469730 0.69729002 0.48632141
0.61956321 0.69751916 0.48683456
0.62579342 0.69782940 0.48752676
0.63360017 0.69824652 0.48845280
0.64316462 0.69880387 0.48968209
0.65461403 0.69954445 0.49130151
0.66800367 0.70052335 0.49341825
0.68330876 0.70181058 0.49616198
0.70042874 0.70349425 0.49968587
0.71920240 0.70568376 0.50416517
0.73942929 0.70851258 0.50979253
0.76089213 0.71213989 0.51676902
0.78337569 0.71674983 0.52529083
0.80668022 0.72254726 0.53553264
0.83062917 0.72974855 0.54763044
0.85507212 0.73856694 0.56166730
0.87988456 0.74919329 0.57766566
0.90496567 0.76177489 0.59558792
0.91886608 0.77639679 0.61534507
0.91886608 0.79307051 0.63681060
0.91886608 0.81173329 0.65983634
0.62859633 0.72403220 0.51019490
0.62860546 0.72403256 0.51019574
0.62863896 0.72403390 0.51019883
0.62871247 0.72403685 0.51020561
0.62884764 0.72404227 0.51021809
0.62907377 0.72405135 0.51023899
0.62943004 0.72406571 0.51027202
0.62996814 0.72408749 0.51032213
0.63075538 0.72411957 0.51039590
0.63187803 0.72416577 0.51050206
0.63344472 0.72423112 0.51065212
0.63558924 0.72432227 0.51086120
0.63847184 0.72444794 0.51114904
0.64227789 0.72461958 0.51154133
0.64721227 0.72485213 0.51207134
0.65348845 0.72516509 0.51278191
0.66131180 0.72558379 0.51372783
0.67085869 0.72614109 0.51497852
0.68225475 0.72687936 0.51662105
0.69555741 0.72785299 0.51876299
0.71074748 0.72913127 0.52153492
0.72773219 0.73080167 0.52509151
0.74635882 0.73297313 0.52961056
0.76643466 0.73577918 0.53528848
0.78774846 0.73937974 0.54233155
0.81008906 0.74396090 0.55094247
0.83325895 0.74973092 0.56130336
