src/ffmpeg_scripts/luts/sRGB-rec2020_1p33.cube
TITLE "sRGB-rec2020_1p33"
LUT_3D_SIZE 9
# PQ (EOTF Only)/sRGB -> PQ (EOTF Only)/Rec2020, CineEI Shift 1.33, Black Level 0.00% IRE, Input 100% -> Output 109% - Created with LUTCalc v4.01 by Ben Turley October 2020
0.06256172 0.06256172 0.06256172
0.18822936 0.11670006 0.09102686
0.30557732 0.18629576 0.13527233
0.41925232 0.26547358 0.19159930
0.53045276 0.35226130 0.25872689
0.63977368 0.44555661 0.33595040
0.74757513 0.54463271 0.42281815
0.85409955 0.64896531 0.51901613
0.91886608 0.75815388 0.62431474
0.16260956 0.20542577 0.12244923
0.20729427 0.20885675 0.12678940
0.30944013 0.23033595 0.15015827
0.42025535 0.28230850 0.19702241
0.53074956 0.35821168 0.26069393
0.63986678 0.44762814 0.33666823
0.74760474 0.54534328 0.42307672
0.85410879 0.64920104 0.51910594
0.91886608 0.75822764 0.62434405
0.26546173 0.33133437 0.19689097
0.27735827 0.33193158 0.19784959
0.33408359 0.33637550 0.20473495
0.42759956 0.35297076 0.22762047
0.53299770 0.39367010 0.27422546
0.64057859 0.46212185 0.34197813
0.74783174 0.55062707 0.42503735
0.85417964 0.65099177 0.51979262
0.91886608 0.75879209 0.62456881
0.36968272 0.45019485 0.28003205
0.37303099 0.45034427 0.28030804
0.39511006 0.45148347 0.28239359
0.45346065 0.45617801 0.29067057
0.54200498 0.47086729 0.31402303
0.64355023 0.50641529 0.36137767
0.74879196 0.57028765 0.43292978
0.85448064 0.65825674 0.52266035
0.91886608 0.76115725 0.62551968
0.47486893 0.56442862 0.36995088
0.47589734 0.56447202 0.37003978
0.48343060 0.56480456 0.37071936
0.50998432 0.56620716 0.37355254
0.56798484 0.57093967 0.38274867
0.65323581 0.58466970 0.40692279
0.75206409 0.61785002 0.45600667
0.85552214 0.67994438 0.53201899
0.91886608 0.76896063 0.62876186
0.58081233 0.67521174 0.46558453
0.58114291 0.67522517 0.46561444
0.58364348 0.67532826 0.46584384
0.59360373 0.67576583 0.46681394
0.62187451 0.67727566 0.47011720
0.67889638 0.68195446 0.47995549
0.76182923 0.69518418 0.50517286
0.85877808 0.72760648 0.55690797
0.91886608 0.79026730 0.63845504
0.68738360 0.78324462 0.56623742
0.68749075 0.78324885 0.56624752
0.68830952 0.78328130 0.56632504
0.69171750 0.78341933 0.56665431
0.70271782 0.78389889 0.56779329
0.73117866 0.78541810 0.57135080
0.78693271 0.78999078 0.58163150
0.86820888 0.80301416 0.60810070
0.91886608 0.83589208 0.66349462
0.79449378 0.88899310 0.67141081
0.79452773 0.88899441 0.67141412
0.79478805 0.88900444 0.67143960
0.79588801 0.88904713 0.67154795
0.79962267 0.88919581 0.67192474
0.81064968 0.88967025 0.67312139
0.83829765 0.89113027 0.67675062
0.89258368 0.89555848 0.68730603
0.91886608 0.90861600 0.71528017
0.90207758 0.91886608 0.78072556
0.90208779 0.91886608 0.78072659
0.90216618 0.91886608 0.78073450
0.90249909 0.91886608 0.78076818
0.90364983 0.91886608 0.78088549
0.90723585 0.91886608 0.78126020
0.91753014 0.91886608 0.78241644
0.91886608 0.91886608 0.78595207
0.91886608 0.91886608 0.79662276
0.10685407 0.08645509 0.20418998
0.19112315 0.12026340 0.20503866
0.30609657 0.18709607 0.21118804
0.41938491 0.26570738 0.23218249
0.53049185 0.35233750 0.27659238
0.63978593 0.44558250 0.34297414
0.74757903 0.54464152 0.42541458
0.85410077 0.64896823 0.51992590
0.91886608 0.75815479 0.62461257
0.16719910 0.20600344 0.20861345
0.20940291 0.20940291 0.20940291
0.30993422 0.23072566 0.21514990
0.42038644 0.28249412 0.23506258
0.53078853 0.35828260 0.27813190
0.63987902 0.44765344 0.34363276
0.74760863 0.54535203 0.42566567
0.85411000 0.64920395 0.52001483
0.91886608 0.75822855 0.62464178
0.26634904 0.33143288 0.23499108
0.27811207 0.33202936 0.23551446
0.33444590 0.33646804 0.23940204
0.42772020 0.35304631 0.25383497
0.53303574 0.39371677 0.28899304
0.64059074 0.46214340 0.34852077
0.74783563 0.55063534 0.42757037
0.85418085 0.65099462 0.52069486
0.91886608 0.75879299 0.62486584
0.36991819 0.45021944 0.29378676
0.37325731 0.45036882 0.29401644
0.39528489 0.45150771 0.29575726
0.45355101 0.45620102 0.30275274
0.54203953 0.47088686 0.32313826
0.64356201 0.50642858 0.36659509
0.74879580 0.57029436 0.43525016
0.85448185 0.65825939 0.52353532
0.91886608 0.76115813 0.62581375
0.47494030 0.56443576 0.37467624
0.47596791 0.56447915 0.37476031
0.48349559 0.56481167 0.37540308
0.51003304 0.56621417 0.37808608
0.56801104 0.57094633 0.38682885
0.65324644 0.58467546 0.41002505
0.75206780 0.61785407 0.45780594
0.85552334 0.67994648 0.53281071
0.91886608 0.76896144 0.62904603
0.58083519 0.67521395 0.46720487
0.58116569 0.67522738 0.46723426
0.58366567 0.67533046 0.46745960
0.59362369 0.67576803 0.46841269
0.62188932 0.67727783 0.47165942
0.67890448 0.68195651 0.48134129
0.76183257 0.69518597 0.50622830
0.85877923 0.72760775 0.55751546
0.91886608 0.79026795 0.63871158
0.68739100 0.78324532 0.56678766
0.68749814 0.78324955 0.56679770
0.68831684 0.78328200 0.56687477
0.69172457 0.78342002 0.56720212
0.70272411 0.78389958 0.56833454
0.73118331 0.78541878 0.57187202
0.78693526 0.78999143 0.58209897
0.86820991 0.80301473 0.60845412
0.91886608 0.83589247 0.66369154
0.79449612 0.88899332 0.67159191
0.79453008 0.88899463 0.67159522
0.79479039 0.88900466 0.67162065
0.79589032 0.88904735 0.67172880
0.79962489 0.88919602 0.67210487
0.81065165 0.88967046 0.67329924
0.83829910 0.89113048 0.67692178
0.89258446 0.89555868 0.68745908
0.91886608 0.90861617 0.71539386
0.90207828 0.91886608 0.78078185
0.90208849 0.91886608 0.78078288
0.90216688 0.91886608 0.78079079
0.90249979 0.91886608 0.78082445
0.90365052 0.91886608 0.78094169
0.90723651 0.91886608 0.78131616
0.91753073 0.91886608 0.78247171
0.91886608 0.91886608 0.78600526
0.91886608 0.91886608 0.79667011
0.16753270 0.12531164 0.32951100
0.20956080 0.14012398 0.32965633
0.30997178 0.19289129 0.33076363
0.42039643 0.26747766 0.33531382
0.53079150 0.35292028 0.34943615
0.63987995 0.44578106 0.38313970
0.74760893 0.54470917 0.44316494
0.85411009 0.64899062 0.52663012
0.91886608 0.75816179 0.62686878
0.19332553 0.21026538 0.33028830
0.22357659 0.21344261 0.33043224
0.31362727 0.23364358 0.33152896
0.42138659 0.28390420 0.33603730
0.53108723 0.35882516 0.35004502
0.63997294 0.44784748 0.38354754
0.74763852 0.54541917 0.44337071
0.85411932 0.64922628 0.52671287
0.91886608 0.75823554 0.62689731
0.27282083 0.33218531 0.33601903
0.28365690 0.33277626 0.33615309
0.33717514 0.33717514 0.33717514
0.42864117 0.35362413 0.34138731
0.53332735 0.39407428 0.35457621
0.64068396 0.46230868 0.38661607
0.74786544 0.55069879 0.44493519
0.85419017 0.65101654 0.52734583
0.91886608 0.75879995 0.62711609
0.37170471 0.45040802 0.35670784
0.37497525 0.45055709 0.35681200
0.39661566 0.45169361 0.35760747
0.45424186 0.45637751 0.36091110
0.54230439 0.47103698 0.37150345
0.64365235 0.50653053 0.39857538
0.74882531 0.57034583 0.45130593
0.85449113 0.65827968 0.52999324
0.91886608 0.76116491 0.62804182
0.47548648 0.56449055 0.40421733
0.47650799 0.56453391 0.40427694
0.48399311 0.56486623 0.40473325
0.51040631 0.56626792 0.40664943
0.56821193 0.57099745 0.41301885
0.65332799 0.58471966 0.43077528
0.75209629 0.61788518 0.47054612
0.85553252 0.67996261 0.53867617
0.91886608 0.76896767 0.63120012
0.58101053 0.67523091 0.47876998
0.58134043 0.67524434 0.47879587
0.58383583 0.67534740 0.47899440
0.59377683 0.67578489 0.47983473
0.62200290 0.67729442 0.48270542
0.67896664 0.68197230 0.49133681
0.76185822 0.69519969 0.51395508
0.85878808 0.72761746 0.56205365
0.91886608 0.79027289 0.64065860
0.68744781 0.78325066 0.57090888
0.68755489 0.78325488 0.57091849
0.68837310 0.78328733 0.57099225
0.69177883 0.78342535 0.57130562
0.70277239 0.78390488 0.57238999
0.73121895 0.78542399 0.57578100
0.78695481 0.78999639 0.58561340
0.86821787 0.80301903 0.61112478
0.91886608 0.83589547 0.66519010
0.79451412 0.88899497 0.67297110
0.79454807 0.88899628 0.67297436
0.79480833 0.88900631 0.67299942
0.79590804 0.88904900 0.67310600
0.79964191 0.88919767 0.67347664
0.81066673 0.88967210 0.67465389
0.83831022 0.89113209 0.67822577
0.89259050 0.89556021 0.68862607
0.91886608 0.90861749 0.71626232
0.90208369 0.91886608 0.78121296
0.90209391 0.91886608 0.78121398
0.90217229 0.91886608 0.78122186
0.90250518 0.91886608 0.78125536
0.90365584 0.91886608 0.78137205
0.90724161 0.91886608 0.78174479
0.91753526 0.91886608 0.78289500
0.91886608 0.91886608 0.78641265
0.91886608 0.91886608 0.79703292
0.23910193 0.17623504 0.44802506
0.25579093 0.18182521 0.44806140
0.32460833 0.21265071 0.44833992
0.42457720 0.27456250 0.44951601
0.53205645 0.35535618 0.45349997
0.64027914 0.44662144 0.46519063
0.74773610 0.54499659 0.49418079
0.85414977 0.64908588 0.55076113
0.91886608 0.75819159 0.63591333
0.24836348 0.22571586 0.44821999
0.26317150 0.22821884 0.44825625
0.32765661 0.24480739 0.44853417
0.42552183 0.28962517 0.44970773
0.53234821 0.36109604 0.45368341
0.64037174 0.44866883 0.46535185
0.74776566 0.54570442 0.49429823
0.85415900 0.64932130 0.55082506
0.91886608 0.75826532 0.63593926
0.29535687 0.33531196 0.44970288
0.30352739 0.33588050 0.44973854
0.34786528 0.34011803 0.45001192
0.43245817 0.35603970 0.45116649
0.53455861 0.39557985 0.45507968
0.64107978 0.46300890 0.46658037
0.74799227 0.55096844 0.49519507
0.85422982 0.65110977 0.55131448
0.91886608 0.75882954 0.63613812
0.37891369 0.45120642 0.45575568
0.38192241 0.45135417 0.45578903
0.40206234 0.45248074 0.45604468
0.45712497 0.45712497 0.45712497
0.54342356 0.47167328 0.46079327
0.64403596 0.50696331 0.47163193
0.74895084 0.57056466 0.49891810
0.85453065 0.65836603 0.55336983
0.91886608 0.76119376 0.63698003
0.47777564 0.56472341 0.47416157
0.47877200 0.56476666 0.47418880
0.48608132 0.56509817 0.47439759
0.51197871 0.56649643 0.47528110
0.56906236 0.57121477 0.47829602
0.65367436 0.58490756 0.48733244
0.75221748 0.61801750 0.51083596
0.85557157 0.68003125 0.56020252
0.91886608 0.76899419 0.63985789
0.58175335 0.67530308 0.51622721
0.58208066 0.67531650 0.51624445
0.58455681 0.67541948 0.51637673
0.59442597 0.67585664 0.51693775
0.62248490 0.67736503 0.51886753
0.67923080 0.68203950 0.52479109
0.76196732 0.69525809 0.54112930
0.85882574 0.72765881 0.57924301
0.91886608 0.79029394 0.64852590
0.68768928 0.78327338 0.58667773
0.68779609 0.78327760 0.58668586
0.68861222 0.78331004 0.58674827
0.69200946 0.78344802 0.58701346
0.70297762 0.78392744 0.58793220
0.73137053 0.78544618 0.59081567
0.78703796 0.79001750 0.59926269
0.86825174 0.80303734 0.62171850
0.91886608 0.83590822 0.67131609
0.79459071 0.88900199 0.67862673
0.79462463 0.88900330 0.67862980
0.79488467 0.88901333 0.67865340
0.79598348 0.88905602 0.67875379
0.79971433 0.88920468 0.67910293
0.81073093 0.88967907 0.68021245
0.83835753 0.89113895 0.68358358
0.89261619 0.89556672 0.69343826
0.91886608 0.90862310 0.71987188
0.90210674 0.91886608 0.78302594
0.90211695 0.91886608 0.78302695
0.90219531 0.91886608 0.78303467
0.90252811 0.91886608 0.78306751
0.90367848 0.91886608 0.78318194
0.90726333 0.91886608 0.78354743
0.91755455 0.91886608 0.78467549
0.91886608 0.91886608 0.78812698
0.91886608 0.91886608 0.79856149
0.31965196 0.23828727 0.56206283
0.32571642 0.24036301 0.56207339
0.36140038 0.25448875 0.56215442
0.43777991 0.29499465 0.56249860
0.53633695 0.36332949 0.56368872
0.64165777 0.44949120 0.56740178
0.74817811 0.54599177 0.57809857
0.85428798 0.64941721 0.60544379
0.91886608 0.75829539 0.66202469
0.32289250 0.26179578 0.56211951
0.32872345 0.26327969 0.56213006
0.36335618 0.27375337 0.56221104
0.43859475 0.30674331 0.56255501
0.53661565 0.36856251 0.56374443
0.64174903 0.45147498 0.56745533
0.74820753 0.54669215 0.57814637
0.85429719 0.64965181 0.60547958
0.91886608 0.75836904 0.66204436
0.34418006 0.34535546 0.56255358
0.34869793 0.34585816 0.56256408
0.37702501 0.34961883 0.56264470
0.44461581 0.36395081 0.56298709
0.53872843 0.40063262 0.56417108
0.64244688 0.46540862 0.56786551
0.74843307 0.55190249 0.57851262
0.85436789 0.65143411 0.60575388
0.91886608 0.75893264 0.66219529
0.40014276 0.45393576 0.56437932
0.40250213 0.45407911 0.56438962
0.41876200 0.45517233 0.56446869
0.46651329 0.45968352 0.56480451
0.54722388 0.47385747 0.56596598
0.64536129 0.50845646 0.56959191
0.74938713 0.57132359 0.58005598
0.85466826 0.65866644 0.60691278
0.91886608 0.76129426 0.66283512
0.48533582 0.56553074 0.57048068
0.48625359 0.56557363 0.57049033
0.49301088 0.56590230 0.57056443
0.51726093 0.56728875 0.57087922
0.57196849 0.57196849 0.57196849
0.65487209 0.58555971 0.57537443
0.75263875 0.61847733 0.58524718
0.85570759 0.68027016 0.61084537
0.91886608 0.76908658 0.66503245
0.58429816 0.67555425 0.58772182
0.58461677 0.67556763 0.58772986
0.58702807 0.67567034 0.58779158
0.59665478 0.67610634 0.58805386
0.62414634 0.67761077 0.58896258
0.68014598 0.68227338 0.59181521
0.76234669 0.69546139 0.60017712
0.85895689 0.72780282 0.62244035
0.91886608 0.79036728 0.67174399
0.68852629 0.78335253 0.62721463
0.68863216 0.78335675 0.62721992
0.68944111 0.78338917 0.62726057
0.69280912 0.78352703 0.62743340
0.70368964 0.78400604 0.62803347
0.73189705 0.78552349 0.62992999
0.78732728 0.79009106 0.63559902
0.86836972 0.80310117 0.65145399
0.91886608 0.83595266 0.69001388
0.79485723 0.88902647 0.69605064
0.79489105 0.88902778 0.69605320
0.79515033 0.88903780 0.69607281
0.79624598 0.88908048 0.69615627
0.79996637 0.88922910 0.69644664
0.81095436 0.88970336 0.69737057
0.83852231 0.89116283 0.70018871
0.89270570 0.89558943 0.70851791
0.91886608 0.90864265 0.73146803
0.90218703 0.91886608 0.78908104
0.90219723 0.91886608 0.78908198
0.90227552 0.91886608 0.78908920
0.90260802 0.91886608 0.78911996
0.90375733 0.91886608 0.78922711
0.90733900 0.91886608 0.78956940
0.91762174 0.91886608 0.79062636
0.91886608 0.91886608 0.79386520
0.91886608 0.91886608 0.80369930
0.40809956 0.31099456 0.67275798
0.41025545 0.31176582 0.67276125
0.42525081 0.31744762 0.67278637
0.47037935 0.33790737 0.67289319
0.54885875 0.38472013 0.67326466
0.64594231 0.45811063 0.67444454
0.74957969 0.54910950 0.67802421
0.85472913 0.65047057 0.68844557
0.91886608 0.75862706 0.71612782
0.40923767 0.32068460 0.67277554
0.41136601 0.32136676 0.67277881
0.42618832 0.32641817 0.67280392
0.47094778 0.34494674 0.67291072
0.54910258 0.38881366 0.67328213
0.64602953 0.45991546 0.67446179
0.74960866 0.54978704 0.67804081
0.85473830 0.65070258 0.68846044
0.91886608 0.75870044 0.71613890
0.41751629 0.37114321 0.67291028
0.41945511 0.37151211 0.67291355
0.43307472 0.37429232 0.67293862
0.47519828 0.38520301 0.67304527
0.55095409 0.41508338 0.67341614
0.64669661 0.47269307 0.67459415
0.74983084 0.55483267 0.67816824
0.85480866 0.65246536 0.68857455
0.91886608 0.75926204 0.71622392
0.44602586 0.46215943 0.67348170
0.44743710 0.46229032 0.67348495
0.45759364 0.46328917 0.67350987
0.49136138 0.46742233 0.67361588
0.55845089 0.48051997 0.67398452
0.64948485 0.51308240 0.67515550
0.75077075 0.57371368 0.67870879
0.85510755 0.65962213 0.68905877
0.91886608 0.76161540 0.71658501
0.50605523 0.56807054 0.67544720
0.50678888 0.56811228 0.67545038
0.51223654 0.56843222 0.67547479
0.53240275 0.56978215 0.67557861
0.58071428 0.57434248 0.67593969
0.65860878 0.58761840 0.67708680
0.75397517 0.61993509 0.68056943
0.85614181 0.68103122 0.69072767
0.91886608 0.76938185 0.71783311
0.59201461 0.67635414 0.68147963
0.59230824 0.67636741 0.68148261
0.59453304 0.67646926 0.68150551
0.60345800 0.67690159 0.68160291
0.62927883 0.67839350 0.68194169
0.68301851 0.68301851 0.68301851
0.76355127 0.69610953 0.68629250
0.85937562 0.72826252 0.69588162
0.91886608 0.79060176 0.72172185
0.69115787 0.78360557 0.69810573
0.69126081 0.78360978 0.69810823
0.69204760 0.78364211 0.69812742
0.69532527 0.78377959 0.69820907
0.70593425 0.78425729 0.69849319
0.73356355 0.78577064 0.69939734
0.78824775 0.79032625 0.70215629
0.86874649 0.80330527 0.71032022
0.91886608 0.83609485 0.73288176
0.79570555 0.88910481 0.73674939
0.79573906 0.88910612 0.73675104
0.79599597 0.88911614 0.73676375
0.79708161 0.88915877 0.73681784
0.80076888 0.88930726 0.73700615
0.81166625 0.88978110 0.73760668
0.83904797 0.89123929 0.73945090
0.89299173 0.89566212 0.74501027
0.91886608 0.90870522 0.76113389
0.90244368 0.91886608 0.80615504
0.90245385 0.91886608 0.80615582
0.90253191 0.91886608 0.80616182
0.90286342 0.91886608 0.80618735
0.90400939 0.91886608 0.80627629
0.90758090 0.91886608 0.80656054
0.91783657 0.91886608 0.80743938
0.91886608 0.91886608 0.81014257
0.91886608 0.91886608 0.81844142
0.50372326 0.39408450 0.78078646
0.50447557 0.39436656 0.78078749
0.51005700 0.39650223 0.78079540
0.53065218 0.40504675 0.78082905
0.57967209 0.42962564 0.78094629
0.65815303 0.48064586 0.78132075
0.75381037 0.55819606 0.78247623
0.85608804 0.65367504 0.78600962
0.91886608 0.75965152 0.79667399
0.50411886 0.39776471 0.78079199
0.50486797 0.39803503 0.78079302
0.51042648 0.40008305 0.78080093
0.53094835 0.40829838 0.78083458
0.57984785 0.43209613 0.78095181
0.65822969 0.48205781 0.78132624
0.75383806 0.55881126 0.78248166
0.85609707 0.65389933 0.78601484
0.91886608 0.75972410 0.79667864
0.50710142 0.42179141 0.78083444
0.50782685 0.42199685 0.78083547
0.51321553 0.42355855 0.78084337
0.53319176 0.42991448 0.78087701
0.58118664 0.44908139 0.78099419
0.65881627 0.49223073 0.78136845
0.75405037 0.56340559 0.78252334
0.85616637 0.65560403 0.78605495
0.91886608 0.76027955 0.79671436
0.51882201 0.48382215 0.78101494
0.51946160 0.48392537 0.78101596
0.52423152 0.48471409 0.78102385
0.54218123 0.48799776 0.78105743
0.58668225 0.49860669 0.78117437
0.66127339 0.52615768 0.78154791
0.75494878 0.58078483 0.78270056
0.85646076 0.66253545 0.78622551
0.91886608 0.76260756 0.79686624
0.55096930 0.57556136 0.78164144
0.55142304 0.57559991 0.78164246
0.55483595 0.57589543 0.78165030
0.56811850 0.57714318 0.78168364
0.60366971 0.58136831 0.78179980
0.66937194 0.59375107 0.78217081
0.75801463 0.62433238 0.78331575
0.85747955 0.68336073 0.78681766
0.91886608 0.77029459 0.79739377
0.61264372 0.67880053 0.78361962
0.61287983 0.67881346 0.78362062
0.61467353 0.67891270 0.78362829
0.62195006 0.67933401 0.78366092
0.64367094 0.68078824 0.78377462
0.69143461 0.68530003 0.78413777
0.76720222 0.69809817 0.78525866
0.86066608 0.72967861 0.78868873
0.91886608 0.79132756 0.79906302
0.69890518 0.78438850 0.78951613
0.69900000 0.78439268 0.78951707
0.69972493 0.78442473 0.78952426
0.70274992 0.78456105 0.78955487
0.71259395 0.78503472 0.78966151
0.73856654 0.78653544 0.79000219
0.79105422 0.79105422 0.79105422
0.86990871 0.80393742 0.79427825
0.91886608 0.83653585 0.80407037
0.79829602 0.88934814 0.80588136
0.79832859 0.88934944 0.80588214
0.79857835 0.88935943 0.80588816
0.79963399 0.88940195 0.80591376
0.80322182 0.88955002 0.80600297
0.81384640 0.89002255 0.80628807
0.84066424 0.89147677 0.80716953
0.89387579 0.89588791 0.80988061
0.91886608 0.90889964 0.81820231
0.90323742 0.91886608 0.84499245
0.90324750 0.91886608 0.84499296
0.90332485 0.91886608 0.84499687
0.90365337 0.91886608 0.84501350
0.90478905 0.91886608 0.84507144
0.90832929 0.91886608 0.84525675
0.91850161 0.91886608 0.84583091
0.91886608 0.91886608 0.84760854
0.91886608 0.91886608 0.85317383
0.60599861 0.48739278 0.88659817
0.60625189 0.48749205 0.88659848
0.60817452 0.48825082 0.88660093
0.61594794 0.49141249 0.88661134
0.63893155 0.50165588 0.88664763
0.68860486 0.52843271 0.88676372
0.76595433 0.58206237 0.88712399
0.86022138 0.66307557 0.88824463
0.91886608 0.76279370 0.89180387
0.60613162 0.48870524 0.88659988
0.60638456 0.48880311 0.88660019
0.60830451 0.48955116 0.88660264
0.61606768 0.49266916 0.88661305
0.63902548 0.50278115 0.88664933
0.68866039 0.52927722 0.88676543
0.76597862 0.58254013 0.88712569
0.86023000 0.66327864 0.88824631
0.91886608 0.76286386 0.89180549
0.60714684 0.49820363 0.88661301
0.60739708 0.49829191 0.88661333
0.60929678 0.49896695 0.88661577
0.61698212 0.50178653 0.88662618
0.63974363 0.51099362 0.88666246
0.68908569 0.53551908 0.88677854
0.76616491 0.58613023 0.88713874
0.86029616 0.66482363 0.88825920
0.91886608 0.76340087 0.89181786
0.61135061 0.53034004 0.88666888
0.61158997 0.53040248 0.88666920
0.61340807 0.53088052 0.88667165
0.62077888 0.53288853 0.88668205
0.64274120 0.53956938 0.88671830
0.69087502 0.55822891 0.88683431
0.76695381 0.60004770 0.88719429
0.86057725 0.67113171 0.88831404
0.91886608 0.76565273 0.89187052
0.62469732 0.59581075 0.88686341
0.62490522 0.59584186 0.88686373
0.62648656 0.59608038 0.88686616
0.63293733 0.59708908 0.88687654
0.65250583 0.60052374 0.88691272
0.69685995 0.61075173 0.88702847
0.76965267 0.63693305 0.88738765
0.86155033 0.69031578 0.88850495
0.91886608 0.77310072 0.89205386
0.65796261 0.68608724 0.88748348
0.65810891 0.68609921 0.88748380
0.65922486 0.68619107 0.88748622
0.66383329 0.68658115 0.88749653
0.67834054 0.68792857 0.88753245
0.71380699 0.69211843 0.88764738
0.77780096 0.70407686 0.88800405
0.86459692 0.73398656 0.88911358
0.91886608 0.79356780 0.89263842
0.71974375 0.78680215 0.88938533
0.71981971 0.78680621 0.88938564
0.72040094 0.78683744 0.88938801
0.72283567 0.78697023 0.88939809
0.73086040 0.78743169 0.88943324
0.75271697 0.78889411 0.88954572
0.79933922 0.79330106 0.88989477
0.87345865 0.80589254 0.89098079
0.91886608 0.83790540 0.89443275
0.80597676 0.89010707 0.89509689
0.80600671 0.89010836 0.89509718
0.80623638 0.89011827 0.89509940
0.80720766 0.89016042 0.89510885
0.81051513 0.89030722 0.89514178
0.82036487 0.89077570 0.89524716
0.84555368 0.89221758 0.89557426
0.89659245 0.89659245 0.89659245
0.91886608 0.90950670 0.89983372
0.90568138 0.91886608 0.91149075
0.90569118 0.91886608 0.91149099
0.90576639 0.91886608 0.91149283
0.90608582 0.91886608 0.91150066
0.90719036 0.91886608 0.91152794
0.91063588 0.91886608 0.91161524
0.91886608 0.91886608 0.91188633
0.91886608 0.91886608 0.91273124
0.91886608 0.91886608 0.91543144
0.71452243 0.59082036 0.91886608
0.71460274 0.59085316 0.91886608
0.71521711 0.59110460 0.91886608
0.71778838 0.59216757 0.91886608
0.72623807 0.59578248 0.91886608
0.74907913 0.60650788 0.91886608
0.79716069 0.63373288 0.91886608
0.87250788 0.68851034 0.91886608
0.91886608 0.77236056 0.91886608
0.71456459 0.59125587 0.91886608
0.71464486 0.59128851 0.91886608
0.71525896 0.59153881 0.91886608
0.71782910 0.59259692 0.91886608
0.72627527 0.59619574 0.91886608
0.74910826 0.60687689 0.91886608
0.79717800 0.63400972 0.91886608
0.87251539 0.68866548 0.91886608
0.91886608 0.77242384 0.91886608
0.71488766 0.59453470 0.91886608
0.71496766 0.59456623 0.91886608
0.71557966 0.59480799 0.91886608
0.71814115 0.59583030 0.91886608
0.72656046 0.59931019 0.91886608
0.74933163 0.60966336 0.91886608
0.79731082 0.63610897 0.91886608
0.87257301 0.68984833 0.91886608
0.91886608 0.77290829 0.91886608
0.71625068 0.60734399 0.91886608
0.71632953 0.60737152 0.91886608
0.71693273 0.60758268 0.91886608
0.71945801 0.60847632 0.91886608
0.72776485 0.61152735 0.91886608
0.75027657 0.62068430 0.91886608
0.79787409 0.64455820 0.91886608
0.87281787 0.69472383 0.91886608
0.91886608 0.77494263 0.91886608
0.72085333 0.64193413 0.91886608
0.72092840 0.64195324 0.91886608
0.72150281 0.64209978 0.91886608
0.72390943 0.64272111 0.91886608
0.73184639 0.64485582 0.91886608
0.75349778 0.65138502 0.91886608
0.79981114 0.66922169 0.91886608
0.87366625 0.70998160 0.91886608
0.91886608 0.78170351 0.91886608
0.73423377 0.70656522 0.91886608
0.73429884 0.70657485 0.91886608
0.73479697 0.70664877 0.91886608
0.73688827 0.70696277 0.91886608
0.74383306 0.70804933 0.91886608
0.76312078 0.71144678 0.91886608
0.80575218 0.72129383 0.91886608
0.87632968 0.74679949 0.91886608
0.91886608 0.80051710 0.91886608
0.76666490 0.79426221 0.91886608
0.76671082 0.79426596 0.91886608
0.76706267 0.79429475 0.91886608
0.76854571 0.79441719 0.91886608
0.77353759 0.79484279 0.91886608
0.78791848 0.79619264 0.91886608
0.82209316 0.80026986 0.91886608
0.88413763 0.81199400 0.91886608
0.91886608 0.84223351 0.91886608
0.82730388 0.89253812 0.91886608
0.82732757 0.89253937 0.91886608
0.82750928 0.89254900 0.91886608
0.82827874 0.89259001 0.91886608
0.83091122 0.89273280 0.91886608
0.83885968 0.89318852 0.91886608
0.85986959 0.89459152 0.91886608
0.90490886 0.89885199 0.91886608
0.91886608 0.91145795 0.91886608
0.91320686 0.91886608 0.91886608
0.91321584 0.91886608 0.91886608
0.91328480 0.91886608 0.91886608
0.91357775 0.91886608 0.91886608
0.91459133 0.91886608 0.91886608
0.91775953 0.91886608 0.91886608
0.91886608 0.91886608 0.91886608
0.91886608 0.91886608 0.91886608
0.91886608 0.91886608 0.91886608
