src/ffmpeg_scripts/luts/sRGB-rec2020_-2p33.cube
TITLE "sRGB-rec2020_-2p33"
LUT_3D_SIZE 9
# PQ (EOTF Only)/sRGB -> PQ (EOTF Only)/Rec2020, CineEI Shift -2.33, Black Level 0.00% IRE, Input 100% -> Output 109% - Created with LUTCalc v4.01 by Ben Turley October 2020
0.06256172 0.06256172 0.06256172
0.10946813 0.07915038 0.07033000
0.17259739 0.10855637 0.08629127
0.24630018 0.14940565 0.11106819
0.32862959 0.20149926 0.14566079
0.41848490 0.26490519 0.19117677
0.51513447 0.33980131 0.24878964
0.61804725 0.42642140 0.31972718
0.72681544 0.52503137 0.40526776
0.09777504 0.11777671 0.08129877
0.11870066 0.11947641 0.08295829
0.17491290 0.13042198 0.09240988
0.24699939 0.15894980 0.11367218
0.32886192 0.20532356 0.14674784
0.41856499 0.26639387 0.19162606
0.51516207 0.34036502 0.24897056
0.61805648 0.42662569 0.31979670
0.72681835 0.52510063 0.40529266
0.14939903 0.18829871 0.11360865
0.15611415 0.18866998 0.11407249
0.19001051 0.19144279 0.11743614
0.25214391 0.20195360 0.12900974
0.33062376 0.22874585 0.15433209
0.41917758 0.27690412 0.19496387
0.51537369 0.34456821 0.25034416
0.61812731 0.42817890 0.32032853
0.72684071 0.52563076 0.40548365
0.21278302 0.26824310 0.15764278
0.21498178 0.26835091 0.15780097
0.22971954 0.26917347 0.15899875
0.27060351 0.27257393 0.16379432
0.33771993 0.28332540 0.17767818
0.42173876 0.31003124 0.20737095
0.51626918 0.36038559 0.25590493
0.61842821 0.43450267 0.32255336
0.72693583 0.52785433 0.40629204
0.28628336 0.35564272 0.21295876
0.28704554 0.35567776 0.21301704
0.29265346 0.35594630 0.21346273
0.31276543 0.35707984 0.21532513
0.35851853 0.36091492 0.22141750
0.43012839 0.37213196 0.23777237
0.51932525 0.39978951 0.27244951
0.61946983 0.45359309 0.32985630
0.72726668 0.53521610 0.40905308
0.36896703 0.44940017 0.27943945
0.36923786 0.44941205 0.27946140
0.37128893 0.44950322 0.27962970
0.37950275 0.44989030 0.28034186
0.40319649 0.45122687 0.28277233
0.45266331 0.45537848 0.29006110
0.52848674 0.46719679 0.30908167
0.62273044 0.49665087 0.34959099
0.72831843 0.55551559 0.41735106
0.46021427 0.54879287 0.35710431
0.46030991 0.54879691 0.35711247
0.46104096 0.54882790 0.35717516
0.46408866 0.54895973 0.35744150
0.47397879 0.54941786 0.35836340
0.49993830 0.55087015 0.36124885
0.55231952 0.55525029 0.36963826
0.63221171 0.56779803 0.39158283
0.73151734 0.59995082 0.43908418
0.55957667 0.65330014 0.44604361
0.55960934 0.65330148 0.44604653
0.55985984 0.65331172 0.44606899
0.56091882 0.65335531 0.44616455
0.56452005 0.65350712 0.44649689
0.57520458 0.65399164 0.44755300
0.60232990 0.65548358 0.45076191
0.65697004 0.66001653 0.46014505
0.74089550 0.67345236 0.48537135
0.66671155 0.76252456 0.54638905
0.66672206 0.76252497 0.54639003
0.66680272 0.76252817 0.54639758
0.66714532 0.76254179 0.54642969
0.66833010 0.76258923 0.54654155
0.67202732 0.76274102 0.54689889
0.68268416 0.76321173 0.54800213
0.70994147 0.76467298 0.55138096
0.76622048 0.76928556 0.56162662
0.07561046 0.06891136 0.11716787
0.11084127 0.08047515 0.11758580
0.17290783 0.10893318 0.12063911
0.24639256 0.14953626 0.13138692
0.32866019 0.20154804 0.15567759
0.41849543 0.26492378 0.19559277
0.51513810 0.33980830 0.25060880
0.61804847 0.42642393 0.32043180
0.72681582 0.52503222 0.40552084
0.09980659 0.11806193 0.11935543
0.11974823 0.11974823 0.11974823
0.17521009 0.13062532 0.12262936
0.24709084 0.15905660 0.13289936
0.32889243 0.20536932 0.15655572
0.41857552 0.26641207 0.19600912
0.51516570 0.34037196 0.25078502
0.61805770 0.42662821 0.32050071
0.72681873 0.52510149 0.40554567
0.14989498 0.18835993 0.13286171
0.15654439 0.18873080 0.13313748
0.19023661 0.19150072 0.13519511
0.25222879 0.20200201 0.14297463
0.33065360 0.22877738 0.16281700
0.41918804 0.27691987 0.19911115
0.51537731 0.34457481 0.25212338
0.61812852 0.42818138 0.32102784
0.72684109 0.52563161 0.40573610
0.21293733 0.26826084 0.16561700
0.21513074 0.26836863 0.16575171
0.22983788 0.26919098 0.16677437
0.27066894 0.27259064 0.17091312
0.33774726 0.28333984 0.18323612
0.42174892 0.31004140 0.21076397
0.51627277 0.36039103 0.25754933
0.61842942 0.43450497 0.32323338
0.72693621 0.52785516 0.40654216
0.28633623 0.35564848 0.21606571
0.28709787 0.35568352 0.21612116
0.29270203 0.35595204 0.21654531
0.31280282 0.35708550 0.21831956
0.35853975 0.36092033 0.22414357
0.43013763 0.37213670 0.23990634
0.51932872 0.39979293 0.27375716
0.61947102 0.45359495 0.33047707
0.72726706 0.53521687 0.40929543
0.36898575 0.44940212 0.28062906
0.36925652 0.44941400 0.28065065
0.37130714 0.44950517 0.28081626
0.37951929 0.44989224 0.28151713
0.40320904 0.45122878 0.28390995
0.45267049 0.45538031 0.29109377
0.52848988 0.46719839 0.30988825
0.62273160 0.49665204 0.35007831
0.72831881 0.55551621 0.41757155
0.46022088 0.54879353 0.35754939
0.46031651 0.54879757 0.35755752
0.46104751 0.54882856 0.35761987
0.46409499 0.54896039 0.35788479
0.47398447 0.54941852 0.35880181
0.49994258 0.55087080 0.36167236
0.55232195 0.55525091 0.37002153
0.63221275 0.56779858 0.39187917
0.73151770 0.59995120 0.43925679
0.55957892 0.65330036 0.44620332
0.55961159 0.65330169 0.44620624
0.55986209 0.65331194 0.44622866
0.56092104 0.65335553 0.44632405
0.56452220 0.65350733 0.44665580
0.57520649 0.65399186 0.44771005
0.60233133 0.65548379 0.45091346
0.65697085 0.66001673 0.46028164
0.74089583 0.67345254 0.48547494
0.66671227 0.76252463 0.54644272
0.66672278 0.76252504 0.54644371
0.66680345 0.76252824 0.54645125
0.66714605 0.76254186 0.54648334
0.66833082 0.76258930 0.54659514
0.67202801 0.76274109 0.54695227
0.68268477 0.76321179 0.54805488
0.70994193 0.76467304 0.55143185
0.76622073 0.76928563 0.56167225
0.09995536 0.08238969 0.18716715
0.11982688 0.08824868 0.18725724
0.17523269 0.11168533 0.18794419
0.24709781 0.15052695 0.19077872
0.32889475 0.20192125 0.19969443
0.41857632 0.26506633 0.22167814
0.51516597 0.33986195 0.26319069
0.61805779 0.42644333 0.32564323
0.72681876 0.52503880 0.40744005
0.11189320 0.12017819 0.18764917
0.12692171 0.12176950 0.18773848
0.17743861 0.13215307 0.18841964
0.24778897 0.15986900 0.19123114
0.32912631 0.20571960 0.20008281
0.41865633 0.26655169 0.22195013
0.51519356 0.34042524 0.26333802
0.61806701 0.42664757 0.32570776
0.72682167 0.52510805 0.40746434
0.15353626 0.18882782 0.19121971
0.15972638 0.18919565 0.19130359
0.19194361 0.19194361 0.19194361
0.25287708 0.20237240 0.19459123
0.33088241 0.22901898 0.20298335
0.41926829 0.27704067 0.22400106
0.51540511 0.34462541 0.26445929
0.61813783 0.42820040 0.32620154
0.72684403 0.52563814 0.40765063
0.21410967 0.26839691 0.20435412
0.21626295 0.26850450 0.20442120
0.23073948 0.26932531 0.20493382
0.27116939 0.27271882 0.20706868
0.33795683 0.28345058 0.21397747
0.42182687 0.31011938 0.23206987
0.51630030 0.36043281 0.26904521
0.61843871 0.43452269 0.32827003
0.72693915 0.52786154 0.40843927
0.28674094 0.35569272 0.23591784
0.28749850 0.35572773 0.23595863
0.29307396 0.35599611 0.23627102
0.31308935 0.35712898 0.23758472
0.35870248 0.36096184 0.24197320
0.43020854 0.37217302 0.25438196
0.51935537 0.39981922 0.28308854
0.61948021 0.45360927 0.33509047
0.72726999 0.53522276 0.41113430
0.36912940 0.44941712 0.28917885
0.36939970 0.44942900 0.28919811
0.37144688 0.44952015 0.28934578
0.37964612 0.44990716 0.28997118
0.40330536 0.45124348 0.29211173
0.45272562 0.45539434 0.29858576
0.52851403 0.46721071 0.31581860
0.62274047 0.49666097 0.35372721
0.72832170 0.55552096 0.41924646
0.46027159 0.54879863 0.36088992
0.46036717 0.54880267 0.36089772
0.46109776 0.54883366 0.36095762
0.46414358 0.54896548 0.36121214
0.47402805 0.54942359 0.36209344
0.49997542 0.55087579 0.36485479
0.55234067 0.55525567 0.37290786
0.63222078 0.56780274 0.39412131
0.73152050 0.59995416 0.44057118
0.55959624 0.65330205 0.44742031
0.55962891 0.65330338 0.44742319
0.55987936 0.65331362 0.44744531
0.56093811 0.65335721 0.44753941
0.56453863 0.65350901 0.44786671
0.57522116 0.65399353 0.44890693
0.60234234 0.65548544 0.45206873
0.65697702 0.66001830 0.46132373
0.74089836 0.67345390 0.48626644
0.66671785 0.76252515 0.54685384
0.66672836 0.76252557 0.54685482
0.66680901 0.76252877 0.54686232
0.66715159 0.76254238 0.54689428
0.66833629 0.76258983 0.54700559
0.67203328 0.76274161 0.54736116
0.68268948 0.76321232 0.54845900
0.70994545 0.76467356 0.55182169
0.76622266 0.76928611 0.56202188
0.13503569 0.10388814 0.26667949
0.14404569 0.10646620 0.26670565
0.18413964 0.12137179 0.26690616
0.25002150 0.15452335 0.26775351
0.32988566 0.20348446 0.27063199
0.41891983 0.26566999 0.27915058
0.51528452 0.34008994 0.30073135
0.61809745 0.42652588 0.34467512
0.72683128 0.52506678 0.41516894
0.13999964 0.12802406 0.26681981
0.14812264 0.12932024 0.26684592
0.18601945 0.13808292 0.26704603
0.25068406 0.16318495 0.26789175
0.33011438 0.20718847 0.27076482
0.41899952 0.26714302 0.27926880
0.51531207 0.34065165 0.30082008
0.61810668 0.42672994 0.34472611
0.72683419 0.52513601 0.41519118
0.16653890 0.19077756 0.26788824
0.17137428 0.19113305 0.26791396
0.19869394 0.19379173 0.26811113
0.25557124 0.20392403 0.26894449
0.33184922 0.23003759 0.27177681
0.41960912 0.27755272 0.28017033
0.51552335 0.34484047 0.30149803
0.61817746 0.42828134 0.34511654
0.72685655 0.52566594 0.41536175
0.21886810 0.26897333 0.27226731
0.22086716 0.26908006 0.27229152
0.23444496 0.26989438 0.27247712
0.27326196 0.27326196 0.27326196
0.33884294 0.28392019 0.27593382
0.42215796 0.31045045 0.28388966
0.51641741 0.36061044 0.30431893
0.61847821 0.43459807 0.34675806
0.72695165 0.52788868 0.41608419
0.28843971 0.35588076 0.28575959
0.28918036 0.35591569 0.28577974
0.29463707 0.35618347 0.28593431
0.31429747 0.35731379 0.28658873
0.35939168 0.36113835 0.28882644
0.43050978 0.37232746 0.29557519
0.51946869 0.39993106 0.31341928
0.61951928 0.45367020 0.35223703
0.72728245 0.53524785 0.41855734
0.36973815 0.44948095 0.31757097
0.37000651 0.44949282 0.31758428
0.37203918 0.44958391 0.31768642
0.38018396 0.44997064 0.31811977
0.40371420 0.45130603 0.31961214
0.45295992 0.45545407 0.32421037
0.52861674 0.46726314 0.33702744
0.62277821 0.49669897 0.36768245
0.72833402 0.55554115 0.42604067
0.46048713 0.54882033 0.37378371
0.46058249 0.54882436 0.37379041
0.46131135 0.54885535 0.37384178
0.46435012 0.54898714 0.37406015
0.47421334 0.54944514 0.37481705
0.50011511 0.55089701 0.37719647
0.55242029 0.55527592 0.38420069
0.63225493 0.56782046 0.40306420
0.73153241 0.59996676 0.44596009
0.55966994 0.65330922 0.45242419
0.55970258 0.65331055 0.45242692
0.55995284 0.65332079 0.45244784
0.56101077 0.65336438 0.45253686
0.56460855 0.65351617 0.45284650
0.57528359 0.65400065 0.45383104
0.60238917 0.65549245 0.45682749
0.65700331 0.66002498 0.46563044
0.74090913 0.67345969 0.48956146
0.66674156 0.76252739 0.54858403
0.66675207 0.76252781 0.54858499
0.66683270 0.76253101 0.54859236
0.66717520 0.76254462 0.54862373
0.66835960 0.76259207 0.54873300
0.67205569 0.76274385 0.54908210
0.68270950 0.76321454 0.55016007
0.70996044 0.76467575 0.55346336
0.76623086 0.76928820 0.56349588
0.18110132 0.13460342 0.35373461
0.18482200 0.13570623 0.35374312
0.20738567 0.14333219 0.35380841
0.25934701 0.16632601 0.35408577
0.33324756 0.20863750 0.35504553
0.42010700 0.26773562 0.35804640
0.51569664 0.34087979 0.36674676
0.61823560 0.42681308 0.38935784
0.72687492 0.52516425 0.43779657
0.18308527 0.14735848 0.35378028
0.18667935 0.14818281 0.35378878
0.20865484 0.15406440 0.35385403
0.25992713 0.17329485 0.35413124
0.33346692 0.21204955 0.35509047
0.42018563 0.26916734 0.35808975
0.51572407 0.34143610 0.36678583
0.61824481 0.42701648 0.38938777
0.72687783 0.52523342 0.43781379
0.19635540 0.19709996 0.35413009
0.19922398 0.19741878 0.35413856
0.21761715 0.19981092 0.35420354
0.26423022 0.20904138 0.35447958
0.33513169 0.23346991 0.35543481
0.42078710 0.27931043 0.35842188
0.51593441 0.34558584 0.36708518
0.61831550 0.42856291 0.38961726
0.72690017 0.52576279 0.43794594
0.23313622 0.27094761 0.35560292
0.23474523 0.27105146 0.35561123
0.24595868 0.27184402 0.35567507
0.28012107 0.27512441 0.35594626
0.34185868 0.28553453 0.35688482
0.42330262 0.31159378 0.35982110
0.51682454 0.36122674 0.36834770
0.61861581 0.43486035 0.39058741
0.72699523 0.52798325 0.43850630
0.29407865 0.35653300 0.36054226
0.29476617 0.35656766 0.36055010
0.29984799 0.35683334 0.36061025
0.31836950 0.35795491 0.36086583
0.36175078 0.36175078 0.36175078
0.43155205 0.37286370 0.36452329
0.51986269 0.40031982 0.37260669
0.61965537 0.45388227 0.39388650
0.72732587 0.53533525 0.44043283
0.37182666 0.44970311 0.37464368
0.37208846 0.44971495 0.37465031
0.37407218 0.44980581 0.37470117
0.38203286 0.45019159 0.37491733
0.40512468 0.45152373 0.37566664
0.45377204 0.45566200 0.37802266
0.52897393 0.46744568 0.38496195
0.62290970 0.49683134 0.40367640
0.72837696 0.55561153 0.44633745
0.46123459 0.54889593 0.40773455
0.46132917 0.54889996 0.40773906
0.46205207 0.54893092 0.40777368
0.46506652 0.54906260 0.40792089
0.47485639 0.54952024 0.40843216
0.50060043 0.55097096 0.41004965
0.55269733 0.55534650 0.41489940
0.63237389 0.56788222 0.42858018
0.73157390 0.60001069 0.46256418
0.55992642 0.65333421 0.46797488
0.55995897 0.65333554 0.46797718
0.56020854 0.65334578 0.46799480
0.56126362 0.65338935 0.46806977
0.56485192 0.65354111 0.46833066
0.57550089 0.65402546 0.46916115
0.60255227 0.65551687 0.47169781
0.65709490 0.66004826 0.47922583
0.74094667 0.67347988 0.50020497
0.66682418 0.76253520 0.55437779
0.66683468 0.76253561 0.55437869
0.66691524 0.76253881 0.55438562
0.66725744 0.76255242 0.55441511
0.66844082 0.76259987 0.55451785
0.67213380 0.76275163 0.55484609
0.68277927 0.76322229 0.55586016
0.71001268 0.76468337 0.55897196
0.76625944 0.76929545 0.56846112
0.23858091 0.17584863 0.44723217
0.24006514 0.17631375 0.44723506
0.25049390 0.17975730 0.44725723
0.28296557 0.19240273 0.44735153
0.34315927 0.22273292 0.44767951
0.42380481 0.27397885 0.44872189
0.51700426 0.34335893 0.45189008
0.61867667 0.42772662 0.46116249
0.72701452 0.52547574 0.48614382
0.23936398 0.18173248 0.44724767
0.24083121 0.18214997 0.44725056
0.25115197 0.18525471 0.44727272
0.28338478 0.19684092 0.44736701
0.34335342 0.22547475 0.44769493
0.42388022 0.27529350 0.44873713
0.51703131 0.34389862 0.45190480
0.61868584 0.42792793 0.46117577
0.72701743 0.52554467 0.48615392
0.24509193 0.21374091 0.44736661
0.24644148 0.21398316 0.44736950
0.25600752 0.21581256 0.44739163
0.28652736 0.22305561 0.44748579
0.34482902 0.24340279 0.44781328
0.42445712 0.28467346 0.44885412
0.51723871 0.34792823 0.45201775
0.61875620 0.42945868 0.46127770
0.72703974 0.52607228 0.48623143
0.26524212 0.27693158 0.44787119
0.26625644 0.27702725 0.44787405
0.27360273 0.27775778 0.44789606
0.29860427 0.28078887 0.44798970
0.35082922 0.29048156 0.44831536
0.42687172 0.31514658 0.44935043
0.51811649 0.36317036 0.45249696
0.61905511 0.43569517 0.46171034
0.72713465 0.52828547 0.48656066
0.30975593 0.35858794 0.44960843
0.31031699 0.35862176 0.44961124
0.31449574 0.35888096 0.44963283
0.33015714 0.35997542 0.44972467
0.36888672 0.36368238 0.45004412
0.43481000 0.37455846 0.45105960
0.52111336 0.40155324 0.45414798
0.62008988 0.45455810 0.46320267
0.72746481 0.53561460 0.48769930
0.37818756 0.45041091 0.45495649
0.37843045 0.45042266 0.45495914
0.38027270 0.45051281 0.45497948
0.38769808 0.45089558 0.45506603
0.40949401 0.45221742 0.45536713
0.45632468 0.45632468 0.45632468
0.53010870 0.46802779 0.45924084
0.62332955 0.49725399 0.46782306
0.72851435 0.55583655 0.49125354
0.46358766 0.54913763 0.46982238
0.46367981 0.54914166 0.46982463
0.46438428 0.54917254 0.46984189
0.46732346 0.54930388 0.46991536
0.47688577 0.54976034 0.47017101
0.50213772 0.55120738 0.47098495
0.55357908 0.55557216 0.47347198
0.63275385 0.56807973 0.48086082
0.73170667 0.60015122 0.50150858
0.56074311 0.65341420 0.50508160
0.56077538 0.65341553 0.50508313
0.56102279 0.65342576 0.50509488
0.56206881 0.65346930 0.50514492
0.56562709 0.65362092 0.50531915
0.57619344 0.65410487 0.50587490
0.60307270 0.65559504 0.50758311
0.65738761 0.66012277 0.51274583
0.74106676 0.67354452 0.52783236
0.66708830 0.76256019 0.57084027
0.66709876 0.76256060 0.57084102
0.66717910 0.76256380 0.57084684
0.66752035 0.76257741 0.57087159
0.66870046 0.76262484 0.57095783
0.67238349 0.76277657 0.57123349
0.68300236 0.76324709 0.57208607
0.71017977 0.76470779 0.57471154
0.76635092 0.76931868 0.58280053
0.30797524 0.22902589 0.54644712
0.30854925 0.22921658 0.54644810
0.31282121 0.23066257 0.54645564
0.32878568 0.23648575 0.54648773
0.36803350 0.25357083 0.54659953
0.43441214 0.29057536 0.54695665
0.52095907 0.35062459 0.54805920
0.62003607 0.43051037 0.55143601
0.72744758 0.52643832 0.56167599
0.30827703 0.23151914 0.54645239
0.30884882 0.23170272 0.54645338
0.31310483 0.23309555 0.54646091
0.32901756 0.23871763 0.54649300
0.36817734 0.25531520 0.54660479
0.43447905 0.29162828 0.54696189
0.52098499 0.35111868 0.54806439
0.62004511 0.43070547 0.55144101
0.72745047 0.52650655 0.56168047
0.31055613 0.24807177 0.54649287
0.31111147 0.24821534 0.54649385
0.31524906 0.24930784 0.54650139
0.33077602 0.25377452 0.54653346
0.36927368 0.26744025 0.54664520
0.43499119 0.29925950 0.54700215
0.52118376 0.35481710 0.54810417
0.62011446 0.43218947 0.55147939
0.72747268 0.52702875 0.56171488
0.31957690 0.29294614 0.54666499
0.32007212 0.29302331 0.54666597
0.32377489 0.29361327 0.54667349
0.33785937 0.29607454 0.54670551
0.37378743 0.30408258 0.54681704
0.43713902 0.32527490 0.54717333
0.52202522 0.36894451 0.54827336
0.62040912 0.43824382 0.55164260
0.72756716 0.52921960 0.56186124
0.34484115 0.36467569 0.54726257
0.34520316 0.36470713 0.54726354
0.34793085 0.36494813 0.54727101
0.35862679 0.36596636 0.54730283
0.38787490 0.36942256 0.54741365
0.44424712 0.37962479 0.54776769
0.52490063 0.40528275 0.54886080
0.62142927 0.45662917 0.55220936
0.72789579 0.53647849 0.56236972
0.39539875 0.45257831 0.54915105
0.39559748 0.45258977 0.54915201
0.39710836 0.45267778 0.54915933
0.40326055 0.45305148 0.54919051
0.42184291 0.45434229 0.54929913
0.46383539 0.45835608 0.54964612
0.53355379 0.46981557 0.55071767
0.62462415 0.49855681 0.55400171
0.72894053 0.55653329 0.56397984
0.47054183 0.54988574 0.55479501
0.47062719 0.54988974 0.55479590
0.47127999 0.54992037 0.55480280
0.47400777 0.55005067 0.55483216
0.48292651 0.55050352 0.55493444
0.50676369 0.55193922 0.55526123
0.55627085 0.55627085 0.55627085
0.63392646 0.56869165 0.55936929
0.73211859 0.60058715 0.56882038
0.56323979 0.65366267 0.57057493
0.56327121 0.65366400 0.57057569
0.56351215 0.65367420 0.57058153
0.56453098 0.65371762 0.57060635
0.56799897 0.65386885 0.57069283
0.57831635 0.65435153 0.57096926
0.60467395 0.65583785 0.57182423
0.65829263 0.66035423 0.57445690
0.74143947 0.67374536 0.58256686
0.66790540 0.76263791 0.60896995
0.66791578 0.76263832 0.60897046
0.66799543 0.76264152 0.60897434
0.66833374 0.76265511 0.60899087
0.66950380 0.76270250 0.60904846
0.67315623 0.76285411 0.60923266
0.68369315 0.76332424 0.60980351
0.71069778 0.76478373 0.61157222
0.76663499 0.76939094 0.61712221
0.38982205 0.29562046 0.65085667
0.39003405 0.29569495 0.65085699
0.39164472 0.29626456 0.65085948
0.39818319 0.29864278 0.65087010
0.41776065 0.30640000 0.65090709
0.46130478 0.32705012 0.65102547
0.53237530 0.36999152 0.65139285
0.62417791 0.43871696 0.65253612
0.72879319 0.52939492 0.65617234
0.38993338 0.29660591 0.65085841
0.39014510 0.29667945 0.65085873
0.39175371 0.29724176 0.65086123
0.39828424 0.29959016 0.65087184
0.41784141 0.30725700 0.65090883
0.46135439 0.32771008 0.65102721
0.53239823 0.37038337 0.65139458
0.62418656 0.43889490 0.65253783
0.72879604 0.52946102 0.65617399
0.39078346 0.30377678 0.65087180
0.39099311 0.30384374 0.65087212
0.39258609 0.30435601 0.65087461
0.39905625 0.30649946 0.65088523
0.41845904 0.31354038 0.65092221
0.46173441 0.33260417 0.65104057
0.53257410 0.37333307 0.65140789
0.62425294 0.44024960 0.65255099
0.72881793 0.52996697 0.65618665
0.39431114 0.32854138 0.65092877
0.39451238 0.32859024 0.65092909
0.39604219 0.32896444 0.65093158
0.40226785 0.33053812 0.65094219
0.42104088 0.33579523 0.65097915
0.46333453 0.35065097 0.65109744
0.53331911 0.38485417 0.65146454
0.62453501 0.44579752 0.65260695
0.72891106 0.53209062 0.65624051
0.40559287 0.38133229 0.65112711
0.40576958 0.38135810 0.65112743
0.40711468 0.38155604 0.65112992
0.41261962 0.38239354 0.65114050
0.42949385 0.38525066 0.65117739
0.46870211 0.39380782 0.65129543
0.53587087 0.41604386 0.65166176
0.62551184 0.46283419 0.65280181
0.72923502 0.53913777 0.65642802
0.43424594 0.45905780 0.65175952
0.43437363 0.45906847 0.65175984
0.43534807 0.45915039 0.65176231
0.43938105 0.45949828 0.65177282
0.45217047 0.46070078 0.65180947
0.48402996 0.46444771 0.65192672
0.54360334 0.47520625 0.65229062
0.62857395 0.50252822 0.65342316
0.73026499 0.55868596 0.65702606
0.48944435 0.55219452 0.65370065
0.48951377 0.55219841 0.65370097
0.49004514 0.55222830 0.65370339
0.49227338 0.55235544 0.65371369
0.49964507 0.55279732 0.65374958
0.51993586 0.55419858 0.65386445
0.56424642 0.55842947 0.65422099
0.63751331 0.57058577 0.65533077
0.73339908 0.60194172 0.65886304
0.57066742 0.65443788 0.65954346
0.57069646 0.65443920 0.65954376
0.57091914 0.65444932 0.65954604
0.57186122 0.65449239 0.65955572
0.57507374 0.65464238 0.65958947
0.58468152 0.65512114 0.65969746
0.60952786 0.65659550 0.66003270
0.66107667 0.66107667 0.66107667
0.74259904 0.67437263 0.66440423
0.67042369 0.76288128 0.67642430
0.67043380 0.76288170 0.67642455
0.67051135 0.76288488 0.67642645
0.67084079 0.76289844 0.67643455
0.67198038 0.76294571 0.67646278
0.67554001 0.76309691 0.67655311
0.68582786 0.76356582 0.67683364
0.71230444 0.76502154 0.67770827
0.76752048 0.76961722 0.68050635
0.48468122 0.37720035 0.76006156
0.48475435 0.37722745 0.76006166
0.48531391 0.37743522 0.76006244
0.48765848 0.37831408 0.76006575
0.49539375 0.38130883 0.76007732
0.51653711 0.39024835 0.76011433
0.56214504 0.41330051 0.76022942
0.63655190 0.46122034 0.76058953
0.73305282 0.53843585 0.76175462
0.48471961 0.37756024 0.76006210
0.48479270 0.37758722 0.76006220
0.48535203 0.37779412 0.76006298
0.48769564 0.37866929 0.76006630
0.49542792 0.38165178 0.76007786
0.51656429 0.39055735 0.76011488
0.56216173 0.41353756 0.76022997
0.63655949 0.46135893 0.76059007
0.73305554 0.53849585 0.76175516
0.48501382 0.38027407 0.76006628
0.48508668 0.38030020 0.76006639
0.48564423 0.38050061 0.76006716
0.48798047 0.38134850 0.76007048
0.49568981 0.38424023 0.76008204
0.51677274 0.39289377 0.76011906
0.56228976 0.41533675 0.76023414
0.63661773 0.46241614 0.76059423
0.73307646 0.53895525 0.76175926
0.48625583 0.39094863 0.76008409
0.48632771 0.39097170 0.76008419
0.48687778 0.39114863 0.76008497
0.48918322 0.39189779 0.76008829
0.49679644 0.39445972 0.76009985
0.51765491 0.40218772 0.76013686
0.56283285 0.42260887 0.76025192
0.63686529 0.46678359 0.76061194
0.73316544 0.54088604 0.76177675
0.49045887 0.42034514 0.76014615
0.49052753 0.42036160 0.76014625
0.49105308 0.42048790 0.76014703
0.49325732 0.42102355 0.76015034
0.50055373 0.42286592 0.76016189
0.52066646 0.42852029 0.76019888
0.56470203 0.44411484 0.76031386
0.63772330 0.48055347 0.76067364
0.73347501 0.54732178 0.76183768
0.50275649 0.47745685 0.76034460
0.50281658 0.47746557 0.76034470
0.50327668 0.47753248 0.76034547
0.50521008 0.47781679 0.76034878
0.51165094 0.47880110 0.76036031
0.52970305 0.48188388 0.76039721
0.57044971 0.49086185 0.76051195
0.64041985 0.51441167 0.76087097
0.73445955 0.56538384 0.76203255
0.53304623 0.55935386 0.76095938
0.53308960 0.55935747 0.76095948
0.53342195 0.55938517 0.76096025
0.53482368 0.55950297 0.76096354
0.53955224 0.55991253 0.76097499
0.55326360 0.56121223 0.76101165
0.58637364 0.56514502 0.76112563
0.64834991 0.57651239 0.76148229
0.73745824 0.60623019 0.76263628
0.59148663 0.65692343 0.76286189
0.59150992 0.65692471 0.76286199
0.59168853 0.65693457 0.76286275
0.59244510 0.65697652 0.76286596
0.59503627 0.65712263 0.76287718
0.60288626 0.65758902 0.76291310
0.62382499 0.65902568 0.76302477
0.66962729 0.66339569 0.76337421
0.74628445 0.67639036 0.76450503
0.67820081 0.76367079 0.76880979
0.67821011 0.76367120 0.76880988
0.67828154 0.76367436 0.76881059
0.67858499 0.76368781 0.76881361
0.67963531 0.76373467 0.76882413
0.68292236 0.76388459 0.76885782
0.69247337 0.76434954 0.76896255
0.71736220 0.76579310 0.76929032
0.77035155 0.77035155 0.77035155
