src/ffmpeg_scripts/luts/sRGB-rec2020_1p00.cube
TITLE "sRGB-rec2020_1p00"
LUT_3D_SIZE 9
# PQ (EOTF Only)/sRGB -> PQ (EOTF Only)/Rec2020, CineEI Shift 1.00, Black Level 0.00% IRE, Input 100% -> Output 109% - Created with LUTCalc v4.01 by Ben Turley October 2020
0.06256172 0.06256172 0.06256172
0.17856626 0.11163011 0.08806511
0.29071243 0.17673907 0.12885982
0.40109226 0.25214146 0.18175268
0.51026276 0.33587141 0.24567515
0.61850426 0.42682093 0.32006397
0.72598799 0.52425516 0.40457633
0.83283016 0.62764150 0.49898844
0.91886608 0.73657153 0.60314891
0.15442660 0.19485105 0.11694975
0.19662411 0.19810730 0.12097422
0.29443899 0.21854260 0.14275462
0.40207217 0.26830585 0.18688554
0.51055549 0.34164557 0.24755974
0.61859677 0.42884979 0.32075900
0.72601760 0.52495673 0.40482902
0.83283944 0.62787590 0.49907693
0.91886608 0.73664535 0.60317801
0.25213009 0.31559600 0.18676107
0.26354858 0.31617391 0.18766899
0.31825673 0.32047556 0.19419570
0.40924997 0.33655966 0.21595451
0.51277294 0.37613231 0.26053967
0.61930419 0.44305544 0.32590211
0.72624464 0.53017470 0.40674525
0.83291070 0.62965668 0.49975359
0.91886608 0.73721023 0.60340115
0.35278780 0.43136415 0.26611771
0.35604275 0.43151054 0.26638295
0.37753555 0.43262670 0.26838766
0.43456418 0.43722752 0.27634970
0.52166106 0.45163581 0.29886268
0.62225782 0.48657808 0.34471939
0.72720505 0.54960812 0.41446253
0.83321342 0.63688334 0.50257985
0.91886608 0.73957738 0.60434522
0.45556408 0.54381390 0.35304844
0.45657385 0.54385681 0.35313486
0.46397325 0.54418561 0.35379542
0.49009190 0.54557251 0.35654987
0.54733050 0.55025308 0.36549624
0.63188854 0.56384133 0.38905472
0.73047823 0.59673210 0.43705956
0.83426090 0.65847588 0.51180755
0.91886608 0.74738948 0.60756465
0.56002246 0.65376155 0.44645198
0.56034970 0.65377493 0.44648133
0.56282525 0.65387760 0.44670638
0.57269008 0.65431343 0.44765816
0.60072645 0.65581732 0.45089962
0.65743181 0.66047858 0.46055931
0.74024998 0.67366580 0.48535510
0.83753585 0.70602716 0.53638002
0.91886608 0.76873654 0.61719386
0.66588902 0.76169789 0.54560243
0.66599582 0.76170213 0.54561242
0.66681193 0.76173465 0.54568907
0.67020926 0.76187296 0.54601468
0.68117986 0.76235354 0.54714106
0.70959630 0.76387603 0.55065977
0.76539404 0.76845934 0.56083336
0.84702465 0.78151899 0.58706021
0.91886608 0.81452720 0.64209562
0.77297388 0.86795179 0.64997631
0.77300792 0.86795311 0.64997961
0.77326894 0.86796322 0.65000497
0.77437189 0.86800622 0.65011287
0.77811720 0.86815599 0.65048807
0.78917986 0.86863394 0.65167972
0.81694444 0.87010482 0.65529433
0.87156913 0.87456657 0.66581171
0.91886608 0.88772835 0.69371689
0.88113673 0.91886608 0.75917373
0.88114702 0.91886608 0.75917476
0.88122604 0.91886608 0.75918269
0.88156161 0.91886608 0.75921643
0.88272160 0.91886608 0.75933398
0.88633680 0.91886608 0.75970942
0.89671822 0.91886608 0.76086799
0.91886608 0.91886608 0.76441119
0.91886608 0.91886608 0.77510868
0.10255272 0.08390963 0.19367876
0.18130231 0.11492566 0.19448380
0.29121325 0.17749523 0.20032116
0.40122179 0.25236566 0.22030324
0.51030132 0.33594533 0.26281285
0.61851643 0.42684629 0.32686719
0.72599188 0.52426386 0.40711397
0.83283138 0.62764440 0.49988493
0.91886608 0.73657244 0.60344460
0.15873930 0.19539914 0.19787631
0.19862585 0.19862585 0.19862585
0.29491579 0.21891414 0.20408581
0.40220025 0.26848430 0.22305053
0.51059392 0.34171441 0.26429182
0.61860894 0.42887457 0.32750542
0.72602149 0.52496536 0.40735941
0.83284067 0.62787879 0.49997257
0.91886608 0.73664626 0.60347360
0.25298103 0.31569132 0.22298231
0.26427277 0.31626854 0.22348170
0.31860746 0.32056517 0.22719253
0.40936792 0.33663295 0.24099086
0.51281046 0.37617778 0.27473524
0.61931626 0.44307657 0.33224366
0.72624853 0.53018287 0.40922143
0.83291192 0.62965952 0.50064271
0.91886608 0.73721113 0.60369605
0.35301667 0.43138824 0.27934974
0.35626281 0.43153459 0.27957091
0.37770593 0.43265045 0.28124746
0.43465273 0.43725007 0.28798869
0.52169516 0.45165502 0.30766902
0.62226952 0.48659116 0.34978728
0.72720890 0.54961476 0.41673251
0.83321464 0.63688597 0.50344230
0.91886608 0.73957826 0.60463720
0.45563416 0.54382096 0.35764258
0.45664314 0.54386386 0.35772434
0.46403710 0.54419263 0.35834945
0.49013988 0.54557944 0.36095918
0.54735640 0.55025967 0.36946839
0.63189911 0.56384703 0.39208214
0.73048194 0.59673612 0.43882340
0.83426210 0.65847797 0.51258849
0.91886608 0.74739029 0.60784687
0.56004509 0.65376375 0.44804172
0.56037225 0.65377713 0.44807056
0.56284721 0.65387980 0.44829167
0.57270986 0.65431562 0.44922689
0.60074114 0.65581947 0.45241331
0.65743988 0.66048063 0.46192059
0.74025332 0.67366759 0.48639401
0.83753701 0.70602843 0.53698034
0.91886608 0.76873719 0.61744878
0.66589640 0.76169859 0.54614656
0.66600319 0.76170282 0.54615649
0.66681923 0.76173534 0.54623269
0.67021631 0.76187365 0.54655642
0.68118613 0.76235423 0.54767634
0.70960094 0.76387671 0.55117539
0.76539660 0.76845999 0.56129614
0.84702569 0.78151955 0.58741071
0.91886608 0.81452759 0.64229161
0.77297623 0.86795201 0.65015664
0.77301027 0.86795333 0.65015994
0.77327128 0.86796343 0.65018526
0.77437421 0.86800644 0.65029295
0.77811943 0.86815621 0.65066743
0.78918183 0.86863415 0.65185684
0.81694590 0.87010503 0.65546481
0.87156993 0.87456677 0.66596426
0.91886608 0.88772853 0.69383039
0.88113744 0.91886608 0.75923013
0.88114774 0.91886608 0.75923116
0.88122675 0.91886608 0.75923909
0.88156232 0.91886608 0.75927281
0.88272230 0.91886608 0.75939028
0.88633747 0.91886608 0.75976550
0.89671881 0.91886608 0.76092337
0.91886608 0.91886608 0.76446450
0.91886608 0.91886608 0.77515617
0.15905299 0.11960315 0.31383180
0.19877577 0.13338082 0.31397241
0.29495203 0.18297496 0.31504374
0.40221001 0.25406356 0.31944766
0.51059686 0.33651068 0.33313130
0.61860986 0.42704074 0.36587683
0.72602179 0.52433064 0.42447901
0.83284076 0.62766667 0.50649327
0.91886608 0.73657945 0.60568477
0.18338586 0.19944484 0.31458383
0.21210273 0.20246314 0.31472310
0.29848056 0.22169679 0.31578429
0.40317745 0.26984009 0.32014811
0.51088853 0.34224110 0.33372176
0.61870228 0.42906463 0.36627383
0.72605139 0.52503165 0.42468048
0.83285004 0.62790100 0.50657486
0.91886608 0.73665326 0.60571310
0.25919105 0.31641946 0.32013042
0.26960229 0.31699137 0.32026022
0.32124984 0.32124984 0.32124984
0.41026838 0.33719353 0.32532968
0.51309812 0.37652616 0.33811729
0.61940891 0.44323867 0.36926120
0.72627835 0.53024554 0.42621239
0.83292129 0.62968131 0.50719895
0.91886608 0.73721809 0.60593035
0.35475329 0.43157300 0.34018590
0.35793336 0.43171905 0.34028699
0.37900297 0.43283261 0.34105908
0.43532979 0.43742308 0.34426633
0.52195661 0.45180236 0.35455764
0.62235932 0.48669153 0.38091333
0.72723842 0.54966568 0.43245275
0.83322397 0.63690616 0.50980957
0.91886608 0.73958505 0.60684961
0.45617042 0.54387513 0.38641529
0.45717347 0.54391800 0.38647343
0.46452595 0.54424659 0.38691856
0.49050743 0.54563260 0.38878800
0.54755509 0.55031024 0.39500460
0.63198022 0.56389078 0.41235527
0.73051044 0.59676699 0.45132059
0.83427133 0.65849404 0.51837558
0.91886608 0.74739653 0.60998625
0.56021866 0.65378064 0.45939489
0.56054522 0.65379402 0.45942032
0.56301569 0.65389667 0.45961530
0.57286159 0.65433241 0.46044069
0.60085389 0.65583600 0.46326076
0.65750181 0.66049637 0.47174399
0.74027899 0.67368127 0.49400241
0.83754591 0.70603813 0.54146589
0.91886608 0.76874214 0.61938371
0.66595303 0.76170394 0.55022262
0.66605976 0.76170817 0.55023213
0.66687531 0.76174069 0.55030510
0.67027040 0.76187899 0.55061508
0.68123429 0.76235954 0.55168781
0.70963656 0.76388193 0.55504291
0.76541619 0.76846496 0.56477575
0.84703370 0.78152387 0.59005959
0.91886608 0.81453060 0.64378317
0.77299428 0.86795367 0.65153005
0.77302832 0.86795499 0.65153330
0.77328927 0.86796509 0.65155825
0.77439199 0.86800810 0.65166439
0.77813650 0.86815787 0.65203350
0.78919697 0.86863580 0.65320595
0.81695707 0.87010666 0.65676376
0.87157601 0.87456832 0.66712746
0.91886608 0.88772986 0.69469744
0.88114290 0.91886608 0.75966209
0.88115319 0.91886608 0.75966312
0.88123220 0.91886608 0.75967100
0.88156775 0.91886608 0.75970457
0.88272766 0.91886608 0.75982150
0.88634262 0.91886608 0.76019498
0.89672338 0.91886608 0.76134754
0.91886608 0.91886608 0.76487280
0.91886608 0.91886608 0.77551999
0.22690598 0.16724554 0.42923857
0.24286336 0.17251771 0.42927417
0.30909022 0.20171067 0.42954699
0.40629548 0.26086332 0.43069909
0.51184449 0.33887415 0.43460271
0.61900658 0.42786378 0.44606555
0.72614898 0.52461442 0.47454048
0.83288067 0.62776139 0.53030712
0.91886608 0.73660927 0.61466834
0.23575602 0.21414002 0.42942952
0.24993428 0.21652469 0.42946503
0.31203801 0.23235628 0.42973727
0.40721881 0.27534356 0.43088692
0.51213227 0.34444591 0.43478248
0.61909861 0.42986918 0.44622372
0.72617854 0.52531330 0.47465598
0.83288995 0.62799549 0.53037026
0.91886608 0.73668306 0.61469410
0.28086181 0.31944586 0.43088216
0.28873559 0.31999630 0.43091710
0.33160810 0.32410006 0.43118493
0.41400123 0.33953746 0.43231612
0.51431276 0.37799340 0.43615095
0.61980230 0.44392545 0.44742899
0.72640520 0.53051189 0.47553799
0.83296116 0.62977404 0.53085370
0.91886608 0.73724771 0.61489168
0.36176434 0.43235524 0.43681354
0.36469206 0.43250002 0.43684623
0.38431340 0.43360390 0.43709683
0.43815581 0.43815581 0.43815581
0.52306142 0.45242692 0.44175250
0.62274065 0.48711756 0.45238633
0.72736397 0.54988213 0.47920014
0.83326371 0.63699207 0.53288411
0.91886608 0.73961392 0.61572819
0.45841834 0.54410537 0.45486959
0.45939688 0.54414814 0.45489632
0.46657799 0.54447592 0.45510131
0.49205588 0.54585856 0.45596876
0.54839619 0.55052521 0.45892940
0.63232475 0.56407683 0.46780760
0.73063169 0.59689830 0.49093052
0.83431061 0.65856243 0.53963606
0.91886608 0.74742309 0.61858794
0.56095399 0.65385252 0.49624061
0.56127801 0.65386589 0.49625760
0.56372954 0.65396846 0.49638792
0.57350475 0.65440387 0.49694063
0.60133236 0.65590634 0.49884201
0.65776497 0.66056332 0.50468020
0.74038820 0.67373950 0.52079670
0.83758379 0.70607944 0.55846911
0.91886608 0.76876324 0.62720457
0.66619370 0.76172670 0.56582971
0.66630016 0.76173094 0.56583776
0.66711365 0.76176345 0.56589956
0.67050034 0.76190171 0.56616218
0.68143904 0.76238214 0.56707205
0.70978802 0.76390417 0.56992805
0.76549953 0.76848612 0.57829784
0.84706779 0.78154224 0.60057158
0.91886608 0.81454342 0.64988199
0.77307107 0.86796075 0.65716319
0.77310508 0.86796206 0.65716625
0.77336582 0.86797217 0.65718976
0.77446763 0.86801517 0.65728976
0.77820913 0.86816493 0.65763759
0.78926139 0.86864282 0.65874295
0.81700462 0.87011356 0.66210191
0.87160189 0.87457488 0.67192490
0.91886608 0.88773551 0.69830161
0.88116613 0.91886608 0.76147875
0.88117642 0.91886608 0.76147976
0.88125541 0.91886608 0.76148749
0.88159087 0.91886608 0.76152041
0.88275047 0.91886608 0.76163508
0.88636452 0.91886608 0.76200134
0.89674283 0.91886608 0.76313180
0.91886608 0.91886608 0.76659107
0.91886608 0.91886608 0.77705292
0.30429965 0.22612819 0.54147496
0.31016164 0.22811019 0.54148540
0.34474144 0.24161667 0.54156551
0.41920786 0.28051295 0.54190576
0.51606731 0.34661493 0.54308236
0.62037676 0.43067479 0.54675387
0.72659108 0.52559703 0.55733641
0.83301966 0.62809087 0.58442549
0.91886608 0.73671315 0.64063269
0.30743145 0.24861565 0.54153099
0.31306993 0.25003799 0.54154143
0.34664085 0.26008638 0.54162148
0.42000529 0.29183709 0.54196153
0.51634230 0.35169908 0.54313743
0.62046747 0.43261839 0.54680682
0.72662050 0.52628860 0.55738372
0.83302892 0.62832416 0.58446097
0.91886608 0.73678686 0.64065227
0.32803582 0.32917502 0.54196011
0.33241544 0.32966229 0.54197050
0.35992699 0.33330845 0.54205019
0.42589964 0.34721842 0.54238868
0.51842716 0.38291916 0.54355926
0.62116109 0.44627940 0.54721248
0.72684608 0.53143454 0.55774620
0.83310003 0.63009660 0.58473297
0.91886608 0.73735089 0.64080248
0.38244151 0.43502979 0.54376516
0.38474231 0.43517028 0.54377534
0.40061328 0.43624176 0.54385351
0.44736318 0.44066429 0.54418556
0.52681366 0.45457104 0.54533402
0.62405817 0.48858755 0.54891996
0.72780037 0.55063286 0.55927379
0.83340211 0.63729097 0.58588215
0.91886608 0.73971452 0.64143925
0.46584535 0.54490364 0.54979906
0.46674729 0.54494605 0.54980861
0.47339003 0.54527105 0.54988191
0.49725904 0.54664209 0.55019329
0.55127083 0.55127083 0.55127083
0.63351613 0.56472259 0.55464061
0.73105314 0.59735464 0.56441312
0.83444742 0.65880045 0.58978244
0.91886608 0.74751560 0.64362625
0.56347345 0.65410269 0.56686370
0.56378891 0.65411602 0.56687166
0.56617665 0.65421832 0.56693279
0.57571326 0.65465258 0.56719254
0.60298172 0.65615113 0.56809254
0.65867673 0.66079636 0.57091820
0.74076794 0.67394224 0.57920421
0.83771573 0.70622331 0.60128813
0.91886608 0.76883677 0.65030808
0.66702801 0.76180602 0.60602819
0.66713353 0.76181025 0.60603345
0.66793991 0.76184274 0.60607381
0.67129761 0.76198089 0.60624543
0.68214939 0.76246091 0.60684132
0.71031416 0.76398165 0.60872475
0.76578952 0.76855987 0.61435606
0.84718652 0.78160627 0.63011637
0.91886608 0.81458808 0.66851088
0.77333830 0.86798541 0.67452984
0.77337222 0.86798672 0.67453239
0.77363220 0.86799682 0.67455195
0.77473086 0.86803981 0.67463518
0.77846192 0.86818953 0.67492475
0.78948561 0.86866729 0.67584616
0.81717021 0.87013763 0.67865695
0.87169207 0.87459777 0.68696712
0.91886608 0.88775522 0.70988546
0.88124706 0.91886608 0.76754739
0.88125734 0.91886608 0.76754834
0.88133626 0.91886608 0.76755558
0.88167141 0.91886608 0.76758641
0.88282997 0.91886608 0.76769381
0.88644081 0.91886608 0.76803693
0.89681061 0.91886608 0.76909649
0.91886608 0.91886608 0.77234362
0.91886608 0.91886608 0.78220627
0.39020299 0.29593912 0.65131782
0.39230702 0.29668356 0.65132108
0.40695389 0.30217001 0.65134609
0.45115691 0.32195893 0.65145247
0.52842818 0.36741529 0.65182240
0.62463580 0.43912212 0.65299745
0.72799298 0.52867583 0.65656297
0.83346333 0.62913836 0.66694755
0.91886608 0.73704507 0.69456316
0.39131367 0.30529750 0.65133531
0.39339104 0.30595675 0.65133857
0.40787031 0.31084026 0.65136357
0.45171481 0.32877887 0.65146993
0.52866899 0.37140127 0.65183979
0.62472251 0.44089172 0.65301463
0.72802196 0.52934500 0.65657952
0.83347255 0.62936909 0.66696237
0.91886608 0.73711851 0.69457422
0.39939647 0.35420744 0.65146949
0.40129037 0.35456605 0.65147274
0.41460431 0.35726923 0.65149770
0.45588745 0.36788539 0.65160391
0.53049771 0.39702043 0.65197325
0.62538573 0.45342795 0.65314645
0.72824420 0.53432937 0.65670646
0.83354331 0.63112224 0.66707611
0.91886608 0.73768055 0.69465911
0.42728048 0.44309229 0.65203855
0.42866267 0.44322067 0.65204178
0.43861526 0.44420035 0.65206659
0.47176815 0.44825510 0.65217217
0.53790480 0.46111379 0.65253930
0.62815812 0.49314287 0.65370553
0.72918441 0.55299739 0.65724494
0.83384392 0.63824189 0.66755878
0.91886608 0.74003595 0.69501962
0.48622365 0.54741525 0.65399607
0.48694584 0.54745653 0.65399924
0.49230979 0.54777295 0.65402355
0.51218607 0.54910812 0.65412696
0.55992541 0.55361953 0.65448659
0.63723360 0.56676127 0.65562920
0.73239020 0.59880142 0.65909861
0.83488415 0.65955870 0.66922245
0.91886608 0.74781126 0.69626579
0.57111573 0.65489940 0.66000548
0.57140662 0.65491262 0.66000845
0.57361084 0.65501407 0.66003126
0.58245659 0.65544470 0.66012831
0.60807806 0.65693085 0.66046586
0.66153883 0.66153883 0.66153883
0.74197372 0.67458857 0.66480154
0.83813694 0.70668259 0.67436129
0.91886608 0.76907183 0.70014911
0.66965133 0.76205960 0.67657936
0.66975396 0.76206382 0.67658185
0.67053836 0.76209621 0.67660100
0.67380650 0.76223398 0.67668243
0.68438893 0.76271270 0.67696580
0.71197956 0.76422935 0.67786760
0.76671212 0.76879563 0.68061967
0.84756571 0.78181100 0.68876585
0.91886608 0.81473095 0.71129821
0.77418894 0.86806433 0.71516372
0.77422254 0.86806564 0.71516538
0.77448015 0.86807573 0.71517808
0.77556882 0.86811869 0.71523214
0.77926682 0.86826827 0.71542038
0.79020003 0.86874561 0.71602066
0.81769847 0.87021466 0.71786425
0.87198027 0.87467101 0.72342288
0.91886608 0.88781831 0.73955400
0.88150576 0.91886608 0.78466993
0.88151601 0.91886608 0.78467071
0.88159469 0.91886608 0.78467673
0.88192887 0.91886608 0.78470234
0.88308406 0.91886608 0.78479158
0.88668470 0.91886608 0.78507677
0.89702731 0.91886608 0.78595853
0.91886608 0.91886608 0.78867097
0.91886608 0.91886608 0.79700054
0.48392836 0.37653613 0.75923475
0.48466878 0.37681099 0.75923578
0.49016347 0.37889241 0.75924371
0.51045944 0.38722439 0.75927743
0.55889381 0.41123101 0.75939490
0.63678015 0.46123744 0.75977009
0.73222531 0.53765296 0.76092791
0.83483007 0.63232542 0.76446886
0.91886608 0.73807035 0.77516006
0.48431770 0.38012303 0.75924029
0.48505500 0.38038655 0.75924132
0.49052729 0.38238328 0.75924925
0.51075155 0.39039701 0.75928297
0.55906777 0.41364711 0.75940043
0.63685642 0.46262450 0.75977560
0.73225301 0.53826097 0.76093335
0.83483915 0.63254851 0.76447410
0.91886608 0.73814299 0.77516472
0.48725352 0.40357302 0.75928283
0.48796768 0.40377375 0.75928386
0.49327399 0.40529991 0.75929178
0.51296437 0.41151347 0.75932548
0.56039299 0.43027333 0.75944289
0.63744005 0.47262291 0.75981789
0.73246543 0.54280243 0.76097512
0.83490885 0.63424424 0.76451430
0.91886608 0.73869891 0.77520054
0.49879715 0.46435797 0.75946368
0.49942740 0.46445939 0.75946471
0.50412858 0.46523441 0.75947261
0.52183503 0.46846153 0.75950625
0.56583418 0.47889378 0.75962343
0.63988503 0.50602748 0.75999770
0.73336433 0.55999524 0.76115270
0.83520494 0.64114101 0.76468524
0.91886608 0.74102906 0.77535284
0.53051273 0.55482558 0.76009143
0.53096094 0.55486373 0.76009245
0.53433261 0.55515615 0.76010030
0.54746268 0.55639090 0.76013371
0.58266648 0.56057283 0.76025010
0.64794622 0.57283607 0.76062186
0.73643218 0.60316642 0.76176916
0.83622968 0.66187984 0.76527872
0.91886608 0.74872526 0.77588186
0.59156636 0.65733633 0.76207367
0.59180060 0.65734921 0.76207467
0.59358014 0.65744808 0.76208236
0.60080144 0.65786779 0.76211507
0.62237780 0.65931661 0.76222900
0.66992723 0.66381242 0.76259292
0.74562882 0.67657182 0.76371624
0.83943512 0.70809744 0.76715416
0.91886608 0.76979943 0.77755591
0.67737671 0.76284419 0.76798354
0.67747129 0.76284837 0.76798447
0.67819435 0.76288050 0.76799168
0.68121188 0.76301711 0.76802237
0.69103532 0.76349181 0.76812927
0.71698017 0.76499587 0.76847078
0.76952541 0.76952541 0.76952541
0.84873539 0.78244515 0.77275777
0.91886608 0.81517407 0.78257853
0.77678668 0.86830945 0.78439535
0.77681935 0.86831076 0.78439614
0.77706983 0.86832082 0.78440217
0.77812855 0.86836366 0.78442786
0.78172729 0.86851283 0.78451736
0.79238807 0.86898886 0.78480340
0.81932280 0.87045391 0.78568778
0.87287103 0.87489854 0.78840809
0.91886608 0.88801434 0.79676050
0.88230587 0.91886608 0.82367325
0.88231603 0.91886608 0.82367376
0.88239400 0.91886608 0.82367769
0.88272516 0.91886608 0.82369440
0.88387002 0.91886608 0.82375265
0.88743927 0.91886608 0.82393893
0.89769816 0.91886608 0.82451612
0.91886608 0.91886608 0.82630323
0.91886608 0.91886608 0.83189918
0.58497563 0.46786690 0.86553934
0.58522679 0.46796448 0.86553966
0.58713341 0.46871027 0.86554212
0.59484463 0.47181840 0.86555261
0.61766737 0.48189385 0.86558916
0.66710632 0.50827066 0.86570610
0.74437943 0.56125991 0.86606899
0.83898775 0.64167855 0.86719782
0.91886608 0.74121538 0.87078347
0.58510753 0.46915695 0.86554106
0.58535834 0.46925315 0.86554138
0.58726233 0.46998849 0.86554385
0.59496344 0.47305401 0.86555433
0.61776071 0.48300119 0.86559088
0.66716167 0.50910345 0.86570782
0.74440374 0.56173289 0.86607070
0.83899642 0.64188066 0.86719951
0.91886608 0.74128562 0.87078509
0.58611426 0.47849727 0.86555429
0.58636241 0.47858411 0.86555461
0.58824645 0.47924819 0.86555707
0.59587084 0.48202242 0.86556756
0.61847439 0.49108577 0.86560410
0.66758562 0.51526036 0.86572102
0.74459026 0.56528754 0.86608385
0.83906298 0.64341839 0.86721249
0.91886608 0.74182317 0.87079756
0.59028360 0.51015160 0.86561057
0.59052104 0.51021318 0.86561089
0.59232464 0.51068464 0.86561335
0.59963892 0.51266525 0.86562383
0.62145363 0.51925709 0.86566035
0.66936935 0.53768542 0.86577720
0.74538010 0.57907592 0.86613980
0.83934576 0.64969839 0.86726773
0.91886608 0.74407748 0.87085061
0.60352874 0.57487688 0.86580651
0.60373515 0.57490770 0.86580683
0.60530525 0.57514406 0.86580928
0.61171183 0.57614364 0.86581974
0.63116249 0.57954778 0.86585618
0.67533693 0.58968955 0.86597277
0.74808245 0.61568151 0.86633457
0.84032471 0.66881184 0.86746005
0.91886608 0.75153552 0.87103533
0.63659069 0.66459697 0.86643110
0.63673626 0.66460890 0.86643142
0.63784660 0.66470046 0.86643386
0.64243268 0.66508923 0.86644424
0.65687809 0.66643222 0.86648042
0.69224620 0.67060898 0.86659620
0.75624364 0.68253572 0.86695548
0.84338997 0.71240232 0.86807316
0.91886608 0.77204544 0.87162430
0.69817366 0.76526318 0.86834692
0.69824951 0.76526726 0.86834723
0.69882994 0.76529855 0.86834961
0.70126153 0.76543165 0.86835977
0.70927829 0.76589417 0.86839518
0.73113139 0.76736002 0.86850849
0.77783291 0.77177800 0.86886013
0.85230857 0.78440657 0.86995423
0.91886608 0.81655027 0.87343223
0.78449107 0.86907400 0.87410145
0.78452112 0.86907530 0.87410174
0.78475154 0.86908528 0.87410398
0.78572603 0.86912775 0.87411350
0.78904483 0.86927564 0.87414668
0.79893162 0.86974761 0.87425287
0.82423743 0.87120028 0.87458247
0.87560851 0.87560851 0.87560851
0.91886608 0.88862645 0.87887508
0.88476961 0.91886608 0.89062713
0.88477949 0.91886608 0.89062737
0.88485531 0.91886608 0.89062922
0.88517736 0.91886608 0.89063712
0.88629094 0.91886608 0.89066462
0.88976507 0.91886608 0.89075266
0.89976972 0.91886608 0.89102604
0.91886608 0.91886608 0.89187810
0.91886608 0.91886608 0.89460136
0.69296042 0.56993269 0.91886608
0.69304059 0.56996518 0.91886608
0.69365394 0.57021426 0.91886608
0.69622114 0.57126726 0.91886608
0.70466010 0.57484886 0.91886608
0.72749229 0.58548063 0.91886608
0.77564812 0.61250211 0.91886608
0.85135152 0.66701210 0.91886608
0.91886608 0.75079423 0.91886608
0.69300250 0.57036410 0.91886608
0.69308264 0.57039644 0.91886608
0.69369571 0.57064438 0.91886608
0.69626179 0.57169261 0.91886608
0.70469727 0.57525837 0.91886608
0.72752143 0.58584655 0.91886608
0.77566548 0.61277713 0.91886608
0.85135908 0.66716675 0.91886608
0.91886608 0.75085761 0.91886608
0.69332504 0.57361248 0.91886608
0.69340490 0.57364372 0.91886608
0.69401588 0.57388327 0.91886608
0.69657337 0.57489625 0.91886608
0.70498216 0.57834493 0.91886608
0.72774486 0.58861003 0.91886608
0.77579868 0.61486272 0.91886608
0.85141708 0.66834585 0.91886608
0.91886608 0.75134280 0.91886608
0.69468583 0.58630976 0.91886608
0.69476454 0.58633707 0.91886608
0.69536680 0.58654647 0.91886608
0.69788833 0.58743273 0.91886608
0.70618538 0.59045892 0.91886608
0.72869007 0.59954504 0.91886608
0.77636355 0.62325980 0.91886608
0.85166355 0.67320676 0.91886608
0.91886608 0.75338038 0.91886608
0.69928172 0.62065145 0.91886608
0.69935669 0.62067043 0.91886608
0.69993035 0.62081609 0.91886608
0.70233402 0.62143366 0.91886608
0.71026354 0.62355567 0.91886608
0.73191256 0.63004778 0.91886608
0.77830623 0.64779662 0.91886608
0.85251755 0.68842789 0.91886608
0.91886608 0.76015362 0.91886608
0.71264938 0.68501854 0.91886608
0.71271441 0.68502814 0.91886608
0.71321226 0.68510190 0.91886608
0.71530254 0.68541523 0.91886608
0.72224569 0.68649951 0.91886608
0.74154279 0.68989026 0.91886608
0.78426575 0.69972164 0.91886608
0.85519884 0.72521223 0.91886608
0.91886608 0.77901429 0.91886608
0.74509084 0.77274169 0.91886608
0.74513681 0.77274545 0.91886608
0.74548910 0.77277431 0.91886608
0.74697401 0.77289709 0.91886608
0.75197308 0.77332383 0.91886608
0.76638208 0.77467736 0.91886608
0.80066692 0.77876631 0.91886608
0.86306109 0.79052895 0.91886608
0.91886608 0.82090002 0.91886608
0.80589968 0.87152323 0.91886608
0.80592348 0.87152450 0.91886608
0.80610598 0.87153420 0.91886608
0.80687882 0.87157551 0.91886608
0.80952309 0.87171938 0.91886608
0.81750924 0.87217854 0.91886608
0.83863386 0.87359221 0.91886608
0.88399081 0.87788564 0.91886608
0.91886608 0.89059405 0.91886608
0.89235775 0.91886608 0.91886608
0.89236681 0.91886608 0.91886608
0.89243636 0.91886608 0.91886608
0.89273179 0.91886608 0.91886608
0.89375403 0.91886608 0.91886608
0.89694960 0.91886608 0.91886608
0.90620417 0.91886608 0.91886608
0.91886608 0.91886608 0.91886608
0.91886608 0.91886608 0.91886608
