src/ffmpeg_scripts/luts/sRGB-rec2020_-0p67.cube
TITLE "sRGB-rec2020_-0p67"
LUT_3D_SIZE 5
# PQ (EOTF Only)/sRGB -> PQ (EOTF Only)/Rec2020, CineEI Shift -0.67, Black Level 0.00% IRE, Input 100% -> Output 109% - Created with LUTCalc v4.01 by Ben Turley October 2020
0.06256172 0.06256172 0.06256172
0.22466204 0.13679275 0.10316193
0.41423902 0.26176842 0.18884931
0.61872948 0.42701788 0.32023002
0.83433375 0.62914100 0.50039082
0.19390267 0.24496966 0.14412239
0.24716157 0.24899238 0.14961646
0.41652608 0.29575136 0.20052746
0.61898157 0.43244599 0.32211177
0.83435871 0.62977036 0.50062887
0.36501012 0.44500180 0.27616812
0.37250086 0.44534492 0.27679772
0.44825001 0.45095293 0.28669593
0.62314273 0.49434227 0.34862972
0.83477939 0.63981680 0.50456117
0.56024217 0.65398893 0.44665327
0.56113197 0.65402542 0.44673330
0.57501866 0.65463974 0.44807492
0.65765938 0.66070629 0.46076350
0.83897467 0.70681355 0.53739486
0.77449305 0.86944041 0.65148456
0.77458457 0.86944395 0.65149345
0.77611751 0.86950371 0.65164350
0.79049170 0.87011289 0.65316534
0.87305598 0.87605191 0.66732486
0.12408663 0.09697183 0.24351846
0.22809705 0.14134288 0.24451520
0.41454328 0.26230161 0.25948542
0.61876268 0.42708702 0.33757608
0.83433703 0.62914880 0.50278496
0.19946197 0.24564761 0.24870742
0.24963188 0.24963188 0.24963188
0.41682253 0.29608773 0.26364257
0.61901468 0.43251103 0.33909503
0.83436199 0.62977811 0.50301693
0.36554927 0.44505831 0.30455744
0.37299421 0.44540122 0.30498970
0.44845761 0.45100582 0.31195097
0.62317442 0.49437512 0.36124112
0.83478265 0.63982377 0.50685096
0.56030387 0.65399493 0.45092475
0.56119309 0.65403141 0.45100107
0.57507139 0.65464569 0.45228095
0.65768138 0.66071187 0.46442923
0.83897779 0.70681698 0.53900938
0.77449937 0.86944100 0.65196895
0.77459089 0.86944453 0.65197780
0.77612372 0.86950429 0.65212708
0.79049701 0.87011347 0.65364122
0.87305811 0.87605245 0.66773467
0.23570725 0.17372115 0.44284384
0.26918546 0.18568644 0.44292734
0.41953124 0.27075722 0.44432664
0.61932188 0.42824722 0.45751655
0.83439249 0.62928054 0.53599598
0.25525044 0.25619607 0.44329129
0.28197625 0.25963290 0.44337437
0.42168642 0.30155786 0.44476677
0.61957240 0.43360290 0.45789682
0.83441743 0.62990898 0.53615830
0.37417242 0.44600789 0.45053283
0.38092324 0.44634720 0.45060949
0.45189490 0.45189490 0.45189490
0.62370821 0.49492848 0.46409182
0.83483784 0.63994146 0.53885921
0.56134034 0.65409626 0.50310936
0.56221985 0.65413270 0.50315245
0.57595802 0.65474633 0.50387759
0.65805233 0.66080625 0.51098784
0.83903047 0.70687486 0.56277068
0.77460612 0.86945083 0.65979953
0.77469753 0.86945436 0.65980767
0.77622861 0.86951412 0.65994510
0.79058675 0.87012323 0.66133994
0.87309407 0.87606157 0.67440331
0.39039079 0.29609623 0.65154508
0.39601299 0.29811013 0.65155397
0.45896207 0.32601033 0.65170392
0.62486146 0.43932183 0.65322480
0.83495802 0.63061809 0.66737604
0.39338719 0.31936025 0.65159277
0.39882342 0.32085756 0.65160164
0.46035437 0.34265869 0.65175153
0.62509775 0.44406835 0.65327164
0.83498281 0.63123774 0.66741637
0.43275635 0.45518789 0.65239486
0.43626643 0.45549435 0.65240366
0.48113270 0.46052145 0.65255228
0.62900370 0.50040735 0.65405967
0.83540059 0.64113738 0.66809526
0.57133668 0.65512684 0.66023316
0.57212790 0.65516289 0.66024126
0.58458078 0.65576989 0.66037806
0.66176658 0.66176658 0.66176658
0.83956772 0.70746513 0.67477494
0.77569133 0.86955135 0.71603668
0.77578168 0.86955488 0.71604116
0.77729503 0.86961457 0.71611685
0.79149994 0.87022299 0.71688779
0.87346127 0.87615486 0.72435118
0.58645204 0.46923251 0.86702912
0.58712644 0.46949504 0.86702998
0.59784866 0.47382019 0.86704455
0.66786235 0.50923194 0.86719351
0.84048902 0.64318381 0.86868680
0.58680659 0.47266563 0.86703375
0.58747847 0.47291845 0.86703461
0.59816296 0.47708776 0.86704918
0.66801237 0.51146791 0.86719814
0.84051233 0.64372660 0.86869135
0.59260447 0.51695877 0.86711196
0.59323645 0.51711510 0.86711282
0.60332153 0.51971770 0.86712738
0.67051204 0.54285282 0.86727620
0.84090529 0.65245655 0.86876811
0.63754553 0.66496739 0.86790827
0.63793894 0.66499987 0.86790912
0.64435036 0.66554704 0.86792355
0.69287978 0.67097086 0.86807104
0.84483047 0.71323769 0.86954976
0.78600824 0.87056208 0.87558702
0.78608902 0.87056557 0.87558780
0.78744338 0.87062458 0.87560103
0.80026186 0.87122613 0.87573629
0.87709332 0.87709332 0.87709332
