src/ffmpeg_scripts/luts/sRGB-rec2020_-0p67.cube
TITLE "sRGB-rec2020_-0p67"
LUT_3D_SIZE 33
# PQ (EOTF Only)/sRGB -> PQ (EOTF Only)/Rec2020, CineEI Shift -0.67, Black Level 0.00% IRE, Input 100% -> Output 109% - Created with LUTCalc v4.01 by Ben Turley October 2020
0.06256172 0.06256172 0.06256172
0.07952470 0.06776491 0.06484142
0.09817160 0.07460710 0.06807473
0.11778476 0.08265654 0.07211806
0.13812235 0.09173865 0.07691217
0.15905252 0.10175249 0.08242707
0.18049019 0.11263040 0.08864597
0.20237512 0.12432309 0.09555931
0.22466204 0.13679275 0.10316193
0.24731548 0.15000921 0.11145162
0.27030676 0.16394778 0.12042820
0.29361216 0.17858777 0.13009295
0.31721166 0.19391160 0.14044827
0.34108811 0.20990407 0.15149740
0.36522662 0.22655194 0.16324425
0.38961411 0.24384352 0.17569326
0.41423902 0.26176842 0.18884931
0.43909101 0.28031736 0.20271763
0.46416078 0.29948197 0.21730372
0.48943992 0.31925468 0.23261338
0.51492078 0.33962860 0.24865256
0.54059635 0.36059742 0.26542744
0.56646020 0.38215538 0.28294432
0.59250641 0.40429717 0.30120966
0.61872948 0.42701788 0.32023002
0.64512430 0.45031297 0.34001207
0.67168613 0.47417822 0.36056256
0.69841053 0.49860972 0.38188835
0.72529333 0.52360381 0.40399635
0.75233062 0.54915708 0.42689353
0.77951874 0.57526633 0.45058693
0.80685421 0.60192857 0.47508365
0.83433375 0.62914100 0.50039082
0.07473092 0.08309573 0.06851895
0.08350070 0.08384188 0.06911124
0.09993181 0.08635135 0.07096738
0.11872695 0.09096108 0.07408445
0.13868204 0.09757535 0.07828255
0.15940709 0.10588833 0.08340733
0.18072481 0.11560003 0.08936274
0.20253529 0.12648479 0.09609267
0.22477398 0.13838603 0.10356433
0.24739513 0.15119619 0.11175853
0.27036425 0.16484005 0.12066429
0.29365413 0.17926353 0.13027579
0.31724258 0.19442651 0.14059063
0.34111106 0.21029837 0.15160871
0.36524375 0.22685507 0.16333156
0.38962696 0.24407729 0.17576190
0.41424870 0.26194912 0.18890337
0.43909832 0.28045727 0.20276024
0.46416631 0.29959042 0.21733733
0.48944411 0.31933878 0.23263988
0.51492396 0.33969381 0.24867345
0.54059877 0.36064798 0.26544389
0.56646204 0.38219454 0.28295726
0.59250780 0.40432745 0.30121981
0.61873053 0.42704126 0.32023797
0.64512510 0.45033098 0.34001828
0.67168673 0.47419206 0.36056741
0.69841098 0.49862032 0.38189211
0.72529367 0.52361191 0.40399926
0.75233088 0.54916324 0.42689577
0.77951893 0.57527100 0.45058865
0.80685435 0.60193209 0.47508496
0.83433385 0.62914363 0.50039182
0.08892792 0.10483198 0.07622742
0.09353906 0.10513073 0.07650663
0.10557691 0.10620298 0.07748555
0.12198811 0.10843096 0.07942500
0.14067721 0.11215647 0.08246648
0.16068806 0.11758315 0.08661742
0.18157817 0.12474141 0.09181024
0.20312004 0.13352811 0.09796075
0.22518352 0.14377708 0.10499617
0.24768693 0.15531495 0.11286167
0.27057504 0.16798923 0.12151852
0.29380809 0.18167632 0.13094033
0.31735605 0.19627980 0.14110963
0.34119529 0.21172553 0.15201535
0.36530665 0.22795663 0.16365098
0.38967416 0.24492920 0.17601330
0.41428424 0.26260899 0.18910149
0.43912517 0.28096896 0.20291651
0.46418664 0.29998746 0.21746062
0.48945952 0.31964694 0.23273714
0.51493565 0.33993294 0.24875013
0.54060764 0.36083342 0.26550428
0.56646878 0.38233821 0.28300475
0.59251291 0.40443860 0.30125710
0.61873441 0.42712709 0.32026719
0.64512803 0.45039711 0.34004111
0.67168895 0.47424289 0.36058519
0.69841265 0.49865927 0.38190592
0.72529492 0.52364165 0.40400994
0.75233181 0.54918586 0.42690400
0.77951963 0.57528813 0.45059496
0.80685486 0.60194501 0.47508978
0.83433423 0.62915332 0.50039547
0.10438140 0.12722641 0.08519330
0.10702793 0.12738096 0.08535390
0.11517862 0.12794346 0.08593262
0.12827264 0.12915050 0.08714630
0.14475995 0.13127977 0.08920726
0.16338907 0.13461299 0.09227323
0.18340646 0.13938631 0.09641990
0.20438419 0.14574570 0.10164867
0.22607364 0.15372941 0.10791586
0.24832327 0.16328325 0.11516138
0.27103568 0.17429511 0.12332650
0.29414501 0.18662986 0.13236157
0.31760458 0.20015389 0.14222772
0.34137991 0.21474796 0.15289590
0.36544458 0.23031164 0.16434521
0.38977768 0.24676306 0.17656113
0.41436223 0.26403661 0.18953406
0.43918408 0.28208009 0.20325817
0.46423124 0.30085201 0.21773046
0.48949335 0.32031931 0.23295017
0.51496132 0.34045548 0.24891817
0.54062713 0.36123912 0.26563669
0.56648357 0.38265278 0.28310893
0.59252414 0.40468212 0.30133891
0.61874291 0.42731524 0.32033128
0.64513446 0.45054214 0.34009120
0.67169380 0.47435438 0.36062422
0.69841631 0.49874472 0.38193624
0.72529767 0.52370691 0.40403339
0.75233387 0.54923551 0.42692207
0.77952116 0.57532574 0.45060882
0.80685600 0.60197337 0.47510036
0.83433508 0.62917459 0.50040350
0.12081436 0.15010300 0.09521966
0.12244746 0.15019308 0.09532125
0.12789654 0.15052248 0.09569088
0.13772482 0.15123754 0.09648367
0.15142113 0.15252576 0.09788120
0.16801044 0.15460881 0.10006785
0.18662197 0.15772553 0.10320055
0.20664407 0.16210327 0.10738371
0.22768081 0.16792407 0.11266109
0.24947944 0.17529777 0.11902602
0.27187603 0.18425270 0.12644061
0.29476131 0.19474592 0.13485385
0.31806003 0.20668576 0.14421398
0.34171866 0.21995638 0.15447493
0.36569788 0.23443728 0.16559863
0.38996792 0.25001561 0.17755515
0.41450560 0.26659212 0.19032181
0.43929244 0.28408283 0.20388204
0.46431330 0.30241837 0.21822417
0.48955558 0.32154222 0.23334051
0.51500856 0.34140866 0.24922644
0.54066300 0.36198079 0.26587979
0.56651080 0.38322882 0.28330031
0.59254479 0.40512861 0.30148927
0.61875856 0.42766053 0.32044914
0.64514630 0.45080849 0.34018333
0.67170275 0.47455925 0.36069603
0.69842304 0.49890179 0.38199201
0.72530272 0.52382691 0.40407655
0.75233765 0.54932684 0.42695533
0.77952398 0.57539494 0.45063433
0.80685810 0.60202554 0.47511983
0.83433662 0.62921373 0.50041828
0.13807176 0.17336745 0.10619267
0.13913314 0.17342376 0.10626063
0.14282120 0.17363010 0.10650894
0.14997793 0.17408030 0.10704703
0.16081925 0.17489913 0.10801323
0.17493320 0.17624400 0.10956771
0.19163095 0.17830287 0.11187788
0.21025325 0.18128495 0.11509720
0.23028874 0.18540282 0.11934392
0.25137494 0.19084786 0.12468827
0.27326314 0.19776510 0.13115243
0.29578324 0.20623568 0.13872113
0.31881759 0.21627283 0.14735614
0.34228333 0.22783126 0.15700948
0.36612075 0.24082489 0.16763254
0.39028584 0.25514609 0.17918127
0.41474540 0.27068163 0.19161830
0.43947376 0.28732342 0.20491345
0.46445067 0.30497436 0.21904316
0.48965979 0.32355063 0.23398967
0.51508768 0.34298175 0.24974007
0.54072308 0.36320937 0.26628542
0.56655641 0.38418573 0.28361999
0.59257940 0.40587191 0.30174064
0.61878479 0.42823630 0.32064629
0.64516615 0.45125318 0.34033752
0.67171773 0.47490162 0.36081624
0.69843433 0.49916449 0.38208541
0.72531120 0.52402772 0.40414884
0.75234400 0.54947971 0.42701104
0.77952871 0.57551081 0.45067707
0.80686161 0.60211294 0.47515245
0.83433922 0.62927929 0.50044305
0.15605159 0.19695967 0.11803588
0.15676767 0.19699654 0.11808304
0.15931073 0.19713179 0.11825577
0.16447125 0.19742762 0.11863201
0.17278201 0.19796831 0.11931425
0.18431886 0.19886360 0.12042917
0.19875209 0.20025137 0.12212352
0.21555807 0.20229726 0.12455373
0.23420973 0.20518940 0.12786992
0.25426870 0.20912658 0.13219798
0.27540277 0.21430015 0.13762562
0.29737074 0.22087257 0.14419707
0.32000018 0.22895822 0.15191729
0.34316780 0.23861213 0.16076227
0.36678471 0.24982993 0.17069104
0.39078589 0.26255779 0.18165585
0.41512303 0.27670794 0.19360930
0.43975957 0.29217488 0.20650836
0.46466735 0.30884879 0.22031624
0.48982424 0.32662466 0.23500278
0.51521257 0.34540757 0.25054408
0.54081795 0.36511489 0.26692183
0.56662846 0.38567647 0.28412241
0.59263407 0.40703381 0.30213622
0.61882622 0.42913867 0.32095686
0.64519750 0.45195151 0.34058060
0.67174140 0.47544009 0.36100587
0.69845216 0.49957812 0.38223280
0.72532459 0.52434419 0.40426296
0.75235402 0.54972081 0.42709902
0.77953619 0.57569363 0.45074458
0.80686716 0.60225088 0.47520398
0.83434332 0.62938281 0.50048217
0.17468051 0.22083754 0.13069345
0.17517720 0.22086249 0.13072705
0.17696314 0.22095407 0.13085025
0.18068803 0.22115466 0.13111940
0.18694627 0.22152225 0.13161015
0.19609274 0.22213370 0.13241947
0.20814631 0.22308823 0.13366631
0.22283808 0.22451017 0.13548854
0.23974962 0.22654950 0.13803523
0.25844306 0.22937885 0.14145394
0.27853469 0.23318543 0.14587539
0.29971840 0.23815739 0.15139968
0.32176166 0.24446594 0.15808815
0.34449198 0.25224670 0.16596320
0.36778238 0.26158534 0.17501480
0.39153923 0.27251128 0.18521050
0.41569302 0.28500107 0.19650561
0.44019156 0.29898920 0.20885142
0.46499517 0.31438256 0.22220078
0.49007324 0.33107462 0.23651127
0.51540179 0.34895680 0.25174662
0.54096174 0.36792626 0.26787695
0.56673768 0.38789026 0.28487844
0.59271697 0.40876801 0.30273267
0.61888906 0.43049076 0.32142585
0.64524506 0.45300101 0.34094811
0.67177732 0.47625120 0.36129282
0.69847922 0.50020230 0.38245599
0.72534491 0.52482240 0.40443585
0.75236924 0.55008550 0.42723235
0.77954753 0.57597040 0.45084692
0.80687558 0.60245984 0.47528214
0.83434954 0.62953970 0.50054151
0.19390267 0.24496966 0.14412239
0.19425455 0.24498697 0.14414680
0.19552914 0.24505050 0.14423635
0.19823347 0.24518978 0.14443231
0.20290887 0.24544542 0.14479079
0.21001158 0.24587177 0.14538526
0.21979445 0.24654019 0.14630891
0.23225244 0.24754224 0.14767534
0.24716157 0.24899238 0.14961646
0.26417517 0.25102912 0.15227632
0.28291889 0.25381343 0.15580080
0.30305100 0.25752316 0.16032420
0.32428751 0.26234247 0.16595600
0.34640460 0.26844693 0.17277122
0.36923096 0.27598627 0.18080725
0.39263721 0.28506881 0.19006713
0.41652608 0.29575136 0.20052746
0.44082422 0.30803751 0.21214787
0.46547600 0.32188389 0.22487984
0.49043886 0.33721193 0.23867332
0.51567985 0.35392163 0.25348114
0.54117318 0.37190405 0.26926140
0.56689837 0.39105109 0.28597847
0.59283897 0.41126182 0.30360305
0.61898157 0.43244599 0.32211177
0.64531508 0.45452528 0.34148654
0.67183021 0.47743322 0.36171378
0.69851906 0.50111426 0.38278376
0.72537485 0.52552248 0.40468994
0.75239164 0.55062021 0.42742844
0.77956424 0.57637668 0.45099749
0.80688799 0.60276685 0.47539715
0.83435871 0.62977036 0.50062887
0.21367384 0.26933163 0.15828832
0.21392725 0.26934387 0.15830631
0.21484940 0.26938878 0.15837235
0.21682745 0.26948729 0.15851701
0.22031363 0.26966827 0.15878219
0.22576031 0.26997060 0.15922345
0.23353084 0.27044584 0.15991279
0.24381656 0.27116113 0.16094075
0.25660287 0.27220223 0.16241728
0.27169958 0.27367622 0.16447019
0.28881155 0.27571298 0.16724027
0.30761150 0.27846457 0.17087248
0.32779065 0.28210134 0.17550419
0.34908362 0.28680364 0.18125246
0.37127480 0.29274927 0.18820369
0.39419469 0.30009777 0.19640822
0.41771242 0.30897460 0.20588112
0.44172779 0.31945882 0.21660799
0.46616421 0.33157755 0.22855350
0.49096301 0.34530822 0.24167025
0.51607896 0.36058746 0.25590622
0.54147692 0.37732355 0.27121021
0.56712936 0.39540944 0.28753513
0.59301444 0.41473379 0.30483982
0.61911468 0.43518910 0.32308956
0.64541586 0.45667674 0.34225596
0.67190635 0.47910951 0.36231648
0.69857643 0.50241234 0.38325371
0.72541795 0.52652181 0.40505468
0.75242391 0.55138516 0.42771013
0.77958830 0.57695887 0.45121395
0.80690585 0.60320736 0.47556258
0.83437191 0.63010165 0.50075457
0.23395790 0.29390386 0.17316296
0.23414278 0.29391263 0.17317638
0.23481756 0.29394486 0.17322563
0.23627540 0.29401555 0.17333360
0.23887832 0.29414552 0.17353176
0.24302704 0.29436286 0.17386226
0.24910700 0.29470507 0.17438040
0.25741776 0.29522146 0.17515716
0.26811194 0.29597590 0.17628129
0.28117194 0.29704970 0.17786026
0.29643366 0.29854424 0.18001921
0.31364040 0.30058281 0.18289687
0.33250087 0.30331060 0.18663805
0.35273255 0.30689204 0.19138303
0.37408577 0.31150420 0.19725540
0.39635234 0.31732614 0.20435133
0.41936482 0.32452462 0.21273257
0.44299140 0.33323852 0.22242521
0.46712954 0.34356521 0.23342355
0.49169987 0.35555216 0.24569755
0.51664097 0.36919586 0.25920153
0.54190520 0.38444782 0.27388217
0.56745537 0.40122546 0.28968471
0.59326227 0.41942493 0.30655729
0.61930276 0.43893310 0.32445335
0.64555833 0.45963714 0.34333281
0.67201402 0.48143098 0.36316224
0.69865758 0.50421914 0.38391454
0.72547892 0.52791830 0.40556836
0.75246957 0.55245740 0.42810736
0.77962235 0.57777688 0.45151947
0.80693114 0.60382742 0.47579623
0.83439059 0.63056861 0.50093220
0.25472467 0.31867020 0.18872255
0.25486098 0.31867657 0.18873265
0.25535941 0.31869997 0.18876971
0.25644142 0.31875130 0.18885100
0.25839052 0.31884571 0.18900032
0.26154134 0.31900370 0.18924973
0.26625220 0.31925274 0.18964166
0.27285817 0.31962918 0.19023133
0.28161396 0.32018052 0.19108911
0.29264692 0.32096805 0.19230260
0.30593966 0.32206958 0.19397768
0.32134864 0.32358210 0.19623783
0.33864676 0.32562376 0.19922076
0.35757091 0.32833447 0.20307176
0.37785980 0.33187401 0.20793405
0.39927697 0.33641691 0.21393721
0.42162085 0.34214311 0.22118606
0.44472605 0.34922507 0.22975262
0.46846017 0.35781261 0.23967309
0.49271871 0.36801842 0.25095002
0.51741987 0.37990768 0.26355872
0.54249979 0.39349411 0.27745553
0.56790857 0.40874334 0.29258618
0.59360714 0.42558205 0.30889278
0.61956470 0.44391032 0.32631887
0.64575686 0.46361414 0.34481267
0.67216411 0.48457619 0.36432874
0.69877075 0.50668369 0.38482856
0.72556397 0.52983337 0.40628041
0.75253326 0.55393398 0.42865890
0.77966986 0.57890702 0.45194422
0.80696642 0.60468625 0.47612140
0.83441667 0.63121664 0.50117959
0.27594851 0.34361714 0.20494678
0.27604984 0.34362181 0.20495443
0.27642088 0.34363896 0.20498252
0.27722897 0.34367659 0.20504415
0.27869358 0.34374581 0.20515742
0.28108500 0.34386171 0.20534681
0.28471342 0.34404454 0.20564490
0.28990284 0.34432122 0.20609449
0.29695011 0.34472713 0.20675084
0.30607778 0.34530834 0.20768404
0.31739624 0.34612406 0.20898103
0.33088990 0.34724935 0.21074683
0.34643181 0.34877775 0.21310408
0.36381818 0.35082346 0.21619022
0.38280839 0.35352229 0.22015166
0.40315851 0.35703055 0.22513477
0.42464323 0.36152084 0.23127476
0.44706672 0.36717406 0.23868442
0.47026554 0.37416751 0.24744518
0.49410682 0.38266025 0.25760257
0.51848444 0.39277818 0.26916698
0.54331440 0.40460200 0.28211887
0.56853061 0.41816096 0.29641672
0.59408113 0.43343380 0.31200551
0.61992509 0.45035619 0.32882438
0.64603022 0.46883232 0.34681244
0.67237091 0.48874780 0.36591272
0.69892674 0.50998135 0.38607441
0.72568125 0.53241391 0.40725386
0.75262111 0.55593480 0.42941466
0.77973541 0.58044512 0.45252728
0.80701511 0.60585908 0.47656837
0.83445265 0.63210395 0.50152001
0.29760725 0.36873313 0.22181804
0.29768309 0.36873658 0.22182387
0.29796106 0.36874925 0.22184528
0.29856781 0.36877705 0.22189226
0.29967224 0.36882819 0.22197865
0.30148843 0.36891385 0.22212320
0.30427383 0.36904905 0.22235096
0.30831752 0.36925380 0.22269506
0.31391582 0.36955455 0.22319867
0.32133638 0.36998591 0.22391726
0.33077822 0.37059275 0.22492089
0.34234021 0.37143262 0.22629628
0.35600936 0.37257841 0.22814811
0.37167232 0.37412097 0.23059886
0.38914406 0.37617145 0.23378642
0.40820220 0.37886257 0.23785884
0.42861711 0.38234809 0.24296589
0.45017283 0.38679941 0.24924834
0.47267849 0.39239860 0.25682652
0.49597235 0.39932738 0.26579061
0.51992118 0.40775299 0.27619487
0.54441734 0.41781297 0.28805707
0.56937489 0.42960182 0.30136259
0.59472568 0.44316281 0.31607195
0.62041585 0.45848670 0.33212944
0.64640287 0.47551759 0.34947126
0.67265306 0.49416363 0.36803210
0.69913969 0.51431014 0.38774978
0.72584144 0.53583210 0.40856809
0.75274115 0.55860443 0.43043814
0.77982500 0.58250925 0.45331878
0.80708166 0.60744019 0.47717625
0.83450184 0.63330437 0.50198364
0.31968152 0.39400821 0.23932089
0.31973860 0.39401077 0.23932535
0.31994793 0.39402019 0.23934175
0.32040556 0.39404085 0.23937772
0.32124110 0.39407887 0.23944389
0.32262213 0.39414257 0.23955466
0.32475679 0.39424314 0.23972934
0.32789070 0.39439553 0.23999357
0.33229499 0.39461956 0.24038096
0.33824371 0.39494126 0.24093512
0.34598197 0.39539459 0.24171185
0.35569140 0.39602345 0.24278140
0.36746303 0.39688408 0.24423062
0.38128682 0.39804763 0.24616433
0.39706082 0.39960290 0.24870541
0.41461532 0.40165871 0.25199281
0.43374289 0.40434555 0.25617672
0.45422576 0.40781542 0.26141065
0.47585582 0.41223921 0.26784096
0.49844639 0.41780049 0.27559528
0.52183713 0.42468528 0.28477212
0.54589443 0.43306839 0.29543399
0.57050927 0.44309785 0.30760555
0.59559387 0.45488066 0.32127685
0.62107817 0.46847275 0.33641024
0.64690652 0.48387588 0.35294919
0.67303482 0.50104177 0.37082686
0.69942808 0.51988214 0.38997346
0.72605850 0.54028180 0.41032150
0.75290390 0.56211195 0.43180924
0.77994650 0.58524155 0.45438249
0.80717195 0.60954558 0.47799523
0.83456860 0.63491031 0.50260946
0.34215423 0.41943366 0.25744166
0.34219737 0.41943557 0.25744508
0.34235566 0.41944261 0.25745768
0.34270211 0.41945804 0.25748532
0.34333602 0.41948646 0.25753618
0.34438765 0.41953406 0.25762133
0.34602249 0.41960923 0.25775571
0.34844274 0.41972318 0.25795913
0.35188337 0.41989080 0.25825776
0.35660043 0.42013170 0.25868574
0.36285002 0.42047158 0.25928714
0.37085979 0.42094385 0.26011818
0.38079843 0.42159163 0.26124953
0.39275169 0.42247011 0.26276844
0.40671268 0.42364910 0.26478029
0.42258912 0.42521582 0.26740887
0.44022400 0.42727743 0.27079471
0.45942228 0.42996285 0.27509065
0.47997602 0.43342308 0.28045431
0.50168367 0.43782914 0.28703779
0.52436201 0.44336652 0.29497593
0.54785180 0.45022564 0.30437529
0.57201897 0.45858850 0.31530623
0.59675314 0.46861293 0.32779994
0.62196479 0.48041736 0.34185075
0.64758207 0.49406931 0.35742256
0.67354764 0.50958042 0.37445776
0.69981592 0.52690921 0.39288629
0.72635067 0.54597029 0.41263365
0.75312310 0.56664754 0.43362687
0.78011023 0.58880812 0.45579855
0.80729367 0.61231483 0.47908907
0.83465862 0.63703549 0.50344745
0.36501012 0.44500180 0.27616812
0.36504284 0.44500323 0.27617077
0.36516293 0.44500851 0.27618047
0.36542599 0.44502009 0.27620176
0.36590807 0.44504140 0.27624095
0.36670996 0.44507711 0.27630658
0.36796180 0.44513352 0.27641018
0.36982661 0.44521906 0.27656712
0.37250086 0.44534492 0.27679772
0.37621021 0.44552593 0.27712864
0.38119805 0.44578152 0.27759453
0.38770607 0.44613710 0.27823997
0.39594837 0.44662564 0.27912173
0.40608399 0.44728963 0.28031104
0.41819528 0.44818342 0.28189584
0.43227861 0.44937583 0.28398242
0.44825001 0.45095293 0.28669593
0.46596314 0.45302072 0.29017899
0.48523323 0.45570718 0.29458758
0.50586057 0.45916298 0.30008381
0.52764900 0.46355988 0.30682578
0.55041809 0.46908579 0.31495557
0.57400936 0.47593576 0.32458763
0.59828815 0.48429886 0.33579990
0.62314273 0.49434227 0.34862972
0.64848190 0.50619508 0.36307528
0.67423208 0.51993541 0.37910168
0.70033433 0.53558380 0.39664986
0.72674167 0.55310461 0.41564621
0.75341671 0.57241451 0.43601123
0.78032969 0.59339581 0.45766624
0.80745690 0.61591113 0.48053795
0.83477939 0.63981680 0.50456117
0.38823550 0.47070579 0.29548931
0.38826038 0.47070687 0.29549135
0.38835172 0.47071084 0.29549884
0.38855192 0.47071955 0.29551528
0.38891922 0.47073559 0.29554552
0.38953138 0.47076247 0.29559619
0.39048999 0.47080492 0.29567620
0.39192461 0.47086932 0.29579746
0.39399557 0.47096410 0.29597575
0.39689407 0.47110047 0.29623186
0.40083766 0.47129315 0.29659291
0.40605925 0.47156145 0.29709407
0.41278895 0.47193050 0.29778049
0.42123036 0.47243293 0.29870954
0.43153543 0.47311072 0.29995321
0.44378454 0.47401761 0.30160035
0.45797733 0.47522166 0.30375851
0.47403709 0.47680818 0.30655461
0.49182652 0.47888247 0.31013382
0.51116947 0.48157214 0.31465576
0.53187301 0.48502812 0.32028748
0.55374537 0.48942353 0.32719336
0.57660828 0.49494922 0.33552289
0.60030368 0.50180522 0.34539836
0.62469617 0.51018776 0.35690504
0.64967260 0.52027309 0.37008610
0.67514013 0.53220044 0.38494317
0.70102351 0.54605768 0.40144206
0.72726228 0.56187328 0.41952182
0.75380810 0.57961641 0.43910485
0.78062250 0.59920483 0.46010625
0.80767484 0.62051843 0.48244129
0.83494072 0.64341462 0.50603060
0.41181799 0.49653951 0.31539528
0.41183694 0.49654032 0.31539685
0.41190654 0.49654332 0.31540264
0.41205916 0.49654989 0.31541534
0.41233939 0.49656199 0.31543872
0.41280710 0.49658226 0.31547788
0.41354121 0.49661429 0.31553974
0.41464364 0.49666288 0.31563352
0.41624299 0.49673441 0.31577148
0.41849693 0.49683736 0.31596979
0.42159188 0.49698289 0.31624965
0.42573844 0.49718566 0.31663865
0.43116086 0.49746483 0.31717249
0.43808004 0.49784535 0.31789690
0.44669151 0.49835951 0.31886999
0.45714216 0.49904896 0.32016459
0.46951145 0.49996695 0.32187074
0.48380236 0.50118106 0.32409752
0.49994461 0.50277615 0.32697403
0.51780860 0.50485724 0.33064848
0.53722541 0.50755205 0.33528458
0.55800766 0.51101238 0.34105481
0.57996711 0.51541328 0.34813023
0.60292703 0.52094915 0.35666794
0.62672941 0.52782539 0.36679811
0.65123793 0.53624566 0.37861321
0.67633798 0.54639521 0.39216188
0.70193504 0.55842296 0.40744873
0.72795224 0.57242587 0.42443976
0.75432764 0.58843937 0.44307155
0.78101166 0.60643632 0.46326193
0.80796475 0.62633448 0.48492016
0.83515547 0.64801027 0.50795506
0.43574632 0.52249742 0.33587696
0.43576078 0.52249804 0.33587818
0.43581388 0.52250030 0.33588266
0.43593034 0.52250527 0.33589248
0.43614433 0.52251441 0.33591056
0.43650187 0.52252973 0.33594085
0.43706400 0.52255393 0.33598870
0.43791035 0.52259065 0.33606127
0.43914281 0.52264472 0.33616805
0.44088885 0.52272256 0.33632163
0.44330354 0.52283262 0.33653853
0.44656907 0.52298605 0.33684034
0.45089013 0.52319743 0.33725512
0.45648390 0.52348579 0.33781907
0.46356402 0.52387592 0.33857858
0.47231997 0.52439988 0.33959254
0.48289516 0.52509903 0.34093481
0.49536903 0.52602632 0.34269677
0.50974794 0.52724907 0.34498938
0.52596740 0.52885195 0.34794429
0.54390439 0.53094010 0.35171317
0.56339604 0.53364184 0.35646440
0.58425951 0.53711034 0.36237634
0.60630923 0.54152325 0.36962718
0.62936945 0.54707907 0.37838195
0.65328186 0.55398914 0.38877882
0.67790898 0.56246486 0.40091734
0.70313467 0.57270057 0.41485130
0.72886271 0.58485464 0.43058781
0.75501463 0.59903247 0.44809238
0.78152705 0.61527547 0.46729845
0.80834918 0.63355903 0.48811867
0.83544050 0.65379963 0.51045584
0.46001018 0.54857453 0.35692609
0.46002122 0.54857500 0.35692704
0.46006176 0.54857671 0.35693050
0.46015069 0.54858046 0.35693809
0.46031416 0.54858738 0.35695208
0.46058751 0.54859896 0.35697551
0.46101782 0.54861727 0.35701253
0.46166696 0.54864505 0.35706867
0.46261492 0.54868596 0.35715132
0.46396329 0.54874486 0.35727024
0.46583829 0.54882818 0.35743827
0.46839259 0.54894435 0.35767227
0.47180462 0.54910448 0.35799420
0.47627416 0.54932308 0.35843256
0.48201266 0.54961909 0.35902410
0.48922818 0.55001712 0.35981587
0.49810576 0.55054910 0.36086763
0.50878668 0.55125617 0.36225440
0.52135113 0.55219113 0.36406912
0.53580891 0.55342120 0.36642489
0.55210075 0.55503116 0.36945629
0.57010935 0.55712662 0.37331895
0.58967688 0.55983694 0.37818639
0.61062408 0.56331722 0.38424345
0.63276731 0.56774831 0.39167594
0.65593124 0.57333344 0.40065719
0.67995689 0.58029054 0.41133357
0.70470542 0.58883918 0.42381163
0.73005900 0.59918299 0.43814999
0.75591972 0.61148965 0.45435766
0.78220748 0.62587238 0.47239899
0.80885751 0.64237761 0.49220346
0.83581787 0.66098195 0.51367776
0.48460013 0.57476626 0.37853505
0.48460855 0.57476661 0.37853578
0.48463950 0.57476790 0.37853846
0.48470741 0.57477075 0.37854433
0.48483229 0.57477598 0.37855514
0.48504122 0.57478475 0.37857326
0.48537043 0.57479860 0.37860189
0.48586779 0.57481963 0.37864531
0.48659564 0.57485059 0.37870925
0.48763410 0.57489518 0.37880127
0.48908424 0.57495826 0.37893135
0.49107102 0.57504625 0.37911260
0.49374486 0.57516757 0.37936216
0.49728098 0.57533328 0.37970236
0.50187506 0.57555780 0.38016212
0.50773406 0.57586000 0.38077874
0.51506181 0.57626437 0.38159998
0.52404037 0.57680271 0.38268654
0.53481001 0.57751606 0.38411472
0.54745231 0.57845716 0.38597922
0.56198059 0.57969335 0.38839558
0.57834038 0.58130975 0.39150168
0.59641937 0.58341276 0.39545755
0.61606386 0.58613322 0.40044247
0.63709735 0.58962874 0.40664832
0.65933740 0.59408394 0.41426909
0.68260859 0.59970755 0.42348689
