src/ffmpeg_scripts/luts/sRGB-rec2020_-4p00.cube
TITLE "sRGB-rec2020_-4p00"
LUT_3D_SIZE 33
# PQ (EOTF Only)/sRGB -> PQ (EOTF Only)/Rec2020, CineEI Shift -4.00, Black Level 0.00% IRE, Input 100% -> Output 109% - Created with LUTCalc v4.01 by Ben Turley October 2020
0.06256172 0.06256172 0.06256172
0.06746800 0.06392882 0.06314732
0.07396288 0.06592277 0.06401445
0.08164072 0.06849304 0.06517418
0.09033655 0.07162191 0.06663673
0.09995514 0.07530645 0.06841693
0.11043271 0.07955032 0.07053199
0.12172294 0.08436085 0.07300066
0.13379036 0.08974753 0.07584281
0.14660674 0.09572133 0.07907921
0.16014905 0.10229420 0.08273145
0.17439804 0.10947889 0.08682187
0.18933741 0.11728867 0.09137351
0.20495311 0.12573728 0.09641010
0.22123292 0.13483885 0.10195604
0.23816613 0.14460778 0.10803642
0.25574323 0.15505876 0.11467698
0.27395576 0.16620670 0.12190415
0.29279611 0.17806673 0.12974504
0.31225744 0.19065416 0.13822744
0.33233355 0.20398446 0.14737984
0.35301879 0.21807328 0.15723144
0.37430801 0.23293642 0.16781213
0.39619648 0.24858982 0.17915255
0.41867988 0.26504957 0.19128407
0.44175420 0.28233187 0.20423878
0.46541577 0.30045308 0.21804956
0.48966116 0.31942968 0.23275002
0.51448721 0.33927827 0.24837457
0.53989099 0.36001557 0.26495841
0.56586977 0.38165845 0.28253753
0.59242099 0.40422386 0.30114874
0.61954229 0.42772891 0.32082967
0.06596063 0.06863913 0.06413809
0.06877434 0.06888863 0.06430447
0.07461984 0.06973925 0.06483662
0.08202806 0.07134563 0.06576358
0.09058532 0.07374190 0.06706995
0.10012347 0.07689205 0.06874313
0.11055066 0.08074872 0.07078244
0.12180767 0.08527637 0.07319586
0.13385235 0.09045369 0.07599671
0.14665274 0.09627044 0.07920161
0.16018356 0.10272404 0.08282947
0.17442416 0.10981717 0.08690076
0.18935731 0.11755603 0.09143725
0.20496835 0.12594929 0.09646175
0.22124465 0.13500738 0.10199797
0.23817518 0.14474198 0.10807050
0.25575023 0.15516575 0.11470471
0.27396118 0.16629204 0.12192671
0.29280032 0.17813481 0.12976338
0.31226071 0.19070844 0.13824234
0.33233609 0.20402770 0.14739193
0.35302076 0.21810769 0.15724123
0.37430953 0.23296376 0.16782005
0.39619767 0.24861150 0.17915894
0.41868079 0.26506671 0.19128921
0.44175491 0.28234539 0.20424291
0.46541631 0.30046371 0.21805285
0.48966157 0.31943801 0.23275264
0.51448753 0.33928477 0.24837665
0.53989123 0.36002062 0.26496005
0.56586995 0.38166235 0.28253882
0.59242113 0.40422687 0.30114974
0.61954240 0.42773121 0.32083045
0.07063035 0.07648371 0.06642266
0.07226730 0.07659896 0.06650975
0.07677143 0.07701411 0.06681722
0.08338088 0.07788412 0.06743587
0.09147603 0.07936060 0.06842998
0.10073301 0.08155804 0.06983045
0.11098023 0.08453740 0.07164743
0.12211723 0.08831300 0.07388465
0.13407928 0.09287189 0.07654703
0.14682134 0.09819139 0.07964306
0.16031014 0.10424959 0.08318493
0.17451999 0.11102970 0.08718793
0.18943034 0.11852095 0.09166987
0.20502431 0.12671813 0.09665057
0.22128770 0.13562064 0.10215146
0.23820841 0.14523153 0.10819539
0.25577594 0.15555672 0.11480635
0.27398111 0.16660431 0.12200944
0.29281578 0.17838414 0.12983068
0.31227271 0.19090739 0.13829704
0.33234541 0.20418630 0.14743633
0.35302799 0.21823394 0.15727720
0.37431514 0.23306408 0.16784914
0.39620200 0.24869105 0.17918241
0.41868415 0.26512964 0.19130809
0.44175749 0.28239503 0.20425805
0.46541830 0.30050275 0.21806496
0.48966310 0.31946860 0.23276228
0.51448870 0.33930864 0.24838429
0.53989212 0.36003918 0.26496609
0.56587062 0.38167671 0.28254356
0.59242164 0.40423791 0.30115345
0.61954278 0.42773967 0.32083333
0.07631023 0.08559228 0.06934454
0.07733510 0.08565822 0.06939906
0.08057767 0.08589858 0.06959610
0.08603948 0.08641612 0.07001230
0.09331747 0.08733490 0.07072800
0.10202560 0.08878785 0.07181272
0.11190363 0.09089903 0.07331594
0.12278781 0.09376581 0.07526710
0.13457313 0.09744907 0.07768211
0.14718928 0.10197477 0.08057068
0.16058689 0.10734348 0.08394144
0.17472977 0.11354171 0.08780451
0.18959036 0.12055107 0.09217241
0.20514698 0.12835390 0.09706025
0.22138213 0.13693606 0.10248553
0.23828131 0.14628787 0.10846780
0.25583236 0.15640403 0.11502845
0.27402484 0.16728325 0.12219041
0.29284972 0.17892755 0.12997803
0.31229906 0.19134178 0.13841687
0.33236586 0.20453302 0.14753364
0.35304386 0.21851022 0.15735608
0.37432744 0.23328379 0.16791295
0.39621153 0.24886538 0.17923390
0.41869151 0.26526760 0.19134952
0.44176317 0.28250390 0.20429128
0.46542266 0.30058838 0.21809153
0.48966645 0.31953571 0.23278344
0.51449125 0.33936104 0.24840107
0.53989407 0.36007990 0.26497933
0.56587210 0.38170821 0.28255396
0.59242275 0.40426216 0.30116158
0.61954362 0.42775822 0.32083965
0.08289182 0.09576464 0.07287670
0.08357292 0.09580625 0.07291375
0.08587851 0.09595852 0.07304876
0.09016016 0.09628960 0.07333937
0.09637472 0.09688791 0.07385516
0.10425991 0.09786035 0.07467089
0.11353768 0.09932672 0.07585757
0.12399115 0.10140904 0.07747395
0.13546696 0.10421790 0.07956262
0.14785885 0.10784016 0.08215134
0.16109230 0.11233244 0.08525758
0.17511378 0.11772204 0.08889353
0.18988375 0.12401340 0.09306978
0.20537215 0.13119655 0.09779767
0.22155557 0.13925471 0.10309032
0.23841530 0.14816982 0.10896307
0.25593610 0.15792576 0.11543348
0.27410528 0.16850994 0.12252122
0.29291215 0.17991382 0.13024783
0.31234754 0.19213287 0.13863656
0.33240350 0.20516609 0.14771222
0.35307307 0.21901565 0.15750095
0.37435009 0.23368633 0.16803019
0.39622906 0.24918513 0.17932854
0.41870506 0.26552087 0.19142570
0.44177362 0.28270389 0.20435241
0.46543070 0.30074576 0.21814040
0.48967261 0.31965911 0.23282237
0.51449597 0.33945739 0.24843195
0.53989766 0.36015482 0.26500371
0.56587482 0.38176617 0.28257312
0.59242481 0.40430678 0.30117654
0.61954516 0.42779237 0.32085127
0.09031410 0.10688510 0.07701012
0.09078618 0.10691290 0.07703650
0.09243992 0.10701477 0.07713301
0.09570688 0.10723724 0.07734255
0.10079556 0.10764253 0.07772025
0.10765941 0.10831006 0.07833179
0.11610825 0.10933644 0.07924926
0.12592502 0.11083252 0.08054466
0.13692324 0.11291664 0.08228256
0.14895953 0.11570437 0.08451495
0.16192804 0.11929720 0.08727974
0.17575130 0.12377326 0.09060272
0.19037214 0.12918304 0.09450134
0.20574769 0.13555077 0.09898863
0.22184524 0.14287988 0.10407615
0.23863929 0.15116010 0.10977596
0.25610963 0.16037416 0.11610172
0.27423990 0.17050278 0.12306910
0.29301667 0.18152799 0.13069597
0.31242872 0.19343492 0.13900229
0.33246655 0.20621257 0.14800998
0.35312201 0.21985389 0.15774279
0.37438803 0.23435560 0.16822611
0.39625845 0.24971778 0.17948681
0.41872777 0.26594339 0.19155317
0.44179113 0.28303790 0.20445473
0.46544417 0.30100884 0.21822224
0.48968294 0.31986550 0.23288757
0.51450386 0.33961865 0.24848367
0.53990367 0.36028023 0.26504455
0.56587938 0.38186324 0.28260521
0.59242824 0.40438151 0.30120162
0.61954774 0.42784958 0.32087075
0.09853747 0.11887594 0.08174380
0.09887462 0.11889521 0.08176317
0.10007770 0.11896590 0.08183415
0.10254625 0.11912060 0.08198896
0.10659639 0.11940361 0.08227030
0.11236600 0.11987297 0.08273185
0.11981446 0.12060237 0.08343745
0.12879407 0.12168177 0.08445815
0.13912636 0.12321590 0.08586713
0.15064685 0.12531975 0.08773337
0.16322079 0.12811090 0.09011618
0.17674356 0.13169967 0.09306211
0.19113555 0.13617936 0.09660501
0.20633648 0.14161925 0.10076839
0.22230035 0.14806210 0.10556886
0.23899175 0.15552636 0.11101938
0.25638299 0.16401152 0.11713184
0.27445215 0.17350456 0.12391872
0.29318156 0.18398603 0.13139405
0.31255685 0.19543465 0.13957393
0.33256608 0.20783043 0.14847662
0.35319928 0.22115645 0.15812255
0.37444797 0.23539971 0.16853422
0.39630486 0.25055127 0.17973600
0.41876365 0.26660609 0.19175404
0.44181881 0.28356270 0.20461608
0.46546546 0.30142275 0.21835136
0.48969927 0.32019059 0.23299048
0.51451634 0.33987284 0.24856534
0.53991317 0.36047805 0.26510905
0.56588658 0.38201642 0.28265589
0.59243368 0.40449948 0.30124124
0.61955181 0.42793991 0.32090153
0.10753424 0.13168042 0.08708116
0.10778036 0.13169413 0.08709569
0.10866795 0.13174447 0.08714896
0.11053216 0.13185476 0.08726544
0.11370319 0.13205700 0.08747811
0.11842337 0.13239371 0.08782969
0.12479428 0.13292018 0.08837339
0.13278211 0.13370627 0.08917243
0.14226665 0.13483749 0.09029788
0.15309563 0.13641433 0.09182442
0.16512097 0.13854926 0.09382490
0.17821516 0.14136082 0.09636478
0.19227496 0.14496522 0.09949820
0.20721921 0.14946695 0.10326662
0.22298489 0.15495039 0.10769985
0.23952312 0.16147481 0.11281884
0.25679582 0.16907362 0.11863879
0.27477306 0.17775753 0.12517214
0.29343111 0.18752011 0.13243068
0.31275089 0.19834400 0.14042710
0.33271690 0.21020647 0.14917578
0.35331642 0.22308368 0.15869324
0.37453883 0.23695351 0.16899829
0.39637524 0.25179723 0.18011199
0.41881806 0.26760021 0.19205753
0.44186078 0.28435210 0.20486011
0.46549775 0.30204666 0.21854679
0.48972403 0.32068138 0.23314634
0.51453527 0.34025706 0.24868908
0.53992758 0.36077735 0.26520682
0.56589751 0.38224834 0.28273275
0.59244192 0.40467820 0.30130132
0.61955800 0.42807681 0.32094822
0.11728403 0.14525480 0.09302827
0.11746670 0.14526475 0.09303933
0.11812963 0.14530129 0.09307992
0.11954252 0.14538142 0.09316878
0.12200539 0.14552853 0.09333148
0.12579507 0.14577404 0.09360171
0.13110772 0.14615931 0.09402261
0.13802457 0.14673773 0.09464758
0.14651787 0.14757661 0.09554008
0.15648638 0.14875844 0.09677187
0.16779656 0.15038083 0.09841956
0.18031279 0.15255451 0.10055964
0.19391352 0.15539875 0.10326313
0.20849682 0.15903422 0.10659108
0.22398025 0.16357410 0.11059212
0.24029839 0.16911523 0.11530245
0.25739962 0.17573140 0.12074775
0.27524331 0.18347022 0.12694609
0.29379727 0.19235412 0.13391100
0.31303589 0.20238457 0.14165405
0.33293858 0.21354793 0.15018679
0.35348868 0.22582152 0.15952203
0.37467253 0.23917876 0.16967449
0.39647883 0.25359304 0.18066124
0.41889817 0.26904023 0.19250175
0.44192258 0.28550004 0.20521785
0.46554531 0.30295670 0.21883363
0.48976051 0.32139895 0.23337529
0.51456315 0.34081985 0.24887098
0.53994882 0.36121636 0.26535062
0.56591361 0.38258889 0.28284583
0.59245407 0.40494083 0.30138974
0.61956712 0.42827812 0.32101695
0.12777141 0.15956412 0.09959294
0.12790871 0.15957145 0.09960146
0.12840898 0.15959837 0.09963273
0.12948525 0.15965743 0.09970125
0.13139262 0.15976594 0.09982692
0.13439920 0.15994730 0.10003626
0.13874374 0.16023255 0.10036383
0.14459230 0.16066229 0.10085352
0.15201399 0.16128867 0.10155940
0.16098612 0.16217728 0.10254574
0.17142122 0.16340858 0.10388558
0.18319960 0.16507832 0.10565780
0.19619530 0.16729625 0.10794257
0.21029157 0.17018247 0.11081617
0.22538756 0.17386140 0.11434612
0.24139973 0.17845344 0.11858796
0.25826041 0.18406607 0.12358424
0.27591543 0.19078593 0.12936563
0.29432164 0.19867389 0.13595347
0.31344462 0.20776407 0.14336282
0.33325685 0.21806650 0.15160539
0.35373621 0.22957234 0.16069180
0.37486475 0.24226005 0.17063332
0.39662784 0.25610123 0.18144288
0.41901344 0.27106537 0.19313569
0.44201154 0.28712324 0.20572948
0.46561377 0.30424901 0.21924456
0.48981303 0.32242133 0.23370373
0.51460331 0.34162377 0.24913217
0.53997939 0.36184472 0.26555726
0.56593679 0.38307708 0.28300842
0.59247157 0.40531778 0.30151694
0.61958025 0.42856732 0.32111586
0.13898437 0.17457961 0.10678421
0.13908861 0.17458507 0.10679083
0.13946934 0.17460513 0.10681512
0.14029353 0.17464915 0.10686839
0.14177063 0.17473009 0.10696621
0.14413949 0.17486547 0.10712946
0.14764301 0.17507873 0.10738568
0.15249256 0.17540072 0.10777043
0.15883378 0.17587160 0.10832860
0.16672825 0.17654270 0.10911534
0.17615756 0.17747852 0.11019615
0.18704455 0.17875828 0.11164584
0.19928010 0.18047662 0.11354589
0.21274577 0.18274293 0.11598030
0.22732862 0.18567847 0.11903053
0.24292863 0.18941109 0.12277035
0.25946116 0.19406763 0.12726202
0.27685640 0.19976493 0.13255439
0.29505774 0.20660124 0.13868332
0.31401956 0.21464981 0.14567369
0.33370523 0.22395612 0.15354244
0.35408532 0.23453905 0.16230160
0.37513609 0.24639518 0.17196107
0.39683832 0.25950487 0.18253061
0.41917635 0.27383857 0.19402131
0.44213731 0.28936231 0.20644640
0.46571058 0.30604203 0.21982171
0.48988733 0.32384636 0.23416586
0.51466011 0.34274834 0.24950020
0.54002266 0.36272617 0.26584875
0.56596960 0.38376337 0.28323797
0.59249632 0.40584858 0.30169664
0.61959884 0.42897508 0.32125565
0.15091348 0.19027708 0.11461198
0.15099323 0.19028119 0.11461716
0.15128501 0.19029627 0.11463616
0.15191925 0.19032938 0.11467784
0.15306470 0.19039028 0.11475444
0.15492435 0.19049220 0.11488244
0.15772298 0.19065291 0.11508373
0.16168385 0.19089592 0.11538692
0.16699829 0.19125208 0.11582872
0.17379779 0.19176128 0.11645523
0.18213914 0.19247441 0.11732296
0.19200755 0.19345535 0.11849905
0.20333386 0.19478264 0.12006047
0.21601711 0.19655048 0.12209165
0.22994477 0.19886846 0.12468065
0.24500687 0.20185933 0.12791411
0.26110391 0.20565441 0.13187203
0.27815007 0.21038650 0.13662328
0.29607350 0.21618103 0.14222305
0.31481515 0.22314696 0.14871247
0.33432699 0.23136916 0.15612018
0.35457021 0.24090409 0.16446517
0.37551343 0.25177949 0.17376005
0.39713129 0.26399770 0.18401402
0.41940326 0.27754143 0.19523536
0.44231258 0.29238038 0.20743321
0.46584556 0.30847745 0.22061870
0.48999094 0.32579385 0.23480562
0.51473936 0.34429269 0.25001070
0.54008302 0.36394127 0.26625367
0.56601538 0.38471228 0.28355722
0.59253087 0.40658419 0.30194678
0.61962478 0.42954117 0.32145038
0.16355122 0.20663585 0.12308683
0.16361261 0.20663896 0.12309090
0.16383747 0.20665039 0.12310584
0.16432763 0.20667547 0.12313862
0.16521761 0.20672161 0.12319888
0.16667516 0.20679887 0.12329967
0.16889695 0.20692077 0.12345839
0.17209604 0.20710529 0.12369797
0.17648042 0.20737612 0.12404814
0.18222666 0.20776415 0.12454687
0.18945622 0.20830923 0.12524166
0.19822289 0.20906209 0.12619064
0.20851502 0.21008635 0.12746295
0.22026973 0.21146036 0.12913806
0.23339251 0.21327841 0.13130371
0.24777543 0.21565079 0.13405226
0.26331078 0.21870215 0.13747573
0.27989925 0.22256740 0.14166036
0.29745372 0.22738516 0.14668166
0.31590027 0.23328901 0.15260118
0.33517747 0.24039799 0.15946544
0.35523491 0.24880802 0.16730697
0.37603155 0.25858614 0.17614698
0.39753408 0.26976884 0.18599869
0.41971552 0.28236431 0.19687067
0.44255396 0.29635782 0.20876965
0.46603156 0.31171852 0.22170272
0.49013377 0.32840630 0.23567873
0.51484863 0.34637767 0.25070923
0.54016628 0.36559012 0.26680890
0.56607853 0.38600507 0.28399567
0.59257855 0.40758952 0.30229075
0.61966057 0.43031671 0.32171839
0.17689158 0.22363799 0.13221983
0.17693906 0.22364036 0.13222304
0.17711312 0.22364907 0.13223483
0.17749330 0.22366817 0.13226071
0.17818618 0.22370333 0.13230829
0.17932801 0.22376221 0.13238793
0.18108500 0.22385516 0.13251346
0.18364818 0.22399596 0.13270321
0.18722098 0.22420284 0.13298116
0.19199962 0.22449969 0.13337823
0.19814968 0.22491755 0.13393374
0.20578554 0.22549637 0.13469679
0.21495918 0.22628694 0.13572737
0.22566167 0.22735296 0.13709690
0.23783525 0.22877298 0.13888773
0.25139046 0.23064182 0.14119126
0.26622298 0.23307098 0.14410444
0.28222670 0.23618739 0.14772491
0.29930212 0.24012983 0.15214527
0.31736075 0.24504274 0.15744780
0.33632652 0.25106769 0.16370049
0.35613561 0.25833342 0.17095531
0.37673520 0.26694646 0.17924880
0.39808204 0.27698413 0.18860445
0.42014088 0.28849143 0.19903615
0.44288309 0.30148235 0.21055176
0.46628537 0.31594471 0.22315636
0.49032879 0.33184713 0.23685479
0.51499790 0.34914643 0.25165347
0.54028005 0.36779429 0.26756150
0.56616485 0.38774244 0.28459127
0.59264372 0.40894622 0.30275878
0.61970951 0.43136672 0.32208355
0.19092973 0.24126776 0.14202248
0.19096659 0.24126958 0.14202502
0.19110180 0.24127624 0.14203436
0.19139753 0.24129086 0.14205484
0.19193795 0.24131777 0.14209252
0.19283253 0.24136284 0.14215560
0.19421858 0.24143402 0.14225510
0.19626063 0.24154189 0.14240567
0.19914487 0.24170050 0.14262656
0.20306702 0.24192833 0.14294281
0.20821424 0.24224952 0.14338661
0.21474401 0.24269535 0.14399874
0.22276568 0.24330599 0.14483004
0.23233032 0.24413248 0.14594261
0.24343146 0.24523888 0.14741044
0.25601549 0.24670428 0.14931909
0.26999698 0.24862445 0.15176398
0.28527433 0.25111253 0.15484702
0.30174247 0.25429818 0.15867172
0.31930141 0.25832435 0.16333732
0.33786105 0.26334154 0.16893300
0.35734313 0.26949922 0.17553332
0.37768137 0.27693573 0.18319582
0.39882055 0.28576793 0.19196109
0.42071518 0.29608311 0.20185493
0.44332806 0.30793457 0.21289183
0.46662886 0.32134189 0.22507884
0.49059293 0.33629529 0.23841921
0.51520019 0.35276265 0.25291534
0.54043431 0.37069752 0.26857094
0.56628194 0.39004651 0.28539243
0.59273214 0.41075529 0.30338975
0.61977592 0.43277287 0.32257669
0.20566181 0.25951123 0.15250660
0.20569051 0.25951262 0.15250862
0.20579582 0.25951773 0.15251602
0.20602639 0.25952896 0.15253226
0.20644854 0.25954963 0.15256216
0.20714960 0.25958425 0.15261222
0.20824133 0.25963894 0.15269122
0.20986167 0.25972184 0.15281086
0.21217364 0.25984381 0.15298657
0.21535938 0.26001913 0.15323853
0.21960858 0.26026657 0.15359290
0.22510153 0.26061053 0.15408317
0.23198977 0.26108261 0.15475171
0.24037927 0.26172332 0.15565125
0.25032080 0.26258412 0.15684621
0.26181016 0.26372966 0.15841345
0.27479717 0.26523988 0.16044209
0.28919959 0.26721190 0.16303194
0.30491782 0.26976093 0.16629024
0.32184728 0.27301976 0.17032673
0.33988715 0.27713597 0.17524759
0.35894556 0.28226633 0.18114913
0.37894192 0.28856845 0.18811266
0.39980743 0.29619019 0.19620137
0.42148442 0.30525868 0.20545997
0.44392515 0.31587093 0.21591651
0.46709042 0.32808827 0.22758597
0.49094823 0.34193560 0.24047439
0.51547252 0.35740518 0.25458295
0.54064211 0.37446384 0.26991133
0.56643973 0.39306143 0.28646027
0.59285135 0.41313912 0.30423324
0.61986548 0.43463616 0.32323745
0.22108476 0.27835592 0.16368428
0.22110715 0.27835700 0.16368588
0.22118934 0.27836094 0.16369176
0.22136940 0.27836958 0.16370466
0.22169954 0.27838549 0.16372841
0.22224909 0.27841216 0.16376818
0.22310808 0.27845428 0.16383098
0.22439004 0.27851815 0.16392612
0.22623340 0.27861216 0.16406597
0.22879986 0.27874736 0.16426674
0.23226840 0.27893832 0.16454958
0.23682409 0.27920406 0.16494176
0.24264210 0.27956931 0.16547817
0.24986983 0.28006603 0.16620285
0.25861108 0.28073518 0.16717058
0.26891684 0.28162881 0.16844834
0.28078506 0.28281236 0.17011613
0.29416840 0.28436693 0.17226698
0.30898710 0.28639133 0.17500550
0.32514295 0.28900326 0.17844467
0.34253138 0.29233912 0.18270090
0.36105039 0.29655152 0.18788762
0.38060612 0.30180397 0.19410860
0.40111551 0.30826242 0.20145208
0.42250717 0.31608446 0.20998706
0.44472091 0.32540741 0.21976234
0.46770669 0.33633791 0.23080815
0.49142330 0.34894504 0.24313974
0.51583706 0.36325859 0.25676191
0.54092048 0.37927243 0.27167343
0.56665126 0.39695176 0.28787093
0.59301123 0.41624224 0.30535183
0.61998564 0.43707903 0.32411638
0.23719617 0.29779065 0.17556784
0.23721367 0.29779148 0.17556911
0.23727789 0.29779452 0.17557379
0.23741867 0.29780119 0.17558404
0.23767704 0.29781346 0.17560292
0.23810788 0.29783404 0.17563455
0.23878316 0.29786654 0.17568449
0.23979512 0.29791584 0.17576018
0.24125882 0.29798841 0.17587151
0.24331308 0.29809283 0.17603147
0.24611864 0.29824039 0.17625709
0.24985209 0.29844590 0.17657046
0.25469511 0.29872869 0.17700004
0.26081929 0.29911382 0.17758215
0.26836925 0.29963367 0.17836263
0.27744763 0.30032974 0.17939847
0.28810614 0.30125483 0.18075942
0.30034471 0.30247535 0.18252891
0.31411841 0.30407386 0.18480426
0.32934941 0.30615119 0.18769529
0.34594026 0.30882797 0.19132121
0.36378598 0.31224468 0.19580550
0.38278307 0.31655946 0.20126934
0.40283540 0.32194301 0.20782427
0.42385731 0.32857007 0.21556574
0.44577469 0.33660819 0.22456866
0.46852475 0.34620502 0.23488589
0.49205511 0.35747668 0.24654969
0.51632256 0.37049971 0.25957535
0.54129165 0.38530834 0.27396603
0.56693353 0.40189741 0.28971771
0.59322471 0.42022982 0.30682358
0.62014617 0.44024628 0.32527736
0.25399419 0.31780525 0.18816982
0.25400787 0.31780589 0.18817083
0.25405809 0.31780824 0.18817455
0.25416822 0.31781339 0.18818270
0.25437049 0.31782288 0.18819771
0.25470822 0.31783877 0.18822286
0.25523865 0.31786388 0.18826258
0.25603598 0.31790197 0.18832280
0.25719438 0.31795806 0.18841141
0.25883023 0.31803878 0.18853881
0.26108280 0.31815291 0.18871865
0.26411220 0.31831195 0.18896876
0.26809341 0.31853095 0.18931219
0.27320577 0.31882955 0.18977864
0.27961858 0.31923319 0.19040594
0.28747484 0.31977473 0.19124179
0.29687692 0.32049629 0.19234560
0.30787759 0.32145153 0.19379008
0.32047873 0.32270809 0.19566245
0.33463746 0.32435018 0.19806465
0.35027731 0.32648104 0.20111219
0.36730116 0.32922465 0.20493099
0.38560313 0.33272607 0.20965218
0.40507788 0.33714953 0.21540511
0.42562678 0.34267348 0.22230954
0.44716136 0.34948196 0.23046841
0.46960465 0.35775285 0.23996264
0.49289121 0.36764431 0.25084916
0.51696625 0.37928192 0.26316200
0.54178448 0.39274934 0.27691612
0.56730874 0.40808464 0.29211263
0.59350874 0.42528288 0.30874422
0.62035989 0.44430376 0.32680015
0.27147744 0.33839048 0.20150292
0.27148813 0.33839098 0.20150373
0.27152741 0.33839279 0.20150668
0.27161358 0.33839677 0.20151316
0.27177192 0.33840411 0.20152509
0.27203655 0.33841639 0.20154508
0.27245280 0.33843581 0.20157666
0.27307996 0.33846526 0.20162455
0.27399420 0.33850863 0.20169504
0.27529136 0.33857107 0.20179642
0.27708902 0.33865936 0.20193965
0.27952701 0.33878246 0.20213901
0.28276519 0.33895208 0.20241311
0.28697761 0.33918353 0.20278604
0.29234227 0.33949674 0.20328871
0.29902722 0.33991757 0.20396055
0.30717491 0.34047940 0.20485128
0.31688815 0.34122508 0.20602283
0.32822114 0.34220925 0.20755117
0.34117768 0.34350094 0.20952756
0.35571661 0.34518633 0.21205903
0.37176243 0.34737138 0.21526725
0.38921782 0.35018387 0.21928539
0.40797561 0.35377397 0.22425281
0.42792824 0.35831264 0.23030762
0.44897431 0.36398669 0.23757826
0.47102232 0.37099008 0.24617545
0.49399232 0.37951152 0.25618628
0.51781610 0.38971994 0.26767161
0.54243639 0.40175035 0.28066700
0.56780581 0.41569315 0.29518661
0.59388544 0.43158959 0.31122893
0.62064357 0.44943398 0.32878282
0.28964492 0.35953788 0.21558000
0.28965328 0.35953826 0.21558064
0.28968400 0.35953966 0.21558299
0.28975139 0.35954274 0.21558814
0.28987528 0.35954841 0.21559761
0.29008248 0.35955791 0.21561349
0.29040878 0.35957292 0.21563858
0.29090126 0.35959570 0.21567663
0.29162100 0.35962924 0.21573264
0.29264589 0.35967753 0.21581325
0.29407326 0.35974584 0.21592717
0.29602188 0.35984111 0.21608585
0.29863222 0.35997243 0.21630423
0.30206432 0.36015174 0.21660173
0.30649191 0.36039458 0.21700344
0.31209253 0.36072123 0.21754158
0.31903396 0.36115796 0.21825723
0.32745899 0.36173873 0.21920222
0.33747156 0.36250720 0.22044122
0.34912762 0.36351913 0.22205367
0.36243289 0.36484511 0.22413524
0.37734770 0.36657355 0.22679847
0.39379708 0.36881352 0.23017170
0.41168310 0.37169703 0.23439600
0.43089684 0.37537997 0.23961959
0.45132817 0.38004068 0.24598998
0.47287260 0.38587508 0.25364478
0.49543540 0.39308773 0.26270287
0.51893348 0.40187877 0.27325764
0.54329569 0.41242827 0.28537373
0.56846228 0.42488061 0.29908780
0.59438368 0.43933254 0.31441271
0.62101923 0.45582762 0.33134366
0.30849601 0.38123966 0.23041406
0.30850254 0.38123996 0.23041457
0.30852654 0.38124104 0.23041643
0.30857921 0.38124342 0.23042052
0.30867606 0.38124780 0.23042803
0.30883813 0.38125514 0.23044063
0.30909357 0.38126675 0.23046054
0.30947961 0.38128435 0.23049073
0.31004488 0.38131028 0.23053519
0.31085203 0.38134762 0.23059918
0.31198044 0.38140044 0.23068966
0.31352887 0.38147412 0.23081574
0.31561718 0.38157573 0.23098940
0.31838671 0.38171452 0.23122620
0.32199802 0.38190261 0.23154637
0.32662514 0.38215582 0.23197605
0.33244594 0.38249474 0.23254878
0.33962880 0.38294611 0.23330737
0.34831769 0.38354450 0.23430592
0.35861829 0.38433447 0.23561198
0.37058864 0.38537301 0.23730872
0.38423641 0.38673249 0.23949662
0.39952320 0.38850380 0.24229415
0.41637421 0.39079948 0.24583693
0.43469044 0.39375630 0.25027461
0.45436082 0.39753647 0.25576498
0.47527225 0.40232644 0.26246563
