src/ffmpeg_scripts/luts/sRGB-rec2020_2p67.cube
TITLE "sRGB-rec2020_2p67"
LUT_3D_SIZE 9
# PQ (EOTF Only)/sRGB -> PQ (EOTF Only)/Rec2020, CineEI Shift 2.67, Black Level 0.00% IRE, Input 100% -> Output 109% - Created with LUTCalc v4.01 by Ben Turley October 2020
0.06256172 0.06256172 0.06256172
0.23242643 0.14126290 0.10594023
0.37022174 0.23005557 0.16574677
0.49578206 0.32428454 0.23654865
0.61359064 0.42253192 0.31645290
0.72575868 0.52404011 0.40438483
0.83351644 0.62832577 0.49962828
0.91886608 0.73504931 0.60166246
0.91886608 0.84395703 0.71008695
0.20065390 0.25333758 0.14892094
0.25559180 0.25747425 0.15465334
0.37459481 0.28312709 0.18490010
0.49686446 0.34369203 0.24315700
0.61389967 0.42911966 0.31873956
0.72585288 0.52625450 0.40518628
0.83354569 0.62906261 0.49990698
0.91886608 0.73528731 0.60175627
0.91886608 0.84402975 0.71011672
0.32427080 0.39922470 0.24299721
0.33800473 0.39989292 0.24416228
0.40229930 0.40485949 0.25250331
0.50477788 0.42331827 0.27990617
0.61623960 0.46803835 0.33439722
0.72657307 0.54170441 0.41110663
0.83376997 0.63453715 0.50201947
0.91886608 0.73709487 0.60247357
0.91886608 0.84458619 0.71034499
0.44177223 0.52899604 0.34107859
0.44545393 0.52915557 0.34139561
0.46960716 0.53037153 0.34378966
0.53248085 0.53537751 0.35326390
0.62559962 0.55099093 0.37977210
0.72957836 0.58847346 0.43261790
0.83471853 0.65483783 0.51050820
0.91886608 0.74442038 0.60546761
0.91886608 0.84691709 0.71131059
0.55523136 0.64879938 0.44206728
0.55632025 0.64884414 0.44216509
0.56428568 0.64918712 0.44291264
0.59221410 0.65063339 0.44602695
0.65246564 0.65550922 0.45611080
0.73935894 0.66962038 0.48244414
0.83794953 0.70351572 0.53519494
0.91886608 0.76621574 0.61522112
0.91886608 0.85459955 0.71460130
0.66566109 0.76146878 0.54538450
0.66600057 0.76148227 0.54541627
0.66856744 0.76158572 0.54565992
0.67877519 0.76202482 0.54669010
0.70760775 0.76353957 0.55019547
0.76516500 0.76823036 0.56061358
0.84757913 0.78146744 0.58717034
0.91886608 0.81374634 0.64103439
0.91886608 0.87551544 0.72442416
0.77366723 0.86863127 0.65066459
0.77377447 0.86863541 0.65067500
0.77459381 0.86866725 0.65075491
0.77800259 0.86880264 0.65109434
0.78898798 0.86927303 0.65226825
0.81728906 0.87076289 0.65593251
0.87224780 0.87524455 0.66650224
0.91886608 0.88798692 0.69358583
0.91886608 0.91886608 0.74969421
0.87965402 0.91886608 0.75765267
0.87968725 0.91886608 0.75765600
0.87994204 0.91886608 0.75768159
0.88101850 0.91886608 0.75779042
0.88467169 0.91886608 0.75816885
0.89544285 0.91886608 0.75937049
0.91886608 0.91886608 0.76301288
0.91886608 0.91886608 0.77358961
0.91886608 0.91886608 0.80150108
0.91886608 0.91886608 0.86615957
0.91886608 0.91886608 0.86616058
0.91886608 0.91886608 0.86616835
0.91886608 0.91886608 0.86620140
0.91886608 0.91886608 0.86631654
0.91886608 0.91886608 0.86668426
0.91886608 0.91886608 0.86781879
0.91886608 0.91886608 0.87128644
0.91886608 0.91886608 0.88173743
0.12795644 0.09939699 0.25184483
0.23596695 0.14601834 0.25287013
0.37081007 0.23103736 0.26027866
0.49592517 0.32455537 0.28531384
0.61363134 0.42261639 0.33712338
0.72577107 0.52406780 0.41221555
0.83352029 0.62833491 0.50242574
0.91886608 0.73505225 0.60261278
0.91886608 0.84395793 0.71038943
0.20640592 0.25403486 0.25718128
0.25813171 0.25813171 0.25813171
0.37515355 0.28358885 0.26503295
0.49700589 0.34390499 0.28871897
0.61394025 0.42919807 0.33889460
0.72586526 0.52628154 0.41294856
0.83354954 0.62907168 0.50269613
0.91886608 0.73529024 0.60270566
0.91886608 0.84403065 0.71041911
0.32529846 0.39933493 0.28863452
0.33887179 0.40000232 0.28925262
0.40270421 0.40496280 0.29383690
0.50490770 0.42340199 0.31075407
0.61627918 0.46808921 0.35134716
0.72658536 0.54172732 0.41838196
0.83377381 0.63454571 0.50474647
0.91886608 0.73709775 0.60341582
0.91886608 0.84458708 0.71064665
0.44203132 0.52902229 0.35681987
0.44570260 0.52918177 0.35708173
0.46979757 0.53039740 0.35906541
0.53257721 0.53540203 0.36701859
0.62563547 0.55101168 0.39003495
0.72959026 0.58848739 0.43837259
0.83472232 0.65484473 0.51299937
0.91886608 0.74442304 0.60638062
0.91886608 0.84691796 0.71160917
0.55530694 0.64880675 0.44726116
0.55639496 0.64885150 0.44735347
0.56435432 0.64919445 0.44805917
0.59226514 0.65064061 0.45100282
0.65249263 0.65551608 0.46057288
0.73936966 0.66962629 0.48580587
0.83795319 0.70351984 0.53711160
0.91886608 0.76621784 0.61604503
0.91886608 0.85460035 0.71488960
0.66568457 0.76147100 0.54710514
0.66602396 0.76148448 0.54713634
0.66859020 0.76158793 0.54737557
0.67879562 0.76202702 0.54838715
0.70762279 0.76354174 0.55183076
0.76517312 0.76823242 0.56207842
0.84758242 0.78146922 0.58827737
0.91886608 0.81374760 0.64166220
0.91886608 0.87551607 0.72468382
0.77367464 0.86863195 0.65123181
0.77378187 0.86863610 0.65124216
0.77460115 0.86866793 0.65132159
0.77800966 0.86880332 0.65165900
0.78899425 0.86927371 0.65282596
0.81729366 0.87076355 0.65646908
0.87225029 0.87524518 0.66698218
0.91886608 0.88798746 0.69394622
0.91886608 0.91886608 0.74989236
0.87965631 0.91886608 0.75783457
0.87968955 0.91886608 0.75783790
0.87994433 0.91886608 0.75786343
0.88102076 0.91886608 0.75797205
0.88467386 0.91886608 0.75834975
0.89544477 0.91886608 0.75954906
0.91886608 0.91886608 0.76318458
0.91886608 0.91886608 0.77374278
0.91886608 0.91886608 0.80161418
0.91886608 0.91886608 0.86621482
0.91886608 0.91886608 0.86621583
0.91886608 0.91886608 0.86622359
0.91886608 0.91886608 0.86625662
0.91886608 0.91886608 0.86637169
0.91886608 0.91886608 0.86673918
0.91886608 0.91886608 0.86787301
0.91886608 0.91886608 0.87133859
0.91886608 0.91886608 0.88178376
0.20682293 0.15270605 0.39718334
0.25832173 0.17203072 0.39734612
0.37519602 0.23812583 0.39858592
0.49701667 0.32660481 0.40367387
0.61394334 0.42326232 0.41939817
0.72586620 0.52428012 0.45653873
0.83354983 0.62840506 0.52148156
0.91886608 0.73507486 0.60960811
0.91886608 0.84396483 0.71268020
0.23865552 0.25916936 0.39805379
0.27509803 0.26298595 0.39821493
0.37932548 0.28704214 0.39944244
0.49808475 0.34552199 0.40448187
0.61425123 0.42979789 0.42007387
0.72596030 0.52648887 0.45698501
0.83357907 0.62914129 0.52170177
0.91886608 0.73531279 0.60969437
0.91886608 0.84403754 0.71270915
0.33277766 0.40017677 0.40446147
0.34523849 0.40083773 0.40461116
0.40575209 0.40575209 0.40575209
0.50589853 0.42404223 0.41044858
0.61658258 0.46847879 0.42509680
0.72667967 0.54190307 0.46034036
0.83380327 0.63461140 0.52337553
0.91886608 0.73711987 0.61035409
0.91886608 0.84459394 0.71293122
0.44399618 0.52922362 0.42745635
0.44758947 0.52938276 0.42757159
0.47124654 0.53059579 0.42845151
0.53331387 0.53559007 0.43210266
0.62591034 0.55117086 0.44377491
0.72968159 0.58859431 0.47337897
0.83475147 0.65489774 0.53018207
0.91886608 0.74444349 0.61311213
0.91886608 0.84692464 0.71387071
0.55588527 0.64886325 0.47950920
0.55696665 0.64890798 0.47957389
0.56487970 0.64925072 0.48006911
0.59265613 0.65069603 0.48214773
0.65269963 0.65556871 0.48904639
0.73945192 0.66967163 0.50819328
0.83798131 0.70355149 0.55065036
0.91886608 0.76623401 0.62214323
0.91886608 0.85460648 0.71707435
0.66586463 0.76148802 0.55935995
0.66620338 0.76150150 0.55938732
0.66876482 0.76160493 0.55959729
0.67895236 0.76204394 0.56048591
0.70773822 0.76355839 0.56351973
0.76523545 0.76824824 0.57262512
0.84760769 0.78148293 0.59637111
0.91886608 0.81375724 0.64634896
0.91886608 0.87552091 0.72665401
0.77373150 0.86863719 0.65547752
0.77383866 0.86864133 0.65548741
0.77465744 0.86867316 0.65556336
0.77806391 0.86880854 0.65588599
0.78904240 0.86927891 0.65700224
0.81732900 0.87076866 0.66049079
0.87226945 0.87525004 0.67058840
0.91886608 0.88799167 0.69666850
0.91886608 0.91886608 0.75139996
0.87967393 0.91886608 0.75921959
0.87970716 0.91886608 0.75922287
0.87996189 0.91886608 0.75924803
0.88103811 0.91886608 0.75935504
0.88469050 0.91886608 0.75972716
0.89545949 0.91886608 0.76090891
0.91886608 0.91886608 0.76449252
0.91886608 0.91886608 0.77491055
0.91886608 0.91886608 0.80247795
0.91886608 0.91886608 0.86663790
0.91886608 0.91886608 0.86663891
0.91886608 0.91886608 0.86664663
0.91886608 0.91886608 0.86667951
0.91886608 0.91886608 0.86679403
0.91886608 0.91886608 0.86715978
0.91886608 0.91886608 0.86828829
0.91886608 0.91886608 0.87173798
0.91886608 0.91886608 0.88213871
0.29348344 0.21765104 0.52667861
0.31303473 0.22455801 0.52671743
0.39168586 0.26203557 0.52701500
0.50152380 0.33478565 0.52827119
0.61526011 0.42596042 0.53252278
0.72627010 0.52517857 0.54496608
0.83367548 0.62870312 0.57561992
0.91886608 0.73517104 0.63467594
0.91886608 0.84399421 0.72185067
0.30435935 0.27764335 0.52688687
0.32161583 0.28061645 0.52692561
0.39510547 0.30019120 0.52722251
0.50254124 0.35206963 0.52847593
0.61556375 0.43230691 0.53271840
0.72636379 0.52736636 0.54513735
0.83370468 0.62943704 0.57574353
0.91886608 0.73540872 0.63474213
0.91886608 0.84406690 0.72187693
0.35860932 0.40367179 0.52847074
0.36789753 0.40430678 0.52850882
0.41765403 0.40903430 0.52880073
0.51000162 0.42671700 0.53003324
0.61786335 0.47011880 0.53420703
0.72708008 0.54264755 0.54644210
0.83392856 0.63489057 0.57668735
0.91886608 0.73721396 0.63524879
0.91886608 0.84462311 0.72207833
0.45191019 0.53007585 0.53492749
0.45520630 0.53023355 0.53496302
0.47716927 0.53143563 0.53523545
0.53638634 0.53638634 0.53638634
0.62707159 0.55184546 0.54029128
0.73006938 0.58904809 0.55180163
0.83487546 0.65512308 0.58060262
0.91886608 0.74453048 0.63737577
0.91886608 0.84695306 0.72293090
0.55830810 0.64910342 0.55448219
0.55936208 0.64914804 0.55451102
0.56708396 0.64948991 0.55473217
0.59430266 0.65093160 0.55566781
0.65357580 0.65579246 0.55885862
0.73980127 0.66986439 0.56840391
0.83810094 0.70368608 0.59310611
0.91886608 0.76630282 0.64443794
0.91886608 0.85463257 0.72584389
0.66662734 0.76156045 0.59874761
0.66696337 0.76157392 0.59876563
0.66950456 0.76167726 0.59890394
0.67961669 0.76211593 0.59949046
0.70822803 0.76362921 0.60150720
0.76550032 0.76831557 0.60769058
0.84771517 0.78154128 0.62469070
0.91886608 0.81379826 0.66404917
0.91886608 0.87554153 0.73460563
0.77397316 0.86865947 0.67167988
0.77408004 0.86866362 0.67168822
0.77489669 0.86869544 0.67175221
0.77829450 0.86883079 0.67202411
0.78924711 0.86930103 0.67296596
0.81747927 0.87079042 0.67592050
0.87235097 0.87527072 0.68456309
0.91886608 0.88800957 0.70744919
0.91886608 0.91886608 0.75755753
0.87974890 0.91886608 0.76489461
0.87978210 0.91886608 0.76489769
0.88003661 0.91886608 0.76492135
0.88111193 0.91886608 0.76502202
0.88476132 0.91886608 0.76537211
0.89552213 0.91886608 0.76648447
0.91886608 0.91886608 0.76986250
0.91886608 0.91886608 0.77972277
0.91886608 0.91886608 0.80606636
0.91886608 0.91886608 0.86841675
0.91886608 0.91886608 0.86841773
0.91886608 0.91886608 0.86842530
0.91886608 0.91886608 0.86845753
0.91886608 0.91886608 0.86856978
0.91886608 0.91886608 0.86892830
0.91886608 0.91886608 0.87003468
0.91886608 0.91886608 0.87341833
0.91886608 0.91886608 0.88363392
0.38611508 0.29252359 0.64635844
0.39292950 0.29496824 0.64636933
0.43264297 0.31151669 0.64645297
0.51571302 0.35819662 0.64680816
0.61971242 0.43477219 0.64803615
0.72766471 0.52824470 0.65186477
0.83411216 0.62973495 0.66287323
0.91886608 0.73550556 0.69087551
0.91886608 0.84409655 0.74821483
0.38975884 0.32001926 0.64641693
0.39630110 0.32174133 0.64642782
0.43480163 0.33385305 0.64651140
0.51658658 0.37154265 0.64686638
0.62000211 0.44053933 0.64809361
0.72775702 0.53036248 0.65191996
0.83414121 0.63046094 0.66292235
0.91886608 0.73574239 0.69091202
0.91886608 0.84416915 0.74823463
0.41355753 0.41486483 0.64686491
0.41857866 0.41542373 0.64687575
0.44983905 0.41960092 0.64695893
0.52303391 0.43545759 0.64731224
0.62219752 0.47561578 0.64853374
0.72846276 0.54519764 0.65234267
0.83436402 0.63585741 0.66329871
0.91886608 0.73754126 0.69119193
0.91886608 0.84472473 0.74838656
0.47508332 0.53298749 0.64874853
0.47764695 0.53314035 0.64875916
0.49525280 0.53430578 0.64884071
0.54637087 0.53911044 0.64918707
0.63101202 0.55416006 0.65038474
0.73140888 0.59061327 0.65412128
0.83530638 0.65590450 0.66488430
0.91886608 0.74483312 0.69237425
0.91886608 0.84705208 0.74903054
0.56629719 0.64993597 0.65503660
0.56726573 0.64998020 0.65504654
0.57438828 0.65031909 0.65512285
0.59982828 0.65174828 0.65544698
0.65656839 0.65656839 0.65656839
0.74100907 0.67053333 0.66007270
0.83851675 0.70415382 0.67021277
0.91886608 0.76654232 0.69638377
0.91886608 0.85472346 0.75124138
0.66923920 0.76181250 0.67275031
0.66956608 0.76182593 0.67275856
0.67203909 0.76192900 0.67282182
0.68189680 0.76236648 0.67309067
0.70991590 0.76387571 0.67402199
0.76641784 0.76854992 0.67694416
0.84808888 0.78174439 0.68549758
0.91886608 0.81394113 0.70818276
0.91886608 0.87561338 0.75798731
0.77481072 0.86873712 0.71303123
0.77491664 0.86874126 0.71303661
0.77572596 0.86877306 0.71307786
0.77909392 0.86890828 0.71325327
0.78995721 0.86937812 0.71386224
0.81800120 0.87086622 0.71578628
0.87263455 0.87534279 0.72153231
0.91886608 0.88807194 0.73756132
0.91886608 0.91886608 0.77629890
0.88000975 0.91886608 0.78233302
0.88004285 0.91886608 0.78233558
0.88029661 0.91886608 0.78235517
0.88136878 0.91886608 0.78243853
0.88500776 0.91886608 0.78272857
0.89574014 0.91886608 0.78365130
0.91886608 0.91886608 0.78646465
0.91886608 0.91886608 0.79476956
0.91886608 0.91886608 0.81757593
0.91886608 0.91886608 0.87435323
0.91886608 0.91886608 0.87435416
0.91886608 0.91886608 0.87436124
0.91886608 0.91886608 0.87439137
0.91886608 0.91886608 0.87449635
0.91886608 0.91886608 0.87483172
0.91886608 0.91886608 0.87586717
0.91886608 0.91886608 0.87903872
0.91886608 0.91886608 0.88865638
0.48371980 0.37635217 0.75900561
0.48605539 0.37722362 0.75900889
0.50224937 0.38363319 0.75903410
0.55047350 0.40656916 0.75914137
0.63270588 0.45826769 0.75951434
0.73199598 0.53743606 0.76069879
0.83549655 0.63296562 0.76429037
0.91886608 0.73656886 0.77472995
0.91886608 0.84442351 0.80234419
0.48495301 0.38727683 0.75902324
0.48725779 0.38804396 0.75902652
0.50325888 0.39371676 0.75905173
0.55107628 0.41441032 0.75915897
0.63295845 0.46274087 0.75953188
0.73208411 0.53935728 0.76071611
0.83552516 0.63366733 0.76430702
0.91886608 0.73680302 0.77474483
0.91886608 0.84449585 0.80235521
0.49390772 0.44337878 0.75915853
0.49600093 0.44378443 0.75916181
0.51066386 0.44683954 0.75918698
0.55558012 0.45879573 0.75929406
0.63487571 0.49127896 0.75966642
0.73275805 0.55292634 0.76084895
0.83574458 0.63888884 0.76443482
0.91886608 0.73858175 0.77485901
0.91886608 0.84504942 0.80243977
0.52454186 0.54174436 0.75973225
0.52605035 0.54188355 0.75973551
0.53688551 0.54294549 0.75976052
0.57265100 0.54733600 0.75986695
0.64262873 0.56121034 0.76023702
0.73557384 0.59545792 0.76141234
0.83667270 0.65836438 0.76497690
0.91886608 0.74579576 0.77534346
0.91886608 0.84736847 0.80279887
0.58809587 0.65255394 0.76170508
0.58886520 0.65259695 0.76170827
0.59457256 0.65292661 0.76173276
0.61562051 0.65431722 0.76183695
0.66556041 0.65901127 0.76219926
0.74477503 0.67264429 0.76335013
0.83983559 0.70563629 0.76684229
0.91886608 0.76730514 0.77701279
0.91886608 0.85501390 0.80403988
0.67714835 0.76261510 0.76775454
0.67744900 0.76262842 0.76775753
0.67972625 0.76273060 0.76778047
0.68884860 0.76316432 0.76787808
0.71512577 0.76466072 0.76821756
0.76929644 0.76929644 0.76929644
0.84927529 0.78239185 0.77257511
0.91886608 0.81439717 0.78216418
0.91886608 0.87584307 0.80790441
0.77744300 0.86898533 0.78438538
0.77754595 0.86898946 0.78438788
0.77833263 0.86902117 0.78440704
0.78160839 0.86915602 0.78448856
0.79219504 0.86962454 0.78477222
0.81965280 0.87110855 0.78567480
0.87353668 0.87557318 0.78842785
0.91886608 0.88827137 0.79656464
0.91886608 0.91886608 0.81897718
0.88083996 0.91886608 0.82280855
0.88087275 0.91886608 0.82281019
0.88112414 0.91886608 0.82282277
0.88218635 0.91886608 0.82287633
0.88579237 0.91886608 0.82306280
0.89643470 0.91886608 0.82365738
0.91886608 0.91886608 0.82548290
0.91886608 0.91886608 0.83098166
0.91886608 0.91886608 0.84689408
0.91886608 0.91886608 0.89105524
0.91886608 0.91886608 0.89105600
0.91886608 0.91886608 0.89106186
0.91886608 0.91886608 0.89108679
0.91886608 0.91886608 0.89117365
0.91886608 0.91886608 0.89145124
0.91886608 0.91886608 0.89230938
0.91886608 0.91886608 0.89494800
0.91886608 0.91886608 0.90304018
0.58564932 0.46848993 0.86621934
0.58643878 0.46879725 0.86622035
0.59229024 0.47112307 0.86622811
0.61379828 0.48040929 0.86626114
0.66448997 0.50695731 0.86637620
0.74431589 0.56134341 0.86674368
0.83967298 0.64236545 0.86787746
0.91886608 0.73980195 0.87134286
0.91886608 0.84543330 0.88178756
0.58606448 0.47249705 0.86622477
0.58685048 0.47279116 0.86622578
0.59267725 0.47501841 0.86623354
0.61410664 0.48393527 0.86626657
0.66467051 0.50961269 0.86638162
0.74439312 0.56283556 0.86674907
0.83970030 0.64300102 0.86788278
0.91886608 0.74002815 0.87134798
0.91886608 0.84550483 0.88179211
0.58919289 0.49852132 0.86626643
0.58995337 0.49874283 0.86626744
0.59559724 0.50042627 0.86627520
0.61644152 0.50726790 0.86630821
0.66604547 0.52780703 0.86642321
0.74498405 0.57356672 0.86679049
0.83990979 0.64774404 0.86792367
0.91886608 0.74174701 0.87138731
0.91886608 0.84605223 0.88182705
0.60145964 0.56469918 0.86644357
0.60212781 0.56480817 0.86644458
0.60710693 0.56564091 0.86645232
0.62578253 0.56910562 0.86648527
0.67168451 0.58027530 0.86660004
0.74745851 0.60911560 0.86696659
0.84079617 0.66563286 0.86809754
0.91886608 0.74872893 0.87155452
0.91886608 0.84834583 0.88197565
0.63489145 0.66026493 0.86705837
0.63536116 0.66030458 0.86705938
0.63889224 0.66060846 0.86706706
0.65260336 0.66189127 0.86709978
0.68906475 0.66623202 0.86721376
0.75560430 0.67892599 0.86757779
0.84381975 0.71010487 0.86870104
0.91886608 0.76963927 0.87213501
0.91886608 0.85591164 0.88249173
0.69821599 0.76506889 0.86899911
0.69845650 0.76508186 0.86900009
0.70028304 0.76518137 0.86900761
0.70768452 0.76560380 0.86903962
0.72970038 0.76706161 0.86915114
0.77771974 0.77158148 0.86950732
0.85286944 0.78437783 0.87060655
0.91886608 0.81580171 0.87396883
0.91886608 0.87655397 0.88412442
0.78518352 0.86975323 0.87477953
0.78527817 0.86975732 0.87478045
0.78600178 0.86978876 0.87478750
0.78902000 0.86992245 0.87481749
0.79882825 0.87038695 0.87492197
0.82460759 0.87185836 0.87525573
0.87628625 0.87628625 0.87628625
0.91886608 0.88888904 0.87944305
0.91886608 0.91886608 0.88901893
0.88337428 0.91886608 0.89078795
0.88340614 0.91886608 0.89078872
0.88365042 0.91886608 0.89079459
0.88468276 0.91886608 0.89081960
0.88818983 0.91886608 0.89090672
0.89856116 0.91886608 0.89118516
0.91886608 0.91886608 0.89204590
0.91886608 0.91886608 0.89469236
0.91886608 0.91886608 0.90280721
0.91886608 0.91886608 0.91886608
0.91886608 0.91886608 0.91886608
0.91886608 0.91886608 0.91886608
0.91886608 0.91886608 0.91886608
0.91886608 0.91886608 0.91886608
0.91886608 0.91886608 0.91886608
0.91886608 0.91886608 0.91886608
0.91886608 0.91886608 0.91886608
0.91886608 0.91886608 0.91886608
0.69144163 0.56846755 0.91886608
0.69170005 0.56857227 0.91886608
0.69366111 0.56937248 0.91886608
0.70158030 0.57270485 0.91886608
0.72490646 0.58347892 0.91886608
0.77488933 0.61148664 0.91886608
0.85164126 0.66694460 0.91886608
0.91886608 0.74927252 0.91886608
0.91886608 0.84852918 0.91886608
0.69157734 0.56985164 0.91886608
0.69183539 0.56995483 0.91886608
0.69379367 0.57074343 0.91886608
0.70170217 0.57402845 0.91886608
0.72500152 0.58466044 0.91886608
0.77494489 0.61236640 0.91886608
0.85166517 0.66743504 0.91886608
0.91886608 0.74947688 0.91886608
0.91886608 0.84859829 0.91886608
0.69261300 0.57985161 0.91886608
0.69286824 0.57994441 0.91886608
0.69480537 0.58065396 0.91886608
0.70263272 0.58361613 0.91886608
0.72572827 0.59327121 0.91886608
0.77537040 0.61886214 0.91886608
0.85184854 0.67111846 0.91886608
0.91886608 0.75103132 0.91886608
0.91886608 0.84912718 0.91886608
0.69689861 0.61347327 0.91886608
0.69714250 0.61353829 0.91886608
0.69899449 0.61403602 0.91886608
0.70649413 0.61612601 0.91886608
0.72876038 0.62307100 0.91886608
0.77716016 0.64239939 0.91886608
0.85262497 0.68536533 0.91886608
0.91886608 0.75737232 0.91886608
0.91886608 0.85134438 0.91886608
0.71047551 0.68103350 0.91886608
0.71068664 0.68106532 0.91886608
0.71229222 0.68130930 0.91886608
0.71883545 0.68234095 0.91886608
0.73862258 0.68585174 0.91886608
0.78314137 0.69628835 0.91886608
0.85528029 0.72288333 0.91886608
0.91886608 0.77660086 0.91886608
0.91886608 0.85867062 0.91886608
0.74412403 0.77236963 0.91886608
0.74427144 0.77238161 0.91886608
0.74539562 0.77247358 0.91886608
0.75003498 0.77286406 0.91886608
0.76460762 0.77421262 0.91886608
0.80003543 0.77840344 0.91886608
0.86328843 0.79034334 0.91886608
0.91886608 0.82007194 0.91886608
0.91886608 0.87874759 0.91886608
0.80593902 0.87211981 0.91886608
0.80601451 0.87212380 0.91886608
0.80659208 0.87215440 0.91886608
0.80901071 0.87228457 0.91886608
0.81697354 0.87273689 0.91886608
0.83859395 0.87417007 0.91886608
0.88439451 0.87848645 0.91886608
0.91886608 0.89079887 0.91886608
0.91886608 0.91886608 0.91886608
0.89088113 0.91886608 0.91886608
0.89091038 0.91886608 0.91886608
0.89113468 0.91886608 0.91886608
0.89208312 0.91886608 0.91886608
0.89531155 0.91886608 0.91886608
0.90491392 0.91886608 0.91886608
0.91886608 0.91886608 0.91886608
0.91886608 0.91886608 0.91886608
0.91886608 0.91886608 0.91886608
0.91886608 0.91886608 0.91886608
0.91886608 0.91886608 0.91886608
0.91886608 0.91886608 0.91886608
0.91886608 0.91886608 0.91886608
0.91886608 0.91886608 0.91886608
0.91886608 0.91886608 0.91886608
0.91886608 0.91886608 0.91886608
0.91886608 0.91886608 0.91886608
0.91886608 0.91886608 0.91886608
0.80074727 0.67592531 0.91886608
0.80082717 0.67595890 0.91886608
0.80143836 0.67621644 0.91886608
0.80399541 0.67730497 0.91886608
0.81238851 0.68100457 0.91886608
0.83500217 0.69196121 0.91886608
0.88226372 0.71964169 0.91886608
0.91886608 0.77479475 0.91886608
0.91886608 0.85794304 0.91886608
0.80078922 0.67637136 0.91886608
0.80086908 0.67640479 0.91886608
0.80147999 0.67666112 0.91886608
0.80403589 0.67774456 0.91886608
0.81242543 0.68142730 0.91886608
0.83503094 0.69233764 0.91886608
0.88228065 0.71992223 0.91886608
0.91886608 0.77494998 0.91886608
0.91886608 0.85800525 0.91886608
0.80111063 0.67972794 0.91886608
0.80119021 0.67976021 0.91886608
0.80179899 0.68000759 0.91886608
0.80434611 0.68105349 0.91886608
0.81270844 0.68461165 0.91886608
0.83525156 0.69517906 0.91886608
0.88241059 0.72204881 0.91886608
0.91886608 0.77613330 0.91886608
0.91886608 0.85848147 0.91886608
0.80246638 0.69281409 0.91886608
0.80254479 0.69284217 0.91886608
0.80314465 0.69305753 0.91886608
0.80565506 0.69396886 0.91886608
0.81390346 0.69707870 0.91886608
0.83618475 0.70639798 0.91886608
0.88296159 0.73059725 0.91886608
0.91886608 0.78100748 0.91886608
0.91886608 0.86048074 0.91886608
0.80704157 0.72794422 0.91886608
0.80711616 0.72796354 0.91886608
0.80768682 0.72811175 0.91886608
0.81007697 0.72874006 0.91886608
0.81795099 0.73089806 0.91886608
0.83936452 0.73749172 0.91886608
0.88485598 0.75545331 0.91886608
0.91886608 0.79622743 0.91886608
0.91886608 0.86711928 0.91886608
0.82031686 0.79282392 0.91886608
0.82038133 0.79283351 0.91886608
0.82087482 0.79290718 0.91886608
0.82294607 0.79322010 0.91886608
0.82981781 0.79430274 0.91886608
0.84885133 0.79768632 0.91886608
0.89066179 0.80747921 0.91886608
0.91886608 0.83275004 0.91886608
0.91886608 0.88554622 0.91886608
0.85234064 0.87942735 0.91886608
0.85238584 0.87943102 0.91886608
0.85273211 0.87945920 0.91886608
0.85419137 0.87957905 0.91886608
0.85910001 0.87999562 0.91886608
0.87321399 0.88131658 0.91886608
0.90659697 0.88530449 0.91886608
0.91886608 0.89675443 0.91886608
0.91886608 0.91886608 0.91886608
0.91166798 0.91886608 0.91886608
0.91169103 0.91886608 0.91886608
0.91186777 0.91886608 0.91886608
0.91261616 0.91886608 0.91886608
0.91517572 0.91886608 0.91886608
0.91886608 0.91886608 0.91886608
0.91886608 0.91886608 0.91886608
0.91886608 0.91886608 0.91886608
0.91886608 0.91886608 0.91886608
0.91886608 0.91886608 0.91886608
0.91886608 0.91886608 0.91886608
0.91886608 0.91886608 0.91886608
0.91886608 0.91886608 0.91886608
0.91886608 0.91886608 0.91886608
0.91886608 0.91886608 0.91886608
0.91886608 0.91886608 0.91886608
0.91886608 0.91886608 0.91886608
0.91886608 0.91886608 0.91886608
