src/ffmpeg_scripts/luts/sRGB-rec2020_3p00.cube
TITLE "sRGB-rec2020_3p00"
LUT_3D_SIZE 9
# PQ (EOTF Only)/sRGB -> PQ (EOTF Only)/Rec2020, CineEI Shift 3.00, Black Level 0.00% IRE, Input 100% -> Output 109% - Created with LUTCalc v4.01 by Ben Turley October 2020
0.06256172 0.06256172 0.06256172
0.24488078 0.14856360 0.11053401
0.38760249 0.24239965 0.17464446
0.51576174 0.34030847 0.24919226
0.63482859 0.44117610 0.33221987
0.74734586 0.54441489 0.42262219
0.85478194 0.64965343 0.51966545
0.91886608 0.75663272 0.62281743
0.91886608 0.86516047 0.73166967
0.21153835 0.26672079 0.15674194
0.26907064 0.27103230 0.16285100
0.39209211 0.29770846 0.19492547
0.51686044 0.36031963 0.25609761
0.63513965 0.44790366 0.33458238
0.74744004 0.54665762 0.42344229
0.85481102 0.65039440 0.51994828
0.91886608 0.75687056 0.62291194
0.91886608 0.86523274 0.73169946
0.34029429 0.41734042 0.25593072
0.35446020 0.41802455 0.25714739
0.42048782 0.42310790 0.26585091
0.52489017 0.44197935 0.29436459
0.63749472 0.48756722 0.35074148
0.74816011 0.56229492 0.42949843
0.85503402 0.65589847 0.52209179
0.91886608 0.75867682 0.62363449
0.91886608 0.86578573 0.73192790
0.46081338 0.54943372 0.35762758
0.46456715 0.54959525 0.35795418
0.48916325 0.55082634 0.36042019
0.55296164 0.55589345 0.37017255
0.64691174 0.57168556 0.39740471
0.75116456 0.60952566 0.45147449
0.85597715 0.67629231 0.53070161
0.91886608 0.76599523 0.62665008
0.91886608 0.86810199 0.73289416
0.57597144 0.67022883 0.46111426
0.57707179 0.67027378 0.46121400
0.58511847 0.67061824 0.46197626
0.61329665 0.67207068 0.46515128
0.67391055 0.67696636 0.47542575
0.76093901 0.69112683 0.50221509
0.85918931 0.72509247 0.55570868
0.91886608 0.78775251 0.63646969
0.91886608 0.87573442 0.73618671
0.68715491 0.78301599 0.56601703
0.68749551 0.78302945 0.56604916
0.69007062 0.78313268 0.56629556
0.70030725 0.78357087 0.56733730
0.72918850 0.78508238 0.57088143
0.78670419 0.78976235 0.58140948
0.86875983 0.80296277 0.60821175
0.91886608 0.83511493 0.66242832
0.91886608 0.89650009 0.74601150
0.79518527 0.88966760 0.67210201
0.79529222 0.88967171 0.67211246
0.79610932 0.88970331 0.67219271
0.79950840 0.88983771 0.67253357
0.81045847 0.89030463 0.67371236
0.83864058 0.89178345 0.67739130
0.89325725 0.89623128 0.68799882
0.91886608 0.90887244 0.71514890
0.91886608 0.91886608 0.77126217
0.90060656 0.91886608 0.77920741
0.90063953 0.91886608 0.77921073
0.90089232 0.91886608 0.77923627
0.90196028 0.91886608 0.77934490
0.90558425 0.91886608 0.77972261
0.91626574 0.91886608 0.78092193
0.91886608 0.91886608 0.78455683
0.91886608 0.91886608 0.79510785
0.91886608 0.91886608 0.82292390
0.91886608 0.91886608 0.88721392
0.91886608 0.91886608 0.88721492
0.91886608 0.91886608 0.88722263
0.91886608 0.91886608 0.88725545
0.91886608 0.91886608 0.88736975
0.91886608 0.91886608 0.88773480
0.91886608 0.91886608 0.88886107
0.91886608 0.91886608 0.89230309
0.91886608 0.91886608 0.90267351
0.13430188 0.10341942 0.26516425
0.24858405 0.15364451 0.26623341
0.38820662 0.24342723 0.27395363
0.51590700 0.34058804 0.29997780
0.63486957 0.44126239 0.35355183
0.74735825 0.54444294 0.43063241
0.85478577 0.64966262 0.52250398
0.91886608 0.75663566 0.62377472
0.91886608 0.86516137 0.73197237
0.21759000 0.26744774 0.27072704
0.27171728 0.27171728 0.27171728
0.39266560 0.29818771 0.27890324
0.51700400 0.36053896 0.30351016
0.63518049 0.44798371 0.35537726
0.74745242 0.54668500 0.43138191
0.85481485 0.65040352 0.52277832
0.91886608 0.75687350 0.62386827
0.91886608 0.86523364 0.73200207
0.34135508 0.41745329 0.30342257
0.35535375 0.41813654 0.30406359
0.42090224 0.42321362 0.30881616
0.52502186 0.44206487 0.32632904
0.63753455 0.48761896 0.36820039
0.74817240 0.56231810 0.43693593
0.85503784 0.65590708 0.52485831
0.91886608 0.75867970 0.62458358
0.91886608 0.86578661 0.73222977
0.46107759 0.54946030 0.37383021
0.46482065 0.54962178 0.37409950
0.48935694 0.55085253 0.37613922
0.55305919 0.55591826 0.38431264
0.64694780 0.57170654 0.40792735
0.75117646 0.60953971 0.45734610
0.85598092 0.67629925 0.53322725
0.91886608 0.76599789 0.62756954
0.91886608 0.86810286 0.73319292
0.57604782 0.67023622 0.46640931
0.57714728 0.67028117 0.46650340
0.58518779 0.67062560 0.46722265
0.61334809 0.67207793 0.47022235
0.67393766 0.67697324 0.47996931
0.76094972 0.69113275 0.50563081
0.85919295 0.72509660 0.55764828
0.91886608 0.78775462 0.63729890
0.91886608 0.87573521 0.73647515
0.68717847 0.78301821 0.56775698
0.68751898 0.78303166 0.56778852
0.69009345 0.78313489 0.56803041
0.70032773 0.78357307 0.56905322
0.72920356 0.78508454 0.57253449
0.78671229 0.78976441 0.58288915
0.86876310 0.80296455 0.60932796
0.91886608 0.83511618 0.66305914
0.91886608 0.89650072 0.74627113
0.79519265 0.88966827 0.67267161
0.79529960 0.88967239 0.67268200
0.79611663 0.88970399 0.67276177
0.79951544 0.88983838 0.67310058
0.81046473 0.89030531 0.67427236
0.83864516 0.89178411 0.67792995
0.89325973 0.89623191 0.68848032
0.91886608 0.90887298 0.71550988
0.91886608 0.91886608 0.77146002
0.90060883 0.91886608 0.77938897
0.90064181 0.91886608 0.77939229
0.90089459 0.91886608 0.77941777
0.90196253 0.91886608 0.77952619
0.90558640 0.91886608 0.77990317
0.91626764 0.91886608 0.78110015
0.91886608 0.91886608 0.78472816
0.91886608 0.91886608 0.79526061
0.91886608 0.91886608 0.82303653
0.91886608 0.91886608 0.88726877
0.91886608 0.91886608 0.88726977
0.91886608 0.91886608 0.88727747
0.91886608 0.91886608 0.88731027
0.91886608 0.91886608 0.88742450
0.91886608 0.91886608 0.88778933
0.91886608 0.91886608 0.88891490
0.91886608 0.91886608 0.89235485
0.91886608 0.91886608 0.90271947
0.21802845 0.16077695 0.41525021
0.27191524 0.18130917 0.41541689
0.39270918 0.25084103 0.41668640
0.51701494 0.34270336 0.42189463
0.63518361 0.44192221 0.43797439
0.74745337 0.54465799 0.47586157
0.85481514 0.64973317 0.54182313
0.91886608 0.75665826 0.63081940
0.91886608 0.86516823 0.73426460
0.25139467 0.27279823 0.41614154
0.28937003 0.27677259 0.41630655
0.39694653 0.30177088 0.41756336
0.51809899 0.36220416 0.42272148
0.63549351 0.44859605 0.43866482
0.74754745 0.54689497 0.47631607
0.85484421 0.65047352 0.54204622
0.91886608 0.75689603 0.63090625
0.91886608 0.86524049 0.73429358
0.34907147 0.41831514 0.42270061
0.36191223 0.41899177 0.42285379
0.42402122 0.42402122 0.42402122
0.52602690 0.44271883 0.42882547
0.63783989 0.48801532 0.44379591
0.74826669 0.56249588 0.47973259
0.85506713 0.65597312 0.54374174
0.91886608 0.75870180 0.63157046
0.91886608 0.86579343 0.73451577
0.46308102 0.54966415 0.44620543
0.46674394 0.54982528 0.44632310
0.49083084 0.55105338 0.44722151
0.55380484 0.55610856 0.45094862
0.64722426 0.57186744 0.46285542
0.75126776 0.60964751 0.49299963
0.85600990 0.67635247 0.55063453
0.91886608 0.76601831 0.63434693
0.91886608 0.86810949 0.73545576
0.57663224 0.67029297 0.49923225
0.57772495 0.67033789 0.49929800
0.58571837 0.67068212 0.49980135
0.61374219 0.67213359 0.50191388
0.67414551 0.67702608 0.50892249
0.76103190 0.69117823 0.52835424
0.85922091 0.72512828 0.57134128
0.91886608 0.78777075 0.64343496
0.91886608 0.87574130 0.73866075
0.68735913 0.78303519 0.58014303
0.68769899 0.78304864 0.58017069
0.69026862 0.78315186 0.58038281
0.70048486 0.78358995 0.58128050
0.72931909 0.78510115 0.58434491
0.78677448 0.78978019 0.59353816
0.86878821 0.80297822 0.61748626
0.91886608 0.83512578 0.66776760
0.91886608 0.89650553 0.74824104
0.79524936 0.88967347 0.67693453
0.79535623 0.88967759 0.67694447
0.79617277 0.88970918 0.67702071
0.79956954 0.88984357 0.67734460
0.81051271 0.89031047 0.67846516
0.83868032 0.89178918 0.68196671
0.89327874 0.89623673 0.69209779
0.91886608 0.90887715 0.71823642
0.91886608 0.91886608 0.77296537
0.90062631 0.91886608 0.78077133
0.90065928 0.91886608 0.78077460
0.90091201 0.91886608 0.78079971
0.90197974 0.91886608 0.78090652
0.90560291 0.91886608 0.78127790
0.91628224 0.91886608 0.78245728
0.91886608 0.91886608 0.78603322
0.91886608 0.91886608 0.79642518
0.91886608 0.91886608 0.82389672
0.91886608 0.91886608 0.88768879
0.91886608 0.91886608 0.88768978
0.91886608 0.91886608 0.88769745
0.91886608 0.91886608 0.88773009
0.91886608 0.91886608 0.88784378
0.91886608 0.91886608 0.88820687
0.91886608 0.91886608 0.88932714
0.91886608 0.91886608 0.89275126
0.91886608 0.91886608 0.90307160
0.30844983 0.22940066 0.54708711
0.32868706 0.23664231 0.54712643
0.40961903 0.27578314 0.54742776
0.52158888 0.35114196 0.54869979
0.63650893 0.44467788 0.55300409
0.74785720 0.54556796 0.56559388
0.85494007 0.65003290 0.59656059
0.91886608 0.75675437 0.65603799
0.91886608 0.86519742 0.74343801
0.31971374 0.29201447 0.54729802
0.33755308 0.29510211 0.54733724
0.41312217 0.31539883 0.54763790
0.52262117 0.36894380 0.54890710
0.63681453 0.45115708 0.55320211
0.74795087 0.54778357 0.56576709
0.85496910 0.65077091 0.59668533
0.91886608 0.75699190 0.65610452
0.91886608 0.86526966 0.74346428
0.37567028 0.42189250 0.54890185
0.38521548 0.42254231 0.54894041
0.43619200 0.42737897 0.54923597
0.53018797 0.44545048 0.55048385
0.63912876 0.48968371 0.55470884
0.74866701 0.56324893 0.56708652
0.85519171 0.65625374 0.59763771
0.91886608 0.75879582 0.65661381
0.91886608 0.86582242 0.74366569
0.47114683 0.55052700 0.55543801
0.47450453 0.55068665 0.55547397
0.49685361 0.55190359 0.55574968
0.55691437 0.55691437 0.55691437
0.64839216 0.57254935 0.56086540
0.75165540 0.61010502 0.57250504
0.85613318 0.67657870 0.60158788
0.91886608 0.76610520 0.65875166
0.91886608 0.86813774 0.74451828
0.57908034 0.67053418 0.57521433
0.58014519 0.67057899 0.57524347
0.58794422 0.67092233 0.57546697
0.61540173 0.67237014 0.57641249
0.67502524 0.67725071 0.57963654
0.76138093 0.69137158 0.58927694
0.85933983 0.72526302 0.61419575
0.91886608 0.78783940 0.66584789
0.91886608 0.87576721 0.74743105
0.68812433 0.78310747 0.61988087
0.68846145 0.78312091 0.61989904
0.69101065 0.78322404 0.62003839
0.70115085 0.78366179 0.62062931
0.72980931 0.78517182 0.62266103
0.78703875 0.78984736 0.62888866
0.86889501 0.80303638 0.64599753
0.91886608 0.83516660 0.68553758
0.91886608 0.89652599 0.75618933
0.79549036 0.88969559 0.69319253
0.79559695 0.88969971 0.69320089
0.79641135 0.88973130 0.69326506
0.79979945 0.88986565 0.69353776
0.81071670 0.89033243 0.69448234
0.83882985 0.89181077 0.69744511
0.89335964 0.89625725 0.70610879
0.91886608 0.90889490 0.72902981
0.91886608 0.91886608 0.77911245
0.90070069 0.91886608 0.78643441
0.90073363 0.91886608 0.78643748
0.90098614 0.91886608 0.78646109
0.90205297 0.91886608 0.78656153
0.90567315 0.91886608 0.78691083
0.91634434 0.91886608 0.78802062
0.91886608 0.91886608 0.79139047
0.91886608 0.91886608 0.80122345
0.91886608 0.91886608 0.82746983
0.91886608 0.91886608 0.88945465
0.91886608 0.91886608 0.88945563
0.91886608 0.91886608 0.88946314
0.91886608 0.91886608 0.88949513
0.91886608 0.91886608 0.88960656
0.91886608 0.91886608 0.88996244
0.91886608 0.91886608 0.89106065
0.91886608 0.91886608 0.89441895
0.91886608 0.91886608 0.90455485
0.40390957 0.30745494 0.66777712
0.41089319 0.30998857 0.66778806
0.45150007 0.32711760 0.66787207
0.53597788 0.37524595 0.66822886
0.64098934 0.45367291 0.66946227
0.74925151 0.54867297 0.67330721
0.85537425 0.65107047 0.68435760
0.91886608 0.75708866 0.71243385
0.91886608 0.86529913 0.76978487
0.40764440 0.33590422 0.66783588
0.41434672 0.33768268 0.66784682
0.45370295 0.35018039 0.66793077
0.53686322 0.38895882 0.66828734
0.64128082 0.45955608 0.66951999
0.74934379 0.55081718 0.67336263
0.85540314 0.65180046 0.68440689
0.91886608 0.75732534 0.71247043
0.91886608 0.86537128 0.76980465
0.43200454 0.43334104 0.66828585
0.43713695 0.43391239 0.66829674
0.46903651 0.43818156 0.66838030
0.54339569 0.45437226 0.66873517
0.64348958 0.49527417 0.66996203
0.75004933 0.56582806 0.67378708
0.85562467 0.65722557 0.68478455
0.91886608 0.75912286 0.71275084
0.91886608 0.86592341 0.76995636
0.49473277 0.55347448 0.67017776
0.49733923 0.55362920 0.67018843
0.51522447 0.55480879 0.67027033
0.56701449 0.55967074 0.67061819
0.65235454 0.57488878 0.67182097
0.75299434 0.61168294 0.67557291
0.85656161 0.67736318 0.68637553
0.91886608 0.76640748 0.71393526
0.91886608 0.86823613 0.77059944
0.58714979 0.67137030 0.67649188
0.58812777 0.67141472 0.67650186
0.59531767 0.67175504 0.67657846
0.62096967 0.67319024 0.67690388
0.67802964 0.67802964 0.67802964
0.76258759 0.69204256 0.68154710
0.85975318 0.72573126 0.69172103
0.91886608 0.78807833 0.71795127
0.91886608 0.87585749 0.77280703
0.69074447 0.78335899 0.69426608
0.69107236 0.78337239 0.69427434
0.69355278 0.78347525 0.69433779
0.70343646 0.78391181 0.69460741
0.73149850 0.78541778 0.69554137
0.78795415 0.79008114 0.69847150
0.86926633 0.80323886 0.70704530
0.91886608 0.83530880 0.72976400
0.91886608 0.89659728 0.77954142
0.79632562 0.88977267 0.73461584
0.79643125 0.88977678 0.73462122
0.79723831 0.88980834 0.73466249
0.80059650 0.88994257 0.73483800
0.81142429 0.89040895 0.73544729
0.83934921 0.89188601 0.73737221
0.89364110 0.89632876 0.74311964
0.91886608 0.90895675 0.75914291
0.91886608 0.91886608 0.79780962
0.90095949 0.91886608 0.80382565
0.90099233 0.91886608 0.80382819
0.90124410 0.91886608 0.80384772
0.90230779 0.91886608 0.80393082
0.90591760 0.91886608 0.80421994
0.91656048 0.91886608 0.80513972
0.91886608 0.91886608 0.80794380
0.91886608 0.91886608 0.81621901
0.91886608 0.91886608 0.83892604
0.91886608 0.91886608 0.89534676
0.91886608 0.91886608 0.89534768
0.91886608 0.91886608 0.89535470
0.91886608 0.91886608 0.89538461
0.91886608 0.91886608 0.89548879
0.91886608 0.91886608 0.89582160
0.91886608 0.91886608 0.89684912
0.91886608 0.91886608 0.89999608
0.91886608 0.91886608 0.90953638
0.50351135 0.39389572 0.78055776
0.50588430 0.39478999 0.78056104
0.52232504 0.40136485 0.78058621
0.57116249 0.42485720 0.78069326
0.65405754 0.47762224 0.78106550
0.75358116 0.55797659 0.78224758
0.85675068 0.65431866 0.78583152
0.91886608 0.75815121 0.79624508
0.91886608 0.86562406 0.82376352
0.50476435 0.40510051 0.78057536
0.50710576 0.40588683 0.78057864
0.52334924 0.41169968 0.78060380
0.57177184 0.43287640 0.78071083
0.65431146 0.48217625 0.78108300
0.75366924 0.55992048 0.78226486
0.85677913 0.65502409 0.78584814
0.91886608 0.75838519 0.79625992
0.91886608 0.86569595 0.82377449
0.51385894 0.46245154 0.78071039
0.51598391 0.46286512 0.78071366
0.53085945 0.46597957 0.78073878
0.57632387 0.47815992 0.78084566
0.65623880 0.51118980 0.78121729
0.75434284 0.57364187 0.78239743
0.85699727 0.66027230 0.78597566
0.91886608 0.76016250 0.79637378
0.91886608 0.86624607 0.82385870
0.54492310 0.56233534 0.78128298
0.54645087 0.56247613 0.78128623
0.55741949 0.56355029 0.78131120
0.59356429 0.56799041 0.78141741
0.66403026 0.58201230 0.78178675
0.75715690 0.61656601 0.78295967
0.85791999 0.67983246 0.78651652
0.91886608 0.76736895 0.79685688
0.91886608 0.86855051 0.82421630
0.60914496 0.67399922 0.78325180
0.60992062 0.67404241 0.78325498
0.61567375 0.67437341 0.78327942
0.63687165 0.67576964 0.78338339
0.68705389 0.68048177 0.78374495
0.76634946 0.69415975 0.78489334
0.86106415 0.72721523 0.78837761
0.91886608 0.78883936 0.79852148
0.91886608 0.87614599 0.82545207
0.69867621 0.78415990 0.78928769
0.69897765 0.78417319 0.78929067
0.70126068 0.78427515 0.78931356
0.71040314 0.78470794 0.78941093
0.73671142 0.78620105 0.78974959
0.79082582 0.79082582 0.79082582
0.87044513 0.80388429 0.79409607
0.91886608 0.83576267 0.80365734
0.91886608 0.89682521 0.82929980
0.79895044 0.89001905 0.80587142
0.79905309 0.89002315 0.80587391
0.79983746 0.89005462 0.80589301
0.80310329 0.89018848 0.80597427
0.81365407 0.89065355 0.80625700
0.84099258 0.89212654 0.80715659
0.89453641 0.89655739 0.80990030
0.91886608 0.90915455 0.81800721
0.91886608 0.91886608 0.84032035
0.90178316 0.91886608 0.84413224
0.90181569 0.91886608 0.84413387
0.90206509 0.91886608 0.84414639
0.90311886 0.91886608 0.84419967
0.90669584 0.91886608 0.84438517
0.91724907 0.91886608 0.84497667
0.91886608 0.91886608 0.84679258
0.91886608 0.91886608 0.85226144
0.91886608 0.91886608 0.86807913
0.91886608 0.91886608 0.91191529
0.91886608 0.91886608 0.91191604
0.91886608 0.91886608 0.91192185
0.91886608 0.91886608 0.91194657
0.91886608 0.91886608 0.91203270
0.91886608 0.91886608 0.91230797
0.91886608 0.91886608 0.91315889
0.91886608 0.91886608 0.91577513
0.91886608 0.91886608 0.91886608
0.60667799 0.48802665 0.88727326
0.60747408 0.48833930 0.88727426
0.61337339 0.49070525 0.88728197
0.63503760 0.50014711 0.88731476
0.68597987 0.52710077 0.88742898
0.76589086 0.58214671 0.88779379
0.86090251 0.66376574 0.88891931
0.91886608 0.76138162 0.89235909
0.91886608 0.86662755 0.90272324
0.60709664 0.49210272 0.88727865
0.60788923 0.49240184 0.88727965
0.61376348 0.49466676 0.88728735
0.63534797 0.50373028 0.88732014
0.68616103 0.52979360 0.88743436
0.76596800 0.58365390 0.88779915
0.86092967 0.66440430 0.88892460
0.91886608 0.76160761 0.89236417
0.91886608 0.86669864 0.90272775
0.61025100 0.51854206 0.88732001
0.61101769 0.51876687 0.88732101
0.61670641 0.52047523 0.88732871
0.63769792 0.52741576 0.88736149
0.68754056 0.54822980 0.88747565
0.76655824 0.59448852 0.88784027
0.86113790 0.66916888 0.88896519
0.91886608 0.76332479 0.89240321
0.91886608 0.86724260 0.90276242
0.62261312 0.58553607 0.88749586
0.62328620 0.58564614 0.88749686
0.62830094 0.58648708 0.88750455
0.64709571 0.58998539 0.88753726
0.69319717 0.60125768 0.88765120
0.76902957 0.63032352 0.88801508
0.86201895 0.68712659 0.88913778
0.91886608 0.77029826 0.89256917
0.91886608 0.86952164 0.90290983
0.65625462 0.68174003 0.88810620
0.65672677 0.68177982 0.88810720
0.66027571 0.68208481 0.88811483
0.67404884 0.68337220 0.88814731
0.71061970 0.68772772 0.88826046
0.77716276 0.70045843 0.88862184
0.86502404 0.73168760 0.88973685
0.91886608 0.79116780 0.89314531
0.91886608 0.87703768 0.90342180
0.71978614 0.78660830 0.89003273
0.72002698 0.78662124 0.89003370
0.72185596 0.78672052 0.89004117
0.72926535 0.78714199 0.89007294
0.75128654 0.78859641 0.89018364
0.79922637 0.79310505 0.89053720
0.87401581 0.80586390 0.89162827
0.91886608 0.83716047 0.89496528
0.91886608 0.89753063 0.90504139
0.80666694 0.89078128 0.89576981
0.80676128 0.89078535 0.89577072
0.80748249 0.89081655 0.89577772
0.81049038 0.89094925 0.89580748
0.82026191 0.89141031 0.89591116
0.84592190 0.89287073 0.89624237
0.89726498 0.89726498 0.89726498
0.91886608 0.90976711 0.90039725
0.91886608 0.91886608 0.90989593
0.90429729 0.91886608 0.91165024
0.90432889 0.91886608 0.91165099
0.90457121 0.91886608 0.91165682
0.90559523 0.91886608 0.91168162
0.90907368 0.91886608 0.91176801
0.91886608 0.91886608 0.91204412
0.91886608 0.91886608 0.91289763
0.91886608 0.91886608 0.91552166
0.91886608 0.91886608 0.91886608
0.91886608 0.91886608 0.91886608
0.91886608 0.91886608 0.91886608
0.91886608 0.91886608 0.91886608
0.91886608 0.91886608 0.91886608
0.91886608 0.91886608 0.91886608
0.91886608 0.91886608 0.91886608
0.91886608 0.91886608 0.91886608
0.91886608 0.91886608 0.91886608
0.91886608 0.91886608 0.91886608
0.71300099 0.58934120 0.91886608
0.71325987 0.58944692 0.91886608
0.71522430 0.59025481 0.91886608
0.72315483 0.59361863 0.91886608
0.74649375 0.60448913 0.91886608
0.79640402 0.63271064 0.91886608
0.87279572 0.68844262 0.91886608
0.91886608 0.77084108 0.91886608
0.91886608 0.86970381 0.91886608
0.71313695 0.59073854 0.91886608
0.71339546 0.59084271 0.91886608
0.71535707 0.59163879 0.91886608
0.72327684 0.59495452 0.91886608
0.74658880 0.60568074 0.91886608
0.79645942 0.63359627 0.91886608
0.87281947 0.68893464 0.91886608
0.91886608 0.77104514 0.91886608
0.91886608 0.86977248 0.91886608
0.71417442 0.60083025 0.91886608
0.71443009 0.60092387 0.91886608
0.71637042 0.60163966 0.91886608
0.72420849 0.60462752 0.91886608
0.74731545 0.61436216 0.91886608
0.79688375 0.64013380 0.91886608
0.87300164 0.69262944 0.91886608
0.91886608 0.77259729 0.91886608
0.91886608 0.87029798 0.91886608
0.71846687 0.63471045 0.91886608
0.71871112 0.63477589 0.91886608
0.72056571 0.63527689 0.91886608
0.72807389 0.63738039 0.91886608
0.75034686 0.64436828 0.91886608
0.79866841 0.66379984 0.91886608
0.87377296 0.70691277 0.91886608
0.91886608 0.77892758 0.91886608
0.91886608 0.87250078 0.91886608
0.73205851 0.70257111 0.91886608
0.73226979 0.70260301 0.91886608
0.73387640 0.70284758 0.91886608
0.74042235 0.70388164 0.91886608
0.76020329 0.70740021 0.91886608
0.80463143 0.71785570 0.91886608
0.87641058 0.74447071 0.91886608
0.91886608 0.79811072 0.91886608
0.91886608 0.87977783 0.91886608
0.76569923 0.79389113 0.91886608
0.76584646 0.79390308 0.91886608
0.76696931 0.79399481 0.91886608
0.77160244 0.79438425 0.91886608
0.78614806 0.79572917 0.91886608
0.82146424 0.79990807 0.91886608
0.88436335 0.81180905 0.91886608
0.91886608 0.84140961 0.91886608
0.91886608 0.89970723 0.91886608
0.82734305 0.89313022 0.91886608
0.82741821 0.89313418 0.91886608
0.82799326 0.89316456 0.91886608
0.83040115 0.89329375 0.91886608
0.83832660 0.89374266 0.91886608
0.85982992 0.89516500 0.91886608
0.90530931 0.89944812 0.91886608
0.91886608 0.91166106 0.91886608
0.91886608 0.91886608 0.91886608
0.91174263 0.91886608 0.91886608
0.91177164 0.91886608 0.91886608
0.91199406 0.91886608 0.91886608
0.91293454 0.91886608 0.91886608
0.91613557 0.91886608 0.91886608
0.91886608 0.91886608 0.91886608
0.91886608 0.91886608 0.91886608
0.91886608 0.91886608 0.91886608
0.91886608 0.91886608 0.91886608
0.91886608 0.91886608 0.91886608
0.91886608 0.91886608 0.91886608
0.91886608 0.91886608 0.91886608
0.91886608 0.91886608 0.91886608
0.91886608 0.91886608 0.91886608
0.91886608 0.91886608 0.91886608
0.91886608 0.91886608 0.91886608
0.91886608 0.91886608 0.91886608
0.91886608 0.91886608 0.91886608
0.82217319 0.69744992 0.91886608
0.82225276 0.69748361 0.91886608
0.82286144 0.69774184 0.91886608
0.82540779 0.69883325 0.91886608
0.83376348 0.70254212 0.91886608
0.85625916 0.71352149 0.91886608
0.90319561 0.74122876 0.91886608
0.91886608 0.79630970 0.91886608
0.91886608 0.87905526 0.91886608
0.82221496 0.69789717 0.91886608
0.82229449 0.69793069 0.91886608
0.82290289 0.69818770 0.91886608
0.82544810 0.69927398 0.91886608
0.83380023 0.70296585 0.91886608
0.85628776 0.71389858 0.91886608
0.90321241 0.74150934 0.91886608
0.91886608 0.79646450 0.91886608
0.91886608 0.87911704 0.91886608
0.82253506 0.70126238 0.91886608
0.82261431 0.70129473 0.91886608
0.82322058 0.70154272 0.91886608
0.82575700 0.70259115 0.91886608
0.83408191 0.70615745 0.91886608
0.85650711 0.71674470 0.91886608
0.90334131 0.74363617 0.91886608
0.91886608 0.79764450 0.91886608
0.91886608 0.87958999 0.91886608
0.82388520 0.71437585 0.91886608
0.82396328 0.71440398 0.91886608
0.82456062 0.71461971 0.91886608
0.82706032 0.71553255 0.91886608
0.83527130 0.71864722 0.91886608
0.85743488 0.72797765 0.91886608
0.90388790 0.75218306 0.91886608
0.91886608 0.80250424 0.91886608
0.91886608 0.88157542 0.91886608
0.82844078 0.74953094 0.91886608
0.82851503 0.74955026 0.91886608
0.82908318 0.74969843 0.91886608
0.83146259 0.75032654 0.91886608
0.83929925 0.75248374 0.91886608
0.86059590 0.75907336 0.91886608
0.90576705 0.77701203 0.91886608
0.91886608 0.81767131 0.91886608
0.91886608 0.88816666 0.91886608
0.84165330 0.81428064 0.91886608
0.84171744 0.81429020 0.91886608
0.84220843 0.81436359 0.91886608
0.84426905 0.81467535 0.91886608
0.85110404 0.81575396 0.91886608
0.87002390 0.81912451 0.91886608
0.91152513 0.82887648 0.91886608
0.91886608 0.85401988 0.91886608
0.91886608 0.90645169 0.91886608
0.87349051 0.90038167 0.91886608
0.87353540 0.90038531 0.91886608
0.87387939 0.90041327 0.91886608
0.87532896 0.90053218 0.91886608
0.88020427 0.90094548 0.91886608
0.89421616 0.90225600 0.91886608
0.91886608 0.90621193 0.91886608
0.91886608 0.91756604 0.91886608
0.91886608 0.91886608 0.91886608
0.91886608 0.91886608 0.91886608
0.91886608 0.91886608 0.91886608
0.91886608 0.91886608 0.91886608
0.91886608 0.91886608 0.91886608
0.91886608 0.91886608 0.91886608
0.91886608 0.91886608 0.91886608
0.91886608 0.91886608 0.91886608
0.91886608 0.91886608 0.91886608
0.91886608 0.91886608 0.91886608
0.91886608 0.91886608 0.91886608
0.91886608 0.91886608 0.91886608
0.91886608 0.91886608 0.91886608
0.91886608 0.91886608 0.91886608
0.91886608 0.91886608 0.91886608
0.91886608 0.91886608 0.91886608
0.91886608 0.91886608 0.91886608
0.91886608 0.91886608 0.91886608
0.91886608 0.91886608 0.91886608
