src/ffmpeg_scripts/luts/sRGB-rec2020_-2p00.cube
TITLE "sRGB-rec2020_-2p00"
LUT_3D_SIZE 33
# PQ (EOTF Only)/sRGB -> PQ (EOTF Only)/Rec2020, CineEI Shift -2.00, Black Level 0.00% IRE, Input 100% -> Output 109% - Created with LUTCalc v4.01 by Ben Turley October 2020
0.06256172 0.06256172 0.06256172
0.07306038 0.06563462 0.06388721
0.08560669 0.06989404 0.06582285
0.09946350 0.07511297 0.06832207
0.11435927 0.08119677 0.07136894
0.13014047 0.08809299 0.07496171
0.14670542 0.09576828 0.07910497
0.16398056 0.10419982 0.08380679
0.18190964 0.11337133 0.08907735
0.20044790 0.12327084 0.09492824
0.21955867 0.13388944 0.10137201
0.23921122 0.14522046 0.10842195
0.25937934 0.15725892 0.11609191
0.28004034 0.17000115 0.12439617
0.30117432 0.18344452 0.13334938
0.32276369 0.19758724 0.14296651
0.34479272 0.21242819 0.15326277
0.36724724 0.22796684 0.16425362
0.39011445 0.24420312 0.17595473
0.41338264 0.26113738 0.18838197
0.43704112 0.27877028 0.20155138
0.46108003 0.29710281 0.21547917
0.48549027 0.31613620 0.23018172
0.51026338 0.33587190 0.24567554
0.53539149 0.35631158 0.26197732
0.56086727 0.37745705 0.27910388
0.58668383 0.39931028 0.29707218
0.61283470 0.42187340 0.31589932
0.63931382 0.44514863 0.33560254
0.66611543 0.46913831 0.35619921
0.69323412 0.49384488 0.37770684
0.72066475 0.51927087 0.40014306
0.74840243 0.54541888 0.42352566
0.06997282 0.07540283 0.06609364
0.07567052 0.07589637 0.06645626
0.08682618 0.07756594 0.06760341
0.10014273 0.08066902 0.06956209
0.11477569 0.08519482 0.07225368
0.13041132 0.09099034 0.07560877
0.14688875 0.09789294 0.07958803
0.16410825 0.10577714 0.08417330
0.18200049 0.11455541 0.08935897
0.20051361 0.12416824 0.09514676
0.21960681 0.13457499 0.10154288
0.23924685 0.14574761 0.10855637
0.25940593 0.15766642 0.11619814
0.28006031 0.17031750 0.12448042
0.30118941 0.18369092 0.13341638
0.32277513 0.19777963 0.14301988
0.34480142 0.21257870 0.15330534
0.36725388 0.22808472 0.16428760
0.39011952 0.24429550 0.17598185
0.41338652 0.26120978 0.18840361
0.43704409 0.27882701 0.20156863
0.46108231 0.29714722 0.21549290
0.48549201 0.31617093 0.23019263
0.51026471 0.33589902 0.24568420
0.53539251 0.35633271 0.26198417
0.56086804 0.37747347 0.27910929
0.58668441 0.39932301 0.29707643
0.61283515 0.42188323 0.31590266
0.63931416 0.44515620 0.33560514
0.66611569 0.46914411 0.35620123
0.69323431 0.49384931 0.37770840
0.72066489 0.51927424 0.40014427
0.74840253 0.54542143 0.42352658
0.07929485 0.09024778 0.07092901
0.08242326 0.09045762 0.07110821
0.09077125 0.09121184 0.07173843
0.10250233 0.09278452 0.07299547
0.11626276 0.09543031 0.07498767
0.13139072 0.09931831 0.07774380
0.14755591 0.10450462 0.08124542
0.16457454 0.11095354 0.08546098
0.18233294 0.11858119 0.09036309
0.20075436 0.12729227 0.09593331
0.21978333 0.13699993 0.10216175
0.23937758 0.14763268 0.10904522
0.25950352 0.15913467 0.11658559
0.28013364 0.17146335 0.12478832
0.30124479 0.18458676 0.13366156
0.32281713 0.19848104 0.14321540
0.34483338 0.21312845 0.15346140
0.36727826 0.22851590 0.16441221
0.39013814 0.24463378 0.17608135
0.41340077 0.26147513 0.18848302
0.43705500 0.27903504 0.20163194
0.46109065 0.29731017 0.21554332
0.48549839 0.31629839 0.23023271
0.51026959 0.33599855 0.24571600
0.53539623 0.35641027 0.26200934
0.56087088 0.37753377 0.27912915
0.58668657 0.39936975 0.29709206
0.61283679 0.42191935 0.31591491
0.63931539 0.44518400 0.33561471
0.66611662 0.46916544 0.35620867
0.69323501 0.49386559 0.37771416
0.72066541 0.51928660 0.40014870
0.74840292 0.54543077 0.42352997
0.08993157 0.10631953 0.07679366
0.09179330 0.10643265 0.07690058
0.09759072 0.10684456 0.07728634
0.10708579 0.10772970 0.07809782
0.11931829 0.10929512 0.07948315
0.13346052 0.11175573 0.08156029
0.14898714 0.11530013 0.08439841
0.16558341 0.12005851 0.08802060
0.18305587 0.12608782 0.09242028
0.20127953 0.13337931 0.09757836
0.22016917 0.14188013 0.10347451
0.23966369 0.15151662 0.11009239
0.25971730 0.16221167 0.11742120
0.28029437 0.17389442 0.12545556
0.30136624 0.18650444 0.13419472
0.32290927 0.19999229 0.14364163
0.34490350 0.21431863 0.15380222
0.36733175 0.22945267 0.16468472
0.39017902 0.24537062 0.17629915
0.41343204 0.26205424 0.18865696
0.43707893 0.27948972 0.20177071
0.46110897 0.29766668 0.21565387
0.48551241 0.31657749 0.23032062
0.51028030 0.33621664 0.24578575
0.53540441 0.35658031 0.26206456
0.56087711 0.37766600 0.27917273
0.58669131 0.39947229 0.29712635
0.61284038 0.42199859 0.31594179
0.63931811 0.44524503 0.33563571
0.66611866 0.46921223 0.35622500
0.69323655 0.49390132 0.37772680
0.72066656 0.51931375 0.40015843
0.74840377 0.54545128 0.42353743
0.10165154 0.12334170 0.08357366
0.10283575 0.12340976 0.08364337
0.10681019 0.12365872 0.08389715
0.11406370 0.12419953 0.08444231
0.12433845 0.12517500 0.08540602
0.13701629 0.12675557 0.08692064
0.15151042 0.12912782 0.08910437
0.16738960 0.13247442 0.09204438
0.18436238 0.13694967 0.09579017
0.20223430 0.14265905 0.10035857
0.22087334 0.14965045 0.10574485
0.24018720 0.15791930 0.11193401
0.26010914 0.16742296 0.11890873
0.28058932 0.17809755 0.12665387
0.30158930 0.18987198 0.13515836
0.32307860 0.20267733 0.14441561
0.34503242 0.21645180 0.15442324
0.36743013 0.23114270 0.16518253
0.39025421 0.24670650 0.17669777
0.41348957 0.26310805 0.18897576
0.43712297 0.28031940 0.20202531
0.46114269 0.29831861 0.21585685
0.48553820 0.31708869 0.23048213
0.51030002 0.33661657 0.24591397
0.53541946 0.35689240 0.26216608
0.56088858 0.37790887 0.27925290
0.58670003 0.39966071 0.29718944
0.61284699 0.42214428 0.31599127
0.63932310 0.44535724 0.33567435
0.66612243 0.46929832 0.35625505
0.69323937 0.49396706 0.37775006
0.72066867 0.51936370 0.40017634
0.74840534 0.54548903 0.42355114
0.11432165 0.14116019 0.09120459
0.11511155 0.14120387 0.09125244
0.11786525 0.14136395 0.09142738
0.12324721 0.14171335 0.09180677
0.13149111 0.14234927 0.09248910
0.14237574 0.14339486 0.09358972
0.15545629 0.14499832 0.09523178
0.17028129 0.14732661 0.09753235
0.18648578 0.15055282 0.10058812
0.20380124 0.15483820 0.10446589
0.22203647 0.16031313 0.10920136
0.24105566 0.16706295 0.11480479
0.26076110 0.17512319 0.12126984
0.28108108 0.18448477 0.12858204
0.30196173 0.19510569 0.13672486
0.32336161 0.20692461 0.14568342
0.34524805 0.21987260 0.15544631
0.36759477 0.23388152 0.16600610
0.39038010 0.24888887 0.17735935
0.41358592 0.26484019 0.18950614
0.43719675 0.28168951 0.20244964
0.46119917 0.29939903 0.21619561
0.48558143 0.31793815 0.23075195
0.51033306 0.33728250 0.24612835
0.53544469 0.35741289 0.26233594
0.56090780 0.37831441 0.27938707
0.58671464 0.39997562 0.29729507
0.61285807 0.42238793 0.31607412
0.63933148 0.44554502 0.33573908
0.66612874 0.46944242 0.35630540
0.69324410 0.49407713 0.37778903
0.72067220 0.51944736 0.40020635
0.74840797 0.54555227 0.42357412
0.12785264 0.15967390 0.09964442
0.12839784 0.15970316 0.09967841
0.13033770 0.15981047 0.09980291
0.13429155 0.16004524 0.10007424
0.14070619 0.16047449 0.10056668
0.14970234 0.16118570 0.10137271
0.16109708 0.16228922 0.10260059
0.17454704 0.16391850 0.10436785
0.18968598 0.16622657 0.10679069
0.20619723 0.16937768 0.10997174
0.22383254 0.17353386 0.11398996
0.24240575 0.17883868 0.11889605
0.26177935 0.18540194 0.12471406
0.28185163 0.19328996 0.13144751
0.30254665 0.20252389 0.13908693
0.32380682 0.21308579 0.14761667
0.34558768 0.22492929 0.15701977
0.36785430 0.23799143 0.16728104
0.39057868 0.25220278 0.17838858
0.41373797 0.26749481 0.19033436
0.43731321 0.28380439 0.20311415
0.46128836 0.30107595 0.21672727
0.48564969 0.31926222 0.23117613
0.51038525 0.33832389 0.24646578
0.53548454 0.35822887 0.26260355
0.56093817 0.37895138 0.27959861
0.58673773 0.40047097 0.29746170
0.61287558 0.42277162 0.31620488
0.63934472 0.44584098 0.33584126
0.66613871 0.46966970 0.35638490
0.69325158 0.49425083 0.37785059
0.72067778 0.51957942 0.40025376
0.74841212 0.54565212 0.42361043
0.14217943 0.17881033 0.10886355
0.14256534 0.17883052 0.10888828
0.14395455 0.17890463 0.10897893
0.14686001 0.17906697 0.10917704
0.15176534 0.17936454 0.10953846
0.15898637 0.17985969 0.11013509
0.16859215 0.18063315 0.11105566
0.18043040 0.18178639 0.11240407
0.19422299 0.18344254 0.11429448
0.20966163 0.18574447 0.11684277
0.22646579 0.18884909 0.12015597
0.24440453 0.19291717 0.12432222
0.26329722 0.19809957 0.12940439
0.28300587 0.20452255 0.13543889
0.30342588 0.21227572 0.14243914
0.32447771 0.22140589 0.15040186
0.34610040 0.23191823 0.15931373
0.36824663 0.24378341 0.16915711
0.39087915 0.25694798 0.17991403
0.41396822 0.27134503 0.19156870
0.43748966 0.28690312 0.20410872
0.46142354 0.30355271 0.21752560
0.48575319 0.32123007 0.23181464
0.51046440 0.33987912 0.24697469
0.53554498 0.35945205 0.26300774
0.56098423 0.37990899 0.27991847
0.58677276 0.40121733 0.29771387
0.61290214 0.42335073 0.31640289
0.63936480 0.44628826 0.33599609
0.66615383 0.47001351 0.35650540
0.69326293 0.49451379 0.37794391
0.72068626 0.51977947 0.40032566
0.74841841 0.54580344 0.42366549
0.15725186 0.19851436 0.11884005
0.15753031 0.19852861 0.11885835
0.15853968 0.19858094 0.11892550
0.16068506 0.19869566 0.11907248
0.16440612 0.19890625 0.11934144
0.17008740 0.19925756 0.11978774
0.17796661 0.19980853 0.12048185
0.18808735 0.20063498 0.12151024
0.20032094 0.20183199 0.12297420
0.21443420 0.20351520 0.12498600
0.23016026 0.20581997 0.12766181
0.24724637 0.20889737 0.13111238
0.26547614 0.21290638 0.13543335
0.28467433 0.21800223 0.14069783
0.30470320 0.22432276 0.14695318
0.32545593 0.23197546 0.15422242
0.34684998 0.24102856 0.16250892
0.36882131 0.25150830 0.17180271
0.39131993 0.26340259 0.18208642
0.41430633 0.27666931 0.19334013
0.43774898 0.29124656 0.20554468
0.46162234 0.30706244 0.21868362
0.48590545 0.32404297 0.23274419
0.51058089 0.34211750 0.24771763
0.53563395 0.36122199 0.26359907
0.56105206 0.38130047 0.28038720
0.58682434 0.40230535 0.29808388
0.61294126 0.42419705 0.31669372
0.63939437 0.44694319 0.33622365
0.66617611 0.47051769 0.35668262
0.69327965 0.49489984 0.37808122
0.72069875 0.52007342 0.40043147
0.74842769 0.54602593 0.42374656
0.17302979 0.21874239 0.12955711
0.17323371 0.21875263 0.12957084
0.17397612 0.21879021 0.12962123
0.17557048 0.21887265 0.12973163
0.17838647 0.21902413 0.12993405
0.18280134 0.21927722 0.13027103
0.18913124 0.21967513 0.13079780
0.19756505 0.22027426 0.13158409
0.20813324 0.22114678 0.13271511
0.22072545 0.22238304 0.13429074
0.23514096 0.22409313 0.13642246
0.25114374 0.22640678 0.13922730
0.26850282 0.22947059 0.14281950
0.28701394 0.23344187 0.14730121
0.30650682 0.23847878 0.15275445
0.32684430 0.24472777 0.15923650
0.34791786 0.25231051 0.16677943
0.36964233 0.26131314 0.17539346
0.39195093 0.27178072 0.18507247
0.41479111 0.28371772 0.19580011
0.43812122 0.29709405 0.20755512
0.46190794 0.31185429 0.22031538
0.48612435 0.32792779 0.23406063
0.51074844 0.34523762 0.24877393
0.53576197 0.36370740 0.26444237
0.56114968 0.38326581 0.28105724
0.58689860 0.40384911 0.29861376
0.61299759 0.42540213 0.31711078
0.63943696 0.44787831 0.33655034
0.66620820 0.47123910 0.35693723
0.69330372 0.49545313 0.37827863
0.72071673 0.52049523 0.40058367
0.74844106 0.54634552 0.42386321
0.18948017 0.23945890 0.14100158
0.18963127 0.23946635 0.14101198
0.19018290 0.23949371 0.14105018
0.19137560 0.23955375 0.14113392
0.19350823 0.23966412 0.14128765
0.19691551 0.23984872 0.14154412
0.20192666 0.24013942 0.14194636
0.20880984 0.24057818 0.14254977
0.21772208 0.24121944 0.14342387
0.22868699 0.24213262 0.14465334
0.24160866 0.24340454 0.14633753
0.25631077 0.24514115 0.14858796
0.27258089 0.24746797 0.15152306
0.29020538 0.25052824 0.15526056
0.30899010 0.25447804 0.15990856
0.32876918 0.25947780 0.16555716
0.34940610 0.26568083 0.17227270
0.37079097 0.27322041 0.18009585
0.39283630 0.28219796 0.18904359
0.41547279 0.29267524 0.19911398
0.43864549 0.30467224 0.21029213
0.46231068 0.31817088 0.22255586
0.48643332 0.33312299 0.23588045
0.51098508 0.34946026 0.25024195
0.53594289 0.36710389 0.26561931
0.56128769 0.38597264 0.28199542
0.58700361 0.40598853 0.29935757
0.61307727 0.42708037 0.31769738
0.63949722 0.44918557 0.33701053
0.66625360 0.47225059 0.35729632
0.69333779 0.49623067 0.37855728
0.72074218 0.52108906 0.40079866
0.74845997 0.54679604 0.42402807
0.20657519 0.26063423 0.15316294
0.20668819 0.26063972 0.15317089
0.20710152 0.26065985 0.15320008
0.20799923 0.26070404 0.15326409
0.20961797 0.26078530 0.15338170
0.21223908 0.26092130 0.15357818
0.21616786 0.26113571 0.15388702
0.22169678 0.26145984 0.15435189
0.22905962 0.26193469 0.15502857
0.23839192 0.26261319 0.15598678
0.24971387 0.26356269 0.15731121
0.26294119 0.26486733 0.15910140
0.27791640 0.26663001 0.16146957
0.29444559 0.26897316 0.16453603
0.31232905 0.27203760 0.16842215
0.33138108 0.27597869 0.17324173
0.35143959 0.28095895 0.17909239
0.37236867 0.28713755 0.18604893
0.39405719 0.29465765 0.19416019
0.41641560 0.30363396 0.20344980
0.43937224 0.31414318 0.21392010
0.46286991 0.32621968 0.22555789
0.48686288 0.33985698 0.23834039
0.51131442 0.35501443 0.25224045
0.53619485 0.37162661 0.26723056
0.56148001 0.38961360 0.28328552
0.58715001 0.40888986 0.30038394
0.61318838 0.42937119 0.31850901
0.63958127 0.45097923 0.33764858
0.66631694 0.47364406 0.35779500
0.69338533 0.49730523 0.37894474
0.72077769 0.52191171 0.40109788
0.74848637 0.54742133 0.42425769
0.22429103 0.28224322 0.16603273
0.22437617 0.28224729 0.16603884
0.22468800 0.28226223 0.16606128
0.22536736 0.28229503 0.16611051
0.22659951 0.28235537 0.16620102
0.22861370 0.28245640 0.16635235
0.23167524 0.28261577 0.16659060
0.23606524 0.28285698 0.16695004
0.24204791 0.28321092 0.16747502
0.24983195 0.28371783 0.16822194
0.25953809 0.28442951 0.16926100
0.27118504 0.28541173 0.17067742
0.28469808 0.28674667 0.17257145
0.29993464 0.28853496 0.17505658
0.31671557 0.29089683 0.17825547
0.33485250 0.29397155 0.18229336
0.35416667 0.29791429 0.18728967
0.37449918 0.30288973 0.19334923
0.39571460 0.30906236 0.20055490
0.41770065 0.31658412 0.20896333
0.44036582 0.32558156 0.21860460
0.46363624 0.33614489 0.22948538
0.48745256 0.34832174 0.24159426
0.51176712 0.36211670 0.25490795
0.53654155 0.37749645 0.26939698
0.56174483 0.39439876 0.28503031
0.58735173 0.41274286 0.30177851
0.61334154 0.43243930 0.31961582
0.63969717 0.45339789 0.33852116
0.66640431 0.47553326 0.35847849
0.69345091 0.49876825 0.37947669
0.72082669 0.52303548 0.40150923
0.74852279 0.54827769 0.42457367
0.24260699 0.30426414 0.17960404
0.24267154 0.30426718 0.17960876
0.24290810 0.30427835 0.17962610
0.24342461 0.30430286 0.17966415
0.24436521 0.30434797 0.17973412
0.24591325 0.30442351 0.17985119
0.24829043 0.30454275 0.18003569
0.25174796 0.30472335 0.18031450
0.25654722 0.30498865 0.18072268
0.26293062 0.30536922 0.18130537
0.27108831 0.30590475 0.18211974
0.28113063 0.30664616 0.18323676
0.29307604 0.30765807 0.18474256
0.30685781 0.30902121 0.18673855
0.32234540 0.31083465 0.18934005
0.33937158 0.31321716 0.19267248
0.35775721 0.31630715 0.19686522
0.37732929 0.32026017 0.20204340
0.39793147 0.32524331 0.20831890
0.41942863 0.33142613 0.21578238
0.44170731 0.33896871 0.22449805
0.46467413 0.34800839 0.23450229
0.48825310 0.35864779 0.24580594
0.51238281 0.37094682 0.25839943
0.53701372 0.38492040 0.27225896
0.56210588 0.40054228 0.28735271
0.58762695 0.41775326 0.30364602
0.61355065 0.43647182 0.32110513
0.63985547 0.45660468 0.33969977
0.66652368 0.47805574 0.35940444
0.69354054 0.50073265 0.38019901
0.72089367 0.52455102 0.40206878
0.74857259 0.54943656 0.42500409
0.26150491 0.32667802 0.19387124
0.26155407 0.32668030 0.19387490
0.26173435 0.32668870 0.19388834
0.26212855 0.32670712 0.19391786
0.26284850 0.32674103 0.19397214
0.26403918 0.32679782 0.19406302
0.26588129 0.32688750 0.19420635
0.26858934 0.32702340 0.19442319
0.27240244 0.32722319 0.19474118
0.27756600 0.32751013 0.19519621
0.28430552 0.32791453 0.19583429
0.29279729 0.32847566 0.19671350
0.30314440 0.32924382 0.19790585
0.31536582 0.33028281 0.19949868
0.32940161 0.33167236 0.20159502
0.34513107 0.33351051 0.20431243
0.36239672 0.33591522 0.20777956
0.38102698 0.33902469 0.21213025
0.40085349 0.34299540 0.21749551
0.42172193 0.34799715 0.22399426
0.44349720 0.35420464 0.23172483
0.46606465 0.36178568 0.24075880
0.48932903 0.37088775 0.25113865
0.51321231 0.38162499 0.26287931
0.53765105 0.39406874 0.27597290
0.56259391 0.40824358 0.29039503
0.58799938 0.42412977 0.30611139
0.61383385 0.44167085 0.32308353
0.64007000 0.46078435 0.34127322
0.66668553 0.48137302 0.36064543
0.69366211 0.50333475 0.38117008
0.72098455 0.52657014 0.40282282
0.74864017 0.55098752 0.42558518
0.28096863 0.34946813 0.20882968
0.28100621 0.34946985 0.20883253
0.28114409 0.34947619 0.20884298
0.28144588 0.34949010 0.20886594
0.28199822 0.34951569 0.20890818
0.28291490 0.34955858 0.20897891
0.28434088 0.34962631 0.20909053
0.28645398 0.34972899 0.20925952
0.28946218 0.34988004 0.20950765
0.29359432 0.35009713 0.20986333
0.29908296 0.35040346 0.21036331
0.30614046 0.35082918 0.21105452
0.31493277 0.35141324 0.21199610
0.32555794 0.35220554 0.21326133
0.33803601 0.35326931 0.21493905
0.35231290 0.35468368 0.21713430
0.36827609 0.35654614 0.21996732
0.38577609 0.35897439 0.22357039
0.40464746 0.36210698 0.22808222
0.42472560 0.36610189 0.23363991
0.44585765 0.37113205 0.24036955
0.46790827 0.37737743 0.24837710
0.49076149 0.38501349 0.25774139
0.51432023 0.39419739 0.26851086
0.53850440 0.40505419 0.28070434
0.56324860 0.41766592 0.29431543
0.58849972 0.43206610 0.30931896
0.61421473 0.44824090 0.32567790
0.64035877 0.46613607 0.34334978
0.66690354 0.48566777 0.36229161
0.69382594 0.50673444 0.38246340
0.72110707 0.52922771 0.40383028
0.74873131 0.55304094 0.42636347
0.30098371 0.37261956 0.22447557
0.30101252 0.37262086 0.22447779
0.30111825 0.37262566 0.22448595
0.30134987 0.37263620 0.22450384
0.30177441 0.37265559 0.22453677
0.30248079 0.37268809 0.22459193
0.30358404 0.37273942 0.22467900
0.30522867 0.37281725 0.22481092
0.30758957 0.37293179 0.22500477
0.31086895 0.37309652 0.22528300
0.31528710 0.37332914 0.22567480
0.32106627 0.37365280 0.22621778
0.32840866 0.37409756 0.22695991
0.33747255 0.37470217 0.22796151
0.34835265 0.37551628 0.22929729
0.36107042 0.37660280 0.23105792
0.37557694 0.37804058 0.23335078
0.39176656 0.37992698 0.23629922
0.40949635 0.38237993 0.24003960
0.42860588 0.38553890 0.24471588
0.44893344 0.38956388 0.25047157
0.47032710 0.39463142 0.25744014
0.49265103 0.40092704 0.26573524
0.51578781 0.40863391 0.27544290
0.53963845 0.41791868 0.28661733
0.56412083 0.42891687 0.29928108
0.58916760 0.44172060 0.31342899
0.61472391 0.45637163 0.32903474
0.64074526 0.47286130 0.34605830
0.66719556 0.49113690 0.36445281
0.69404554 0.51111261 0.38417023
0.72127137 0.53268202 0.40516533
0.74885357 0.55573010 0.42739818
0.32153712 0.39611894 0.24080582
0.32155925 0.39611993 0.24080755
0.32164049 0.39612358 0.24081392
0.32181858 0.39613158 0.24082789
0.32214535 0.39614631 0.24085360
0.32269006 0.39617100 0.24089666
0.32354336 0.39621000 0.24096467
0.32482101 0.39626914 0.24106775
0.32666675 0.39635621 0.24121932
0.32925274 0.39648147 0.24143707
0.33277620 0.39665848 0.24174409
0.33745038 0.39690497 0.24217037
0.34348933 0.39724407 0.24275442
0.35108748 0.39770578 0.24354528
0.36039756 0.39832878 0.24460460
0.37151221 0.39916258 0.24600870
0.38445464 0.40027002 0.24785036
0.39918050 0.40172996 0.25023966
0.41558997 0.40363997 0.25330344
0.43354554 0.40611868 0.25718262
0.45289075 0.40930700 0.26202682
0.47346603 0.41336749 0.26798639
0.49511993 0.41848081 0.27520240
0.51771578 0.42483844 0.28379635
0.54113457 0.43263145 0.29386147
0.56527532 0.44203599 0.30545763
0.59005386 0.45319773 0.31861080
0.61540091 0.46621836 0.33331672
0.64125990 0.48114718 0.34954756
0.66758487 0.49797991 0.36725981
0.69433856 0.51666453 0.38640184
0.72149075 0.53711242 0.40692016
0.74901691 0.55921166 0.42876395
0.34261701 0.41995419 0.25781791
0.34263403 0.41995494 0.25781926
0.34269655 0.41995772 0.25782423
0.34283365 0.41996381 0.25783515
0.34308540 0.41997502 0.25785523
0.34350564 0.41999381 0.25788889
0.34416540 0.42002349 0.25794204
0.34515654 0.42006852 0.25802263
0.34659523 0.42013482 0.25814118
0.34862431 0.42023023 0.25831162
0.35141347 0.42036512 0.25855217
0.35515568 0.42055307 0.25888660
0.36005849 0.42081185 0.25934565
0.36632958 0.42116462 0.25996878
0.37415753 0.42164137 0.26080620
0.38369118 0.42228077 0.26192097
0.39502219 0.42313235 0.26339125
0.40817573 0.42425905 0.26531215
0.42311163 0.42573998 0.26779679
0.43973501 0.42767331 0.27097594
0.45791281 0.43017878 0.27499553
0.47749169 0.43339924 0.28001135
0.49831350 0.43750038 0.28618100
0.52022679 0.44266751 0.29365352
0.54309375 0.44909858 0.30255846
0.56679360 0.45699290 0.31299628
0.59122327 0.46653621 0.32503239
0.61629650 0.47788421 0.33869589
0.64194206 0.49114768 0.35398298
0.66810169 0.50638279 0.37086384
0.69472801 0.52358870 0.38929093
0.72178259 0.54271312 0.40920734
0.74923434 0.56366364 0.43055366
0.36421259 0.44411431 0.27550981
0.36422570 0.44411489 0.27551087
0.36427385 0.44411700 0.27551475
0.36437946 0.44412164 0.27552328
0.36457351 0.44413019 0.27553898
0.36489777 0.44414451 0.27556528
0.36540767 0.44416713 0.27560683
0.36617558 0.44420145 0.27566984
0.36729427 0.44425199 0.27576257
0.36888003 0.44432475 0.27589595
0.37107479 0.44442764 0.27608433
0.37404605 0.44457106 0.27634648
0.37798331 0.44476867 0.27670683
0.38308959 0.44503828 0.27719690
0.38956768 0.44540307 0.27785712
0.39760197 0.44589307 0.27873891
0.40733878 0.44654703 0.27990689
0.41886967 0.44741462 0.28144123
0.43222203 0.44855903 0.28343962
0.44735948 0.45005990 0.28601859
0.46419138 0.45201629 0.28931325
0.48258833 0.45454948 0.29347502
0.50239927 0.45780476 0.29866640
0.52346689 0.46195151 0.30505272
0.54563923 0.46718030 0.31279145
0.56877703 0.47369613 0.32202043
0.59275753 0.48170698 0.33284745
0.61747546 0.49140843 0.34534330
0.64284241 0.50296615 0.35953987
0.66878519 0.51649967 0.37543334
0.69524385 0.53207121 0.39299124
0.72216961 0.54968246 0.41216142
0.74952294 0.56927964 0.43288103
0.38631395 0.46858928 0.29387993
0.38632405 0.46858972 0.29388076
0.38636113 0.46859133 0.29388379
0.38644251 0.46859487 0.29389046
0.38659209 0.46860138 0.29390272
0.38684224 0.46861230 0.29392328
0.38723607 0.46862956 0.29395575
0.38783029 0.46865574 0.29400499
0.38869831 0.46869429 0.29407749
0.38993349 0.46874980 0.29418181
0.39165208 0.46882832 0.29432922
0.39399517 0.46893781 0.29453452
0.39712840 0.46908873 0.29481701
0.40123845 0.46929478 0.29520172
0.40652487 0.46957380 0.29572099
0.41318690 0.46994905 0.29641626
0.42140607 0.47045063 0.29734022
0.43132740 0.47111744 0.29855917
0.44304307 0.47199937 0.30015546
0.45658292 0.47316007 0.30222964
0.47191411 0.47467989 0.30490197
0.48894967 0.47665914 0.30831236
0.50756308 0.47922100 0.31261826
0.52760490 0.48251372 0.31798941
0.54891804 0.48671097 0.32459949
0.57134956 0.49200923 0.33261483
0.59475843 0.49862118 0.34218193
0.61901967 0.50676406 0.35341600
0.64402569 0.51664364 0.36639306
0.66968584 0.52843559 0.38114742
0.69592496 0.54226780 0.39767459
0.72268142 0.55820783 0.41593876
0.74990505 0.57625867 0.43588237
0.40891195 0.49336986 0.31292705
0.40891973 0.49337020 0.31292770
0.40894829 0.49337143 0.31293007
0.40901097 0.49337413 0.31293527
0.40912623 0.49337910 0.31294485
0.40931909 0.49338743 0.31296090
0.40962301 0.49340059 0.31298625
0.41008221 0.49342056 0.31302472
0.41075438 0.49344997 0.31308135
0.41171367 0.49349232 0.31316286
0.41305384 0.49355224 0.31327809
0.41489102 0.49363582 0.31343866
0.41736550 0.49375107 0.31365977
0.42064142 0.49390848 0.31396123
0.42490328 0.49412178 0.31436870
0.43034808 0.49440889 0.31491531
0.43717263 0.49479312 0.31564355
0.44555685 0.49530471 0.31660745
0.45564544 0.49598273 0.31787511
0.46753190 0.49687746 0.31953123
0.48124872 0.49805309 0.32167950
0.49676642 0.49959096 0.32444427
0.51400120 0.50159287 0.32797071
0.53282880 0.50418437 0.33242285
0.55310073 0.50751716 0.33797832
0.57465952 0.51176980 0.34481975
0.59735081 0.51714543 0.35312292
