src/ffmpeg_scripts/luts/sRGB-rec2020_3p00.cube
TITLE "sRGB-rec2020_3p00"
LUT_3D_SIZE 5
# PQ (EOTF Only)/sRGB -> PQ (EOTF Only)/Rec2020, CineEI Shift 3.00, Black Level 0.00% IRE, Input 100% -> Output 109% - Created with LUTCalc v4.01 by Ben Turley October 2020
0.06256172 0.06256172 0.06256172
0.38760249 0.24239965 0.17464446
0.63482859 0.44117610 0.33221987
0.85478194 0.64965343 0.51966545
0.91886608 0.86516047 0.73166967
0.34029429 0.41734042 0.25593072
0.42048782 0.42310790 0.26585091
0.63749472 0.48756722 0.35074148
0.85503402 0.65589847 0.52209179
0.91886608 0.86578573 0.73192790
0.57597144 0.67022883 0.46111426
0.58511847 0.67061824 0.46197626
0.67391055 0.67696636 0.47542575
0.85918931 0.72509247 0.55570868
0.91886608 0.87573442 0.73618671
0.79518527 0.88966760 0.67210201
0.79610932 0.88970331 0.67219271
0.81045847 0.89030463 0.67371236
0.89325725 0.89623128 0.68799882
0.91886608 0.91886608 0.77126217
0.91886608 0.91886608 0.88721392
0.91886608 0.91886608 0.88722263
0.91886608 0.91886608 0.88736975
0.91886608 0.91886608 0.88886107
0.91886608 0.91886608 0.90267351
0.21802845 0.16077695 0.41525021
0.39270918 0.25084103 0.41668640
0.63518361 0.44192221 0.43797439
0.85481514 0.64973317 0.54182313
0.91886608 0.86516823 0.73426460
0.34907147 0.41831514 0.42270061
0.42402122 0.42402122 0.42402122
0.63783989 0.48801532 0.44379591
0.85506713 0.65597312 0.54374174
0.91886608 0.86579343 0.73451577
0.57663224 0.67029297 0.49923225
0.58571837 0.67068212 0.49980135
0.67414551 0.67702608 0.50892249
0.85922091 0.72512828 0.57134128
0.91886608 0.87574130 0.73866075
0.79524936 0.88967347 0.67693453
0.79617277 0.88970918 0.67702071
0.81051271 0.89031047 0.67846516
0.89327874 0.89623673 0.69209779
0.91886608 0.91886608 0.77296537
0.91886608 0.91886608 0.88768879
0.91886608 0.91886608 0.88769745
0.91886608 0.91886608 0.88784378
0.91886608 0.91886608 0.88932714
0.91886608 0.91886608 0.90307160
0.40390957 0.30745494 0.66777712
0.45150007 0.32711760 0.66787207
0.64098934 0.45367291 0.66946227
0.85537425 0.65107047 0.68435760
0.91886608 0.86529913 0.76978487
0.43200454 0.43334104 0.66828585
0.46903651 0.43818156 0.66838030
0.64348958 0.49527417 0.66996203
0.85562467 0.65722557 0.68478455
0.91886608 0.86592341 0.76995636
0.58714979 0.67137030 0.67649188
0.59531767 0.67175504 0.67657846
0.67802964 0.67802964 0.67802964
0.85975318 0.72573126 0.69172103
0.91886608 0.87585749 0.77280703
0.79632562 0.88977267 0.73461584
0.79723831 0.88980834 0.73466249
0.81142429 0.89040895 0.73544729
0.89364110 0.89632876 0.74311964
0.91886608 0.91886608 0.79780962
0.91886608 0.91886608 0.89534676
0.91886608 0.91886608 0.89535470
0.91886608 0.91886608 0.89548879
0.91886608 0.91886608 0.89684912
0.91886608 0.91886608 0.90953638
0.60667799 0.48802665 0.88727326
0.61337339 0.49070525 0.88728197
0.68597987 0.52710077 0.88742898
0.86090251 0.66376574 0.88891931
0.91886608 0.86662755 0.90272324
0.61025100 0.51854206 0.88732001
0.61670641 0.52047523 0.88732871
0.68754056 0.54822980 0.88747565
0.86113790 0.66916888 0.88896519
0.91886608 0.86724260 0.90276242
0.65625462 0.68174003 0.88810620
0.66027571 0.68208481 0.88811483
0.71061970 0.68772772 0.88826046
0.86502404 0.73168760 0.88973685
0.91886608 0.87703768 0.90342180
0.80666694 0.89078128 0.89576981
0.80748249 0.89081655 0.89577772
0.82026191 0.89141031 0.89591116
0.89726498 0.89726498 0.89726498
0.91886608 0.91886608 0.90989593
0.91886608 0.91886608 0.91886608
0.91886608 0.91886608 0.91886608
0.91886608 0.91886608 0.91886608
0.91886608 0.91886608 0.91886608
0.91886608 0.91886608 0.91886608
0.82217319 0.69744992 0.91886608
0.82286144 0.69774184 0.91886608
0.83376348 0.70254212 0.91886608
0.90319561 0.74122876 0.91886608
0.91886608 0.87905526 0.91886608
0.82253506 0.70126238 0.91886608
0.82322058 0.70154272 0.91886608
0.83408191 0.70615745 0.91886608
0.90334131 0.74363617 0.91886608
0.91886608 0.87958999 0.91886608
0.82844078 0.74953094 0.91886608
0.82908318 0.74969843 0.91886608
0.83929925 0.75248374 0.91886608
0.90576705 0.77701203 0.91886608
0.91886608 0.88816666 0.91886608
0.87349051 0.90038167 0.91886608
0.87387939 0.90041327 0.91886608
0.88020427 0.90094548 0.91886608
0.91886608 0.90621193 0.91886608
0.91886608 0.91886608 0.91886608
0.91886608 0.91886608 0.91886608
0.91886608 0.91886608 0.91886608
0.91886608 0.91886608 0.91886608
0.91886608 0.91886608 0.91886608
0.91886608 0.91886608 0.91886608
