src/ffmpeg_scripts/luts/sRGB-rec2020_-3p33.cube
TITLE "sRGB-rec2020_-3p33"
LUT_3D_SIZE 9
# PQ (EOTF Only)/sRGB -> PQ (EOTF Only)/Rec2020, CineEI Shift -3.33, Black Level 0.00% IRE, Input 100% -> Output 109% - Created with LUTCalc v4.01 by Ben Turley October 2020
0.06256172 0.06256172 0.06256172
0.09700378 0.07415303 0.06785359
0.14781521 0.09629727 0.07939556
0.21043998 0.12877212 0.09824600
0.28326811 0.17202801 0.12573377
0.36538691 0.22666407 0.16332418
0.45619113 0.29334102 0.21260219
0.55524364 0.37275316 0.27527155
0.66221106 0.46561690 0.35315791
0.08802261 0.10348557 0.07571880
0.10421101 0.10482077 0.07693529
0.14973646 0.11348784 0.08396537
0.21104700 0.13656328 0.10027390
0.28347716 0.17526750 0.12661461
0.36546117 0.22796856 0.16370176
0.45621738 0.29385038 0.21275943
0.55525262 0.37294300 0.27533389
0.66221395 0.46568294 0.35318091
0.12876674 0.16090819 0.10022434
0.13424151 0.16121959 0.10058632
0.16234458 0.16354772 0.10321840
0.21551983 0.17241246 0.11236318
0.28506307 0.19527295 0.13278537
0.36602915 0.23720411 0.16651049
0.45641870 0.29765163 0.21395375
0.55532154 0.37438669 0.27581085
0.66223616 0.46618847 0.35335727
0.18160858 0.22959026 0.13549241
0.18348318 0.22968485 0.13562195
0.19611048 0.23040668 0.13660341
0.23166228 0.23339369 0.14054297
0.29146120 0.24286829 0.15203535
0.36840491 0.26659356 0.17700503
0.45727069 0.31200735 0.21879708
0.55561439 0.38027122 0.27780720
0.66233064 0.46830955 0.35410387
0.24548290 0.30769442 0.18175832
0.24615716 0.30772626 0.18180798
0.25112497 0.30797027 0.18218782
0.26903733 0.30900052 0.18377614
0.31030870 0.31248914 0.18898415
0.37619963 0.32271899 0.20305421
0.46017969 0.34810357 0.23328432
0.55662824 0.39809950 0.28437212
0.66265929 0.47533993 0.35665527
0.31982868 0.39417568 0.23943858
0.32007589 0.39418679 0.23945793
0.32194881 0.39427206 0.23960635
0.32946194 0.39463412 0.24023451
0.35124592 0.39588459 0.24237979
0.39722900 0.39977167 0.24882702
0.46891301 0.41086089 0.26574547
0.55980332 0.43864798 0.30220161
0.66370415 0.49478770 0.36433595
0.40430488 0.48833706 0.30902276
0.40439459 0.48834093 0.30903019
0.40508043 0.48837065 0.30908718
0.40794110 0.48849705 0.30932931
0.41724028 0.48893635 0.31016761
0.44176230 0.49032922 0.31279311
0.49171975 0.49453295 0.32044142
0.56904772 0.50659816 0.34054798
0.66688329 0.53766543 0.38454115
0.49868914 0.58967157 0.39103781
0.49872055 0.58967288 0.39104054
0.49896132 0.58968291 0.39106153
0.49997932 0.58972563 0.39115082
0.50344300 0.58987440 0.39146139
0.51373559 0.59034927 0.39244850
0.53997263 0.59181175 0.39544953
0.59326927 0.59625774 0.40423994
0.67621363 0.60945840 0.42798198
0.60283139 0.69778942 0.48603292
0.60284171 0.69778983 0.48603386
0.60292096 0.69779303 0.48604109
0.60325759 0.69780664 0.48607186
0.60442185 0.69785405 0.48617906
0.60805673 0.69800575 0.48652151
0.61854795 0.69847618 0.48757897
0.64547530 0.69993684 0.49081924
0.70148410 0.70454987 0.50065986
0.07159770 0.06686454 0.10300803
0.09806964 0.07511729 0.10333578
0.14807259 0.09658914 0.10573585
0.21052017 0.12887828 0.11425733
0.28329564 0.17206928 0.13388457
0.36539669 0.22668035 0.16704041
0.45619459 0.29334733 0.21418394
0.55524482 0.37275551 0.27590348
0.66221144 0.46561771 0.35339161
0.08956998 0.10370941 0.10472563
0.10503458 0.10503458 0.10503458
0.14998329 0.11364992 0.10730542
0.21112640 0.13665083 0.11546511
0.28350461 0.17530632 0.13460268
0.36547093 0.22798451 0.16739135
0.45622084 0.29385665 0.21433723
0.55525380 0.37294534 0.27596529
0.66221433 0.46568376 0.35341454
0.12916992 0.16095953 0.11543501
0.13459341 0.16127060 0.11565545
0.16253444 0.16359641 0.11730227
0.21559372 0.17245342 0.12356116
0.28508995 0.19530006 0.13973881
0.36603885 0.23721798 0.17000911
0.45642214 0.29765759 0.21550196
0.55532272 0.37438899 0.27643816
0.66223654 0.46618928 0.35359041
0.18174006 0.22960582 0.14204445
0.18361028 0.22970039 0.14215551
0.19621229 0.23042206 0.14299903
0.23171975 0.23340838 0.14641988
0.29148588 0.24288104 0.15667021
0.36841433 0.26660263 0.17988938
0.45727410 0.31201231 0.22023186
0.55561556 0.38027337 0.27841774
0.66233102 0.46831034 0.35433492
0.24552966 0.30769966 0.18440823
0.24620346 0.30773149 0.18445556
0.25116805 0.30797549 0.18481771
0.26907077 0.30900567 0.18633359
0.31032800 0.31249406 0.19132047
0.37620822 0.32272331 0.20489930
0.46018299 0.34810673 0.23443415
0.55662940 0.39810125 0.28493100
0.66265967 0.47534066 0.35687932
0.31984577 0.39417751 0.24048789
0.32009293 0.39418862 0.24050694
0.32196545 0.39427389 0.24065307
0.32947709 0.39463594 0.24127159
0.35125750 0.39588638 0.24338472
0.39723573 0.39977338 0.24974211
0.46891602 0.41086240 0.26646583
0.55980444 0.43864908 0.30264348
0.66370453 0.49478829 0.36454030
0.40431107 0.48833770 0.30942741
0.40440078 0.48834157 0.30943479
0.40508658 0.48837128 0.30949149
0.40794705 0.48849768 0.30973237
0.41724563 0.48893698 0.31056636
0.44176635 0.49032985 0.31317870
0.49172209 0.49453354 0.32079135
0.56904874 0.50659869 0.34082047
0.66688365 0.53766580 0.38470213
0.49869131 0.58967178 0.39118705
0.49872271 0.58967309 0.39118978
0.49896348 0.58968313 0.39121073
0.49998145 0.58972585 0.39129987
0.50344505 0.58987462 0.39160990
0.51373744 0.59034949 0.39259532
0.53997402 0.59181196 0.39559132
0.59327006 0.59625794 0.40436808
0.67621396 0.60945858 0.42807979
0.60283210 0.69778949 0.48608435
0.60284243 0.69778990 0.48608529
0.60292167 0.69779310 0.48609252
0.60325830 0.69780670 0.48612327
0.60442255 0.69785412 0.48623041
0.60805740 0.69800581 0.48657267
0.61854855 0.69847625 0.48762954
0.64547575 0.69993690 0.49086806
0.70148435 0.70454993 0.50070374
0.08968352 0.07651782 0.15995963
0.10509646 0.08085035 0.16003512
0.15000207 0.09872591 0.16061093
0.21113245 0.12968397 0.16298975
0.28350671 0.17238508 0.17050192
0.36547167 0.22680522 0.18920737
0.45622110 0.29339581 0.22516283
0.55525389 0.37277354 0.28058260
0.66221436 0.46562398 0.35516445
0.09888766 0.10537293 0.16036360
0.11070372 0.10662682 0.16043847
0.15183599 0.11486889 0.16100961
0.21173273 0.13731713 0.16336986
0.28371509 0.17560343 0.17083017
0.36554585 0.22810690 0.18944035
0.45624734 0.29390480 0.22529179
0.55526287 0.37296333 0.28064059
0.66221725 0.46569002 0.35518690
0.13213583 0.16135199 0.16336026
0.13720012 0.16166061 0.16343074
0.16396870 0.16396870 0.16396870
0.21615822 0.17276694 0.16619661
0.28529599 0.19550784 0.17328422
0.36611326 0.23732439 0.19119824
0.45644859 0.29770339 0.22627351
0.55533178 0.37440668 0.28108443
0.66223946 0.46619551 0.35535904
0.18273936 0.22972521 0.17444556
0.18457662 0.22981961 0.17450242
0.19698825 0.23053997 0.17493700
0.23215936 0.23352107 0.17674836
0.29167509 0.24297887 0.18262663
0.36848668 0.26667229 0.19813396
0.45730030 0.31205033 0.23029412
0.55562460 0.38028987 0.28294461
0.66233394 0.46831643 0.35608788
0.24588767 0.30773985 0.20145241
0.24655796 0.30777167 0.20148763
0.25149795 0.30801554 0.20175734
0.26932702 0.30904519 0.20289206
0.31047601 0.31253185 0.20668835
0.37627419 0.32275650 0.21746927
0.46020836 0.34813097 0.24265907
0.55663834 0.39811465 0.28908844
0.66266257 0.47534629 0.35857987
0.31997689 0.39419154 0.24804555
0.32022363 0.39420265 0.24806260
0.32209310 0.39428790 0.24819339
0.32959326 0.39464989 0.24874736
0.35134639 0.39590014 0.25064456
0.39728733 0.39978653 0.25639303
0.46893906 0.41087398 0.27176934
0.55981308 0.43865754 0.30595457
0.66370740 0.49479285 0.36609302
0.40435864 0.48834258 0.31246638
0.40444830 0.48834645 0.31247348
0.40513372 0.48837617 0.31252801
0.40799267 0.48850256 0.31275970
0.41728666 0.48894183 0.31356211
0.44179748 0.49033463 0.31607786
0.49174005 0.49453811 0.32342803
0.56905657 0.50660270 0.34288300
0.66688643 0.53766867 0.38592821
0.49870796 0.58967343 0.39232446
0.49873936 0.58967474 0.39232716
0.49898008 0.58968478 0.39234783
0.49999787 0.58972750 0.39243580
0.50346087 0.58987626 0.39274177
0.51375158 0.59035112 0.39371440
0.53998469 0.59181357 0.39667246
0.59327612 0.59625948 0.40534574
0.67621648 0.60945992 0.42882726
0.60283757 0.69779001 0.48647833
0.60284790 0.69779043 0.48647927
0.60292714 0.69779362 0.48648647
0.60326374 0.69780723 0.48651709
0.60442793 0.69785465 0.48662377
0.60806258 0.69800634 0.48696457
0.61855319 0.69847677 0.48801696
0.64547924 0.69993742 0.49124209
0.70148627 0.70455042 0.50103995
0.11717454 0.09269584 0.22821895
0.12442676 0.09468142 0.22824188
0.15742545 0.10631320 0.22841767
0.21367312 0.13294153 0.22916077
0.28439855 0.17370865 0.23168729
0.36579015 0.22733413 0.23918386
0.45633387 0.29360180 0.25830160
0.55529249 0.37285025 0.29774839
0.66222680 0.46565066 0.36231432
0.12116173 0.11157930 0.22834197
0.12772993 0.11261029 0.22836485
0.15899831 0.11961970 0.22854032
0.21424941 0.14004149 0.22928203
0.28460445 0.17685008 0.23180397
0.36586405 0.22862537 0.23928810
0.45636008 0.29410942 0.25838056
0.55530146 0.37303987 0.29779453
0.66222969 0.46571668 0.36233491
0.14280474 0.16298877 0.22927896
0.14680175 0.16328744 0.22930152
0.16965672 0.16552343 0.22947448
0.21850606 0.17408108 0.23020572
0.28616678 0.19638414 0.23269307
0.36642931 0.23777550 0.24008320
0.45656108 0.29789805 0.25898400
0.55537035 0.37448192 0.29814794
0.66225189 0.46622202 0.36249290
0.18680256 0.23023103 0.23312416
0.18851294 0.23032470 0.23314544
0.20018140 0.23103956 0.23330858
0.23399863 0.23399863 0.23399863
0.29247528 0.24339376 0.23634963
0.36879394 0.26696807 0.24336679
0.45741174 0.31221200 0.26149664
0.55566305 0.38036008 0.29963434
0.66234636 0.46834233 0.36316209
0.24739107 0.30791071 0.24501968
0.24804689 0.30794246 0.24503750
0.25288501 0.30818579 0.24517419
0.27040780 0.30921321 0.24575301
0.31110296 0.31269252 0.24773348
0.37655442 0.32289763 0.25371791
0.46031628 0.34823406 0.26962212
0.55667637 0.39817170 0.30460184
0.66267495 0.47537027 0.36545408
0.32053261 0.39425124 0.27333886
0.32077763 0.39426234 0.27335078
0.32263422 0.39434753 0.27344230
0.33008595 0.39470927 0.27383061
0.35172371 0.39595866 0.27516839
0.39750668 0.39984249 0.27929516
0.46903707 0.41092325 0.29083609
0.55984986 0.43869353 0.31865644
0.66371964 0.49481224 0.37239940
0.40456084 0.48836339 0.32422862
0.40465029 0.48836726 0.32423474
0.40533413 0.48839697 0.32428171
0.40818662 0.48852333 0.32448135
0.41746112 0.48896250 0.32517347
0.44192987 0.49035499 0.32735036
0.49181645 0.49455756 0.33376819
0.56908990 0.50661976 0.35112384
0.66689826 0.53768089 0.39095977
0.49877879 0.58968046 0.39700517
0.49881017 0.58968177 0.39700772
0.49905071 0.58969180 0.39702731
0.50006772 0.58973452 0.39711063
0.50352815 0.58988328 0.39740050
0.51381179 0.59035810 0.39832232
0.54003012 0.59182044 0.40112939
0.59330190 0.59626604 0.40938916
0.67622720 0.60946562 0.43194062
0.60286087 0.69779225 0.48813683
0.60287119 0.69779267 0.48813775
0.60295042 0.69779586 0.48814482
0.60328694 0.69780947 0.48817489
0.60445084 0.69785688 0.48827966
0.60808462 0.69800857 0.48861438
0.61857292 0.69847899 0.48964813
0.64549408 0.69993961 0.49281749
0.70149447 0.70455251 0.50245766
0.15488773 0.11682833 0.30596128
0.15799614 0.11771191 0.30596901
0.17701752 0.12385003 0.30602829
0.22180171 0.14262912 0.30628016
0.28742682 0.17808100 0.30715187
0.36689107 0.22914508 0.30987933
0.45672594 0.29431561 0.31780290
0.55542693 0.37311714 0.33850286
0.66227014 0.46574361 0.38334055
0.15654416 0.12710982 0.30600275
0.15955095 0.12777879 0.30601047
0.17809573 0.13256683 0.30606972
0.22230860 0.14839355 0.30632145
0.28762454 0.18098379 0.30719270
0.36696401 0.23040131 0.30991875
0.45675204 0.29481848 0.31783853
0.55543590 0.37330617 0.33853036
0.66227303 0.46580956 0.38335660
0.16768331 0.16831129 0.30632040
0.17010442 0.16858028 0.30632809
0.18573327 0.17060037 0.30638710
0.22607291 0.17842428 0.30663780
0.28912562 0.19934054 0.30750552
0.36752194 0.23932481 0.31022080
0.45695216 0.29857280 0.31811158
0.55550469 0.37474372 0.33874123
0.66229522 0.46631439 0.38347980
0.19905287 0.23196453 0.30765826
0.20044043 0.23205576 0.30766581
0.21014358 0.23275213 0.30772381
0.24003975 0.23563712 0.30797023
0.29520054 0.24482067 0.30882324
0.36985644 0.26798981 0.31149367
0.45779916 0.31277299 0.31926345
0.55579696 0.38060438 0.33963285
0.66238964 0.46843257 0.38400226
0.25238938 0.30850346 0.31214995
0.25299961 0.30853496 0.31215708
0.25751562 0.30877645 0.31221183
0.27405442 0.30979613 0.31244446
0.31325009 0.31325009 0.31325009
0.37752421 0.32338767 0.31577571
0.46069148 0.34859248 0.32315278
0.55680885 0.39837029 0.34266692
0.66271809 0.47545381 0.38579913
0.32244004 0.39445903 0.32501492
0.32267924 0.39447010 0.32502098
0.32449235 0.39455510 0.32506749
0.33178029 0.39491597 0.32526518
0.35302580 0.39616239 0.32595054
0.39826706 0.40003729 0.32810661
0.46937797 0.41109480 0.33446660
0.55997794 0.43881888 0.35168882
0.66376231 0.49487982 0.39131239
0.40526211 0.48843588 0.35543659
0.40535085 0.48843974 0.35544076
0.40602923 0.48846943 0.35547275
0.40885944 0.48859569 0.35560878
0.41806662 0.48903452 0.35608131
0.44238987 0.49042592 0.35757669
0.49208230 0.49462533 0.36206469
0.56920600 0.50667923 0.37475977
0.66693952 0.53772348 0.40650988
0.49902531 0.58970495 0.41159222
0.49905660 0.58970626 0.41159438
0.49929650 0.58971629 0.41161094
0.50031083 0.58975900 0.41168141
0.50376232 0.58990772 0.41192666
0.51402137 0.59038242 0.41270747
0.54018834 0.59184438 0.41509344
0.59339171 0.59628888 0.42218362
0.67626458 0.60948548 0.44201504
0.60294205 0.69780005 0.49369526
0.60295236 0.69780047 0.49369613
0.60303152 0.69780366 0.49370278
0.60336775 0.69781727 0.49373109
0.60453067 0.69786468 0.49382971
0.60816144 0.69801635 0.49414486
0.61864167 0.69848674 0.49511859
0.64554581 0.69994723 0.49810799
0.70152306 0.70455976 0.50723668
0.20375305 0.15051383 0.39214860
0.20503669 0.15090045 0.39215130
0.21408399 0.15376694 0.39217202
0.24255046 0.16435475 0.39226017
0.29637677 0.19011105 0.39256677
0.37032269 0.23462915 0.39354136
0.45797020 0.29655739 0.39650525
0.55585621 0.37396623 0.40519446
0.66240881 0.46604064 0.42871146
0.20443016 0.15541444 0.39216309
0.20569962 0.15576297 0.39216579
0.21465650 0.15835818 0.39218651
0.24292074 0.16809277 0.39227464
0.29655241 0.19246265 0.39258118
0.37039271 0.23578595 0.39355561
0.45799594 0.29704568 0.39651903
0.55586513 0.37415337 0.40520692
0.66241169 0.46610637 0.42872100
0.20939154 0.18242495 0.39227427
0.21056263 0.18263148 0.39227697
0.21888656 0.18419213 0.39229766
0.24569873 0.19038763 0.39238567
0.29788768 0.20792692 0.39269182
0.37092843 0.24405945 0.39366501
0.45819333 0.30069446 0.39662473
0.55593360 0.37557672 0.40530256
0.66243386 0.46660956 0.42879420
0.22695922 0.23722830 0.39274596
0.22784809 0.23731257 0.39274864
0.23429832 0.23795618 0.39276921
0.25640949 0.24062890 0.39285675
0.30332453 0.24919956 0.39316124
0.37317163 0.27116772 0.39412916
0.45902884 0.31454297 0.39707329
0.55622455 0.38138208 0.40570853
0.66252814 0.46872095 0.42910516
0.26634764 0.31037183 0.39437047
0.26684883 0.31040259 0.39437310
0.27058523 0.31063835 0.39439329
0.28464295 0.31163408 0.39447919
0.31975538 0.31500944 0.39477801
0.38055748 0.32493699 0.39572807
0.46188273 0.34972990 0.39861911
0.55723187 0.39900322 0.40710924
0.66285610 0.47572083 0.43018081
0.32825758 0.39512114 0.39937637
0.32847996 0.39513213 0.39937885
0.33016724 0.39521647 0.39939790
0.33697822 0.39557460 0.39947898
0.35706292 0.39681162 0.39976104
0.40065820 0.40065820 0.40065820
0.47046115 0.41164195 0.40339187
0.56038695 0.43921915 0.41144950
0.66389881 0.49509591 0.43354043
0.40747068 0.48866763 0.41332926
0.40755720 0.48867149 0.41333138
0.40821870 0.48870110 0.41334761
0.41097994 0.48882704 0.41341671
0.41997818 0.48926477 0.41365715
0.44384732 0.49065272 0.41442277
0.49292856 0.49484201 0.41676317
0.56957685 0.50686941 0.42372535
0.66707150 0.53785973 0.44325079
0.49981039 0.58978334 0.44663986
0.49984141 0.58978465 0.44664131
0.50007928 0.58979468 0.44665247
0.50108509 0.58983734 0.44669995
0.50450830 0.58998594 0.44686528
0.51468940 0.59046025 0.44739273
0.54069322 0.59192102 0.44901436
0.59367878 0.59636199 0.45391956
0.67638416 0.60954907 0.46828858
0.60320155 0.69782502 0.50952846
0.60321184 0.69782544 0.50952919
0.60329078 0.69782864 0.50953479
0.60362609 0.69784224 0.50955864
0.60478585 0.69788964 0.50964174
0.60840702 0.69804127 0.50990735
0.61886152 0.69851153 0.51072898
0.64571129 0.69997164 0.51326010
0.70161454 0.70458301 0.52106749
0.26475770 0.19551378 0.48608856
0.26527010 0.19567779 0.48608950
0.26908722 0.19692205 0.48609673
0.28340856 0.20194276 0.48612748
0.31897675 0.21676248 0.48623461
0.38018690 0.24928268 0.48657686
0.46173575 0.30313893 0.48763368
0.55717948 0.37655497 0.49087206
0.66283899 0.46695868 0.50070733
0.26502708 0.19765958 0.48609362
0.26553756 0.19781769 0.48609456
0.26934087 0.19901782 0.48610178
0.28361722 0.20387125 0.48613253
0.31910800 0.21828280 0.48623966
0.38024922 0.25021592 0.48658189
0.46176044 0.30358710 0.48763865
0.55718827 0.37673648 0.49087686
0.66284186 0.46702376 0.50071164
0.26706249 0.21197840 0.48613241
0.26755873 0.21210313 0.48613335
0.27125945 0.21305261 0.48614057
0.28520018 0.21693995 0.48617131
0.32010859 0.22888602 0.48627839
0.38072626 0.25699216 0.48662047
0.46194980 0.30694437 0.48767679
0.55725579 0.37811745 0.49091368
0.66286392 0.46752190 0.50074474
0.27513680 0.25138457 0.48629735
0.27558088 0.25145302 0.48629829
0.27890401 0.25197641 0.48630550
0.29158710 0.25416139 0.48633618
0.32423202 0.26128600 0.48644307
0.38272760 0.28025158 0.48678454
0.46275149 0.31980813 0.48783898
0.55754268 0.38375752 0.49107026
0.66295778 0.46961244 0.50088548
0.29789866 0.31591461 0.48687007
0.29822636 0.31594326 0.48687100
0.30069684 0.31616293 0.48687816
0.31040717 0.31709122 0.48690865
0.33714061 0.32024450 0.48701488
0.38935957 0.32957372 0.48735423
0.46549224 0.35317175 0.48840219
0.55853603 0.40094353 0.49161406
0.66328426 0.47654670 0.50137446
0.34405875 0.39714943 0.48868050
0.34424170 0.39716017 0.48868141
0.34563301 0.39724255 0.48868844
0.35130504 0.39759240 0.48871834
0.36850156 0.39880109 0.48882249
0.40770328 0.40256226 0.48915524
0.47375138 0.41332286 0.49018295
0.56164832 0.44045325 0.49333424
0.66432227 0.49576506 0.50292323
0.41400593 0.48938504 0.49409581
0.41408623 0.48938886 0.49409667
0.41470034 0.48941824 0.49410329
0.41726757 0.48954321 0.49413148
0.42567416 0.48997755 0.49422968
0.44823639 0.49135485 0.49454346
0.49551300 0.49551300 0.49551300
0.57072151 0.50745869 0.49848984
0.66748102 0.53828242 0.50758267
0.50221131 0.59002685 0.50927281
0.50224154 0.59002815 0.50927354
0.50247331 0.59003815 0.50927916
0.50345351 0.59008071 0.50930308
0.50679165 0.59022892 0.50938640
0.51673773 0.59070202 0.50965275
0.54224697 0.59215908 0.51047663
0.59456646 0.59658913 0.51301456
0.67675529 0.60974665 0.52084177
0.60400448 0.69790269 0.54641809
0.60401467 0.69790311 0.54641858
0.60409295 0.69790630 0.54642235
0.60442543 0.69791989 0.54643841
0.60557548 0.69796725 0.54649435
0.60916710 0.69811876 0.54667328
0.61954233 0.69858864 0.54722785
0.64622434 0.70004756 0.54894650
0.70189861 0.70465529 0.55434350
0.33892942 0.25375811 0.58727758
0.33912425 0.25382427 0.58727789
0.34060488 0.25433017 0.58728034
0.34662317 0.25644373 0.58729073
0.36471556 0.26335215 0.58732697
0.40532797 0.28184738 0.58744292
0.47262557 0.32076394 0.58780280
0.56121349 0.38419869 0.58892290
0.66417586 0.46977979 0.59248705
0.33903173 0.25463341 0.58727928
0.33922631 0.25469874 0.58727960
0.34070510 0.25519837 0.58728204
0.34671628 0.25728627 0.58729244
0.36479041 0.26411672 0.58732868
0.40537452 0.28244091 0.58744463
0.47264747 0.32112175 0.58780450
0.56122192 0.38436463 0.58892458
0.66417870 0.46984288 0.59248867
0.33981307 0.26101350 0.58729240
0.34000579 0.26107317 0.58729271
0.34147060 0.26152969 0.58729516
0.34742770 0.26344087 0.58730555
0.36536295 0.26973045 0.58734178
0.40573111 0.28684698 0.58745772
0.47281546 0.32381667 0.58781754
0.56128660 0.38562819 0.58893746
0.66420045 0.47032585 0.59250107
0.34305768 0.28318875 0.58734820
0.34324288 0.28323271 0.58734852
0.34465115 0.28356942 0.58735096
0.35038909 0.28498596 0.58736135
0.36775737 0.28972418 0.58739756
0.40723303 0.30316285 0.58751342
0.47352717 0.33436771 0.58787303
0.56156145 0.39080787 0.58899230
0.66429299 0.47235366 0.59255388
0.35345813 0.33113816 0.58754249
0.35362133 0.33116182 0.58754281
0.35486382 0.33134323 0.58754524
0.35995415 0.33211094 0.58755561
0.37560942 0.33473151 0.58759174
0.41227586 0.34259453 0.58770737
0.47596580 0.36312473 0.58806625
0.56251341 0.40676333 0.58918324
0.66461489 0.47908999 0.59273776
0.38003212 0.40322023 0.58816201
0.38015104 0.40323024 0.58816233
0.38105871 0.40330705 0.58816475
0.38481802 0.40363332 0.58817505
0.39676768 0.40476127 0.58821095
0.42671558 0.40827827 0.58832582
0.48336430 0.41839609 0.58868235
0.56549876 0.44421763 0.58979212
0.66563847 0.49783314 0.59332421
0.43182992 0.49159981 0.59006408
0.43189555 0.49160355 0.59006438
0.43239786 0.49163223 0.59006676
0.43450499 0.49175422 0.59007685
0.44148441 0.49217826 0.59011203
0.46076117 0.49352322 0.59022461
0.50317971 0.49758669 0.59057406
0.57422449 0.50928325 0.59166194
0.66875422 0.53959610 0.59512602
0.50936192 0.59078665 0.59579358
0.50938990 0.59078795 0.59579387
0.50960445 0.59079787 0.59579610
0.51051228 0.59084008 0.59580560
0.51360941 0.59098711 0.59583871
0.52288495 0.59145643 0.59594467
0.54696005 0.59290198 0.59627361
0.59729811 0.59729811 0.59729811
0.67791010 0.61036380 0.60056495
0.60647983 0.69814592 0.61238284
0.60648976 0.69814634 0.61238309
0.60656601 0.69814952 0.61238496
0.60688992 0.69816308 0.61239293
0.60801055 0.69821031 0.61242071
0.61151251 0.69836143 0.61250963
0.62164675 0.69883010 0.61278577
0.64781590 0.70028531 0.61364679
0.70278420 0.70488169 0.61640228
0.42733038 0.32735390 0.69532851
0.42739942 0.32737870 0.69532861
0.42792774 0.32756888 0.69532939
0.43014224 0.32837342 0.69533270
0.43745774 0.33111666 0.69534425
0.45752564 0.33932120 0.69538123
0.50115839 0.36058434 0.69549620
0.57328531 0.40524874 0.69585595
0.66840990 0.47841854 0.69702003
0.42736662 0.32768331 0.69532905
0.42743563 0.32770801 0.69532916
0.42796374 0.32789740 0.69532993
0.43017735 0.32869866 0.69533325
0.43749008 0.33143098 0.69534480
0.45755151 0.33960522 0.69538178
0.50117444 0.36080377 0.69549675
0.57329273 0.40537878 0.69585649
0.66841261 0.47847592 0.69702056
0.42764440 0.33016850 0.69533323
0.42771319 0.33019244 0.69533333
0.42823965 0.33037606 0.69533411
0.43044648 0.33115302 0.69533743
0.43773801 0.33380446 0.69534898
0.45774987 0.34175360 0.69538595
0.50129757 0.36246974 0.69550092
0.57334962 0.40637093 0.69586065
0.66843341 0.47891538 0.69702467
0.42881725 0.33996489 0.69535102
0.42888514 0.33998610 0.69535112
0.42940471 0.34014876 0.69535190
0.43158311 0.34083759 0.69535521
0.43878583 0.34319442 0.69536676
0.45858947 0.35031517 0.69540373
0.50181989 0.36921243 0.69551868
0.57359144 0.41047259 0.69587834
0.66852189 0.48076286 0.69704214
0.43278901 0.36711195 0.69541301
0.43285393 0.36712722 0.69541311
0.43335087 0.36724438 0.69541389
0.43543582 0.36774129 0.69541720
0.44234560 0.36945103 0.69542874
0.46145703 0.37470409 0.69546569
0.50361809 0.38923603 0.69558056
0.57442965 0.42343549 0.69593998
0.66882973 0.48692682 0.69710303
0.44443411 0.42051628 0.69561126
0.44449110 0.42052449 0.69561136
0.44492749 0.42058755 0.69561214
0.44676178 0.42085548 0.69561544
0.45287876 0.42178323 0.69562695
0.47007391 0.42469039 0.69566382
0.50915217 0.43317004 0.69577845
0.57706490 0.45550362 0.69613712
0.66980887 0.50427420 0.69729775
0.47326647 0.49847501 0.69622545
0.47330790 0.49847848 0.69622555
0.47362542 0.49850509 0.69622633
0.47496486 0.49861832 0.69622961
0.47948652 0.49901196 0.69624105
0.49262576 0.50026142 0.69627768
0.52452054 0.50404437 0.69639156
0.58482277 0.51499708 0.69674791
0.67279214 0.54375754 0.69790107
0.52946631 0.59322356 0.69812654
0.52948885 0.59322482 0.69812664
0.52966171 0.59323448 0.69812740
0.53039402 0.59327562 0.69813061
0.53290301 0.59341891 0.69814183
0.54051235 0.59387632 0.69817772
0.56086963 0.59528557 0.69828933
0.60569687 0.59957460 0.69863858
0.68158190 0.61234944 0.69976894
0.61413173 0.69893502 0.70407389
0.61414089 0.69893543 0.70407398
0.61421122 0.69893859 0.70407469
0.61451001 0.69895203 0.70407771
0.61554435 0.69899887 0.70408824
0.61878268 0.69914873 0.70412193
0.62820328 0.69961350 0.70422671
0.65282910 0.70105674 0.70455463
0.70561646 0.70561646 0.70561646
