src/ffmpeg_scripts/luts/sRGB-rec2020_-3p67.cube
TITLE "sRGB-rec2020_-3p67"
LUT_3D_SIZE 9
# PQ (EOTF Only)/sRGB -> PQ (EOTF Only)/Rec2020, CineEI Shift -3.67, Black Level 0.00% IRE, Input 100% -> Output 109% - Created with LUTCalc v4.01 by Ben Turley October 2020
0.06256172 0.06256172 0.06256172
0.09351911 0.07281682 0.06720774
0.14056307 0.09287326 0.07752579
0.19961066 0.12281504 0.09465541
0.26922846 0.16328266 0.11999471
0.34861347 0.21504328 0.15509776
0.43724038 0.27892053 0.20166457
0.53473543 0.35577262 0.26154423
0.64081817 0.44648374 0.33674121
0.08533269 0.09945770 0.07421993
0.10012376 0.10068382 0.07531206
0.14235997 0.10866387 0.08165330
0.20018718 0.13006203 0.09651228
0.26942946 0.16633377 0.12081200
0.34868561 0.21628619 0.15545243
0.43726611 0.27941099 0.20181397
0.53474431 0.35595720 0.26160410
0.64082105 0.44654853 0.33676352
0.12281004 0.15282924 0.09646687
0.12790026 0.15312154 0.09679856
0.15417777 0.15530774 0.09921247
0.20443748 0.16364462 0.10762639
0.27095454 0.18522904 0.12654538
0.34923742 0.22509422 0.15809189
0.43746345 0.28307234 0.20294888
0.53481241 0.35736100 0.26206219
0.64084315 0.44704449 0.33693463
0.17231326 0.21783176 0.12906473
0.17408274 0.21792193 0.12918535
0.18602198 0.21861003 0.13009942
0.21980718 0.22145842 0.13377160
0.27711074 0.23050331 0.14451146
0.35154592 0.25321555 0.16797129
0.43829866 0.29691670 0.20755405
0.53510177 0.36308521 0.26397987
0.64093718 0.44912568 0.33765899
0.23300193 0.29275462 0.17245458
0.23364646 0.29278533 0.17250144
0.23839748 0.29302075 0.17285994
0.25555985 0.29401479 0.17435934
0.29527718 0.29738178 0.17927973
0.35912416 0.30726373 0.19260162
0.44115082 0.33183914 0.22135410
0.53610359 0.38044940 0.27029005
0.64126425 0.45602653 0.34013488
0.30447041 0.37662498 0.22722742
0.30470928 0.37663580 0.22724590
0.30651929 0.37671890 0.22738762
0.31378435 0.37707172 0.22798749
0.33488649 0.37829041 0.23003660
0.37960082 0.38207967 0.23619933
0.44971786 0.39289798 0.25240219
0.53924148 0.42005739 0.28745737
0.64230416 0.47513734 0.34759253
0.38650069 0.46879504 0.29403625
0.38658820 0.46879885 0.29404341
0.38725725 0.46882806 0.29409840
0.39004837 0.46895230 0.29433205
0.39912689 0.46938412 0.29514102
0.42310578 0.47075339 0.29767523
0.47212050 0.47488681 0.30506250
0.54838171 0.48675810 0.32451655
0.64546862 0.51737816 0.36724105
0.47897489 0.56879478 0.37356770
0.47900578 0.56879607 0.37357036
0.47924266 0.56880601 0.37359081
0.48024420 0.56884833 0.37367779
0.48365253 0.56899569 0.37398034
0.49378622 0.56946605 0.37494203
0.51965506 0.57091476 0.37786638
0.57235872 0.57531981 0.38643734
0.65475946 0.58840675 0.40962386
0.58183536 0.67626389 0.46653042
0.58184560 0.67626431 0.46653134
0.58192417 0.67626749 0.46653845
0.58225790 0.67628106 0.46656869
0.58341221 0.67632835 0.46667404
0.58701659 0.67647964 0.46701059
0.59742472 0.67694884 0.46804990
0.62417151 0.67840572 0.47123514
0.67994911 0.68300764 0.48091380
0.07053391 0.06633369 0.09901940
0.09449403 0.07368054 0.09932022
0.14080373 0.09314003 0.10152466
0.19968681 0.12291364 0.10937403
0.26925493 0.16332151 0.12756807
0.34862296 0.21505879 0.15859010
0.43724377 0.27892661 0.20316766
0.53473660 0.35577490 0.26215115
0.64081855 0.44648454 0.33696794
0.08673925 0.09966319 0.10059642
0.10088025 0.10088025 0.10088025
0.14259090 0.10881343 0.10296785
0.20026260 0.13014359 0.11048921
0.26945586 0.16637034 0.12823642
0.34869509 0.21630140 0.15892008
0.43726950 0.27941703 0.20331335
0.53474547 0.35595948 0.26221052
0.64082143 0.44654933 0.33699019
0.12318455 0.15287743 0.11046141
0.12822779 0.15316943 0.11066501
0.15435605 0.15535347 0.11218670
0.20450773 0.16368319 0.11798011
0.27098039 0.18525471 0.13302162
0.34924684 0.22510746 0.16138245
0.43746683 0.28307809 0.20442049
0.53481358 0.35736324 0.26266472
0.64084353 0.44704529 0.33716082
0.17243735 0.21784660 0.13517249
0.17420274 0.21793674 0.13527613
0.18611839 0.21862469 0.13606348
0.21986198 0.22147244 0.13925874
0.27713449 0.23051549 0.14885369
0.35155508 0.25322425 0.17069118
0.43830200 0.29692148 0.20891910
0.53510293 0.36308730 0.26456646
0.64093756 0.44912645 0.33788317
0.23304663 0.29275967 0.17495620
0.23369073 0.29279038 0.17500090
0.23843870 0.29302578 0.17534291
0.25559193 0.29401975 0.17677480
0.29529580 0.29738653 0.18148895
0.35913252 0.30726791 0.19435160
0.44115406 0.33184220 0.22245095
0.53610474 0.38045110 0.27082752
0.64126463 0.45602725 0.34035233
0.30448692 0.37662676 0.22822946
0.30472575 0.37663758 0.22824766
0.30653537 0.37672068 0.22838722
0.31379900 0.37707349 0.22897798
0.33489772 0.37829215 0.23099673
0.37960737 0.38208134 0.23707457
0.44972080 0.39289945 0.25309305
0.53924259 0.42005847 0.28788337
0.64230453 0.47513793 0.34779103
0.38650673 0.46879567 0.29442671
0.38659424 0.46879947 0.29443384
0.38726324 0.46882868 0.29448854
0.39005417 0.46895292 0.29472099
0.39913211 0.46938474 0.29552584
0.42310975 0.47075400 0.29804748
0.47212280 0.47488739 0.30540066
0.54838271 0.48675861 0.32478053
0.64546898 0.51737853 0.36739776
0.47897702 0.56879499 0.37371308
0.47900792 0.56879629 0.37371574
0.47924478 0.56880623 0.37373615
0.48024631 0.56884854 0.37382298
0.48365456 0.56899590 0.37412502
0.49378804 0.56946627 0.37508507
0.51965644 0.57091497 0.37800458
0.57235950 0.57532001 0.38656234
0.65475978 0.58840692 0.40971949
0.58183607 0.67626396 0.46658096
0.58184631 0.67626437 0.46658189
0.58192488 0.67626756 0.46658899
0.58225860 0.67628113 0.46661921
0.58341290 0.67632842 0.46672450
0.58701726 0.67647971 0.46706087
0.59742532 0.67694891 0.46809961
0.62417196 0.67840578 0.47128314
0.67994936 0.68300771 0.48095697
0.08684253 0.07493708 0.15193900
0.10093710 0.07883768 0.15200984
0.14260847 0.09509463 0.15255023
0.20026835 0.12366211 0.15478365
0.26945787 0.16361885 0.16184620
0.34869581 0.21517775 0.17949076
0.43726976 0.27897328 0.21361327
0.53474556 0.35579243 0.26664683
0.64082146 0.44649069 0.33868810
0.09524270 0.10119113 0.15231811
0.10609661 0.10234374 0.15238837
0.14432482 0.10993862 0.15292444
0.20083855 0.13076432 0.15514067
0.26965824 0.16665031 0.16215511
0.34876788 0.21641803 0.17971102
0.43729548 0.27946340 0.21373609
0.53475443 0.35597697 0.26670258
0.64082433 0.44655547 0.33870988
0.12594124 0.15324584 0.15513165
0.13065531 0.15353557 0.15519785
0.15570320 0.15570320 0.15570320
0.20504441 0.16397840 0.15779682
0.27117855 0.18545141 0.16446552
0.34931914 0.22520903 0.18137334
0.43749275 0.28312221 0.21467121
0.53482253 0.35738044 0.26712918
0.64084643 0.44705140 0.33887693
0.17338053 0.21796040 0.16555939
0.17511522 0.21805039 0.16561295
0.18685319 0.21873710 0.16602238
0.22028119 0.22157992 0.16772935
0.27731663 0.23060896 0.17327413
0.35162538 0.25329107 0.18793835
0.43832769 0.29695819 0.21850272
0.53511186 0.36310336 0.26891742
0.64094046 0.44913243 0.33958422
0.23338885 0.29279845 0.19108295
0.23402963 0.29282914 0.19111633
0.23875434 0.29306442 0.19137201
0.25583780 0.29405789 0.19244786
0.29543865 0.29742301 0.19604907
0.35919668 0.30729999 0.20629110
0.44117893 0.33186570 0.23030341
0.53611357 0.38046417 0.27482705
0.64126752 0.45603278 0.34200298
0.30461362 0.37664043 0.23545199
0.30485205 0.37665125 0.23546829
0.30665875 0.37673433 0.23559336
0.31391139 0.37708709 0.23612314
0.33498394 0.37830556 0.23793786
0.37965768 0.38209416 0.24343989
0.44974341 0.39291076 0.25818168
0.53925113 0.42006675 0.29107629
0.64230739 0.47514241 0.34929947
0.38655313 0.46880047 0.29735981
0.38664059 0.46880428 0.29736667
0.38730923 0.46883348 0.29741930
0.39009869 0.46895772 0.29764297
0.39917218 0.46938952 0.29841765
0.42314022 0.47075870 0.30084698
0.47214046 0.47489189 0.30794913
0.54839046 0.48676256 0.32677887
0.64547175 0.51738136 0.36859145
0.47899340 0.56879663 0.37482118
0.47902429 0.56879792 0.37482381
0.47926111 0.56880786 0.37484395
0.48026246 0.56885017 0.37492966
0.48367012 0.56899753 0.37522777
0.49380197 0.56946789 0.37617548
0.51966697 0.57091657 0.37905833
0.57236550 0.57532154 0.38751608
0.65476229 0.58840825 0.41045034
0.58184150 0.67626448 0.46696816
0.58185173 0.67626490 0.46696908
0.58193030 0.67626809 0.46697615
0.58226400 0.67628166 0.46700625
0.58341824 0.67632895 0.46711109
0.58702240 0.67648023 0.46744604
0.59742992 0.67694943 0.46848040
0.62417543 0.67840630 0.47165086
0.67995128 0.68300820 0.48128779
0.11206864 0.08958577 0.21652480
0.11878254 0.09139726 0.21654665
0.14956180 0.10205538 0.21671418
0.20268220 0.12669065 0.21742239
0.27031547 0.16486526 0.21983102
0.34900522 0.21568167 0.22698420
0.43738030 0.27917164 0.24526776
0.53478370 0.35586702 0.28316556
0.64083383 0.44651686 0.34562898
0.11575728 0.10690361 0.21664203
0.12184726 0.10785430 0.21666384
0.15103703 0.11432995 0.21683106
0.20322988 0.13330389 0.21753797
0.27051347 0.16782522 0.21994228
0.34907701 0.21691211 0.22708373
0.43740600 0.27966044 0.24534340
0.53479257 0.35605139 0.28321002
0.64083671 0.44658163 0.34564898
0.13588211 0.15478274 0.21753504
0.13961565 0.15506325 0.21755654
0.16105088 0.15716409 0.21772141
0.20727722 0.16521605 0.21841845
0.27201611 0.18628111 0.22079018
0.34962621 0.22563963 0.22784298
0.43760302 0.28330976 0.24592144
0.53486064 0.35745361 0.28355053
0.64085881 0.44707741 0.34580240
0.17721789 0.21844258 0.22120134
0.17883430 0.21853188 0.22122163
0.18987826 0.21921341 0.22137725
0.22203547 0.22203547 0.22203547
0.27808698 0.23100538 0.22427869
0.35192399 0.25357476 0.23097960
0.43843693 0.29711424 0.24832896
0.53514985 0.36317167 0.28498284
0.64095282 0.44915784 0.34645234
0.23482616 0.29296329 0.23255918
0.23545326 0.29299392 0.23257621
0.24008165 0.29322869 0.23270686
0.25687492 0.29422001 0.23326013
0.29604375 0.29757812 0.23515357
0.35946925 0.30743640 0.24087881
0.44128475 0.33196567 0.25612096
0.53615116 0.38051978 0.28977166
0.64127984 0.45605632 0.34867872
0.30515062 0.37669860 0.25968839
0.30538740 0.37670942 0.25969984
0.30718178 0.37679244 0.25978771
0.31438805 0.37714496 0.26016054
0.33534993 0.37836260 0.26144516
0.37987150 0.38214872 0.26540956
0.44983960 0.39295885 0.27650902
0.53928748 0.42010197 0.30333780
0.64231958 0.47516148 0.35542867
0.38675037 0.46882092 0.30872311
0.38683764 0.46882472 0.30872902
0.38750475 0.46885393 0.30877443
0.39028795 0.46897813 0.30896745
0.39934258 0.46940983 0.30963664
0.42326982 0.47077871 0.31174180
0.47221558 0.47491101 0.31795144
0.54842342 0.48677936 0.33476808
0.64548353 0.51739342 0.37349167
0.47906309 0.56880359 0.37938264
0.47909395 0.56880488 0.37938512
0.47933059 0.56881482 0.37940421
0.48033118 0.56885713 0.37948544
0.48373633 0.56900447 0.37976799
0.49386127 0.56947480 0.38066662
0.51971181 0.57092338 0.38340358
0.57239104 0.57532803 0.39146152
0.65477297 0.58841390 0.41349501
0.58186460 0.67626672 0.46859823
0.58187483 0.67626713 0.46859913
0.58195337 0.67627032 0.46860608
0.58228700 0.67628389 0.46863564
0.58344095 0.67633118 0.46873862
0.58704426 0.67648246 0.46906763
0.59744950 0.67695164 0.47008382
0.62419019 0.67840848 0.47319986
0.67995946 0.68301027 0.48268285
0.14718304 0.11174865 0.29108277
0.15009699 0.11256539 0.29109022
0.16798307 0.11824786 0.29114740
0.21041309 0.13571818 0.29139034
0.27322825 0.16898568 0.29223121
0.35007487 0.21740744 0.29486281
0.43776464 0.27985900 0.30251322
0.53491655 0.35612652 0.32253563
0.64087697 0.44660805 0.36607234
0.14873552 0.12127160 0.29112276
0.15155552 0.12189261 0.29113021
0.16899958 0.12634210 0.29118736
0.21089558 0.14110387 0.29143017
0.27341848 0.17172369 0.29227060
0.35014574 0.21860491 0.29490086
0.43779022 0.28034328 0.30254764
0.53492540 0.35631031 0.32256226
0.64087984 0.44667275 0.36608796
0.15919462 0.15978521 0.29142916
0.16147213 0.16003822 0.29143657
0.17620768 0.16193884 0.29149349
0.21448012 0.16930937 0.29173532
0.27486283 0.18908146 0.29257238
0.35068787 0.22711878 0.29519235
0.43798640 0.28395990 0.30281141
0.53499337 0.35770820 0.32276650
0.64090193 0.44716803 0.36620788
0.18880890 0.22009539 0.29271973
0.19012375 0.22018239 0.29272702
0.19932917 0.22084651 0.29278298
0.22780148 0.22359874 0.29302071
0.28071124 0.23236898 0.29384373
0.35295664 0.25455486 0.29642086
0.43881675 0.29765581 0.30392426
0.53528217 0.36340940 0.32363009
0.64099590 0.44924639 0.36671646
0.23960733 0.29353518 0.29705435
0.24019133 0.29356557 0.29706123
0.24451494 0.29379858 0.29711408
0.26037544 0.29478252 0.29733865
0.29811641 0.29811641 0.29811641
0.36041260 0.30791011 0.30055517
0.44165269 0.33231320 0.30768305
0.53628207 0.38071338 0.32656950
0.64132277 0.45613835 0.36846577
0.30699410 0.37690109 0.30948334
0.30722531 0.37691189 0.30948920
0.30897809 0.37699471 0.30953417
0.31602751 0.37734639 0.30972532
0.33661305 0.37856117 0.31038804
0.38061275 0.38233866 0.31247327
0.45017414 0.39312631 0.31862749
0.53941407 0.42022466 0.33531609
0.64236204 0.47522795 0.37383518
0.38743449 0.46889217 0.33895218
0.38752106 0.46889597 0.33895622
0.38818289 0.46892515 0.33898726
0.39094455 0.46904926 0.33911928
0.39993401 0.46948062 0.33957784
0.42372017 0.47084845 0.34102920
0.47247697 0.47497766 0.34538655
0.54853826 0.48683790 0.35772381
0.64552459 0.51743544 0.38865184
0.47930561 0.56882784 0.39361186
0.47933639 0.56882914 0.39361396
0.47957241 0.56883908 0.39363013
0.48057037 0.56888137 0.39369893
0.48396680 0.56902868 0.39393834
0.49406771 0.56949889 0.39470060
0.51986796 0.57094709 0.39703026
0.57248003 0.57535067 0.40395627
0.65481020 0.58843360 0.42335320
0.58194507 0.67627449 0.47406302
0.58195530 0.67627491 0.47406387
0.58203378 0.67627810 0.47407041
0.58236712 0.67629167 0.47409825
0.58352010 0.67633895 0.47419524
0.58712044 0.67649022 0.47450515
0.59751773 0.67695937 0.47546276
0.62424161 0.67841608 0.47840317
0.67998798 0.68301752 0.48738668
0.19326436 0.14308733 0.37464985
0.19448194 0.14344913 0.37465248
0.20307266 0.14613302 0.37467266
0.23019965 0.15606589 0.37475854
0.28184419 0.18034518 0.37505726
0.35340985 0.22263699 0.37600686
0.43898444 0.28201818 0.37889535
0.53534071 0.35695213 0.38736849
0.64101497 0.44689945 0.41033711
0.19390658 0.14767661 0.37466396
0.19511087 0.14800325 0.37466659
0.20361681 0.15043656 0.37468678
0.23055342 0.15957969 0.37477264
0.28201338 0.18256942 0.37507131
0.35347791 0.22374076 0.37602075
0.43900967 0.28248857 0.37890877
0.53534953 0.35713411 0.38738064
0.64101784 0.44696395 0.41034643
0.19861506 0.17308376 0.37477228
0.19972714 0.17327870 0.37477491
0.20763916 0.17475214 0.37479507
0.23320824 0.18060671 0.37488082
0.28329977 0.19722460 0.37517911
0.35399865 0.23164149 0.37612735
0.43920319 0.28600456 0.37901181
0.53541719 0.35851832 0.38747395
0.64103990 0.44745763 0.41041801
0.21532448 0.22511731 0.37523185
0.21617140 0.22519775 0.37523446
0.22232137 0.22581211 0.37525451
0.24345565 0.22836413 0.37533980
0.28853999 0.23655563 0.37563647
0.35617950 0.25760423 0.37657965
0.44002237 0.29936472 0.37944903
0.53570468 0.36416621 0.38787001
0.64113373 0.44952938 0.41072207
0.25297969 0.29533811 0.37681479
0.25346039 0.29536779 0.37681735
0.25704519 0.29559533 0.37683703
0.27055050 0.29655639 0.37692074
0.30439958 0.29981516 0.37721195
0.36336376 0.30940799 0.37813786
0.44282092 0.33341616 0.38095596
0.53670009 0.38133044 0.38923665
0.64146013 0.45640053 0.41177391
0.31261930 0.37754634 0.38169425
0.31283440 0.37755705 0.38169667
0.31446670 0.37763925 0.38171525
0.32105916 0.37798828 0.38179430
0.34053052 0.37919397 0.38206931
0.38294411 0.38294411 0.38294411
0.45123720 0.39366040 0.38561012
0.53981835 0.42061640 0.39347255
0.64249790 0.47544047 0.41505987
0.38958933 0.46911998 0.39530766
0.38967375 0.46912377 0.39530973
0.39031926 0.46915288 0.39532558
0.39301418 0.46927668 0.39539304
0.40180138 0.46970697 0.39562780
0.42514714 0.47107142 0.39637536
0.47330908 0.47519076 0.39866090
0.54890506 0.48702512 0.40546292
0.64565599 0.51756990 0.42456306
0.48007800 0.56890549 0.42788182
0.48010852 0.56890678 0.42788324
0.48034256 0.56891672 0.42789417
0.48133220 0.56895898 0.42794067
0.48470100 0.56910616 0.42810260
0.49472572 0.56957598 0.42861921
0.52036628 0.57102301 0.43020766
0.57276444 0.57542312 0.43501392
0.65492931 0.58849667 0.44910510
0.58220235 0.67629940 0.48964304
0.58221254 0.67629982 0.48964375
0.58229080 0.67630301 0.48964927
0.58262324 0.67631657 0.48967275
0.58377312 0.67636384 0.48975457
0.58736400 0.67651507 0.49001611
0.59773592 0.67698409 0.49082517
0.62440613 0.67844043 0.49331789
0.68007923 0.68304071 0.50100995
0.25145500 0.18545704 0.46658510
0.25194633 0.18561232 0.46658603
0.25560771 0.18679049 0.46659313
0.26936350 0.19154779 0.46662335
0.30364726 0.20561897 0.46672864
0.36300316 0.23663513 0.46706499
0.44267678 0.28836104 0.46810368
0.53664832 0.35946979 0.47128707
0.64144309 0.44780017 0.48096051
0.25171330 0.18748901 0.46659007
0.25220281 0.18763877 0.46659099
0.25585109 0.18877569 0.46659809
0.26956413 0.19337646 0.46662831
0.30377407 0.20706485 0.46673359
0.36306380 0.23752780 0.46706993
0.44270099 0.28879316 0.46810856
0.53665701 0.35964634 0.47129178
0.64144595 0.44786402 0.48096475
0.25366533 0.20107194 0.46662819
0.25414133 0.20119044 0.46662911
0.25769227 0.20209255 0.46663621
0.27108640 0.20578773 0.46666642
0.30474088 0.21716053 0.46677165
0.36352800 0.24401362 0.46710785
0.44288670 0.29203105 0.46814605
0.53672374 0.36098970 0.47132798
0.64146791 0.44835279 0.48099731
0.26141482 0.23864585 0.46679029
0.26184131 0.23871135 0.46679121
0.26503370 0.23921216 0.46679830
0.27723193 0.24130331 0.46682845
0.30872639 0.24812710 0.46693350
0.36547573 0.26632869 0.46726910
0.44367298 0.30445055 0.46830547
0.53700724 0.36647822 0.47148192
0.64156132 0.45040425 0.48113579
0.28331035 0.30068932 0.46735316
0.28362608 0.30071699 0.46735407
0.28600685 0.30092914 0.46736111
0.29537221 0.30182575 0.46739108
0.32121640 0.30487221 0.46749548
0.37193296 0.31389248 0.46782902
0.44636144 0.33675464 0.46885906
0.53798894 0.38322234 0.47201658
0.64188625 0.45721149 0.48161694
0.32791825 0.37952326 0.46913263
0.32809555 0.37953372 0.46913353
0.32944405 0.37961403 0.46914043
0.33494383 0.37995505 0.46916982
0.35163985 0.38113338 0.46927220
0.38981630 0.38480096 0.46959929
0.45446689 0.39530142 0.47060959
0.54106520 0.42182433 0.47370800
0.64291937 0.47609858 0.48314101
0.39596835 0.46982519 0.47445691
0.39604675 0.46982895 0.47445776
0.39664639 0.46985783 0.47446427
0.39915354 0.46998068 0.47449199
0.40736771 0.47040766 0.47458856
0.42944558 0.47176173 0.47489714
0.47585068 0.47585068 0.47585068
0.55003728 0.48760524 0.47877882
0.64606366 0.51798701 0.48772729
0.48244042 0.56914668 0.48939132
0.48247016 0.56914797 0.48939204
0.48269825 0.56915788 0.48939757
0.48366288 0.56920003 0.48942112
0.48694857 0.56934684 0.48950316
0.49674357 0.56981546 0.48976542
0.52189993 0.57125885 0.49057667
0.57364395 0.57564820 0.49307605
0.65529897 0.58869264 0.50078750
0.58299839 0.67637687 0.52601798
0.58300850 0.67637728 0.52601847
0.58308611 0.67638046 0.52602219
0.58341576 0.67639402 0.52603804
0.58455607 0.67644125 0.52609328
0.58811782 0.67659236 0.52626996
0.59841161 0.67706100 0.52681758
0.62491619 0.67851616 0.52851485
0.68036262 0.68311283 0.53384606
0.32294876 0.24091729 0.56642374
0.32313746 0.24098061 0.56642406
0.32457168 0.24146487 0.56642647
0.33040389 0.24348843 0.56643677
0.34796128 0.25010746 0.56647266
0.38749873 0.26786256 0.56658749
0.45336168 0.30537417 0.56694390
0.54063537 0.36690767 0.56805325
0.64277365 0.45056848 0.57158376
0.32304785 0.24175515 0.56642543
0.32323632 0.24181770 0.56642575
0.32466877 0.24229602 0.56642817
0.33049415 0.24429528 0.56643846
0.34803399 0.25084044 0.56647435
0.38754414 0.26843315 0.56658918
0.45338318 0.30571996 0.56694558
0.54064370 0.36706921 0.56805491
0.64277647 0.45063040 0.57158536
0.32380466 0.24786596 0.56643842
0.32399134 0.24792314 0.56643873
0.32541037 0.24836063 0.56644115
0.33118386 0.25019250 0.56645145
0.34859019 0.25622491 0.56648733
0.38789204 0.27267043 0.56660214
0.45354809 0.30832484 0.56695849
0.54070763 0.36829935 0.56806767
0.64279812 0.45110440 0.57159766
0.32694814 0.26915215 0.56649368
0.32712760 0.26919442 0.56649400
0.32849238 0.26951817 0.56649641
0.33405545 0.27088037 0.56650670
0.35091665 0.27543884 0.56654256
0.38935744 0.28838410 0.56665731
0.45424677 0.31853176 0.56701345
0.54097933 0.37334370 0.56812199
0.64289023 0.45309477 0.57164997
0.33703248 0.31540614 0.56668609
0.33719081 0.31542903 0.56668641
0.33839638 0.31560457 0.56668882
0.34333718 0.31634748 0.56669909
0.35855013 0.31888394 0.56673487
0.39427924 0.32649935 0.56684939
0.45664107 0.34641606 0.56720480
0.54192040 0.38889914 0.56831110
0.64321063 0.45970920 0.57183213
0.36285255 0.38544270 0.56729965
0.36296827 0.38545246 0.56729996
0.36385151 0.38552739 0.56730236
0.36751058 0.38584562 0.56731256
0.37915114 0.38694589 0.56734811
0.40838576 0.39037739 0.56746188
0.46390811 0.40025584 0.56781500
0.54487202 0.42550974 0.56891418
0.64422947 0.47813281 0.57241315
0.41338674 0.47200257 0.56918356
0.41345092 0.47200625 0.56918386
0.41394223 0.47203445 0.56918621
0.41600346 0.47215439 0.56919621
0.42283374 0.47257132 0.56923106
0.44172102 0.47389384 0.56934258
0.48339342 0.47789037 0.56968872
0.55350278 0.48940160 0.57076636
0.64733121 0.51928345 0.57419838
0.48947906 0.56989930 0.57485986
0.48950660 0.56990058 0.57486015
0.48971786 0.56991041 0.57486236
0.49061178 0.56995223 0.57487177
0.49366193 0.57009787 0.57490458
0.50280123 0.57056278 0.57500958
0.52655314 0.57199483 0.57533554
0.57635080 0.57635080 0.57635080
0.65644930 0.58930477 0.57958863
0.58545281 0.67661945 0.59130757
0.58546267 0.67661986 0.59130781
0.58553828 0.67662304 0.59130967
0.58585948 0.67663656 0.59131757
0.58697080 0.67668367 0.59134513
0.59044421 0.67683439 0.59143334
0.60050036 0.67730183 0.59170728
0.62649860 0.67875331 0.59256148
0.68124608 0.68333872 0.59529546
0.40898680 0.31174523 0.67380973
0.40905429 0.31176921 0.67380983
0.40957083 0.31195315 0.67381060
0.41173619 0.31273134 0.67381391
0.41889258 0.31538533 0.67382543
0.43854860 0.32332823 0.67386230
0.48140433 0.34394906 0.67397695
0.55257357 0.38742144 0.67433569
0.64698841 0.45904972 0.67549657
0.40902223 0.31206383 0.67381027
0.40908969 0.31208772 0.67381037
0.40960602 0.31227090 0.67381115
0.41177053 0.31304595 0.67381445
0.41892423 0.31568948 0.67382597
0.43857396 0.32360333 0.67386284
0.48142012 0.34416212 0.67397749
0.55258090 0.38754831 0.67433623
0.64699110 0.45910609 0.67549710
0.40929380 0.31446792 0.67381444
0.40936106 0.31449109 0.67381454
0.40987579 0.31466874 0.67381531
0.41203372 0.31542052 0.67381862
0.41916685 0.31798655 0.67383014
0.43876843 0.32568456 0.67386701
0.48154127 0.34577991 0.67398165
0.55263719 0.38851627 0.67434038
0.64701181 0.45953770 0.67550120
0.41044055 0.32395173 0.67383218
0.41050693 0.32397227 0.67383228
0.41101498 0.32412983 0.67383305
0.41314534 0.32479711 0.67383636
0.42019230 0.32708064 0.67384787
0.43959158 0.33398376 0.67388474
0.48205524 0.35233071 0.67399936
0.55287644 0.39251897 0.67435802
0.64709990 0.46135237 0.67551862
0.41432483 0.35028949 0.67389399
0.41438833 0.35030433 0.67389409
0.41487443 0.35041817 0.67389487
0.41691415 0.35090103 0.67389817
0.42367683 0.35256262 0.67390968
0.44240343 0.35766967 0.67394652
0.48382485 0.37181264 0.67406107
0.55370577 0.40517964 0.67441949
0.64740638 0.46740894 0.67557934
0.42572172 0.40232710 0.67409168
0.42577752 0.40233513 0.67409178
0.42620485 0.40239674 0.67409256
0.42800123 0.40265851 0.67409585
0.43399394 0.40356502 0.67410733
0.45085714 0.40640612 0.67414410
0.48927253 0.41469755 0.67425841
0.55631343 0.43656647 0.67461609
0.64838124 0.48447059 0.67577354
0.45399084 0.47876423 0.67470417
0.45403151 0.47876764 0.67470427
0.45434323 0.47879383 0.67470504
0.45565827 0.47890521 0.67470831
0.46009867 0.47929248 0.67471972
0.47301133 0.48052176 0.67475625
0.50441349 0.48424439 0.67486982
0.56399288 0.49502880 0.67522519
0.65135184 0.52339114 0.67637525
0.50928992 0.57231343 0.67660012
0.50931215 0.57231467 0.67660022
0.50948262 0.57232425 0.67660097
0.51020484 0.57236501 0.67660418
0.51267953 0.57250697 0.67661536
0.52018775 0.57296016 0.67665116
0.54029546 0.57435648 0.67676248
0.58467643 0.57860699 0.67711081
0.66010738 0.59127443 0.67823825
0.59304260 0.67740647 0.68253275
0.59305169 0.67740689 0.68253284
0.59312146 0.67741003 0.68253355
0.59341790 0.67742344 0.68253656
0.59444417 0.67747016 0.68254707
0.59765768 0.67761963 0.68258069
0.60700995 0.67808321 0.68268522
0.63148401 0.67952281 0.68301239
0.68407185 0.68407185 0.68407185
