src/ffmpeg_scripts/luts/sRGB-rec2020_-2p67.cube
TITLE "sRGB-rec2020_-2p67"
LUT_3D_SIZE 9
# PQ (EOTF Only)/sRGB -> PQ (EOTF Only)/Rec2020, CineEI Shift -2.67, Black Level 0.00% IRE, Input 100% -> Output 109% - Created with LUTCalc v4.01 by Ben Turley October 2020
0.06256172 0.06256172 0.06256172
0.10495839 0.07730490 0.06940497
0.16381874 0.10411895 0.08376101
0.23378319 0.14205050 0.10643249
0.31297914 0.19112736 0.13854941
0.40034259 0.25159643 0.18135303
0.49516414 0.32379327 0.23616358
0.59692783 0.40809816 0.30437233
0.70523688 0.50491707 0.38743999
0.09422450 0.11262530 0.07924247
0.11347972 0.11419736 0.08074208
0.16599967 0.12434791 0.08932509
0.23445167 0.15099152 0.10883397
0.31320388 0.19475408 0.13956526
0.40042083 0.25302403 0.18177800
0.49519133 0.32433932 0.23633660
0.59693698 0.40829788 0.30443951
0.70523979 0.50498535 0.38746429
0.14204430 0.17863180 0.10877535
0.14833242 0.17898274 0.10920341
0.18025011 0.18160464 0.11231045
0.23937244 0.19155807 0.12303575
0.31490840 0.21702694 0.14666244
0.40101925 0.26311230 0.18493645
0.49539979 0.32841200 0.23765049
0.59700727 0.40981640 0.30495342
0.70526213 0.50550798 0.38765061
0.20183638 0.25479785 0.14976560
0.20392600 0.25490128 0.14991395
0.21795500 0.25569046 0.15103744
0.25706274 0.25895403 0.15553938
0.32177740 0.26928354 0.16860588
0.40352156 0.29500941 0.19669689
0.49628196 0.34375607 0.24297251
0.59730589 0.41600120 0.30710363
0.70535715 0.50770034 0.38843930
0.27212825 0.33915221 0.20200337
0.27286145 0.33918621 0.20205874
0.27825853 0.33944682 0.20248226
0.29764850 0.34054695 0.20425239
0.34194344 0.34427004 0.21004740
0.41172265 0.35516866 0.22563665
0.49929304 0.38209706 0.25883459
0.59833965 0.43469397 0.31416587
0.70568768 0.51496143 0.39113353
0.35209221 0.43058561 0.26554822
0.35235542 0.43059725 0.26556931
0.35434909 0.43068657 0.26573104
0.36233747 0.43106578 0.26641546
0.38541954 0.43237528 0.26875178
0.43378280 0.43644381 0.27576310
0.50832394 0.44803380 0.29409309
0.60157610 0.47696985 0.33328146
0.70673845 0.53500415 0.39923509
0.44118473 0.52836311 0.34057069
0.44127851 0.52836710 0.34057862
0.44199540 0.52839771 0.34063947
0.44498456 0.52852790 0.34089798
0.45469014 0.52898038 0.34179285
0.48020385 0.53041481 0.34459429
0.53184650 0.53474201 0.35274459
0.61099104 0.54714575 0.37409865
0.70993473 0.57897989 0.42048431
0.53901746 0.63195252 0.42729786
0.53904975 0.63195385 0.42730073
0.53929735 0.63196404 0.42732273
0.54034408 0.63200740 0.42741631
0.54390430 0.63215839 0.42774180
0.55447254 0.63264034 0.42877619
0.58133820 0.63412442 0.43191972
0.63560319 0.63863433 0.44111685
0.71930850 0.65200932 0.46588028
0.64529766 0.74094598 0.52598931
0.64530812 0.74094640 0.52599028
0.64538842 0.74094960 0.52599773
0.64572947 0.74096322 0.52602943
0.64690896 0.74101072 0.52613989
0.65059022 0.74116266 0.52649275
0.66120567 0.74163383 0.52758220
0.68838784 0.74309663 0.53091937
0.74464589 0.74771485 0.54104375
0.07412275 0.06814483 0.11206247
0.10622336 0.07849914 0.11244880
0.16411106 0.10446582 0.11527343
0.23387151 0.14217267 0.12524487
0.31300874 0.19117360 0.14792323
0.40035288 0.25161425 0.18553182
0.49516772 0.32380004 0.23790366
0.59692903 0.40810063 0.30505321
0.70523727 0.50491791 0.38768689
0.09608418 0.11288902 0.11408543
0.11444889 0.11444889 0.11444889
0.16627967 0.12453690 0.11711663
0.23453910 0.15109171 0.12665142
0.31323340 0.19479750 0.14874635
0.40043111 0.25304149 0.18592602
0.49519490 0.32434604 0.23807224
0.59693819 0.40830034 0.30511980
0.70524018 0.50498619 0.38771112
0.14250827 0.17868967 0.12661639
0.14873573 0.17904023 0.12687294
0.18046391 0.18165944 0.12878792
0.23945366 0.19160396 0.13604071
0.31493728 0.21705699 0.15462141
0.40102947 0.26312743 0.18886412
0.49540335 0.32841839 0.23935279
0.59700847 0.40981882 0.30562921
0.70526251 0.50550882 0.38789691
0.20198301 0.25481487 0.15725203
0.20406760 0.25491828 0.15737864
0.21806780 0.25570727 0.15833997
0.25712553 0.25897007 0.16223318
0.32180387 0.26929742 0.17384949
0.40353149 0.29501922 0.19991837
0.49628550 0.34376136 0.24454723
0.59730709 0.41600345 0.30776097
0.70535754 0.50770116 0.38868334
0.27217911 0.33915780 0.20495646
0.27291179 0.33919180 0.20500918
0.27830529 0.33945239 0.20541247
0.29768460 0.34055244 0.20709982
0.34196404 0.34427529 0.21264260
0.41173169 0.35517326 0.22767409
0.49929646 0.38210040 0.26009001
0.59834083 0.43469579 0.31476648
0.70568807 0.51496219 0.39137005
0.35211041 0.43058753 0.26669149
0.35237356 0.43059916 0.26671224
0.35436680 0.43068848 0.26687142
0.36235356 0.43106768 0.26754510
0.38543178 0.43237716 0.26984561
0.43378984 0.43644561 0.27675705
0.50832704 0.44803537 0.29487142
0.60157725 0.47697099 0.33375405
0.70673882 0.53500476 0.39945045
0.44119121 0.52836377 0.34100270
0.44128498 0.52836776 0.34101059
0.44200182 0.52839837 0.34107111
0.44499077 0.52852856 0.34132826
0.45469572 0.52898103 0.34221844
0.48020806 0.53041545 0.34500556
0.53184891 0.53474262 0.35311711
0.61099208 0.54714628 0.37438735
0.70993509 0.57898027 0.42065324
0.53901969 0.63195274 0.42745428
0.53905198 0.63195407 0.42745714
0.53929957 0.63196426 0.42747910
0.54034628 0.63200761 0.42757252
0.54390642 0.63215861 0.42789743
0.55447443 0.63264055 0.42893002
0.58133963 0.63412463 0.43206820
0.63560399 0.63863453 0.44125079
0.71930883 0.65200950 0.46598207
0.64529838 0.74094605 0.52604230
0.64530884 0.74094646 0.52604327
0.64538914 0.74094967 0.52605072
0.64573019 0.74096329 0.52608241
0.64690967 0.74101079 0.52619280
0.65059090 0.74116272 0.52654546
0.66120628 0.74163390 0.52763430
0.68838830 0.74309670 0.53096963
0.74464614 0.74771491 0.54108886
0.09622045 0.08022799 0.17756240
0.11452167 0.08553808 0.17764753
0.16630097 0.10700136 0.17829673
0.23454576 0.14309960 0.18097657
0.31323565 0.19152741 0.18941679
0.40043190 0.25175094 0.21029547
0.49519517 0.32385201 0.24995268
0.59693828 0.40811960 0.31009088
0.70524021 0.50492439 0.38955944
0.10719302 0.11484679 0.17801791
0.12109701 0.11632011 0.17810232
0.16838002 0.12595728 0.17874611
0.23520663 0.15185395 0.18140445
0.31345965 0.19512983 0.18978483
0.40051006 0.25317540 0.21055436
0.49522235 0.32439765 0.25009391
0.59694744 0.40831927 0.31015328
0.70524311 0.50499267 0.38958314
0.14591694 0.17913194 0.18139364
0.15172012 0.17947967 0.18147298
0.18207838 0.18207838 0.18207838
0.24007406 0.19195514 0.18458372
0.31515867 0.21728725 0.19253444
0.40110787 0.26324348 0.21250690
0.49543074 0.32846743 0.25116888
0.59701772 0.40983742 0.31063077
0.70526545 0.50551526 0.38976492
0.20309708 0.25494541 0.19383445
0.20514399 0.25504863 0.19389808
0.21892731 0.25583616 0.19438435
0.25760583 0.25909312 0.19641000
0.32200682 0.26940391 0.20297143
0.40360766 0.29509447 0.22019585
0.49631262 0.34380192 0.25556741
0.59731631 0.41602078 0.31263134
0.70536047 0.50770745 0.39053451
0.27256842 0.33920073 0.22386662
0.27329721 0.33923471 0.22390554
0.27866339 0.33949516 0.22420366
0.29796122 0.34059464 0.22545752
0.34212201 0.34431561 0.22964817
0.41180103 0.35520858 0.24151445
0.49932271 0.38212604 0.26905580
0.59834994 0.43470983 0.31923143
0.70569099 0.51496800 0.39316486
0.35225001 0.43060222 0.27491405
0.35251272 0.43061386 0.27493258
0.35450265 0.43070316 0.27507469
0.36247697 0.43108229 0.27567656
0.38552573 0.43239156 0.27773698
0.43384386 0.43645936 0.28397239
0.50835085 0.44804746 0.30059659
0.60158605 0.47697978 0.33729355
0.70674172 0.53500945 0.40108654
0.44124093 0.52836880 0.34424576
0.44133466 0.52837279 0.34425334
0.44205110 0.52840340 0.34431151
0.44503843 0.52853358 0.34455865
0.45473850 0.52898603 0.34541447
0.48024037 0.53042037 0.34809654
0.53186739 0.53474732 0.35592303
0.61100005 0.54715040 0.37657199
0.70993789 0.57898321 0.42193977
0.53903681 0.63195442 0.42864622
0.53906909 0.63195574 0.42864904
0.53931664 0.63196593 0.42867071
0.54036316 0.63200929 0.42876288
0.54392267 0.63216028 0.42908347
0.55448895 0.63264222 0.43010242
0.58135054 0.63412627 0.43320018
0.63561013 0.63863610 0.44227270
0.71931136 0.65201085 0.46675991
0.64530393 0.74094657 0.52644826
0.64531439 0.74094699 0.52644922
0.64539468 0.74095019 0.52645664
0.64573571 0.74096382 0.52648819
0.64691512 0.74101131 0.52659810
0.65059615 0.74116325 0.52694923
0.66121097 0.74163442 0.52803339
0.68839181 0.74309721 0.53135473
0.74464807 0.74771540 0.54143449
0.12863950 0.09982729 0.25329797
0.13704074 0.10219605 0.25332306
0.17470257 0.11595180 0.25351537
0.23734183 0.14684163 0.25432817
0.31419427 0.19300964 0.25709006
0.40076745 0.25232981 0.26527062
0.49531196 0.32407285 0.28604011
0.59697764 0.40820030 0.32851562
0.70525271 0.50495198 0.39710398
0.13326486 0.12212034 0.25343256
0.14085053 0.12332418 0.25345760
0.17647803 0.13147793 0.25364954
0.23797566 0.15496699 0.25446078
0.31441555 0.19652370 0.25721755
0.40084531 0.25374257 0.26538423
0.49533909 0.32461699 0.28612564
0.59698680 0.40839979 0.32856503
0.70525562 0.50502023 0.39712570
0.15811860 0.18097547 0.25445743
0.16266726 0.18131168 0.25448210
0.18846884 0.18382703 0.25467125
0.24265301 0.19342652 0.25547077
0.31609421 0.21825817 0.25818885
0.40144082 0.26373538 0.26625060
0.49554722 0.32867587 0.28677912
0.59705705 0.40991655 0.32894345
0.70527795 0.50554267 0.39729227
0.20762160 0.25549844 0.25865968
0.20952365 0.25560084 0.25868292
0.22246127 0.25638222 0.25886109
0.25961456 0.25961456 0.25961456
0.32286500 0.26985546 0.26218030
0.40393119 0.29541398 0.26982610
0.49642799 0.34397439 0.28949885
0.59735551 0.41609453 0.33053465
0.70537296 0.50773421 0.39799778
0.27420280 0.33938321 0.27162444
0.27491550 0.33941711 0.27164383
0.28016858 0.33967698 0.27179250
0.29912767 0.34077402 0.27242200
0.34279109 0.34448699 0.27457493
0.41209562 0.35535873 0.28107209
0.49943439 0.38223508 0.29827975
0.59838872 0.43476953 0.33584787
0.70570344 0.51499275 0.40041336
0.35284167 0.43066475 0.30228917
0.35310251 0.43067638 0.30230203
0.35507846 0.43076561 0.30240070
0.36300030 0.43114449 0.30281932
0.38592451 0.43245284 0.30426117
0.43407347 0.43651791 0.30870546
0.50845213 0.44809890 0.32110682
0.60162353 0.47701716 0.35084385
0.70675403 0.53502940 0.40772599
0.44145230 0.52839023 0.35677465
0.44154580 0.52839422 0.35678116
0.44226056 0.52842482 0.35683112
0.44524103 0.52855497 0.35704346
0.45492042 0.52900732 0.35777951
0.48037780 0.53044133 0.36009378
0.53194605 0.53476733 0.36690962
0.61103397 0.54716793 0.38529051
0.70994978 0.57899570 0.42721607
0.53910965 0.63196155 0.43354849
0.53914191 0.63196288 0.43355116
0.53938926 0.63197306 0.43357166
0.54043498 0.63201642 0.43365889
0.54399180 0.63216740 0.43396233
0.55455072 0.63264930 0.43492717
0.58139697 0.63413324 0.43786418
0.63563628 0.63864274 0.44649703
0.71932213 0.65201662 0.46999862
0.64532753 0.74094881 0.52815687
0.64533799 0.74094923 0.52815781
0.64541826 0.74095243 0.52816509
0.64575921 0.74096606 0.52819607
0.64693833 0.74101355 0.52830399
0.65061847 0.74116548 0.52864876
0.66123092 0.74163665 0.52971344
0.68840677 0.74309940 0.53297651
0.74465628 0.74771748 0.54289170
0.17183459 0.12823711 0.33730072
0.17534696 0.12926383 0.33730897
0.19671085 0.13637452 0.33737232
0.24626920 0.15791846 0.33764143
0.31744752 0.19789915 0.33857269
0.40192724 0.25431102 0.34148513
0.49571793 0.32483800 0.34993465
0.59711474 0.40848107 0.37193128
0.70529631 0.50504807 0.41922416
0.17370707 0.14013607 0.33734503
0.17710148 0.14090680 0.33735328
0.19791561 0.14641166 0.33741659
0.24682500 0.16447553 0.33768555
0.31765983 0.20113953 0.33861631
0.40200406 0.25568458 0.34152721
0.49574495 0.32537695 0.34997261
0.59712388 0.40867991 0.37196043
0.70529921 0.50511626 0.41924101
0.18625390 0.18695898 0.33768443
0.18897102 0.18726093 0.33769265
0.20643174 0.18952718 0.33775569
0.25094926 0.19828259 0.33802354
0.31927134 0.22153112 0.33895045
0.40259171 0.26542423 0.34184962
0.49595217 0.32939833 0.35026347
0.59719403 0.41019186 0.37218396
0.70532153 0.50563815 0.41937033
0.22121284 0.25739297 0.33911358
0.22274774 0.25749265 0.33912165
0.23345673 0.25825336 0.33918360
0.26620327 0.26140292 0.33944678
0.32578637 0.27140798 0.34035767
0.40504979 0.29651749 0.34320800
0.49682909 0.34457283 0.35149032
0.59749206 0.41635113 0.37312894
0.70541650 0.50782746 0.41991873
0.27963081 0.34001620 0.34390820
0.28029291 0.34004984 0.34391581
0.28518873 0.34030770 0.34397421
0.30306058 0.34139632 0.34422238
0.34508170 0.34508170 0.34508170
0.41311496 0.35588010 0.34777451
0.49982264 0.38261415 0.35563021
0.59852379 0.43497737 0.37634318
0.70574682 0.51507898 0.42180435
0.35487185 0.43088239 0.35761091
0.35512637 0.43089399 0.35761736
0.35705516 0.43098301 0.35766682
0.36479956 0.43136096 0.35787703
0.38730042 0.43266616 0.35860577
0.43486934 0.43672172 0.36089748
0.50880436 0.44827800 0.36765071
0.60175405 0.47714737 0.38588765
0.70679693 0.53509894 0.42758564
0.44218529 0.52846490 0.38984681
0.44227803 0.52846888 0.38985121
0.44298700 0.52849946 0.38988499
0.44594380 0.52862951 0.39002864
0.45555177 0.52908149 0.39052756
0.48085532 0.53051437 0.39210615
0.53221973 0.53483707 0.39684078
0.61115214 0.54722901 0.41020874
0.70999125 0.57903924 0.44348926
0.53936315 0.63198641 0.44879728
0.53939533 0.63198773 0.44879953
0.53964201 0.63199792 0.44881682
0.54068492 0.63204126 0.44889039
0.54423243 0.63219220 0.44914639
0.55476574 0.63267398 0.44996137
0.58155865 0.63415753 0.45245099
0.63572740 0.63866590 0.45984262
0.71935965 0.65203673 0.48046622
0.64540978 0.74095663 0.53387994
0.64542023 0.74095704 0.53388083
0.64550043 0.74096025 0.53388768
0.64584109 0.74097387 0.53391682
0.64701919 0.74102136 0.53401832
0.65069624 0.74117328 0.53434264
0.66130044 0.74164440 0.53534462
0.68845890 0.74310703 0.53841979
0.74468490 0.74772475 0.54780153
0.22640853 0.16688137 0.42846195
0.22782574 0.16731972 0.42846478
0.23779373 0.17056658 0.42848649
0.26893757 0.18251272 0.42857885
0.32704658 0.21129951 0.42890010
0.40554058 0.26030287 0.42992115
0.49700616 0.32724006 0.43302512
0.59755247 0.40937419 0.44211458
0.70543577 0.50535515 0.46663941
0.22715619 0.17243019 0.42847713
0.22855735 0.17282421 0.42847996
0.23842331 0.17575564 0.42850167
0.26934063 0.18671366 0.42859401
0.32723472 0.21391036 0.42891521
0.40561428 0.26156531 0.42993609
0.49703280 0.32776307 0.43303955
0.59756157 0.40957101 0.44212761
0.70543868 0.50542311 0.46664933
0.23262824 0.20274662 0.42859363
0.23391827 0.20297684 0.42859645
0.24307074 0.20471578 0.42861813
0.27236296 0.21160672 0.42871036
0.32866478 0.23101400 0.42903114
0.40617812 0.27057983 0.43005069
0.49723714 0.33166913 0.43315022
0.59763139 0.41106776 0.44222757
0.70546096 0.50594328 0.46672551
0.25191950 0.26313868 0.42908785
0.25289222 0.26323059 0.42909066
0.25994174 0.26393238 0.42911222
0.28399022 0.26684509 0.42920393
0.33448232 0.27616778 0.42952294
0.40853839 0.29994760 0.43053689
0.49810198 0.34646037 0.43361980
0.59792805 0.41716790 0.44265186
0.70555579 0.50812547 0.46704907
0.29474373 0.34201082 0.43078963
0.29528518 0.34204365 0.43079239
0.29931912 0.34229527 0.43081354
0.31445693 0.34335782 0.43090351
0.35201416 0.34695768 0.43121648
0.41630187 0.35752804 0.43221139
0.50105515 0.38381691 0.43523778
0.59895505 0.43563973 0.44411551
0.70588562 0.51535459 0.46816817
0.36105791 0.43157583 0.43603020
0.36129420 0.43158734 0.43603280
0.36308664 0.43167566 0.43605274
0.37031483 0.43205068 0.43613757
0.39156385 0.43334587 0.43643269
0.43737130 0.43737130 0.43737130
0.50992345 0.44884919 0.44023023
0.60217085 0.47756310 0.44864830
0.70693419 0.53532129 0.47166213
0.44449312 0.52870361 0.45061028
0.44458351 0.52870758 0.45061249
0.44527453 0.52873808 0.45062943
0.44815808 0.52886780 0.45070153
0.45754445 0.52931863 0.45095244
0.48236800 0.53074790 0.45175129
0.53309083 0.53506004 0.45419259
0.61152957 0.54742434 0.46144860
0.71012392 0.57917853 0.48174891
0.54017040 0.63206597 0.48526527
0.54020230 0.63206730 0.48526678
0.54044686 0.63207747 0.48527835
0.54148088 0.63212078 0.48532760
0.54499891 0.63227159 0.48549909
0.55545105 0.63275296 0.48604614
0.58207460 0.63423529 0.48772772
0.63601861 0.63874005 0.49281138
0.71947973 0.65210110 0.50767867
0.64567270 0.74098164 0.55015476
0.64568312 0.74098206 0.55015550
0.64576310 0.74098526 0.55016126
0.64610281 0.74099888 0.55018574
0.64727768 0.74104636 0.55027105
0.65094489 0.74119824 0.55054373
0.66152274 0.74166924 0.55138714
0.68862567 0.74313148 0.55398469
0.74477649 0.74774801 0.56199068
0.29302554 0.21729384 0.52604665
0.29357936 0.21747558 0.52604762
0.29770235 0.21885398 0.52605506
0.31313014 0.22440859 0.52608675
0.35118499 0.24073803 0.52619714
0.41591263 0.27625806 0.52654978
0.50090310 0.33428386 0.52763856
0.59890164 0.41209620 0.53097375
0.70586841 0.50630417 0.54109255
0.29331671 0.21967069 0.52605185
0.29386841 0.21984574 0.52605282
0.29797616 0.22117405 0.52606027
0.31335444 0.22653906 0.52609195
0.35132476 0.24240787 0.52620233
0.41597809 0.27727158 0.52655495
0.50092864 0.33476307 0.52764368
0.59891061 0.41228700 0.53097869
0.70587130 0.50637143 0.54109698
0.29551597 0.23547706 0.52609182
0.29605196 0.23561435 0.52609279
0.30004656 0.23665919 0.52610023
0.31505573 0.24093300 0.52613190
0.35239024 0.25402768 0.52624224
0.41647914 0.28462161 0.52659471
0.50112454 0.33835104 0.52768297
0.59897945 0.41373841 0.53101660
0.70589348 0.50688631 0.54113100
0.30422713 0.27854032 0.52626178
0.30470564 0.27861462 0.52626274
0.30828445 0.27918267 0.52627017
0.32191244 0.28155306 0.52630179
0.35677827 0.28927093 0.52641192
0.41858070 0.30973471 0.52676375
0.50195386 0.35207032 0.52785005
0.59927191 0.41966185 0.53117782
0.70598787 0.50904663 0.54127569
0.32867653 0.34792255 0.52685187
0.32902741 0.34795309 0.52685283
0.33167168 0.34818720 0.52686021
0.34204853 0.34917641 0.52689162
0.37048702 0.35253494 0.52700106
0.42553861 0.36245621 0.52735068
0.50478818 0.38745462 0.52843020
0.60028448 0.43766977 0.53173768
0.70631620 0.51620696 0.54177835
0.37781690 0.43369951 0.52871686
0.37801058 0.43371075 0.52871781
0.37948322 0.43379699 0.52872504
0.38548203 0.43416319 0.52875583
0.40362334 0.43542822 0.52886311
0.44473612 0.43936276 0.52920582
0.51332149 0.45060360 0.53026419
0.60345610 0.47884471 0.53350838
0.70735999 0.53600977 0.54337018
0.45131638 0.52944249 0.53429216
0.45140016 0.52944643 0.53429305
0.45204089 0.52947669 0.53429986
0.45471860 0.52960538 0.53432887
0.46347798 0.53005267 0.53442993
0.48692105 0.53147082 0.53475282
0.53575043 0.53575043 0.53575043
0.61269442 0.54802953 0.53881250
0.71053555 0.57961063 0.54815685
0.54263851 0.63231311 0.54989229
0.54266958 0.63231443 0.54989305
0.54290779 0.63232458 0.54989881
0.54391511 0.63236777 0.54992337
0.54734447 0.63251820 0.55000891
0.55755195 0.63299832 0.55028235
0.58366216 0.63447683 0.55112811
0.63691904 0.63897037 0.55373274
0.71985236 0.65230112 0.56175935
0.64648615 0.74105944 0.58792230
0.64649648 0.74105985 0.58792280
0.64657578 0.74106305 0.58792665
0.64691259 0.74107666 0.58794304
0.64807750 0.74112410 0.58800016
0.65171441 0.74127585 0.58818285
0.66221110 0.74174646 0.58874904
0.68914268 0.74320750 0.59050343
0.74506090 0.74782036 0.59600985
0.37238342 0.28111569 0.62952232
0.37258992 0.28118744 0.62952265
0.37415894 0.28173610 0.62952513
0.38053099 0.28402733 0.62953568
0.39963515 0.29150594 0.62957247
0.44225412 0.31145142 0.62969019
0.51215899 0.35308794 0.63005556
0.60301307 0.42012490 0.63119261
0.70721278 0.50921953 0.63480960
0.37249186 0.28206492 0.62952406
0.37269809 0.28213576 0.62952438
0.37426513 0.28267747 0.62952686
0.38062950 0.28494026 0.62953742
0.39971403 0.29233263 0.62957420
0.44230277 0.31208972 0.62969193
0.51218161 0.35346882 0.63005728
0.60302165 0.42029905 0.63119432
0.70721563 0.50928470 0.63481124
0.37331993 0.28897605 0.62953737
0.37352415 0.28904063 0.62953769
0.37507608 0.28953460 0.62954017
0.38138215 0.29160187 0.62955073
0.40031733 0.29839667 0.62958751
0.44267545 0.31682482 0.62970522
0.51235509 0.35633647 0.63007052
0.60308756 0.42162500 0.63120740
0.70723750 0.50978367 0.63482383
0.37675697 0.31289382 0.62959403
0.37695308 0.31294108 0.62959435
0.37844401 0.31330306 0.62959683
0.38451383 0.31482554 0.62960738
0.40283966 0.31991374 0.62964414
0.44424484 0.33430944 0.62976177
0.51308999 0.36754578 0.63012686
0.60336759 0.42705686 0.63126306
0.70733055 0.51187819 0.63487741
0.38775717 0.36411775 0.62979128
0.38792957 0.36414287 0.62979160
0.38924195 0.36433550 0.62979408
0.39461484 0.36515059 0.62980460
0.41110215 0.36793179 0.62984129
0.44951089 0.37626651 0.62995868
0.51560744 0.39795839 0.63032301
0.60433744 0.44375409 0.63145687
0.70765422 0.51883112 0.63506396
0.41575004 0.44005076 0.63042023
0.41587496 0.44006123 0.63042055
0.41682830 0.44014155 0.63042300
0.42077486 0.44048266 0.63043346
0.43329987 0.44166180 0.63046990
0.46456216 0.44533676 0.63058651
0.52323890 0.45589527 0.63094844
0.60737804 0.48275228 0.63207488
0.70868334 0.53813712 0.63565892
0.46988349 0.53172302 0.63235089
0.46995174 0.53172686 0.63235121
0.47047411 0.53175639 0.63235361
0.47266486 0.53188198 0.63236386
0.47991535 0.53231851 0.63239957
0.49989475 0.53370289 0.63251382
0.54363375 0.53788364 0.63286847
0.61625807 0.54990302 0.63397241
0.71181520 0.58095339 0.63748658
0.54998378 0.63308421 0.63816361
0.55001250 0.63308552 0.63816391
0.55023277 0.63309559 0.63816617
0.55116470 0.63313843 0.63817581
0.55434308 0.63328763 0.63820939
0.56385302 0.63376387 0.63831684
0.58847564 0.63523057 0.63865042
0.63968928 0.63968928 0.63968928
0.72101177 0.65292583 0.64300095
0.64899341 0.74130305 0.65496929
0.64900347 0.74130347 0.65496954
0.64908069 0.74130666 0.65497143
0.64940872 0.74132024 0.65497950
0.65054347 0.74136755 0.65500761
0.65408850 0.74151890 0.65509759
0.66433846 0.74198829 0.65537702
0.69074633 0.74344558 0.65624825
0.74594748 0.74804695 0.65903576
0.46520210 0.36009755 0.73848073
0.46527396 0.36012391 0.73848083
0.46582383 0.36032603 0.73848161
0.46812805 0.36118099 0.73848493
0.47573339 0.36409492 0.73849650
0.49654592 0.37279867 0.73853355
0.54155623 0.39527959 0.73864874
0.61530280 0.44217131 0.73900916
0.71146915 0.51813843 0.74017530
0.46523982 0.36044764 0.73848127
0.46531165 0.36047389 0.73848137
0.46586129 0.36067516 0.73848215
0.46816457 0.36152657 0.73848547
0.47576699 0.36442867 0.73849704
0.49657270 0.37309966 0.73853409
0.54157273 0.39551104 0.73864928
0.61531034 0.44230723 0.73900970
0.71147187 0.51819763 0.74017584
0.46552894 0.36308798 0.73848546
0.46560053 0.36311341 0.73848556
0.46614843 0.36330842 0.73848634
0.46844454 0.36413353 0.73848966
0.47602457 0.36694811 0.73850123
0.49677806 0.37537586 0.73853828
0.54169930 0.39726785 0.73865346
0.61536821 0.44334406 0.73901386
0.71149278 0.51865100 0.74017995
0.46674949 0.37348082 0.73850328
0.46682013 0.37350329 0.73850338
0.46736074 0.37367565 0.73850416
0.46962680 0.37440549 0.73850748
0.47711303 0.37690177 0.73851905
0.49764720 0.38443568 0.73855609
0.54223620 0.40437181 0.73867125
0.61561418 0.44762838 0.73903159
0.71158171 0.52055659 0.74019745
0.47088084 0.40215989 0.73856539
0.47094835 0.40217598 0.73856549
0.47146504 0.40229938 0.73856627
0.47363237 0.40282273 0.73856959
0.48080937 0.40462301 0.73858115
0.50061473 0.41015019 0.73861816
0.54408423 0.42540909 0.73873325
0.61646673 0.46114669 0.73909334
0.71189108 0.52691034 0.74025844
0.48297692 0.45810526 0.73876401
0.48303605 0.45811382 0.73876411
0.48348885 0.45817954 0.73876489
0.48539174 0.45845875 0.73876820
0.49173308 0.45942546 0.73877973
0.50952339 0.46245363 0.73881667
0.54976843 0.47127703 0.73893151
0.61914642 0.49445215 0.73929084
0.71287503 0.54475839 0.74045350
0.51282081 0.53879725 0.73937933
0.51286359 0.53880081 0.73937943
0.51319144 0.53882818 0.73938021
0.51457427 0.53894462 0.73938349
0.51924017 0.53934942 0.73939496
0.53277915 0.54063412 0.73943165
0.56552858 0.54452225 0.73954574
0.62702958 0.55576667 0.73990271
0.71587228 0.58520527 0.74105781
0.57059270 0.63555681 0.74128365
0.57061576 0.63555809 0.74128374
0.57079270 0.63556789 0.74128450
0.57154220 0.63560963 0.74128772
0.57410946 0.63575499 0.74129895
0.58188977 0.63621900 0.74133491
0.60266270 0.63764841 0.74144669
0.64820045 0.64199715 0.74179648
0.72469714 0.65493549 0.74292850
0.65673890 0.74209337 0.74723844
0.65674817 0.74209378 0.74723853
0.65681932 0.74209694 0.74723924
0.65712160 0.74211040 0.74724226
0.65816796 0.74215732 0.74725280
0.66144302 0.74230740 0.74728653
0.67096285 0.74277284 0.74739140
0.69579560 0.74421801 0.74771961
0.74878230 0.74878230 0.74878230
