src/ffmpeg_scripts/luts/sRGB-rec2020_1p00.cube
TITLE "sRGB-rec2020_1p00"
LUT_3D_SIZE 33
# PQ (EOTF Only)/sRGB -> PQ (EOTF Only)/Rec2020, CineEI Shift 1.00, Black Level 0.00% IRE, Input 100% -> Output 109% - Created with LUTCalc v4.01 by Ben Turley October 2020
0.06256172 0.06256172 0.06256172
0.09234820 0.07237429 0.06699553
0.12141120 0.08422494 0.07292997
0.15011450 0.09739894 0.08000270
0.17856626 0.11163011 0.08806511
0.20682230 0.12676735 0.09703170
0.23491723 0.14271027 0.10684549
0.26287482 0.15938609 0.11746531
0.29071243 0.17673907 0.12885982
0.31844339 0.19472476 0.14100426
0.34607821 0.21330670 0.15387853
0.37362547 0.23245431 0.16746601
0.40109226 0.25214146 0.18175268
0.42848459 0.27234552 0.19672659
0.45580758 0.29304661 0.21237744
0.48306568 0.31422715 0.22869624
0.51026276 0.33587141 0.24567515
0.53740227 0.35796521 0.26330721
0.56448724 0.38049571 0.28158627
0.59152042 0.40345120 0.30050682
0.61850426 0.42682093 0.32006397
0.64544099 0.45059502 0.34025328
0.67233264 0.47476432 0.36107079
0.69918107 0.49932033 0.38251289
0.72598799 0.52425516 0.40457633
0.75275495 0.54956140 0.42725817
0.77948342 0.57523215 0.45055572
0.80617474 0.60126089 0.47446655
0.83283016 0.62764150 0.49898844
0.85945085 0.65436820 0.52411938
0.88603789 0.68143551 0.54985753
0.91259232 0.70883826 0.57620121
0.91886608 0.73657153 0.60314891
0.08443283 0.09810063 0.07372280
0.09874629 0.09928928 0.07477312
0.12405141 0.10325639 0.07801994
0.15145860 0.11043256 0.08334531
0.17933416 0.12051353 0.09032029
0.20729345 0.13288375 0.09859754
0.23522060 0.14698690 0.10795960
0.26307705 0.16242396 0.11827374
0.29085080 0.17892813 0.12945567
0.31853997 0.19632178 0.14144891
0.34614671 0.21448402 0.15421366
0.37367468 0.23332980 0.16772060
0.40112798 0.25279720 0.18194731
0.42851074 0.27283957 0.19687614
0.45582685 0.29342064 0.21249281
0.48307996 0.31451140 0.22878552
0.51027339 0.33608808 0.24574439
0.53741021 0.35813075 0.26336099
0.56449319 0.38062239 0.28162808
0.59152488 0.40354824 0.30053935
0.61850761 0.42689530 0.32008927
0.64544351 0.45065201 0.34027295
0.67233454 0.47480797 0.36108607
0.69918250 0.49935374 0.38252474
0.72598906 0.52428068 0.40458551
0.75275576 0.54958087 0.42726526
0.77948403 0.57524697 0.45056118
0.80617519 0.60127214 0.47447074
0.83283050 0.62765001 0.49899165
0.85945110 0.65437461 0.52412183
0.88603808 0.68144033 0.54985938
0.91259246 0.70884186 0.57620261
0.91886608 0.73657421 0.60314996
0.10728411 0.13132829 0.08693073
0.11438974 0.13176866 0.08739390
0.13242565 0.13334619 0.08901108
0.15608969 0.13660963 0.09218597
0.18206566 0.14202496 0.09709479
0.20899361 0.14982652 0.10367436
0.23632328 0.15997499 0.11174019
0.26381504 0.17223458 0.12109396
0.29135690 0.18629163 0.13157035
0.31889378 0.20184163 0.14304441
0.34639788 0.21862817 0.15542482
0.37385521 0.23645005 0.16864513
0.40125907 0.25515438 0.18265645
0.42860671 0.27462622 0.19742227
0.45589759 0.29477898 0.21291478
0.48313239 0.31554685 0.22911241
0.51031242 0.33687910 0.24599812
0.53743937 0.35873605 0.26355821
0.56451503 0.38108613 0.28178150
0.59154128 0.40390378 0.30065874
0.61851994 0.42716796 0.32018216
0.64545278 0.45086107 0.34034518
0.67234152 0.47496815 0.36114217
0.69918775 0.49947635 0.38256825
0.72599301 0.52437439 0.40461920
0.75275872 0.54965236 0.42729128
0.77948624 0.57530138 0.45058123
0.80617685 0.60131343 0.47448614
0.83283173 0.62768126 0.49900344
0.85945202 0.65439817 0.52413082
0.88603876 0.68145802 0.54986621
0.91259296 0.70885509 0.57620777
0.91886608 0.73658404 0.60315384
0.13066343 0.16346318 0.10143136
0.13455680 0.16367956 0.10168503
0.14638183 0.16446653 0.10259758
0.16492669 0.16615240 0.10450378
0.18762712 0.16911694 0.10771820
0.21256880 0.17373437 0.11245141
0.23868207 0.18029939 0.11876900
0.26540900 0.18896442 0.12661288
0.29245625 0.19972068 0.13585684
0.31966502 0.21242897 0.14635706
0.34694662 0.22687623 0.15798110
0.37425022 0.24282874 0.17061861
0.40154616 0.26006701 0.18418211
0.42881704 0.27840193 0.19860374
0.45605270 0.29767856 0.21383127
0.48324739 0.31777334 0.22982441
0.51039806 0.33858909 0.24655191
0.53750336 0.36004971 0.26398930
0.56456298 0.38209549 0.28211721
0.59157727 0.40467930 0.30092019
0.61854699 0.42776364 0.32038570
0.64547314 0.45131834 0.34050352
0.67235683 0.47531885 0.36126520
0.69919927 0.49974496 0.38266371
0.72600166 0.52457980 0.40469311
0.75276522 0.54980912 0.42734839
0.77949111 0.57542072 0.45062523
0.80618049 0.60140404 0.47451995
0.83283445 0.62774982 0.49902932
0.85945403 0.65444987 0.52415055
0.88604025 0.68149684 0.54988119
0.91259406 0.70888411 0.57621909
0.91886608 0.73660563 0.60316235
0.15442660 0.19485105 0.11694975
0.15673943 0.19497233 0.11710401
0.16440092 0.19541569 0.11766487
0.17802040 0.19637737 0.11886545
0.19662411 0.19810730 0.12097422
0.21865602 0.20089764 0.12425485
0.24281861 0.20505697 0.12891704
0.26825343 0.21086849 0.13507806
0.29443899 0.21854260 0.14275462
0.32106530 0.22818174 0.15188466
0.34794722 0.23977217 0.16236201
0.37497255 0.25320379 0.17406695
0.40207217 0.26830585 0.18688554
0.42920292 0.28488331 0.20071856
0.45633753 0.30274398 0.21548384
0.48345870 0.32171425 0.23111512
0.51055549 0.34164557 0.24755974
0.53762103 0.36241499 0.26477607
0.56465117 0.38392281 0.28273123
0.59164349 0.40608904 0.30139913
0.61859677 0.42884979 0.32075900
0.64551059 0.45215404 0.34079417
0.67238501 0.47596090 0.36149120
0.69922047 0.50023738 0.38283914
0.72601760 0.52495673 0.40482902
0.75277718 0.55009699 0.42745342
0.77950008 0.57564000 0.45070618
0.80618719 0.60157059 0.47458214
0.83283944 0.62787590 0.49907693
0.85945775 0.65454496 0.52418686
0.88604301 0.68156826 0.54990876
0.91259609 0.70893750 0.57623992
0.91886608 0.73664535 0.60317801
0.17849682 0.22566695 0.13333106
0.17995255 0.22574039 0.13343088
0.18499079 0.22600947 0.13379550
0.19468264 0.22659633 0.13458478
0.20916757 0.22766289 0.13599922
0.22770723 0.22941231 0.13826737
0.24923268 0.23208499 0.14162173
0.27278304 0.23594452 0.14626486
0.29765039 0.24125203 0.15233724
0.32335827 0.24823226 0.15990020
0.34959753 0.25704020 0.16893998
0.37616964 0.26773988 0.17938777
0.40294677 0.28030276 0.19114472
0.42984597 0.29462445 0.20410303
0.45681294 0.31055176 0.21815964
0.48381181 0.32791006 0.23322326
0.51081877 0.34652488 0.24921654
0.53781795 0.36623533 0.26607573
0.56479880 0.38690069 0.28374916
0.59175437 0.40840203 0.30219528
0.61868016 0.43064107 0.32138080
0.64557333 0.45353768 0.34127905
0.67243223 0.47702705 0.36186865
0.69925599 0.50105692 0.38313239
0.72604430 0.52558512 0.40505634
0.75279722 0.55057753 0.42762919
0.77951510 0.57600642 0.45084170
0.80619842 0.60184910 0.47468629
0.83284782 0.62808686 0.49915668
0.85946397 0.65470413 0.52424769
0.88604762 0.68168785 0.54995495
0.91259949 0.70902694 0.57627483
0.91886608 0.73671189 0.60320425
0.20282537 0.25601795 0.15047300
0.20378066 0.25606477 0.15054032
0.20716543 0.25623647 0.15078677
0.21399757 0.25661198 0.15132328
0.22490306 0.25729798 0.15229500
0.23985736 0.25843303 0.15387991
0.25829172 0.26019036 0.15628129
0.27941211 0.26277651 0.15971084
0.30246506 0.26642322 0.16436370
0.32685224 0.27137076 0.17039172
0.35213995 0.27784320 0.17788412
0.37802767 0.28602019 0.18686256
0.40431125 0.29601290 0.19729061
0.43085282 0.30785175 0.20909202
0.45755920 0.32148955 0.22217016
0.48436709 0.33681773 0.23642361
0.51123332 0.35368892 0.25175631
0.53812830 0.37193919 0.26808279
0.56503164 0.39140551 0.28532997
0.59192934 0.41193693 0.30343690
0.61881179 0.43340028 0.32235361
0.64567241 0.45568192 0.34203949
0.67250681 0.47868698 0.36246170
0.69931211 0.50233743 0.38359378
0.72608648 0.52656963 0.40541438
0.75282889 0.55133197 0.42790625
0.77953883 0.57658260 0.45105545
0.80621617 0.60228758 0.47485063
0.83286105 0.62841929 0.49928258
0.85947381 0.65495514 0.52434374
0.88605490 0.68187655 0.55002791
0.91260487 0.70916811 0.57632998
0.91886608 0.73681695 0.60324571
0.22737822 0.28597674 0.16830179
0.22802484 0.28600769 0.16834853
0.23034659 0.28612127 0.16851988
0.23517305 0.28637004 0.16889407
0.24323497 0.28682579 0.16957586
0.25491668 0.28758355 0.17069890
0.27014073 0.28876564 0.17242579
0.28845595 0.29052469 0.17494267
0.30924033 0.29304360 0.17844667
0.33187867 0.29653079 0.18312657
0.35585453 0.30120887 0.18914021
0.38077188 0.30729627 0.19659529
0.40634189 0.31498387 0.20553971
0.43235930 0.32441167 0.21596399
0.45868003 0.33565184 0.22781346
0.48520337 0.34870321 0.24100471
0.51185891 0.36349835 0.25544127
0.53859730 0.37991995 0.27102561
0.56538389 0.39782086 0.28766666
0.59219425 0.41704279 0.30528368
0.61901119 0.43743065 0.32380748
0.64582256 0.45884163 0.34318010
0.67261987 0.48114978 0.36335371
0.69939720 0.50424736 0.38428924
0.72615046 0.52804408 0.40595493
0.75287693 0.55246540 0.42832507
0.77957484 0.57745031 0.45137886
0.80624309 0.60294913 0.47509948
0.83288113 0.62892155 0.49947331
0.85948874 0.65533478 0.52448932
0.88606596 0.68216217 0.55013852
0.91261302 0.70938193 0.57641360
0.91886608 0.73697616 0.60330859
0.25213009 0.31559600 0.18676107
0.25257824 0.31561703 0.18679424
0.25420019 0.31569421 0.18691593
0.25763425 0.31586341 0.18718217
0.26354858 0.31617391 0.18766899
0.27248024 0.31669163 0.18847568
0.28468227 0.31750293 0.18972755
0.30006370 0.31871835 0.19157623
0.31825673 0.32047556 0.19419570
0.33875497 0.32294018 0.19777259
0.36104075 0.32630306 0.20249057
0.38466031 0.33077239 0.20851099
0.40924997 0.33655966 0.21595451
0.43453326 0.34386039 0.22488897
0.46030642 0.35283262 0.23532718
0.48642171 0.36357825 0.24723400
0.51277294 0.37613231 0.26053967
0.53928402 0.39046314 0.27515448
0.56590045 0.40648271 0.29098164
0.59258319 0.42406324 0.30792648
0.61930419 0.44305544 0.32590211
0.64604334 0.46330445 0.34483201
0.67278620 0.48466152 0.36465079
0.69952242 0.50699119 0.38530363
0.72624464 0.53017470 0.40674525
0.75294766 0.55411068 0.42893851
0.77962785 0.57871429 0.45185322
0.80628274 0.60391542 0.47546485
0.83291070 0.62965668 0.49975359
0.85951072 0.65589133 0.52470338
0.88608224 0.68258141 0.55030124
0.91262503 0.70969607 0.57653666
0.91886608 0.73721023 0.60340115
0.27706136 0.34491576 0.20580607
0.27737775 0.34493035 0.20583001
0.27852847 0.34498391 0.20591786
0.28099344 0.34510137 0.20611030
0.28532673 0.34531715 0.20646294
0.29206937 0.34567757 0.20704946
0.30163260 0.34624394 0.20796500
0.31419437 0.34709603 0.20932865
0.32966485 0.34833547 0.21128400
0.34773717 0.35008867 0.21399617
0.36798690 0.35250823 0.21764412
0.38996811 0.35577145 0.22240759
0.41327606 0.36007483 0.22845030
0.43757452 0.36562313 0.23590255
0.46259908 0.37261328 0.24484787
0.48814880 0.38121495 0.25531755
0.51407399 0.39155161 0.26729384
0.54026447 0.40368674 0.28072017
0.56663963 0.41761902 0.29551443
0.59314066 0.43328735 0.31158196
0.61972469 0.45058379 0.32882594
0.64636048 0.46937023 0.34715448
0.67302528 0.48949494 0.36648464
0.69970251 0.51080603 0.38674407
0.72638014 0.53316081 0.40787128
0.75304946 0.55643118 0.42981481
0.77970418 0.58050580 0.45253218
0.80633983 0.60529024 0.47598864
0.83295329 0.63070572 0.50015585
0.85954238 0.65668735 0.52501087
0.88610569 0.68318207 0.55053514
0.91264233 0.71014675 0.57671366
0.91886608 0.73754638 0.60353434
0.30215632 0.37396750 0.22540019
0.30238299 0.37397779 0.22541769
0.30320999 0.37401557 0.22548194
0.30499506 0.37409845 0.22562278
0.30817681 0.37425081 0.22588124
0.31323392 0.37450558 0.22631215
0.32061437 0.37490664 0.22698735
0.33064558 0.37551167 0.22799876
0.34346060 0.37639524 0.22946077
0.35897611 0.37765207 0.23151099
0.37693113 0.37939992 0.23430801
0.39696174 0.38178127 0.23802512
0.41867648 0.38496286 0.24283926
0.44170968 0.38913176 0.24891605
0.46574834 0.39448668 0.25639339
0.49053928 0.40122451 0.26536758
0.51588499 0.40952274 0.27588546
0.54163497 0.41952089 0.28794467
0.56767612 0.43130506 0.30150099
0.59392418 0.44489943 0.31648009
0.62031673 0.46026703 0.33279025
0.64680758 0.47731898 0.35033348
0.67336267 0.49592922 0.36901381
0.69995685 0.51595085 0.38874250
0.72657162 0.53723076 0.40944076
0.75319336 0.55962080 0.43104061
0.77981210 0.58298489 0.45348461
0.80642058 0.60720275 0.47672496
0.83301353 0.63217105 0.50072227
0.85958718 0.65780279 0.52544441
0.88613888 0.68402584 0.55086524
0.91266681 0.71078102 0.57696363
0.91886608 0.73802015 0.60372254
0.32740207 0.40277664 0.24551277
0.32756639 0.40278399 0.24552570
0.32816714 0.40281099 0.24557318
0.32947046 0.40287025 0.24567730
0.33181551 0.40297922 0.24586855
0.33559907 0.40316157 0.24618792
0.34123935 0.40344896 0.24668962
0.34911588 0.40388329 0.24744402
0.35949875 0.40451925 0.24854056
0.37249318 0.40542728 0.25009006
0.38802408 0.40669664 0.25222563
0.40586595 0.40843825 0.25510106
0.42570100 0.41078668 0.25888554
0.44718023 0.41390032 0.26375412
0.46996951 0.41795862 0.26987423
0.49377558 0.42315520 0.27739019
0.51835539 0.42968631 0.28640898
0.54351515 0.43773497 0.29699082
0.56910416 0.44745313 0.30914694
0.59500718 0.45894513 0.32284454
0.62113704 0.47225668 0.33801688
0.64742820 0.48737208 0.35457552
0.67383164 0.50422020 0.37242191
0.70031074 0.52268696 0.39145660
0.72683824 0.54263115 0.41158559
0.75339386 0.56389966 0.43272397
0.77996255 0.58634007 0.45479754
0.80653318 0.60980943 0.47774299
0.83309756 0.63417934 0.50150720
0.85964967 0.65933819 0.52604624
0.88618518 0.68519120 0.55132410
0.91270098 0.71165932 0.57731147
0.91886608 0.73867751 0.60398463
0.35278780 0.43136415 0.26611771
0.35290806 0.43136946 0.26612734
0.35334836 0.43138897 0.26616272
0.35430688 0.43143178 0.26624032
0.35604275 0.43151054 0.26638295
0.35887329 0.43164240 0.26662139
0.36315905 0.43185038 0.26699660
0.36927026 0.43216508 0.26756228
0.37753555 0.43262670 0.26838766
0.38818477 0.43328749 0.26956026
0.40130550 0.43421454 0.27118820
0.41683111 0.43549272 0.27340126
0.43456418 0.43722752 0.27634970
0.45422299 0.43954722 0.28019985
0.47549231 0.44260358 0.28512571
0.49806384 0.44656996 0.29129666
0.52166106 0.45163581 0.29886268
0.54605000 0.45799668 0.30794004
0.57104047 0.46583985 0.31860067
0.59648202 0.47532718 0.33086792
0.62225782 0.48657808 0.34471939
0.64827826 0.49965659 0.36009555
0.67447520 0.51456571 0.37691130
0.70079708 0.53125043 0.39506781
0.72720505 0.54960812 0.41446253
0.75366993 0.56950342 0.43499654
0.78016983 0.59078384 0.45657908
0.80668839 0.61329351 0.47912988
0.83321342 0.63688334 0.50257985
0.85973587 0.66141748 0.52687067
0.88624906 0.68677654 0.55195385
0.91274812 0.71285838 0.57778952
0.91886608 0.73957738 0.60434522
0.37830431 0.45974763 0.28719241
0.37839302 0.45975150 0.28719964
0.37871810 0.45976572 0.28722617
0.37942747 0.45979692 0.28728439
0.38071797 0.45985434 0.28739144
0.38283816 0.45995049 0.28757054
0.38608501 0.46010225 0.28785270
0.39078845 0.46033206 0.28827887
0.39728061 0.46066957 0.28890235
0.40585182 0.46115356 0.28979149
0.41670311 0.46183426 0.29103237
0.42991074 0.46277602 0.29273108
0.44541619 0.46406013 0.29501496
0.46304472 0.46578775 0.29803179
0.48254342 0.46808212 0.30194606
0.50362438 0.47108975 0.30693145
0.52600064 0.47497917 0.31315951
0.54940992 0.47993657 0.32078551
0.57362626 0.48615700 0.32993407
0.59846287 0.49383131 0.34068755
0.62376974 0.50312967 0.35308018
0.64942882 0.51418423 0.36709907
0.67534848 0.52707480 0.38269134
0.70145829 0.54182082 0.39977505
0.72770449 0.55838175 0.41825116
0.75404624 0.57666552 0.43801420
0.78045261 0.59654236 0.45896049
0.80690027 0.61786059 0.48099357
0.83337167 0.64046126 0.50402725
0.85985364 0.66418962 0.52798672
0.88633637 0.68890283 0.55280848
0.91281255 0.71447414 0.57843955
0.91886608 0.74079442 0.60483627
0.40394368 0.48794207 0.30871712
0.40400952 0.48794491 0.30872256
0.40425099 0.48795535 0.30874257
0.40477877 0.48797826 0.30878648
0.40574201 0.48802041 0.30886724
0.40733306 0.48809102 0.30900243
0.40978979 0.48820250 0.30921559
0.41339093 0.48837141 0.30953795
0.41844074 0.48861971 0.31001047
0.42524108 0.48897620 0.31068613
0.43405309 0.48947847 0.31163263
0.44505682 0.49017506 0.31293498
0.45832132 0.49112802 0.31469783
0.47379564 0.49241578 0.31704678
0.49132367 0.49413596 0.32012799
0.51067595 0.49640782 0.32410495
0.53158693 0.49937370 0.32915172
0.55378746 0.50319842 0.33544231
0.57702738 0.50806571 0.34313713
0.60108770 0.51417054 0.35236851
0.62578473 0.52170702 0.36322830
0.65096900 0.53085255 0.37576061
0.67652144 0.54175039 0.38996119
0.70234872 0.55449412 0.40578321
0.72837840 0.56911766 0.42314759
0.75455477 0.58559337 0.44195493
0.78083519 0.60383862 0.46209682
0.80718718 0.62372867 0.48346486
0.83358610 0.64511246 0.50595696
0.86001331 0.66782805 0.52948103
0.88645478 0.69171523 0.55395660
0.91289997 0.71662445 0.57931506
0.91886608 0.74242193 0.60549896
0.42969897 0.51596041 0.33067433
0.42974809 0.51596251 0.33067845
0.42992833 0.51597021 0.33069361
0.43032276 0.51598713 0.33072686
0.43104427 0.51601825 0.33078804
0.43224064 0.51607040 0.33089049
0.43409913 0.51615275 0.33105212
0.43684739 0.51627758 0.33129679
0.44074808 0.51646118 0.33165590
0.44608408 0.51672503 0.33217040
0.45313307 0.51709723 0.33289310
0.46213374 0.51761432 0.33389123
0.47325077 0.51832342 0.33524904
0.48654869 0.51928470 0.33707017
0.50198358 0.52057424 0.33947915
0.51941490 0.52228681 0.34262122
0.53863252 0.52453853 0.34665959
0.55938943 0.52746850 0.35176931
0.58143141 0.53123875 0.35812725
0.60451858 0.53603137 0.36589894
0.62843801 0.54204167 0.37522402
0.65300875 0.54946701 0.38620317
0.67808180 0.55849141 0.39888955
0.70353729 0.56926805 0.41328673
0.72928033 0.58190273 0.42935335
0.75523674 0.59644217 0.44701270
0.78134904 0.61287014 0.46616476
0.80757299 0.63111229 0.48669800
0.83387470 0.65104807 0.50849921
0.86022836 0.67252656 0.53146063
0.88661434 0.69538264 0.55548424
0.91301782 0.71945065 0.58048396
0.91886608 0.74457444 0.60638608
0.45556408 0.54381390 0.35304844
0.45560089 0.54381546 0.35305157
0.45573596 0.54382117 0.35306309
0.45603180 0.54383372 0.35308836
0.45657385 0.54385681 0.35313486
0.45747519 0.54389550 0.35321273
0.45888154 0.54395660 0.35333566
0.46097483 0.54404926 0.35352186
0.46397325 0.54418561 0.35379542
0.46812547 0.54438167 0.35418791
0.47369661 0.54465849 0.35474031
0.48094498 0.54504356 0.35550532
0.49009190 0.54557251 0.35654987
0.50129070 0.54629126 0.35795773
0.51460334 0.54725845 0.35983195
0.52999238 0.54854821 0.36229647
0.54733050 0.55025308 0.36549624
0.56642369 0.55248668 0.36959486
0.58704045 0.55538570 0.37476895
0.60893911 0.55911019 0.38119865
0.63188854 0.56384133 0.38905472
0.65568097 0.56977532 0.39848391
0.68013780 0.57711289 0.40959522
0.70511044 0.58604439 0.42245020
0.73047823 0.59673210 0.43705956
0.75614492 0.60929283 0.45338671
0.78203475 0.62378472 0.47135678
0.80808864 0.64020151 0.49086870
0.83426090 0.65847588 0.51180755
0.86051638 0.67849049 0.53405509
0.88682819 0.70009389 0.55749773
0.91317585 0.72311732 0.58203150
0.91886608 0.74738948 0.60756465
0.48153361 0.57151245 0.37582542
0.48156127 0.57151360 0.37582780
0.48166281 0.57151786 0.37583657
0.48188534 0.57152720 0.37585582
0.48229357 0.57154439 0.37589125
0.48297376 0.57157320 0.37595060
0.48403852 0.57161871 0.37604430
0.48563107 0.57168773 0.37618630
0.48792806 0.57178933 0.37639507
0.49113908 0.57193549 0.37669491
0.49550075 0.57214200 0.37711753
0.50126343 0.57242951 0.37770399
0.50866988 0.57282496 0.37850693
0.51792797 0.57336322 0.37959313
0.52918269 0.57408918 0.38104613
0.54249482 0.57506021 0.38296874
0.55783295 0.57634889 0.38548475
0.57508107 0.57804598 0.38873938
0.59405883 0.58026323 0.39289722
0.61454776 0.58313557 0.39813702
0.63631676 0.58682183 0.40464260
0.65914211 0.59150298 0.41259020
0.68282037 0.59737667 0.42213361
0.70717489 0.60464731 0.43338981
0.73205733 0.61351145 0.44642820
0.75734631 0.62413995 0.46126596
0.78294428 0.63665975 0.47787061
0.80877403 0.65113916 0.49616850
0.83477504 0.66758061 0.51605700
0.86090029 0.68592247 0.53741730
0.88711351 0.70604953 0.56012588
0.91338684 0.72780888 0.58406310
0.91886608 0.75102751 0.60911890
0.50760269 0.59906481 0.39899255
0.50762353 0.59906568 0.39899437
0.50770004 0.59906886 0.39900107
0.50786780 0.59907583 0.39901576
0.50817582 0.59908867 0.39904279
0.50868982 0.59911018 0.39908809
0.50949636 0.59914417 0.39915964
0.51070705 0.59919573 0.39926809
0.51246238 0.59927164 0.39942763
0.51493397 0.59938088 0.39965693
0.51832369 0.59953530 0.39998048
0.52285782 0.59975044 0.40043012
0.52877449 0.60004661 0.40104700
0.53630401 0.60045025 0.40188379
0.54564383 0.60099557 0.40300724
0.55693290 0.60172662 0.40450088
0.57023186 0.60269971 0.40646756
0.58551495 0.60398618 0.40903138
0.60267604 0.60567544 0.41233828
0.62154634 0.60787788 0.41655441
0.64191845 0.61072729 0.42186120
0.66357016 0.61438195 0.42844665
0.68628394 0.61902330 0.43649274
0.70985995 0.62485102 0.44616035
0.73412306 0.63207359 0.45757425
0.75892505 0.64089386 0.47081123
0.78414372 0.65149098 0.48589435
0.80968035 0.66400127 0.50279453
0.83545633 0.67850222 0.52143866
0.86140984 0.69500366 0.54172187
0.88749267 0.71344836 0.56352099
0.91366749 0.73372192 0.58670675
0.91886608 0.75566895 0.61115318
0.53376696 0.62647884 0.42253827
0.53378269 0.62647949 0.42253966
0.53384044 0.62648186 0.42254477
0.53396711 0.62648708 0.42255600
0.53419983 0.62649669 0.42257666
0.53458862 0.62651279 0.42261128
0.53519976 0.62653823 0.42266596
0.53611962 0.62657683 0.42274887
0.53745853 0.62663366 0.42287089
0.53935416 0.62671546 0.42304636
0.54197340 0.62683114 0.42329414
0.54551127 0.62699238 0.42363888
0.55018521 0.62721450 0.42411255
0.55622327 0.62751751 0.42475640
0.56384578 0.62792738 0.42562321
0.57324222 0.62847778 0.42677981
0.58454733 0.62921205 0.42830991
0.59782241 0.63018563 0.43031668
0.61304705 0.63146893 0.43292488
0.63012377 0.63315033 0.43628168
0.64889378 0.63533933 0.44055529
0.66915899 0.63816915 0.44593039
0.69070469 0.64179813 0.45259961
0.71331847 0.64640885 0.46075107
0.73680339 0.65220365 0.47055290
0.76098541 0.65939553 0.48213753
0.78571622 0.66819389 0.49558879
0.81087278 0.67878602 0.51093504
0.83635517 0.69131714 0.52814988
0.86208352 0.70587297 0.54715995
0.88799477 0.72246952 0.56785743
0.91403961 0.74105255 0.59011412
0.91886608 0.76150715 0.61379447
0.56002246 0.65376155 0.44645198
0.56003434 0.65376203 0.44645304
0.56007798 0.65376382 0.44645695
0.56017372 0.65376773 0.44646553
0.56034970 0.65377493 0.44648133
0.56064394 0.65378700 0.44650780
0.56110707 0.65380607 0.44654961
0.56180556 0.65383500 0.44661303
0.56282525 0.65387760 0.44670638
0.56427497 0.65393894 0.44684068
0.56628960 0.65402570 0.44703045
0.56903164 0.65414668 0.44729468
0.57269008 0.65431343 0.44765816
0.57747486 0.65454105 0.44815298
0.58360572 0.65484924 0.44882053
0.59129509 0.65526361 0.44971373
0.60072645 0.65581732 0.45089962
0.61203179 0.65655313 0.45246226
0.62527374 0.65752583 0.45450540
0.64043701 0.65880507 0.45715481
0.65743181 0.66047858 0.46055931
0.67610796 0.66265538 0.46488968
0.69627533 0.66546862 0.47033442
0.71772542 0.66907731 0.47709135
0.74024998 0.67366580 0.48535510
0.76365429 0.67943975 0.49530132
0.78776502 0.68661725 0.50707008
0.81243352 0.69541456 0.52075196
0.83753585 0.70602716 0.53638002
0.86297090 0.71860875 0.55392981
0.88865755 0.73325249 0.57332687
0.91453161 0.74997930 0.59445954
0.91886608 0.76873654 0.61719386
0.58636558 0.68091930 0.47072393
0.58637457 0.68091966 0.47072474
0.58640756 0.68092100 0.47072773
0.58647996 0.68092393 0.47073429
0.58661308 0.68092933 0.47074637
0.58683579 0.68093838 0.47076661
0.58718668 0.68095269 0.47079859
0.58771670 0.68097439 0.47084709
0.58849217 0.68100636 0.47091850
0.58959817 0.68105239 0.47102128
0.59114191 0.68111751 0.47116656
0.59325552 0.68120834 0.47136897
0.59609751 0.68133358 0.47164765
0.59985156 0.68150461 0.47202747
0.60472127 0.68173636 0.47254068
0.61091964 0.68204824 0.47322880
0.61865290 0.68246553 0.47414494
0.62810014 0.68302097 0.47535648
0.63939186 0.68375683 0.47694795
0.65259255 0.68472738 0.47902395
0.66769186 0.68600178 0.48171156
0.68460696 0.68766739 0.48516169
0.70319512 0.68983310 0.48954823
0.72327295 0.69263251 0.49506402
0.74463707 0.69622586 0.50191266
0.76708253 0.70079996 0.51029578
0.79041617 0.70656443 0.52039686
