src/ffmpeg_scripts/luts/sRGB-rec2020_4p00.cube
TITLE "sRGB-rec2020_4p00"
LUT_3D_SIZE 5
# PQ (EOTF Only)/sRGB -> PQ (EOTF Only)/Rec2020, CineEI Shift 4.00, Black Level 0.00% IRE, Input 100% -> Output 109% - Created with LUTCalc v4.01 by Ben Turley October 2020
0.06256172 0.06256172 0.06256172
0.44236527 0.28279482 0.20458876
0.69918041 0.49931972 0.38251235
0.91770754 0.71415883 0.58134896
0.91886608 0.91886608 0.79633234
0.39130692 0.47408515 0.29806575
0.47742665 0.48020610 0.30919974
0.70187713 0.54798987 0.40264981
0.91795386 0.72045662 0.58386073
0.91886608 0.91886608 0.79658931
0.63930113 0.73488177 0.52030660
0.64865194 0.73527325 0.52121153
0.73858203 0.74165143 0.53530589
0.91886608 0.78978376 0.61852510
0.91886608 0.91886608 0.80082574
0.85922742 0.91886608 0.73676467
0.86013799 0.91886608 0.73685583
0.87426205 0.91886608 0.73838289
0.91886608 0.91886608 0.75271959
0.91886608 0.91886608 0.83560966
0.91886608 0.91886608 0.91886608
0.91886608 0.91886608 0.91886608
0.91886608 0.91886608 0.91886608
0.91886608 0.91886608 0.91886608
0.91886608 0.91886608 0.91886608
0.25502347 0.18814219 0.47186442
0.44783185 0.29233330 0.47339043
0.69953958 0.50010703 0.49593948
0.91773998 0.71423929 0.60423721
0.91886608 0.91886608 0.79891409
0.40083929 0.47512029 0.47977417
0.48117450 0.48117450 0.48117450
0.70222617 0.54845729 0.50208350
0.91798621 0.72053185 0.60621391
0.91886608 0.91886608 0.79916392
0.63997722 0.73494626 0.56014170
0.64926461 0.73533747 0.56073370
0.73881809 0.74171140 0.57021131
0.91886608 0.78981943 0.63456126
0.91886608 0.91886608 0.80328546
0.85929058 0.91886608 0.74161947
0.86020051 0.91886608 0.74170601
0.87431538 0.91886608 0.74315630
0.91886608 0.91886608 0.75682654
0.91886608 0.91886608 0.83729393
0.91886608 0.91886608 0.91886608
0.91886608 0.91886608 0.91886608
0.91886608 0.91886608 0.91886608
0.91886608 0.91886608 0.91886608
0.91886608 0.91886608 0.91886608
0.45979283 0.35537914 0.73241641
0.51020013 0.37694215 0.73251191
0.70540987 0.51248639 0.73411105
0.91828630 0.71558845 0.74906889
0.91886608 0.91886608 0.83414843
0.48962908 0.49104270 0.73292807
0.52861615 0.49615829 0.73302305
0.70793600 0.55602217 0.73461354
0.91853098 0.72179403 0.74949707
0.91886608 0.91886608 0.83431807
0.65072620 0.73602925 0.74117494
0.65905839 0.73641596 0.74126190
0.74271906 0.74271906 0.74271906
0.91886608 0.79042008 0.75644916
0.91886608 0.91886608 0.83713737
0.86035113 0.91886608 0.79926346
0.86125035 0.91886608 0.79930986
0.87521166 0.91886608 0.80009041
0.91886608 0.91886608 0.80771613
0.91886608 0.91886608 0.86181317
0.91886608 0.91886608 0.91886608
0.91886608 0.91886608 0.91886608
0.91886608 0.91886608 0.91886608
0.91886608 0.91886608 0.91886608
0.91886608 0.91886608 0.91886608
0.67062525 0.54846911 0.91886608
0.67743056 0.55126214 0.91886608
0.75069567 0.58904180 0.91886608
0.91886608 0.72838042 0.91886608
0.91886608 0.91886608 0.91886608
0.67425800 0.58018556 0.91886608
0.68081508 0.58218740 0.91886608
0.75226026 0.61083472 0.91886608
0.91886608 0.73381605 0.91886608
0.91886608 0.91886608 0.91886608
0.72081557 0.74644311 0.91886608
0.72486667 0.74678903 0.91886608
0.77534944 0.75244786 0.91886608
0.91886608 0.79635019 0.91886608
0.91886608 0.91886608 0.91886608
0.87053287 0.91886608 0.91886608
0.87133517 0.91886608 0.91886608
0.88389482 0.91886608 0.91886608
0.91886608 0.91886608 0.91886608
0.91886608 0.91886608 0.91886608
0.91886608 0.91886608 0.91886608
0.91886608 0.91886608 0.91886608
0.91886608 0.91886608 0.91886608
0.91886608 0.91886608 0.91886608
0.91886608 0.91886608 0.91886608
0.88577124 0.76218484 0.91886608
0.88644682 0.76247694 0.91886608
0.89713927 0.76727844 0.91886608
0.91886608 0.80583760 0.91886608
0.91886608 0.91886608 0.91886608
0.88612645 0.76599876 0.91886608
0.88679931 0.76627910 0.91886608
0.89745133 0.77089216 0.91886608
0.91886608 0.80822919 0.91886608
0.91886608 0.91886608 0.91886608
0.89192096 0.81408141 0.91886608
0.89255097 0.81424761 0.91886608
0.90256231 0.81701087 0.91886608
0.91886608 0.84129387 0.91886608
0.91886608 0.91886608 0.91886608
0.91886608 0.91886608 0.91886608
0.91886608 0.91886608 0.91886608
0.91886608 0.91886608 0.91886608
0.91886608 0.91886608 0.91886608
0.91886608 0.91886608 0.91886608
0.91886608 0.91886608 0.91886608
0.91886608 0.91886608 0.91886608
0.91886608 0.91886608 0.91886608
0.91886608 0.91886608 0.91886608
0.91886608 0.91886608 0.91886608
