src/ffmpeg_scripts/luts/sRGB-rec2020_-3p33.cube
TITLE "sRGB-rec2020_-3p33"
LUT_3D_SIZE 33
# PQ (EOTF Only)/sRGB -> PQ (EOTF Only)/Rec2020, CineEI Shift -3.33, Black Level 0.00% IRE, Input 100% -> Output 109% - Created with LUTCalc v4.01 by Ben Turley October 2020
0.06256172 0.06256172 0.06256172
0.06891450 0.06435566 0.06333022
0.07706899 0.06693813 0.06446750
0.08650122 0.07021622 0.06597349
0.09700378 0.07415303 0.06785359
0.10845689 0.07873303 0.07011980
0.12078008 0.08395032 0.07278730
0.13391462 0.08980424 0.07587313
0.14781521 0.09629727 0.07939556
0.16244561 0.10343404 0.08337380
0.17777599 0.11122058 0.08782780
0.19378127 0.11966398 0.09277815
0.21043998 0.12877212 0.09824600
0.22773348 0.13855347 0.10425305
0.24564541 0.14901696 0.11082150
0.26416128 0.16017194 0.11797402
0.28326811 0.17202801 0.12573377
0.30295423 0.18459507 0.13412435
0.32320903 0.19788321 0.14316985
0.34402288 0.21190273 0.15289479
0.36538691 0.22666407 0.16332418
0.38729301 0.24217780 0.17448346
0.40973365 0.25845465 0.18639856
0.43270185 0.27550541 0.19909585
0.45619113 0.29334102 0.21260219
0.48019544 0.31197247 0.22694489
0.50470912 0.33141085 0.24215175
0.52972685 0.35166734 0.25825105
0.55524364 0.37275316 0.27527155
0.58125478 0.39467963 0.29324249
0.60775582 0.41745811 0.31219362
0.63474258 0.44110004 0.33215518
0.66221106 0.46561690 0.35315791
0.06698679 0.07040122 0.06462881
0.07057232 0.07071685 0.06484558
0.07788346 0.07179032 0.06553670
0.08697265 0.07380735 0.06673344
0.09730197 0.07679467 0.06840712
0.10865603 0.08068886 0.07053283
0.12091802 0.08541413 0.07310162
0.13401268 0.09091209 0.07611602
0.14788629 0.09714420 0.07958548
0.16249790 0.10408704 0.08352366
0.17781491 0.11172762 0.08794687
0.19381050 0.12005994 0.09287326
0.21046209 0.12908276 0.09832229
0.22775030 0.13879804 0.10431444
0.24565827 0.14921005 0.11087099
0.26417115 0.16032467 0.11801399
0.28327570 0.17214899 0.12576606
0.30296008 0.18469097 0.13415045
0.32321355 0.19795926 0.14319094
0.34402636 0.21196301 0.15291182
0.36538961 0.22671182 0.16333791
0.38729509 0.24221559 0.17449452
0.40973525 0.25848450 0.18640745
0.43270309 0.27552896 0.19910298
0.45619208 0.29335954 0.21260789
0.48019617 0.31198701 0.22694944
0.50470968 0.33142223 0.24215537
0.52972728 0.35167621 0.25825392
0.55524396 0.37276005 0.27527381
0.58125502 0.39468496 0.29324426
0.60775601 0.41746221 0.31219501
0.63474272 0.44110318 0.33215626
0.66221116 0.46561929 0.35315874
0.07291078 0.08018596 0.06757954
0.07495920 0.08032796 0.06769108
0.08054036 0.08083908 0.06808438
0.08861629 0.08190849 0.06887358
0.09836871 0.08371822 0.07013634
0.10937683 0.08640054 0.07190518
0.12142028 0.09001802 0.07418493
0.13437093 0.09457387 0.07697190
0.14814646 0.10003758 0.08026397
0.16268952 0.10636774 0.08406374
0.17795762 0.11352515 0.08837849
0.19391774 0.12147810 0.09321940
0.21054324 0.13020322 0.09860067
0.22781207 0.13968460 0.10453881
0.24570550 0.14991245 0.11105214
0.26420738 0.16088172 0.11816039
0.28330357 0.17259105 0.12588445
0.30298156 0.18504187 0.13424619
0.32323012 0.19823776 0.14326833
0.34403917 0.21218395 0.15297433
0.36539950 0.22688694 0.16338835
0.38730273 0.24235422 0.17453515
0.40974115 0.25859407 0.18644012
0.43270763 0.27561538 0.19912919
0.45619558 0.29342756 0.21262886
0.48019886 0.31204039 0.22696616
0.50471174 0.33146400 0.24216866
0.52972885 0.35170878 0.25826445
0.55524516 0.37278535 0.27528211
0.58125593 0.39470453 0.29325079
0.60775670 0.41747729 0.31220010
0.63474323 0.44111473 0.33216022
0.66221155 0.46562809 0.35316181
0.07997214 0.09129393 0.07129270
0.08123391 0.09137362 0.07136148
0.08520542 0.09166397 0.07160995
0.09183412 0.09228873 0.07213409
0.10056960 0.09339647 0.07303332
0.11090360 0.09514477 0.07439156
0.12249918 0.09767784 0.07626536
0.13514664 0.10110457 0.07868440
0.14871249 0.10548707 0.08166038
0.16310766 0.11084361 0.08519689
0.17826963 0.11716129 0.08929609
0.19415248 0.12441072 0.09396200
0.21072104 0.13255750 0.09920171
0.22794747 0.14156908 0.10502546
0.24580906 0.15141806 0.11144630
0.26428685 0.16208311 0.11847969
0.28336473 0.17354873 0.12614308
0.30302870 0.18580459 0.13445560
0.32326651 0.19884462 0.14343777
0.34406727 0.21266626 0.15311129
0.36542121 0.22726974 0.16349890
0.38731950 0.24265757 0.17462424
0.40975409 0.25883401 0.18651176
0.43271760 0.27580477 0.19918667
0.45620326 0.29357667 0.21267485
0.48020475 0.31215746 0.22700285
0.50471625 0.33155563 0.24219784
0.52973230 0.35178025 0.25828756
0.55524778 0.37284088 0.27530034
0.58125792 0.39474749 0.29326510
0.60775820 0.41751037 0.31221129
0.63474437 0.44114008 0.33216892
0.66221239 0.46564740 0.35316853
0.08802261 0.10348557 0.07571880
0.08884926 0.10353507 0.07576493
0.09163973 0.10371617 0.07593298
0.09679227 0.10410983 0.07629450
0.10421101 0.10482077 0.07693529
0.11353730 0.10597510 0.07794669
0.12440603 0.10771305 0.07941378
0.13653756 0.11017563 0.08140460
0.14973646 0.11348784 0.08396537
0.16386832 0.11774389 0.08712262
0.17883930 0.12299986 0.09088938
0.19458212 0.12927560 0.09527177
0.21104700 0.13656328 0.10027390
0.22819598 0.14483826 0.10590074
0.24599927 0.15406856 0.11215948
0.26443292 0.16422149 0.11905995
0.28347716 0.17526750 0.12661461
0.30311540 0.18718198 0.13483830
0.32333345 0.19994565 0.14374797
0.34411899 0.21354438 0.15336236
0.36546117 0.22796856 0.16370176
0.38735036 0.24321245 0.17478783
0.40977790 0.25927358 0.18664340
0.43273596 0.27615210 0.19929233
0.45621738 0.29385038 0.21275943
0.48021560 0.31237250 0.22707034
0.50472456 0.33172403 0.24225151
0.52973864 0.35191164 0.25833007
0.55525262 0.37294300 0.27533389
0.58126159 0.39482652 0.29329145
0.60776097 0.41757123 0.31223189
0.63474645 0.44118671 0.33218493
0.66221395 0.46568294 0.35318091
0.09697685 0.11662334 0.08083416
0.09754264 0.11665597 0.08086663
0.09952148 0.11677555 0.08098536
0.10341686 0.11703663 0.08124306
0.10945077 0.11751212 0.08170724
0.11753191 0.11829481 0.08245786
0.12739976 0.11949720 0.08358198
0.13877004 0.12124760 0.08516514
0.15140339 0.12368166 0.08728220
0.16511804 0.12692987 0.08999084
0.17978094 0.13110391 0.09333002
0.19529521 0.13628581 0.09732281
0.21158952 0.14252337 0.10198150
0.22861040 0.14983245 0.10731263
0.24631693 0.15820421 0.11332094
0.26467708 0.16761406 0.12001171
0.28366524 0.17802981 0.12739216
0.30326051 0.18941775 0.13547191
0.32344552 0.20174651 0.14426309
0.34420559 0.21498903 0.15378021
0.36552810 0.22912332 0.16403996
0.38740206 0.24413247 0.17506092
0.40981781 0.26000428 0.18686336
0.43276672 0.27673063 0.19946902
0.45624106 0.29430695 0.21290094
0.48023378 0.31273163 0.22718331
0.50473849 0.33200550 0.24234137
0.52974928 0.35213141 0.25840129
0.55526072 0.37311389 0.27539009
0.58126773 0.39495881 0.29333560
0.60776561 0.41767316 0.31226640
0.63474994 0.44126483 0.33221176
0.66221656 0.46574248 0.35320165
0.10677803 0.13061520 0.08662671
0.10717757 0.13063756 0.08665030
0.10860189 0.13071958 0.08673669
0.11151792 0.13089906 0.08692508
0.11628438 0.13122733 0.08726729
0.12303905 0.13177159 0.08782829
0.13170375 0.13261694 0.08868493
0.14207576 0.13386696 0.08992207
0.15392195 0.13564162 0.09162598
0.16703219 0.13807168 0.09387636
0.18123666 0.14128928 0.09673952
0.19640463 0.14541615 0.10026475
0.21243729 0.15055213 0.10448469
0.22926001 0.15676721 0.10941865
0.24681596 0.16409916 0.11507714
0.26506126 0.17255673 0.12146604
0.28396151 0.18212655 0.12858988
0.30348928 0.19278114 0.13645388
0.32362232 0.20448620 0.14506515
0.34434227 0.21720614 0.15443314
0.36563376 0.23090761 0.16456984
0.38748370 0.24556154 0.17548967
0.40988084 0.26114387 0.18720923
0.43281532 0.27763570 0.19974718
0.45627846 0.29502295 0.21312391
0.48026251 0.31329584 0.22736144
0.50476050 0.33244833 0.24248315
0.52976610 0.35247754 0.25851368
0.55527352 0.37338326 0.27547881
0.58127744 0.39516748 0.29340531
0.60777294 0.41783400 0.31232090
0.63475545 0.44138815 0.33225414
0.66222068 0.46583649 0.35323441
0.11738508 0.14539404 0.09309072
0.11767377 0.14540979 0.09310823
0.11871422 0.14546759 0.09317244
0.12089640 0.14559424 0.09331279
0.12459900 0.14582644 0.09356899
0.13008996 0.14621297 0.09399232
0.13746514 0.14681713 0.09464649
0.14665871 0.14771879 0.09560684
0.15750534 0.14901541 0.09695741
0.16980669 0.15082106 0.09878556
0.18337451 0.15326259 0.10117505
0.19804901 0.15647246 0.10419919
0.21370207 0.16057872 0.10791609
0.23023365 0.16569389 0.11236728
0.24756637 0.17190545 0.11757935
0.26564034 0.17927033 0.12356755
0.28440886 0.18781461 0.13034000
0.30383515 0.19753778 0.13790132
0.32388986 0.20841974 0.14625540
0.34454925 0.22042834 0.15540714
0.36579385 0.23352600 0.16536347
0.38760745 0.24767466 0.17613379
0.40997640 0.26283900 0.18773008
0.43288901 0.27898821 0.20016681
0.45633519 0.29609675 0.21346077
0.48030608 0.31414435 0.22763083
0.50479389 0.33311572 0.24269773
0.52979160 0.35300005 0.25868390
0.55529294 0.37379041 0.27561324
0.58129217 0.39548317 0.29351098
0.60778407 0.41807752 0.31240354
0.63476381 0.44157497 0.33231841
0.66222694 0.46597897 0.35328411
0.12876674 0.16090819 0.10022434
0.12897898 0.16091951 0.10023754
0.12974893 0.16096109 0.10028601
0.13138843 0.16105224 0.10039210
0.13424151 0.16121959 0.10058632
0.13862013 0.16149882 0.10090880
0.14473621 0.16193694 0.10141084
0.15266289 0.16259449 0.10215574
0.16234458 0.16354772 0.10321840
0.17364178 0.16488979 0.10468294
0.18638107 0.16673054 0.10663827
0.20039090 0.16919394 0.10917187
0.21551983 0.17241246 0.11236318
0.23164223 0.17651855 0.11627814
0.24865720 0.18163433 0.12096651
0.26648505 0.18786131 0.12646209
0.28506307 0.19527295 0.13278537
0.30434190 0.20391155 0.13994737
0.32428239 0.21378992 0.14795352
0.34485324 0.22489682 0.15680689
0.36602915 0.23720411 0.16651049
0.38778944 0.25067400 0.17706886
0.41011699 0.26526507 0.18848877
0.43299747 0.28093665 0.20077969
0.45641870 0.29765163 0.21395375
0.48037024 0.31537792 0.22802568
0.50484305 0.33408900 0.24301264
0.52982917 0.35376388 0.25893394
0.55532154 0.37438669 0.27581085
0.58131387 0.39594618 0.29366639
0.60780046 0.41843506 0.31252512
0.63477614 0.44184949 0.33241301
0.66223616 0.46618847 0.35335727
0.14089830 0.17711634 0.10802824
0.14105645 0.17712460 0.10803832
0.14163249 0.17715497 0.10807534
0.14287104 0.17722158 0.10815644
0.14506350 0.17734397 0.10830517
0.14851315 0.17754850 0.10855287
0.15348483 0.17787015 0.10894033
0.16015432 0.17835463 0.10951927
0.16858169 0.17906059 0.11035321
0.17871963 0.18006168 0.11151732
0.19044737 0.18144803 0.11309653
0.20361000 0.18332655 0.11518168
0.21804898 0.18581919 0.11786398
0.23361973 0.18905856 0.12122848
0.25019880 0.19318062 0.12534833
0.26768465 0.19831516 0.13028100
0.28599550 0.20457536 0.13606738
0.30506609 0.21204907 0.14273343
0.32484446 0.22079346 0.15029353
0.34528917 0.23083445 0.15875441
0.36636695 0.24217036 0.16811872
0.38805092 0.25477825 0.17838789
0.41031913 0.26862142 0.18956413
0.43315347 0.28365614 0.20165160
0.45653886 0.29983717 0.21465710
0.48046259 0.31712152 0.22859031
0.50491383 0.33547071 0.24346372
0.52988325 0.35485193 0.25929258
0.55536273 0.37523834 0.27609458
0.58134512 0.39660882 0.29388970
0.60782407 0.41894758 0.31269994
0.63479389 0.44224347 0.33254909
0.66224943 0.46648942 0.35346255
0.15375975 0.19398445 0.11650490
0.15387883 0.19399057 0.11651267
0.15431370 0.19401302 0.11654119
0.15525470 0.19406227 0.11660373
0.15693983 0.19415283 0.11671855
0.15963887 0.19430431 0.11691015
0.16362315 0.19454290 0.11721080
0.16912379 0.19490310 0.11766212
0.17629239 0.19542974 0.11831654
0.18518113 0.19618010 0.11923829
0.19574950 0.19722604 0.12050338
0.20789081 0.19865560 0.12219808
0.22146426 0.20057370 0.12441560
0.23632158 0.20310106 0.12725092
0.25232378 0.20637074 0.13079456
0.26934922 0.21052185 0.13512645
0.28729577 0.21569072 0.14031145
0.30607970 0.22200062 0.14639738
0.32563335 0.22955208 0.15341578
0.34590228 0.23841596 0.16138470
0.36684280 0.24863076 0.17031249
0.38841970 0.26020452 0.18020170
0.41060446 0.27312024 0.19105235
0.43337383 0.28734310 0.20286440
0.45670868 0.30282790 0.21563936
0.48059315 0.31952538 0.22938127
0.50501393 0.33738700 0.24409716
0.52995976 0.35636805 0.25979713
0.55542101 0.37642940 0.27649433
0.58138934 0.39753821 0.29420469
0.60785747 0.41966799 0.31294674
0.63481901 0.44279822 0.33274132
0.66226823 0.46691372 0.35361135
0.16733450 0.21148393 0.12565806
0.16742490 0.21148849 0.12566408
0.16775563 0.21150525 0.12568622
0.16847435 0.21154202 0.12573477
0.16977168 0.21160966 0.12582399
0.17187601 0.21172286 0.12597305
0.17503855 0.21190134 0.12620745
0.17950585 0.21217121 0.12656041
0.18548450 0.21256667 0.12707456
0.19310942 0.21313195 0.12780332
0.20242799 0.21392341 0.12881197
0.21340530 0.21501168 0.13017781
0.22594555 0.21648346 0.13198895
0.23991899 0.21844243 0.13434133
0.25518547 0.22100877 0.13733393
0.27161051 0.22431639 0.14106266
0.28907389 0.22850747 0.14561407
0.30747280 0.23372429 0.15106018
0.32672169 0.24009913 0.15745564
0.34675055 0.24774402 0.16483760
0.36750258 0.25674243 0.17322795
0.38893185 0.26714485 0.18263693
0.41100121 0.27896896 0.19306717
0.43368052 0.29220395 0.20451738
0.45694521 0.30681745 0.21698527
0.48077509 0.32276323 0.23046964
0.50515348 0.33998843 0.24497165
0.53006646 0.35843917 0.26049550
0.55550229 0.37806456 0.27704873
0.58145102 0.39881911 0.29464221
0.60790409 0.42066390 0.31328995
0.63485406 0.44356690 0.33300889
0.66229445 0.46750272 0.35381862
0.18160858 0.22959026 0.13549241
0.18167766 0.22959369 0.13549711
0.18193071 0.22960629 0.13551438
0.18248221 0.22963396 0.13555228
0.18348318 0.22968485 0.13562195
0.18512147 0.22977007 0.13573846
0.18761635 0.22990452 0.13592193
0.19120358 0.23010802 0.13619881
0.19611048 0.23040668 0.13660341
0.20252556 0.23083454 0.13717945
0.21057200 0.23143545 0.13798156
0.22029429 0.23226521 0.13907640
0.23166228 0.23339369 0.14054297
0.24458878 0.23490679 0.14247161
0.25895273 0.23690761 0.14496137
0.27462051 0.23951638 0.14811548
0.29146120 0.24286829 0.15203535
0.30935558 0.24710873 0.15681408
0.32820006 0.25238565 0.16253076
0.34790726 0.25883971 0.16924681
0.36840491 0.26659356 0.17700503
0.38963384 0.27574246 0.18583124
0.41154595 0.28634828 0.19573767
0.43410215 0.29843810 0.20672714
0.45727069 0.31200735 0.21879708
0.48102564 0.32702628 0.23194293
0.50534577 0.34344791 0.24616065
0.53021354 0.36121593 0.26144833
0.55561439 0.38027122 0.27780720
0.58153611 0.40055669 0.29524204
0.60796839 0.42202042 0.31376126
0.63490243 0.44461727 0.33337680
0.66233064 0.46830955 0.35410387
0.19657008 0.24828216 0.14601338
0.19662315 0.24828476 0.14601707
0.19681769 0.24829430 0.14603060
0.19724255 0.24831523 0.14606030
0.19801664 0.24835376 0.14611492
0.19929174 0.24841829 0.14620633
0.20125242 0.24852014 0.14635041
0.20410983 0.24867442 0.14656817
0.20808705 0.24890108 0.14688709
0.21339649 0.24922629 0.14734258
0.22021326 0.24968402 0.14797960
0.22865216 0.25031796 0.14885419
0.23875610 0.25118359 0.15003467
0.25049897 0.25235042 0.15160205
0.26380053 0.25390404 0.15364934
0.27854671 0.25594749 0.15627906
0.29460904 0.25860160 0.15959897
0.31185936 0.26200330 0.16371617
0.33017906 0.26630141 0.16873041
0.34946359 0.27164953 0.17472781
0.36962372 0.27819635 0.18177656
0.39058489 0.28607457 0.18992513
0.41228565 0.29539064 0.19920330
0.43467569 0.30621727 0.20962537
0.45771403 0.31859058 0.22119433
0.48136727 0.33251208 0.23390630
0.50560815 0.34795463 0.24775432
0.53041436 0.36487051 0.26273132
0.55576750 0.38319996 0.27883219
0.58165238 0.40287854 0.29605494
0.60805629 0.42384287 0.31440139
0.63496855 0.44603443 0.33387734
0.66238012 0.46940175 0.35449249
0.21220875 0.26754093 0.15722699
0.21224968 0.26754291 0.15722988
0.21239981 0.26755016 0.15724052
0.21272816 0.26756609 0.15726387
0.21332805 0.26759539 0.15730683
0.21432077 0.26764448 0.15737874
0.21585810 0.26772199 0.15749217
0.21812135 0.26783946 0.15766380
0.22131463 0.26801218 0.15791554
0.22565081 0.26826025 0.15827592
0.23133075 0.26860995 0.15878150
0.23851953 0.26909529 0.15947862
0.24732610 0.26975993 0.16042489
0.25779259 0.27065930 0.16169053
0.26989648 0.27186287 0.16335894
0.28356321 0.27345628 0.16552611
0.29868432 0.27554303 0.16829843
0.31513540 0.27824503 0.17178855
0.33279035 0.28170140 0.17610951
0.35153074 0.28606476 0.18136783
0.37125089 0.29149446 0.18765681
0.39185964 0.29814710 0.19505141
0.41328013 0.30616514 0.20360579
0.43544858 0.31566573 0.21335373
0.45831255 0.32673199 0.22431152
0.48182910 0.33940869 0.23648229
0.50596323 0.35370315 0.24986068
0.53068634 0.36959059 0.26443718
0.55597501 0.38702238 0.28020148
0.58181002 0.40593510 0.29714499
0.60817550 0.42625878 0.31526230
0.63505826 0.44792354 0.33455206
0.66244726 0.47086407 0.35501725
0.22851563 0.28734997 0.16913969
0.22854730 0.28735148 0.16914197
0.22866351 0.28735702 0.16915035
0.22891791 0.28736918 0.16916875
0.22938363 0.28739155 0.16920261
0.23015689 0.28742904 0.16925930
0.23136060 0.28748824 0.16934877
0.23314619 0.28757799 0.16948425
0.23569194 0.28771003 0.16968321
0.23919607 0.28789982 0.16996847
0.24386326 0.28816766 0.17036960
0.24988553 0.28853995 0.17092443
0.25742055 0.28905084 0.17168075
0.26657316 0.28974410 0.17269792
0.27738546 0.29067530 0.17404832
0.28983806 0.29191414 0.17581802
0.30386113 0.29354671 0.17810639
0.31935073 0.29567735 0.18102406
0.33618561 0.29842956 0.18468894
0.35424104 0.30194512 0.18922034
0.37339843 0.30638080 0.19473181
0.39355073 0.31190199 0.20132396
0.41460472 0.31867326 0.20907864
0.43648123 0.32684670 0.21805570
0.45911412 0.33654990 0.22829289
0.48244876 0.34787599 0.23980843
0.50644033 0.36087800 0.25260540
0.53105217 0.37556863 0.26667678
0.55625435 0.39192513 0.28201021
0.58202237 0.40989753 0.29859189
0.60833616 0.42941838 0.31640946
0.63517920 0.45041185 0.33545385
0.66253781 0.47280121 0.35572029
0.24548290 0.30769442 0.18175832
0.24550746 0.30769558 0.18176012
0.24559761 0.30769982 0.18176674
0.24579510 0.30770913 0.18178126
0.24615716 0.30772626 0.18180798
0.24675976 0.30775497 0.18185274
0.24770141 0.30780031 0.18192341
0.24910618 0.30786907 0.18203047
0.25112497 0.30797027 0.18218782
0.25393344 0.30811581 0.18241371
0.25772496 0.30832137 0.18273188
0.26269783 0.30860740 0.18317298
0.26903733 0.30900052 0.18377614
0.27689576 0.30953506 0.18459073
0.28637528 0.31025504 0.18567805
0.29751843 0.31121634 0.18711283
0.31030870 0.31248914 0.18898415
0.32468021 0.31416029 0.19139510
0.34053262 0.31633541 0.19446098
0.35774706 0.31914000 0.19830536
0.37619963 0.32271899 0.20305421
0.39577114 0.32723377 0.20882842
0.41635296 0.33285613 0.21573615
0.43784967 0.33975881 0.22386625
0.46017969 0.34810357 0.23328432
0.48327451 0.35802828 0.24403201
0.50707729 0.36963580 0.25612930
0.53154130 0.38298700 0.26957900
0.55662824 0.39809950 0.28437212
0.58230683 0.41495197 0.30049313
0.60855153 0.43349258 0.31792440
0.63534140 0.45364930 0.33664946
0.66265929 0.47533993 0.35665527
0.26310365 0.32856087 0.19509002
0.26312272 0.32856176 0.19509145
0.26319276 0.32856501 0.19509667
0.26334628 0.32857216 0.19510815
0.26362802 0.32858530 0.19512926
0.26409777 0.32860733 0.19516463
0.26483390 0.32864214 0.19522048
0.26593673 0.32869492 0.19530514
0.26753119 0.32877263 0.19542964
0.26976765 0.32888444 0.19560852
0.27281956 0.32904244 0.19586079
0.27687649 0.32926247 0.19621113
0.28213183 0.32956522 0.19669131
0.28876588 0.32997750 0.19734183
0.29692721 0.33053393 0.19821373
0.30671644 0.33127887 0.19937040
0.31817694 0.33226868 0.20088922
0.33129488 0.33357424 0.20286251
0.34600770 0.33528347 0.20539749
0.36221793 0.33750364 0.20861456
0.37980837 0.34036271 0.21264342
0.39865542 0.34400926 0.21761710
0.41863893 0.34860979 0.22366425
0.43964838 0.35434292 0.23090083
0.46158604 0.36138995 0.23942290
0.48436780 0.36992244 0.24930185
0.50792272 0.38008853 0.26058311
0.53219174 0.39200059 0.27328822
0.55712617 0.40572690 0.28741940
0.58268610 0.42128938 0.30296530
0.60883891 0.43866747 0.31990680
0.63555798 0.45780672 0.33822200
0.66282158 0.47862979 0.35788999
0.28137174 0.34993716 0.20914220
0.28138657 0.34993784 0.20914332
0.28144104 0.34994034 0.20914745
0.28156048 0.34994583 0.20915652
0.28177983 0.34995593 0.20917321
0.28214604 0.34997286 0.20920116
0.28272113 0.34999961 0.20924532
0.28358542 0.35004019 0.20931228
0.28484071 0.35009994 0.20941078
0.28661261 0.35018593 0.20955240
0.28905104 0.35030750 0.20975231
0.29232774 0.35047691 0.21003029
0.29662936 0.35071019 0.21041196
0.30214568 0.35102822 0.21093023
0.30905354 0.35145809 0.21162705
0.31749909 0.35203476 0.21255525
0.32758232 0.35280301 0.21378047
0.33934784 0.35381985 0.21538293
0.35278431 0.35515706 0.21745858
0.36783199 0.35690395 0.22011913
0.38439566 0.35916975 0.22349051
0.40235918 0.36208539 0.22770906
0.42159871 0.36580357 0.23291539
0.44199274 0.37049649 0.23924633
0.46342865 0.37635012 0.24682603
0.48580618 0.38355476 0.25575794
0.50903858 0.39229208 0.26611926
0.53305239 0.40272059 0.27795911
0.55778629 0.41496194 0.29130030
0.58318965 0.42909139 0.30614402
0.60922090 0.44513450 0.32247609
0.63584612 0.46307058 0.34027329
0.66303763 0.48284166 0.35950897
0.30028172 0.37181216 0.22392245
0.30029326 0.37181268 0.22392334
0.30033563 0.37181460 0.22392660
0.30042857 0.37181883 0.22393377
0.30059937 0.37182660 0.22394696
0.30088481 0.37183962 0.22396905
0.30133374 0.37186020 0.22400396
0.30201003 0.37189142 0.22405689
0.30299567 0.37193740 0.22413480
0.30439368 0.37200358 0.22424686
0.30633024 0.37209718 0.22440515
0.30895499 0.37222766 0.22462547
0.31243842 0.37240744 0.22492836
0.31696512 0.37265275 0.22534039
0.32272237 0.37298470 0.22589568
0.32988480 0.37343067 0.22663767
0.33859730 0.37402599 0.22762107
0.34896004 0.37481600 0.22891398
0.36101919 0.37585848 0.23059971
0.37476578 0.37722633 0.23277810
0.39014250 0.37901048 0.23556581
0.40705577 0.38132256 0.23909479
0.42539000 0.38429687 0.24350854
0.44502061 0.38809081 0.24895583
0.46582435 0.39288286 0.25558217
0.48768620 0.39886698 0.26352031
0.51050313 0.40624300 0.27288133
0.53418566 0.41520315 0.28374832
0.55865772 0.42591643 0.29617387
0.58385569 0.43851367 0.31018168
0.60972692 0.45307658 0.32577144
0.63622825 0.46963354 0.34292551
0.66332441 0.48816278 0.36161599
0.31982868 0.39417568 0.23943858
0.31983766 0.39417609 0.23943928
0.31987062 0.39417757 0.23944186
0.31994294 0.39418081 0.23944752
0.32007589 0.39418679 0.23945793
0.32029824 0.39419682 0.23947539
0.32064836 0.39421265 0.23950296
0.32117674 0.39423668 0.23954478
0.32194881 0.39427206 0.23960635
0.32304795 0.39432301 0.23969494
0.32457824 0.39439508 0.23982014
0.32666639 0.39449558 0.23999453
0.32946194 0.39463412 0.24023451
0.33313461 0.39482327 0.24056141
0.33786767 0.39507943 0.24100275
0.34384694 0.39542397 0.24159387
0.35124592 0.39588459 0.24237979
0.36020924 0.39649706 0.24341725
0.37083795 0.39730735 0.24477693
0.38318008 0.39837414 0.24654548
0.39722900 0.39977167 0.24882702
0.41292944 0.40159277 0.25174355
0.43018904 0.40395181 0.25543357
0.44889215 0.40698696 0.26004838
0.46891301 0.41086089 0.26574547
0.49012625 0.41575903 0.27267967
0.51241410 0.42188403 0.28099276
0.53567060 0.42944592 0.29080375
0.55980332 0.43864798 0.30220161
0.58473351 0.44966996 0.31524220
0.61039516 0.46265171 0.32994965
0.63673365 0.47768087 0.34632149
0.66370415 0.49478770 0.36433595
0.34000825 0.41701833 0.25569853
0.34001523 0.41701864 0.25569909
0.34004086 0.41701978 0.25570112
0.34009709 0.41702228 0.25570558
0.34020051 0.41702688 0.25571380
0.34037356 0.41703459 0.25572757
0.34064629 0.41704678 0.25574933
0.34105843 0.41706526 0.25578234
0.34166185 0.41709249 0.25583094
0.34252331 0.41713170 0.25590089
0.34372736 0.41718717 0.25599978
0.34537902 0.41726455 0.25613760
0.34760553 0.41737125 0.25632740
0.35055655 0.41751700 0.25658620
0.35440146 0.41771450 0.25693608
0.35932294 0.41798038 0.25740556
0.36550622 0.41833622 0.25803124
0.37312465 0.41881009 0.25885977
0.38232353 0.41943825 0.25995003
0.39320541 0.42026740 0.26137549
0.40582050 0.42135724 0.26322639
0.42016448 0.42278354 0.26561147
0.43618384 0.42464131 0.26865854
0.45378694 0.42704807 0.27251325
0.47285763 0.43014632 0.27733531
0.49326849 0.43410465 0.28329169
0.51489157 0.43911616 0.29054713
