src/ffmpeg_scripts/luts/sRGB-rec2020_1p00.cube
TITLE "sRGB-rec2020_1p00"
LUT_3D_SIZE 5
# PQ (EOTF Only)/sRGB -> PQ (EOTF Only)/Rec2020, CineEI Shift 1.00, Black Level 0.00% IRE, Input 100% -> Output 109% - Created with LUTCalc v4.01 by Ben Turley October 2020
0.06256172 0.06256172 0.06256172
0.29071243 0.17673907 0.12885982
0.51026276 0.33587141 0.24567515
0.72598799 0.52425516 0.40457633
0.91886608 0.73657153 0.60314891
0.25213009 0.31559600 0.18676107
0.31825673 0.32047556 0.19419570
0.51277294 0.37613231 0.26053967
0.72624464 0.53017470 0.40674525
0.91886608 0.73721023 0.60340115
0.45556408 0.54381390 0.35304844
0.46397325 0.54418561 0.35379542
0.54733050 0.55025308 0.36549624
0.73047823 0.59673210 0.43705956
0.91886608 0.74738948 0.60756465
0.66588902 0.76169789 0.54560243
0.66681193 0.76173465 0.54568907
0.68117986 0.76235354 0.54714106
0.76539404 0.76845934 0.56083336
0.91886608 0.81452720 0.64209562
0.88113673 0.91886608 0.75917373
0.88122604 0.91886608 0.75918269
0.88272160 0.91886608 0.75933398
0.89671822 0.91886608 0.76086799
0.91886608 0.91886608 0.77510868
0.15905299 0.11960315 0.31383180
0.29495203 0.18297496 0.31504374
0.51059686 0.33651068 0.33313130
0.72602179 0.52433064 0.42447901
0.91886608 0.73657945 0.60568477
0.25919105 0.31641946 0.32013042
0.32124984 0.32124984 0.32124984
0.51309812 0.37652616 0.33811729
0.72627835 0.53024554 0.42621239
0.91886608 0.73721809 0.60593035
0.45617042 0.54387513 0.38641529
0.46452595 0.54424659 0.38691856
0.54755509 0.55031024 0.39500460
0.73051044 0.59676699 0.45132059
0.91886608 0.74739653 0.60998625
0.66595303 0.76170394 0.55022262
0.66687531 0.76174069 0.55030510
0.68123429 0.76235954 0.55168781
0.76541619 0.76846496 0.56477575
0.91886608 0.81453060 0.64378317
0.88114290 0.91886608 0.75966209
0.88123220 0.91886608 0.75967100
0.88272766 0.91886608 0.75982150
0.89672338 0.91886608 0.76134754
0.91886608 0.91886608 0.77551999
0.30429965 0.22612819 0.54147496
0.34474144 0.24161667 0.54156551
0.51606731 0.34661493 0.54308236
0.72659108 0.52559703 0.55733641
0.91886608 0.73671315 0.64063269
0.32803582 0.32917502 0.54196011
0.35992699 0.33330845 0.54205019
0.51842716 0.38291916 0.54355926
0.72684608 0.53143454 0.55774620
0.91886608 0.73735089 0.64080248
0.46584535 0.54490364 0.54979906
0.47339003 0.54527105 0.54988191
0.55127083 0.55127083 0.55127083
0.73105314 0.59735464 0.56441312
0.91886608 0.74751560 0.64362625
0.66702801 0.76180602 0.60602819
0.66793991 0.76184274 0.60607381
0.68214939 0.76246091 0.60684132
0.76578952 0.76855987 0.61435606
0.91886608 0.81458808 0.66851088
0.88124706 0.91886608 0.76754739
0.88133626 0.91886608 0.76755558
0.88282997 0.91886608 0.76769381
0.89681061 0.91886608 0.76909649
0.91886608 0.91886608 0.78220627
0.48392836 0.37653613 0.75923475
0.49016347 0.37889241 0.75924371
0.55889381 0.41123101 0.75939490
0.73222531 0.53765296 0.76092791
0.91886608 0.73807035 0.77516006
0.48725352 0.40357302 0.75928283
0.49327399 0.40529991 0.75929178
0.56039299 0.43027333 0.75944289
0.73246543 0.54280243 0.76097512
0.91886608 0.73869891 0.77520054
0.53051273 0.55482558 0.76009143
0.53433261 0.55515615 0.76010030
0.58266648 0.56057283 0.76025010
0.73643218 0.60316642 0.76176916
0.91886608 0.74872526 0.77588186
0.67737671 0.76284419 0.76798354
0.67819435 0.76288050 0.76799168
0.69103532 0.76349181 0.76812927
0.76952541 0.76952541 0.76952541
0.91886608 0.81517407 0.78257853
0.88230587 0.91886608 0.82367325
0.88239400 0.91886608 0.82367769
0.88387002 0.91886608 0.82375265
0.89769816 0.91886608 0.82451612
0.91886608 0.91886608 0.83189918
0.69296042 0.56993269 0.91886608
0.69365394 0.57021426 0.91886608
0.70466010 0.57484886 0.91886608
0.77564812 0.61250211 0.91886608
0.91886608 0.75079423 0.91886608
0.69332504 0.57361248 0.91886608
0.69401588 0.57388327 0.91886608
0.70498216 0.57834493 0.91886608
0.77579868 0.61486272 0.91886608
0.91886608 0.75134280 0.91886608
0.69928172 0.62065145 0.91886608
0.69993035 0.62081609 0.91886608
0.71026354 0.62355567 0.91886608
0.77830623 0.64779662 0.91886608
0.91886608 0.76015362 0.91886608
0.74509084 0.77274169 0.91886608
0.74548910 0.77277431 0.91886608
0.75197308 0.77332383 0.91886608
0.80066692 0.77876631 0.91886608
0.91886608 0.82090002 0.91886608
0.89235775 0.91886608 0.91886608
0.89243636 0.91886608 0.91886608
0.89375403 0.91886608 0.91886608
0.90620417 0.91886608 0.91886608
0.91886608 0.91886608 0.91886608
