src/ffmpeg_scripts/luts/sRGB-rec2020_3p33.cube
TITLE "sRGB-rec2020_3p33"
LUT_3D_SIZE 5
# PQ (EOTF Only)/sRGB -> PQ (EOTF Only)/Rec2020, CineEI Shift 3.33, Black Level 0.00% IRE, Input 100% -> Output 109% - Created with LUTCalc v4.01 by Ben Turley October 2020
0.06256172 0.06256172 0.06256172
0.40543432 0.25530662 0.18407810
0.65619144 0.46020547 0.34849623
0.87591558 0.67108656 0.53998315
0.91886608 0.88622203 0.75325500
0.35681952 0.43587150 0.26942386
0.43908777 0.44176447 0.27975443
0.65887121 0.50742007 0.36757710
0.87616597 0.67735713 0.54244133
0.91886608 0.88684278 0.75351311
0.59691531 0.69173713 0.48052045
0.60614266 0.69212772 0.48139795
0.69542962 0.69849375 0.49508095
0.88029295 0.74667974 0.57645379
0.91886608 0.89671739 0.75776934
0.81663314 0.91053921 0.69361589
0.81755365 0.91057463 0.69370686
0.83184236 0.91117095 0.69523086
0.91409876 0.91704740 0.70955169
0.91886608 0.91886608 0.79278657
0.91886608 0.91886608 0.90810579
0.91886608 0.91886608 0.90811443
0.91886608 0.91886608 0.90826034
0.91886608 0.91886608 0.90973938
0.91886608 0.91886608 0.91886608
0.22979660 0.16936557 0.43373500
0.41066747 0.26411734 0.43520304
0.65654830 0.46096632 0.45693991
0.87594856 0.67116664 0.56241502
0.91886608 0.88622972 0.75584852
0.36585834 0.43686765 0.44134842
0.44269737 0.44269737 0.44269737
0.65921812 0.50787523 0.46287683
0.87619885 0.67743207 0.56435564
0.91886608 0.88685042 0.75609953
0.59758211 0.69180147 0.51926356
0.60674762 0.69219179 0.51984109
0.69566524 0.69855363 0.52909371
0.88032433 0.74671554 0.59224229
0.91886608 0.89672422 0.76024142
0.81669699 0.91054504 0.69846184
0.81761685 0.91058046 0.69854825
0.83189634 0.91117673 0.69999643
0.91412007 0.91705280 0.71365832
0.91886608 0.91886608 0.79448529
0.91886608 0.91886608 0.90857676
0.91886608 0.91886608 0.90858535
0.91886608 0.91886608 0.90873047
0.91886608 0.91886608 0.91020158
0.91886608 0.91886608 0.91886608
0.42213584 0.32291680 0.68927780
0.47072899 0.34323256 0.68937306
0.66238305 0.47294261 0.69096822
0.87650391 0.67250959 0.70590285
0.91886608 0.88635968 0.79131303
0.45084848 0.45221249 0.68978815
0.48858272 0.45715124 0.68988289
0.66489514 0.51524617 0.69146952
0.87675265 0.67868935 0.70633074
0.91886608 0.88697946 0.79148409
0.60819103 0.69288203 0.69801801
0.61642466 0.69326791 0.69810483
0.69955980 0.69955980 0.69955980
0.88085291 0.74731845 0.71328089
0.91886608 0.89683952 0.79432738
0.81776912 0.91064341 0.75619953
0.81867825 0.91067879 0.75624616
0.83280374 0.91127439 0.75703043
0.91447935 0.91714405 0.76469596
0.91886608 0.91886608 0.81924733
0.91886608 0.91886608 0.91617047
0.91886608 0.91886608 0.91617835
0.91886608 0.91886608 0.91631129
0.91886608 0.91886608 0.91765992
0.91886608 0.91886608 0.91886608
0.62786900 0.50788674 0.90816464
0.63460992 0.51060720 0.90817328
0.70752861 0.54751462 0.90831909
0.88199425 0.68525318 0.90979713
0.91886608 0.88767851 0.91886608
0.63146667 0.53884487 0.90821101
0.63796450 0.54080360 0.90821964
0.70909251 0.56889413 0.90836537
0.88222799 0.69067393 0.90984263
0.91886608 0.88828909 0.91886608
0.67771467 0.70327932 0.90899074
0.68175085 0.70362491 0.90899929
0.73220280 0.70928004 0.90914372
0.88608657 0.75327292 0.91060790
0.91886608 0.89801061 0.91886608
0.82806779 0.91164362 0.91658990
0.82887975 0.91167859 0.91659774
0.84159863 0.91226738 0.91673003
0.91807218 0.91807218 0.91807218
0.91886608 0.91886608 0.91886608
0.91886608 0.91886608 0.91886608
0.91886608 0.91886608 0.91886608
0.91886608 0.91886608 0.91886608
0.91886608 0.91886608 0.91886608
0.91886608 0.91886608 0.91886608
0.84350016 0.71901899 0.91886608
0.84418486 0.71931132 0.91886608
0.85502757 0.72411778 0.91886608
0.91886608 0.76280706 0.91886608
0.91886608 0.90001249 0.91886608
0.84386017 0.72283652 0.91886608
0.84454214 0.72311720 0.91886608
0.85534418 0.72773690 0.91886608
0.91886608 0.76521192 0.91886608
0.91886608 0.90054303 0.91886608
0.84973455 0.77109913 0.91886608
0.85037344 0.77126637 0.91886608
0.86053102 0.77404744 0.91886608
0.91886608 0.79852072 0.91886608
0.91886608 0.90905070 0.91886608
0.89449059 0.91886608 0.91886608
0.89487652 0.91886608 0.91886608
0.90115248 0.91886608 0.91886608
0.91886608 0.91886608 0.91886608
0.91886608 0.91886608 0.91886608
0.91886608 0.91886608 0.91886608
0.91886608 0.91886608 0.91886608
0.91886608 0.91886608 0.91886608
0.91886608 0.91886608 0.91886608
0.91886608 0.91886608 0.91886608
