src/ffmpeg_scripts/luts/sRGB-rec2020_2p67.cube
TITLE "sRGB-rec2020_2p67"
LUT_3D_SIZE 33
# PQ (EOTF Only)/sRGB -> PQ (EOTF Only)/Rec2020, CineEI Shift 2.67, Black Level 0.00% IRE, Input 100% -> Output 109% - Created with LUTCalc v4.01 by Ben Turley October 2020
0.06256172 0.06256172 0.06256172
0.11256645 0.08044140 0.07098389
0.15527277 0.09989784 0.08138947
0.19486653 0.12024761 0.09312466
0.23242643 0.14126290 0.10594023
0.26847748 0.16282009 0.11969354
0.30333210 0.18483969 0.13428929
0.33719764 0.20726555 0.14965815
0.37022174 0.23005557 0.16574677
0.40251480 0.25317685 0.18251253
0.43416244 0.27660283 0.19992037
0.46523295 0.30031155 0.21794082
0.49578206 0.32428454 0.23654865
0.52585605 0.34850597 0.25572197
0.55549398 0.37296213 0.27544153
0.58472923 0.39764099 0.29569026
0.61359064 0.42253192 0.31645290
0.64210336 0.44762543 0.33771565
0.67028955 0.47291298 0.35946600
0.69816882 0.49838688 0.38169256
0.72575868 0.52404011 0.40438483
0.75307483 0.54986627 0.42753316
0.78013147 0.57585948 0.45112862
0.80694144 0.60201431 0.47516290
0.83351644 0.62832577 0.49962828
0.85986718 0.65478918 0.52451750
0.88600348 0.68140023 0.54982379
0.91193436 0.70815487 0.57554078
0.91886608 0.73504931 0.60166246
0.91886608 0.76207999 0.62818314
0.91886608 0.78924358 0.65509747
0.91886608 0.81653692 0.68240035
0.91886608 0.84395703 0.71008695
0.10022765 0.12130444 0.08273457
0.12227481 0.12308933 0.08450365
0.15900335 0.12899975 0.08988963
0.19667446 0.13952540 0.09849871
0.23342127 0.15399969 0.10944298
0.26906960 0.17134239 0.12205142
0.30370371 0.19064531 0.13592080
0.33743993 0.21129284 0.15081241
0.37038430 0.23289535 0.16657801
0.40262630 0.25520773 0.18311970
0.43424028 0.27807265 0.20036897
0.46528806 0.30138599 0.21827533
0.49582152 0.32507651 0.23679995
0.52588458 0.34909376 0.25591189
0.55551476 0.37340086 0.27558576
0.58474446 0.39796997 0.29580022
0.61360186 0.42277951 0.31653697
0.64211167 0.44781231 0.33778006
0.67029571 0.47305434 0.35951544
0.69817340 0.49849397 0.38173053
0.72576209 0.52412132 0.40441401
0.75307738 0.54992787 0.42755559
0.78013337 0.57590620 0.45114584
0.80694286 0.60204972 0.47517611
0.83351750 0.62835258 0.49963839
0.85986797 0.65480945 0.52452524
0.88600406 0.68141553 0.54982969
0.91193480 0.70816638 0.57554527
0.91886608 0.73505795 0.60166586
0.91886608 0.76208645 0.62818571
0.91886608 0.78924839 0.65509940
0.91886608 0.81654049 0.68240180
0.91886608 0.84395967 0.71008803
0.13493218 0.16918435 0.10416594
0.14524754 0.16979594 0.10489142
0.17070746 0.17198279 0.10741339
0.20287622 0.17648709 0.11231747
0.23695271 0.18390564 0.11978878
0.27120398 0.19447870 0.12961848
0.30505366 0.20804756 0.14142235
0.33832382 0.22418825 0.15482314
0.37097878 0.24239435 0.16952059
0.40303470 0.26220102 0.18529473
0.43452563 0.28323346 0.20198843
0.46549021 0.30520877 0.21948916
0.49596634 0.32792005 0.23771505
0.52598929 0.35121765 0.25660519
0.55559105 0.37499325 0.27611317
0.58480039 0.39916785 0.29620277
0.61364307 0.42368314 0.31684502
0.64214215 0.44849550 0.33801627
0.67031834 0.47357176 0.35969680
0.69819024 0.49888631 0.38186990
0.72577464 0.52441901 0.40452114
0.75308675 0.55015380 0.42763791
0.78014037 0.57607762 0.45120907
0.80694808 0.60217970 0.47522462
0.83352140 0.62845101 0.49967556
0.85987088 0.65488388 0.52455365
0.88600623 0.68147169 0.54985137
0.91193641 0.70820866 0.57556175
0.91886608 0.73508968 0.60167836
0.91886608 0.76211019 0.62819515
0.91886608 0.78926608 0.65510651
0.91886608 0.81655361 0.68240712
0.91886608 0.84396935 0.71009199
0.16826004 0.21266671 0.12628939
0.17365676 0.21295253 0.12666699
0.18982630 0.21399135 0.12802302
0.21459826 0.21621308 0.13084409
0.24410857 0.22010805 0.13556770
0.27568076 0.22614542 0.14245154
0.30793717 0.23467047 0.15151851
0.34023123 0.24582258 0.16260356
0.37226942 0.25951865 0.17545038
0.40392464 0.27550596 0.18979276
0.43514894 0.29344674 0.20539722
0.46593245 0.31299260 0.22207537
0.49628350 0.33382978 0.23968128
0.52621877 0.35569723 0.25810369
0.55575832 0.37838772 0.27725793
0.58492306 0.40174108 0.29707916
0.61373348 0.42563520 0.31751715
0.64220906 0.44997745 0.33853245
0.67036800 0.47469753 0.36009359
0.69822720 0.49974185 0.38217507
0.72580219 0.52506927 0.40475586
0.75310731 0.55064793 0.42781839
0.78015572 0.57645289 0.45134773
0.80695954 0.60246443 0.47533104
0.83352995 0.62866676 0.49975709
0.85987725 0.65504707 0.52461599
0.88601097 0.68159487 0.54989893
0.91193993 0.70830140 0.57559794
0.91886608 0.73515929 0.60170579
0.91886608 0.76216227 0.62821588
0.91886608 0.78930489 0.65512210
0.91886608 0.81658241 0.68241880
0.91886608 0.84399062 0.71010070
0.20065390 0.25333758 0.14892094
0.20374301 0.25349191 0.14914161
0.21390478 0.25405590 0.14994327
0.23171869 0.25527836 0.15165594
0.25559180 0.25747425 0.15465334
0.28326808 0.26100787 0.15928998
0.31298027 0.26625647 0.16582664
0.34362947 0.27355359 0.17437642
0.37459481 0.28312709 0.18490010
0.40553938 0.29505640 0.19724679
0.43628502 0.30926784 0.21121088
0.46674091 0.32556736 0.22657893
0.49686446 0.34369203 0.24315700
0.52663971 0.36335946 0.26078141
0.55606545 0.38430243 0.27931958
0.58514845 0.40628726 0.29866647
0.61389967 0.42911966 0.31873956
0.64233208 0.45264314 0.33947411
0.67045935 0.47673417 0.36081908
0.69829518 0.50129626 0.38273397
0.72585288 0.52625450 0.40518628
0.75314513 0.55155074 0.42814965
0.78018396 0.57713978 0.45160242
0.80698063 0.60298631 0.47552659
0.83354569 0.62906261 0.49990698
0.85988899 0.65534674 0.52473065
0.88601971 0.68182119 0.54998641
0.91194642 0.70847187 0.57566450
0.91886608 0.73528731 0.60175627
0.91886608 0.76225806 0.62825402
0.91886608 0.78937629 0.65515080
0.91886608 0.81663539 0.68244030
0.91886608 0.84402975 0.71011672
0.23233642 0.29195406 0.17196184
0.23422176 0.29204476 0.17210002
0.24072210 0.29237702 0.17260451
0.25312324 0.29310138 0.17369541
0.27142216 0.29441689 0.17564655
0.29447156 0.29657197 0.17876531
0.32076656 0.29985806 0.18335558
0.34902651 0.30459010 0.18966788
0.37835478 0.31107238 0.19785434
0.40818062 0.31955474 0.20794828
0.43815741 0.33019125 0.21987597
0.46808010 0.34301646 0.23349069
0.49783011 0.35794793 0.24861162
0.52734105 0.37481217 0.26505465
0.55657801 0.39338211 0.28265099
0.58552504 0.41341316 0.30125528
0.61417759 0.43466990 0.32074701
0.64253793 0.45694174 0.34102841
0.67061227 0.48004923 0.36202115
0.69840903 0.50384442 0.38366266
0.72593777 0.52820794 0.40590301
0.75320851 0.55304479 0.42870214
0.78023129 0.57828002 0.45202771
0.80701598 0.60385467 0.47585343
0.83357207 0.62972244 0.50015768
0.85990865 0.65584692 0.52492251
0.88603435 0.68219934 0.55013287
0.91195730 0.70875693 0.57577597
0.91886608 0.73550149 0.60184083
0.91886608 0.76241840 0.62831792
0.91886608 0.78949585 0.65519889
0.91886608 0.81672414 0.68247632
0.91886608 0.84409530 0.71014357
0.26344320 0.32896051 0.19534911
0.26464827 0.32901690 0.19543970
0.26890874 0.32922368 0.19577125
0.27746554 0.32967581 0.19649262
0.29101033 0.33050146 0.19779766
0.30937179 0.33186662 0.19992221
0.33169672 0.33397789 0.20313191
0.35689372 0.33707984 0.20769687
0.38397724 0.34144374 0.21385567
0.41219838 0.34734568 0.22177836
0.44103867 0.35503509 0.23154194
0.47015709 0.36469996 0.24312750
0.49933586 0.37643856 0.25643808
0.52843876 0.39024730 0.27132742
0.55738237 0.40602834 0.28762872
0.58611713 0.42361306 0.30517642
0.61461515 0.44279214 0.32381919
0.64286235 0.46334384 0.34342582
0.67085343 0.48505496 0.36388624
0.69858868 0.50773344 0.38511004
0.72607179 0.53121394 0.40702381
0.75330857 0.55535846 0.42956831
0.78030604 0.58005434 0.45269576
0.80707180 0.60521092 0.47636759
0.83361374 0.63075591 0.50055250
0.85993972 0.65663201 0.52522493
0.88605748 0.68279388 0.55036386
0.91197448 0.70920566 0.57595186
0.91886608 0.73583897 0.60197430
0.91886608 0.76267124 0.62841882
0.91886608 0.78968447 0.65527484
0.91886608 0.81686422 0.68253322
0.91886608 0.84419880 0.71018598
0.29406590 0.36464875 0.21903855
0.29486304 0.36468523 0.21909991
0.29772155 0.36481910 0.21932480
0.30364547 0.36511226 0.21981575
0.31348692 0.36564923 0.22070967
0.32763354 0.36654164 0.22218044
0.34588034 0.36793289 0.22443798
0.36756851 0.37000114 0.22771956
0.39186016 0.37295859 0.23227142
0.41796395 0.37704482 0.23832129
0.44524120 0.38251197 0.24604769
0.47322115 0.38960170 0.25555519
0.50157496 0.39851665 0.26686420
0.53008027 0.40939281 0.27991799
0.55859001 0.42228099 0.29460251
0.58700862 0.43714294 0.31077095
0.61527532 0.45386300 0.32826578
0.64335254 0.47227038 0.34693462
0.67121824 0.49216485 0.36663949
0.69886064 0.51333969 0.38726075
0.72627479 0.53559830 0.40869763
0.75346022 0.55876408 0.43086682
0.78041935 0.58268472 0.45370018
0.80715645 0.60723261 0.47714235
0.83367694 0.63230300 0.50114844
0.85998685 0.65781111 0.52568198
0.88609257 0.68368901 0.55071331
0.91200056 0.70988256 0.57621815
0.91886608 0.73634880 0.60217648
0.91886608 0.76305362 0.62857172
0.91886608 0.78996998 0.65538997
0.91886608 0.81707637 0.68261951
0.91886608 0.84435563 0.71025030
0.32427080 0.39922470 0.24299721
0.32481211 0.39924901 0.24303979
0.32676960 0.39933828 0.24319601
0.33090603 0.39953393 0.24353773
0.33800473 0.39989292 0.24416228
0.34866628 0.40049135 0.24519646
0.36312230 0.40142874 0.24679953
0.38117516 0.40283222 0.24916280
0.40229930 0.40485949 0.25250331
0.42582446 0.40769929 0.25704971
0.45109476 0.41156742 0.26302059
0.47755563 0.41669643 0.27059846
0.50477788 0.42331827 0.27990617
0.53244721 0.43164089 0.29099293
0.56034137 0.44182297 0.30383425
0.58830687 0.45395294 0.31834458
0.61623960 0.46803835 0.33439722
0.64407013 0.48400871 0.35184511
0.67175313 0.50173016 0.37053801
0.69925988 0.52102705 0.39033414
0.72657307 0.54170441 0.41110663
0.75368318 0.56356671 0.43274595
0.78058604 0.58643103 0.45515987
0.80728103 0.61013449 0.47827195
0.83376997 0.63453715 0.50201947
0.86005624 0.65952188 0.52635129
0.88614424 0.68499249 0.55122579
0.91203896 0.71087102 0.57660910
0.91886608 0.73709487 0.60247357
0.91886608 0.76361411 0.62879654
0.91886608 0.79038900 0.65555934
0.91886608 0.81738804 0.68274648
0.91886608 0.84458619 0.71034499
0.35410811 0.43284118 0.26719942
0.35448330 0.43285777 0.26722954
0.35584715 0.43291866 0.26734008
0.35876501 0.43305220 0.26758217
0.36388242 0.43329751 0.26802568
0.37181533 0.43370716 0.26876301
0.38300636 0.43435074 0.26991309
0.39760304 0.43531861 0.27162417
0.41542666 0.43672566 0.27407373
0.43604657 0.43871432 0.27746380
0.45890973 0.44145570 0.28200980
0.48345891 0.44514730 0.28792284
0.50920508 0.45000578 0.29538730
0.53575466 0.45625348 0.30453872
0.56280822 0.46409920 0.31544802
0.59014620 0.47371547 0.32811669
0.61761163 0.48521712 0.34248385
0.64509437 0.49864682 0.35844178
0.67251838 0.51397158 0.37585484
0.69983205 0.53109098 0.39457684
0.72700109 0.54985413 0.41446432
0.75400344 0.57008040 0.43538499
0.78082563 0.59157896 0.45722196
0.80746018 0.61416415 0.47987500
0.83390381 0.63766552 0.50325994
0.86015611 0.66193311 0.52730707
0.88621862 0.68683907 0.55195915
0.91209424 0.71227687 0.57716945
0.91886608 0.73815925 0.60289991
0.91886608 0.76441559 0.62911947
0.91886608 0.79098927 0.65580280
0.91886608 0.81783513 0.68292909
0.91886608 0.84491728 0.71048123
0.38361722 0.46561593 0.29162457
0.38388155 0.46562745 0.29164619
0.38484561 0.46566975 0.29172556
0.38692479 0.46576254 0.29189952
0.39062499 0.46593311 0.29221869
0.39649103 0.46621829 0.29275067
0.40501954 0.46666716 0.29358382
0.41655109 0.46734413 0.29483090
0.43118602 0.46833239 0.29663162
0.44876639 0.46973738 0.29915296
0.46893156 0.47168980 0.30258553
0.49121399 0.47434713 0.30713465
0.51513075 0.47789254 0.31300540
0.54024483 0.48252975 0.32038312
0.56619299 0.48847244 0.32941264
0.59268999 0.49592817 0.34018170
0.61952034 0.50507808 0.35271297
0.64652549 0.51605597 0.36696677
0.67359110 0.52893165 0.38285282
0.70063605 0.54370300 0.40024686
0.72760362 0.56029897 0.41900779
0.75445488 0.57859215 0.43899186
0.78116371 0.59841709 0.46006270
0.80771318 0.61958972 0.48209716
0.83409293 0.64192405 0.50498786
0.86029728 0.66524437 0.52864344
0.88632381 0.68939259 0.55298751
0.91217244 0.71423155 0.57795698
0.91886608 0.73964543 0.60350012
0.91886608 0.76553838 0.62957470
0.91886608 0.79183232 0.65614634
0.91886608 0.81846426 0.68318698
0.91886608 0.84538387 0.71067374
0.41282988 0.49764230 0.31625571
0.41301857 0.49765042 0.31627142
0.41370827 0.49768023 0.31632908
0.41520372 0.49774564 0.31645551
0.41789161 0.49786594 0.31668772
0.42222068 0.49806721 0.31707542
0.42865690 0.49838441 0.31768424
0.43761112 0.49886370 0.31859926
0.44935603 0.49956531 0.31992829
0.46396464 0.50056672 0.32180434
0.48129857 0.50196590 0.32438622
0.50105035 0.50388429 0.32785579
0.52281692 0.50646865 0.33241053
0.54617286 0.50989080 0.33825087
0.57072307 0.51434390 0.34556269
0.59613015 0.52003411 0.35449805
0.62212198 0.52716693 0.36515814
0.64848771 0.53592904 0.37758318
0.67506847 0.54646822 0.39175173
0.70174703 0.55887556 0.40758918
0.72843829 0.57317441 0.42498220
0.75508142 0.58931916 0.44379513
0.78163358 0.60720387 0.46388479
0.80806518 0.62667805 0.48511166
0.83435627 0.64756530 0.50734719
0.86049397 0.66968083 0.53047747
0.88647042 0.69284526 0.55440445
0.91228147 0.71689383 0.57904543
0.91886608 0.74168124 0.60433165
0.91886608 0.76708332 0.63020654
0.91886608 0.79299636 0.65662382
0.91886608 0.81933527 0.68354580
0.91886608 0.84603117 0.71094180
0.44177223 0.52899604 0.34107859
0.44190838 0.52900183 0.34109011
0.44240675 0.52902309 0.34113239
0.44349127 0.52906974 0.34122515
0.44545393 0.52915557 0.34139561
0.44865036 0.52929925 0.34168054
0.45348103 0.52952586 0.34212882
0.46035053 0.52986871 0.34280441
0.46960716 0.53037153 0.34378966
0.48147721 0.53109113 0.34518838
0.49601764 0.53210033 0.34712828
0.51310753 0.53349111 0.34976177
0.53248085 0.53537751 0.35326390
0.55378448 0.53789772 0.35782615
0.57663848 0.54121443 0.36364537
0.60068199 0.54551224 0.37090803
0.62559962 0.55099093 0.37977210
0.65113116 0.55785380 0.39034989
0.67707055 0.56629127 0.40269637
0.70325936 0.57646180 0.41680592
0.72957836 0.58847346 0.43261790
0.75593941 0.60237076 0.45002914
0.78227829 0.61813001 0.46890940
0.80854885 0.63566451 0.48911643
0.83471853 0.65483783 0.51050820
0.86076476 0.67548140 0.53295131
0.88667241 0.69741242 0.55632589
0.91243177 0.72044888 0.58052756
0.91886608 0.74442038 0.60546761
0.91886608 0.76917444 0.63107185
0.91886608 0.79457931 0.65727900
0.91886608 0.82052404 0.68403888
0.91886608 0.84691709 0.71131059
0.47046617 0.55973977 0.36608105
0.47056527 0.55974394 0.36608956
0.47092839 0.55975925 0.36612081
0.47172056 0.55979285 0.36618937
0.47316099 0.55985467 0.36631544
0.47552550 0.55995820 0.36652632
0.47914168 0.56012157 0.36685851
0.48436993 0.56036897 0.36736012
0.49156696 0.56073226 0.36809372
0.50103477 0.56125314 0.36913935
0.51296713 0.56198555 0.37059760
0.52741168 0.56299850 0.37259194
0.54426281 0.56437907 0.37526975
0.56328744 0.56623531 0.37880080
0.58417207 0.56869851 0.38337200
0.60657334 0.57192400 0.38917759
0.63015867 0.57608941 0.39640485
0.65463147 0.58138927 0.40521685
0.67974218 0.58802485 0.41573539
0.70528945 0.59618936 0.42802814
0.73111569 0.60604969 0.44210321
0.75710037 0.61772785 0.45791243
0.78315293 0.63128606 0.47536183
0.80920635 0.64671950 0.49432628
0.83521171 0.66395849 0.51466459
0.86113385 0.68287943 0.53623247
0.88694797 0.70332121 0.55889210
0.91263693 0.72510323 0.58251796
0.91886608 0.74804143 0.60699970
0.91886608 0.77196043 0.63224283
0.91886608 0.79670131 0.65816793
0.91886608 0.82212535 0.68470922
0.91886608 0.84811494 0.71181272
0.49893033 0.58992610 0.39125260
0.49900298 0.58992913 0.39125892
0.49926938 0.58994024 0.39128216
0.49985156 0.58996463 0.39133316
0.50091371 0.59000951 0.39142695
0.50266710 0.59008468 0.39158393
0.50537196 0.59020337 0.39183143
0.50933127 0.59038319 0.39220567
0.51487239 0.59064749 0.39275408
0.52231442 0.59102693 0.39353799
0.53192460 0.59156144 0.39463558
0.54387351 0.59230257 0.39614479
0.55820358 0.59331614 0.39818570
0.57482258 0.59468522 0.40090175
0.59352418 0.59651296 0.40445867
0.61402684 0.59892506 0.40903994
0.63601707 0.60207089 0.41483809
0.65918587 0.60612247 0.42204150
0.68325274 0.61127010 0.43081792
0.70797758 0.61771342 0.44129750
0.73316345 0.62564794 0.45355899
0.75865386 0.63524758 0.46762262
0.78432740 0.64664598 0.48345123
0.81009158 0.65992045 0.50095914
0.83587707 0.67508244 0.52002579
0.86163258 0.69207718 0.54051088
0.88732074 0.71079247 0.56226799
0.91291472 0.73107394 0.58515502
0.91886608 0.75274300 0.60904104
0.91886608 0.77561370 0.63380996
0.91886608 0.79950614 0.65936170
0.91886608 0.82425535 0.68561185
0.91886608 0.84971620 0.71249025
0.52718074 0.61959980 0.41658404
0.52723432 0.61960201 0.41658877
0.52743086 0.61961012 0.41660614
0.52786093 0.61962794 0.41664425
0.52864742 0.61966073 0.41671437
0.52995102 0.61971567 0.41683178
0.53197471 0.61980243 0.41701701
0.53496428 0.61993393 0.41729736
0.53920139 0.62012734 0.41770877
0.54498614 0.62040526 0.41829806
0.55260799 0.62079727 0.41912552
0.56230771 0.62134179 0.42026776
0.57423916 0.62208832 0.42182057
0.58844215 0.62310006 0.42390136
0.60483620 0.62445672 0.42665051
0.62323706 0.62625746 0.43023067
0.64338935 0.62862341 0.43482293
0.66500430 0.63169916 0.44061888
0.68779271 0.63565227 0.44780835
0.71148786 0.64066971 0.45656359
0.73585797 0.64695004 0.46702230
0.76071018 0.65469090 0.47927317
0.78588916 0.66407232 0.49334713
0.81127290 0.67523798 0.50921681
0.83676738 0.68827820 0.52680381
0.86230130 0.70321850 0.54599153
0.88782136 0.72001709 0.56664022
0.91328825 0.73857166 0.58860120
0.91886608 0.75873359 0.61172811
0.91886608 0.78032583 0.63588474
0.91886608 0.80316042 0.66094938
0.91886608 0.82705303 0.68681656
0.91886608 0.85183299 0.71339701
0.55523136 0.64879938 0.44206728
0.55527106 0.64880101 0.44207083
0.55541674 0.64880697 0.44208386
0.55573579 0.64882006 0.44211246
0.55632025 0.64884414 0.44216509
0.55729183 0.64888450 0.44225324
0.55880707 0.64894825 0.44239237
0.56106080 0.64904490 0.44260309
0.56428568 0.64918712 0.44291264
0.56874503 0.64939161 0.44335669
0.57471656 0.64968032 0.44398150
0.58246608 0.65008188 0.44484648
0.59221410 0.65063339 0.44602695
0.60410232 0.65138264 0.44761698
0.61816967 0.65239057 0.44973186
0.63434604 0.65373414 0.45250965
0.65246564 0.65550922 0.45611080
0.67229484 0.65783325 0.46071480
0.69356552 0.66084699 0.46651307
0.71600518 0.66471453 0.47369728
0.73935894 0.66962038 0.48244414
0.76340227 0.67576257 0.49289845
0.78794596 0.68334096 0.50515785
0.81283586 0.69254114 0.51926292
0.83794953 0.70351572 0.53519494
0.86319166 0.71636638 0.55288182
0.88848931 0.73113091 0.57221018
0.91378742 0.74777867 0.59304037
0.91886608 0.76621574 0.61522112
0.91886608 0.78629810 0.63860175
0.91886608 0.80784949 0.66304073
0.91886608 0.83067959 0.68841082
0.91886608 0.85459955 0.71460130
0.58309443 0.67755837 0.46769510
0.58312396 0.67755956 0.46769777
0.58323234 0.67756396 0.46770758
0.58346984 0.67757361 0.46772912
0.58390547 0.67759138 0.46776874
0.58463118 0.67762115 0.46783512
0.58576680 0.67766819 0.46793992
0.58746445 0.67773952 0.46809873
0.58991118 0.67784451 0.46833220
0.59332790 0.67799554 0.46866747
0.59796225 0.67820893 0.46913994
0.60407343 0.67850599 0.46979540
0.61190841 0.67891452 0.47069251
0.62167202 0.67947051 0.47190552
0.63349715 0.68022023 0.47352714
0.64742302 0.68122275 0.47567104
0.66338878 0.68255274 0.47847358
0.68124429 0.68430336 0.48209370
0.70077420 0.68658911 0.48671012
0.72172775 0.68954773 0.49251467
0.74384662 0.69334071 0.49970137
0.76688606 0.69815091 0.50845146
0.79062782 0.70417640 0.51891653
0.81488594 0.71161950 0.53120254
0.83950730 0.72067113 0.54535875
0.86436916 0.73149202 0.56137409
0.88937513 0.74419396 0.57918185
0.91445082 0.75882546 0.59867107
0.91886608 0.77536537 0.61970155
0.91886608 0.79372662 0.64211908
0.91886608 0.81376856 0.66576839
0.91886608 0.83531478 0.69050254
0.91886608 0.85817202 0.71618878
0.61078080 0.70590611 0.49346104
0.61080283 0.70590699 0.49346306
0.61088369 0.70591025 0.49347046
0.61106097 0.70591739 0.49348671
0.61138644 0.70593054 0.49351661
0.61192948 0.70595258 0.49356671
0.61278137 0.70598740 0.49364582
0.61405966 0.70604021 0.49376576
0.61591200 0.70611796 0.49394217
0.61851816 0.70622985 0.49419570
0.62208861 0.70638801 0.49455338
0.62685762 0.70660835 0.49505038
0.63306910 0.70691165 0.49573205
0.64095489 0.70732496 0.49665641
0.65070774 0.70788326 0.49789687
0.66245420 0.70863157 0.49954505
0.67623463 0.70962737 0.50171346
0.69199652 0.71094340 0.50453728
0.70960315 0.71267066 0.50817460
0.72885469 0.71492128 0.51280402
0.74951508 0.71783076 0.51861844
0.77133806 0.72155871 0.52581465
0.79408752 0.72628712 0.53457869
0.81755062 0.73221471 0.54506873
0.84154417 0.73954660 0.55739860
0.86591597 0.74847898 0.57162547
0.89054299 0.75918020 0.58774500
0.91532789 0.77177120 0.60569490
0.91886608 0.78630984 0.62536578
0.91886608 0.80278297 0.64661620
0.91886608 0.82110882 0.66928847
0.91886608 0.84114872 0.69322236
0.91886608 0.86272505 0.71826540
0.63830013 0.73386855 0.51935927
0.63831660 0.73386921 0.51936080
0.63837706 0.73387162 0.51936639
0.63850966 0.73387693 0.51937867
0.63875326 0.73388668 0.51940127
0.63916018 0.73390304 0.51943914
0.63979970 0.73392888 0.51949896
0.64076202 0.73396808 0.51958966
0.64216219 0.73402580 0.51972313
0.64414342 0.73410889 0.51991507
0.64687878 0.73422638 0.52018607
0.65056954 0.73439014 0.52056306
0.65543858 0.73461571 0.52108096
0.66171715 0.73492340 0.52178475
0.66962500 0.73533958 0.52273193
0.67934553 0.73589835 0.52399521
0.69100089 0.73664364 0.52566544
0.70463320 0.73763160 0.52785429
0.72019753 0.73893339 0.53069627
0.73756883 0.74063827 0.53434920
0.75656054 0.74285657 0.53899214
0.77694913 0.74572213 0.54481971
0.79849857 0.74939343 0.55203196
0.82098009 0.75405228 0.56081998
0.84418544 0.75989869 0.57134855
0.86793376 0.76714101 0.58373897
0.89207357 0.77598083 0.59805572
0.91648156 0.78659379 0.61430032
0.91886608 0.79910924 0.63241398
0.91886608 0.81359322 0.65228794
0.91886608 0.83003913 0.67377872
0.91886608 0.84836895 0.69672451
0.91886608 0.86844455 0.72095973
0.66566109 0.76146878 0.54538450
0.66567342 0.76146927 0.54538565
0.66571869 0.76147107 0.54538988
0.66581802 0.76147501 0.54539917
0.66600057 0.76148227 0.54541627
0.66630577 0.76149442 0.54544493
0.66678610 0.76151364 0.54549020
0.66751039 0.76154279 0.54555886
0.66856744 0.76158572 0.54565992
0.67006966 0.76164752 0.54580532
0.67215603 0.76173494 0.54601073
0.67499347 0.76185683 0.54629674
0.67877519 0.76202482 0.54669010
0.68371433 0.76225412 0.54722552
0.69003174 0.76256457 0.54794766
0.69793745 0.76298193 0.54891358
0.70760775 0.76353957 0.55019547
0.71916190 0.76428046 0.55188363
0.73264427 0.76525963 0.55408923
0.74801690 0.76654696 0.55694653
0.76516500 0.76823036 0.56061358
0.78391343 0.77041880 0.56527055
0.80404937 0.77324508 0.57111432
0.82534546 0.77686719 0.57834877
0.84757913 0.78146744 0.58717034
0.87054593 0.78724777 0.59775052
0.89406690 0.79442029 0.61021788
0.91799109 0.80319221 0.62464364
0.91886608 0.81374634 0.64103439
0.91886608 0.82621984 0.65933386
0.91886608 0.84068589 0.67943296
0.91886608 0.85714304 0.70118529
0.91886608 0.87551544 0.72442416
0.69287150 0.78872746 0.57153189
0.69288074 0.78872782 0.57153276
0.69291467 0.78872916 0.57153597
0.69298913 0.78873209 0.57154300
0.69312603 0.78873749 0.57155594
0.69335506 0.78874654 0.57157764
0.69371588 0.78876085 0.57161192
0.69426080 0.78878255 0.57166391
0.69505792 0.78881451 0.57174045
0.69619446 0.78886054 0.57185061
0.69778015 0.78892565 0.57200632
0.69994992 0.78901646 0.57222325
0.70286514 0.78914167 0.57252188
0.70671191 0.78931266 0.57292885
0.71169514 0.78954434 0.57347865
0.71802707 0.78985610 0.57421564
0.72591002 0.79027319 0.57519653
0.73551497 0.79082828 0.57649315
0.74695953 0.79156356 0.57819544
0.76029070 0.79253311 0.58041438
0.77547703 0.79380581 0.58328437
0.79241283 0.79546851 0.58696420
0.81093286 0.79762932 0.59163567
0.83083344 0.80042047 0.59749857
0.85189457 0.80400012 0.60476109
0.87389880 0.80855172 0.61362550
0.89664480 0.81427985 0.62427014
