src/ffmpeg_scripts/luts/sRGB-rec2020_0p33.cube
TITLE "sRGB-rec2020_0p33"
LUT_3D_SIZE 33
# PQ (EOTF Only)/sRGB -> PQ (EOTF Only)/Rec2020, CineEI Shift 0.33, Black Level 0.00% IRE, Input 100% -> Output 109% - Created with LUTCalc v4.01 by Ben Turley October 2020
0.06256172 0.06256172 0.06256172
0.08646541 0.07020328 0.06596743
0.11097246 0.07977491 0.07064564
0.13579709 0.09066624 0.07633502
0.16085004 0.10264137 0.08292682
0.18608419 0.11556472 0.09035984
0.21146985 0.12934550 0.09859438
0.23698636 0.14391748 0.10760263
0.26261845 0.15922968 0.11736414
0.28835432 0.17524129 0.12786340
0.31418454 0.19191872 0.13908835
0.34010140 0.20923370 0.15102950
0.36609845 0.22716203 0.16367927
0.39217021 0.24568268 0.17703161
0.41831198 0.26477719 0.19108165
0.44451965 0.28442914 0.20582549
0.47078962 0.30462386 0.22126004
0.49711869 0.32534810 0.23738284
0.52350399 0.34658984 0.25419200
0.54994297 0.36833809 0.27168612
0.57643329 0.39058278 0.28986417
0.60297285 0.41331464 0.30872548
0.62955971 0.43652506 0.32826971
0.65619209 0.46020606 0.34849673
0.68286837 0.48435020 0.36940670
0.70958704 0.50895052 0.39099994
0.73634669 0.53400051 0.41327698
0.76314604 0.55949403 0.43623851
0.78998385 0.58542530 0.45988535
0.81685899 0.61178888 0.48421847
0.84377041 0.63857960 0.50923895
0.87071710 0.66579257 0.53494797
0.89769812 0.69342315 0.56134681
0.07994500 0.09125208 0.07127810
0.09179159 0.09224565 0.07211821
0.11323360 0.09557201 0.07473004
0.13697150 0.10162659 0.07905594
0.16153146 0.11020483 0.08478713
0.18650761 0.12083268 0.09166726
0.21174542 0.13306816 0.09953495
0.23717178 0.14658770 0.10829209
0.26274637 0.16117112 0.11787708
0.28844429 0.17666944 0.12824953
0.31424879 0.19297968 0.13938175
0.34014784 0.21002835 0.15125410
0.36613235 0.22776125 0.16385222
0.39219516 0.24613703 0.17716542
0.41833046 0.26512324 0.19118555
0.44453341 0.28469364 0.20590640
0.47079991 0.30482658 0.22132316
0.49712641 0.32550378 0.23743215
0.52350980 0.34670956 0.25423056
0.54994734 0.36843024 0.27171628
0.57643659 0.39065373 0.28988775
0.60297534 0.41336925 0.30874391
0.62956159 0.43656707 0.32828408
0.65619351 0.46023834 0.34850794
0.68286944 0.48437497 0.36941541
0.70958785 0.50896949 0.39100670
0.73634730 0.53401499 0.41328221
0.76314649 0.55950506 0.43624254
0.78998419 0.58543368 0.45988845
0.81685925 0.61179522 0.48422084
0.84377060 0.63858437 0.50924075
0.87071724 0.66579615 0.53494934
0.89769822 0.69342582 0.56134785
0.09896455 0.11949066 0.08199361
0.10498430 0.11987044 0.08237443
0.12043728 0.12123196 0.08370635
0.14102526 0.12405352 0.08633097
0.16395739 0.12874993 0.09041248
0.18803618 0.13554559 0.09592337
0.21274732 0.14443475 0.10273471
0.23784856 0.15524143 0.11070111
0.26321433 0.16771691 0.11969940
0.28877387 0.18161328 0.12963598
0.31448436 0.19671816 0.14044259
0.34031822 0.21286253 0.15206999
0.36625678 0.22991633 0.16448252
0.39228675 0.24778068 0.17765415
0.41839831 0.26638027 0.19156564
0.44458394 0.28565727 0.20620269
0.47083770 0.30556672 0.22155452
0.49715476 0.32607309 0.23761302
0.52353112 0.34714789 0.25437204
0.54996341 0.36876790 0.27182695
0.57644872 0.39091387 0.28997430
0.60298449 0.41356959 0.30881155
0.62956850 0.43672123 0.32833688
0.65619872 0.46035682 0.34854908
0.68287337 0.48446589 0.36944741
0.70959080 0.50903911 0.39103153
0.73634952 0.53406819 0.41330143
0.76314816 0.55954558 0.43625736
0.78998543 0.58546445 0.45989984
0.81686018 0.61181849 0.48422956
0.84377129 0.63860191 0.50924740
0.87071775 0.66580930 0.53495438
0.89769860 0.69343563 0.56135165
0.11891751 0.14750219 0.09403982
0.12227787 0.14769267 0.09425259
0.13254084 0.14838563 0.09501854
0.14879095 0.14987110 0.09662108
0.16890654 0.15248652 0.09933107
0.19125400 0.15656832 0.10333800
0.21489184 0.16238834 0.10871470
0.23931082 0.17009854 0.11543200
0.26423106 0.17971227 0.12340208
0.28949242 0.19112806 0.13251926
0.31499906 0.20417660 0.14268408
0.34069104 0.21866612 0.15381291
0.36652931 0.23441307 0.16583929
0.39248749 0.25125708 0.17871184
0.41854709 0.26906517 0.19239138
0.44469477 0.28773024 0.20684814
0.47092060 0.30716722 0.22205953
0.49721697 0.32730889 0.23800838
0.52357792 0.34810209 0.25468163
0.54999868 0.36950451 0.27206935
0.57647533 0.39148224 0.29016399
0.60300458 0.41400781 0.30895984
0.62958366 0.43705875 0.32845267
0.65621017 0.46061641 0.34863934
0.68288200 0.48466518 0.36951762
0.70959730 0.50919180 0.39108602
0.73635441 0.53418486 0.41334359
0.76315182 0.55963448 0.43628989
0.78998817 0.58553196 0.45992485
0.81686222 0.61186958 0.48424871
0.84377280 0.63864040 0.50926199
0.87071887 0.66583817 0.53496545
0.89769942 0.69345717 0.56136000
0.13956821 0.17535419 0.10716320
0.14159490 0.17546262 0.10729466
0.14832784 0.17585903 0.10777278
0.16036581 0.17671917 0.10879704
0.17693991 0.17826734 0.11059871
0.19674331 0.18076696 0.11340804
0.21865690 0.18449848 0.11741339
0.24192206 0.18972307 0.12272851
0.26606559 0.19664091 0.12938405
0.29079739 0.20535925 0.13734397
0.31593776 0.21588351 0.14653320
0.34137286 0.22813285 0.15686270
0.36702867 0.24197021 0.16824586
0.39285578 0.25723370 0.18060646
0.41882031 0.27376072 0.19388107
0.44489843 0.29140233 0.20801864
0.47107300 0.31002963 0.22297883
0.49733137 0.32953491 0.23873010
0.52366401 0.34983006 0.25524796
0.55006357 0.37084379 0.27251344
0.57652429 0.39251875 0.29051190
0.60304155 0.41480880 0.30923208
0.62961157 0.43767672 0.32866537
0.65623123 0.46109231 0.34880522
0.68289788 0.48503091 0.36964672
0.70960926 0.50947219 0.39118623
0.73636339 0.53439925 0.41342116
0.76315855 0.55979791 0.43634974
0.78999321 0.58565612 0.45997086
0.81686597 0.61196354 0.48428394
0.84377559 0.63871121 0.50928885
0.87072093 0.66589128 0.53498582
0.89770094 0.69349681 0.56137537
0.16078844 0.20308164 0.12121889
0.16208039 0.20314812 0.12130510
0.16655885 0.20339173 0.12162004
0.17520364 0.20392311 0.12230206
0.18819264 0.20488916 0.12352526
0.20492933 0.20647453 0.12548932
0.22450552 0.20889855 0.12839964
0.24608504 0.21240313 0.13243892
0.26903908 0.21723037 0.13773974
0.29293529 0.22359246 0.14436905
0.31748646 0.23164166 0.15233028
0.34250306 0.24145045 0.16157904
0.36785908 0.25300869 0.17204351
0.39346959 0.26623724 0.18364207
0.41927637 0.28101098 0.19629520
0.44523877 0.29718293 0.20993164
0.47132789 0.31460347 0.22449078
0.49752282 0.33313284 0.23992269
0.52380812 0.35264748 0.25618706
0.55017222 0.37304201 0.27325177
0.57660630 0.39422863 0.29109148
0.60310347 0.41613522 0.30968627
0.62965834 0.43870305 0.32902064
0.65626653 0.46188444 0.34908253
0.68292450 0.48564068 0.36986266
0.70962930 0.50994028 0.39135394
0.73637845 0.53475751 0.41355103
0.76316985 0.56007121 0.43644997
0.79000165 0.58586386 0.46004792
0.81687226 0.61212082 0.48434295
0.84378026 0.63882978 0.50933384
0.87072438 0.66598025 0.53501995
0.89770348 0.69356321 0.56140113
0.18249560 0.23070628 0.13611024
0.18335275 0.23074911 0.13616905
0.18639255 0.23090621 0.13638437
0.19254125 0.23124979 0.13685323
0.20239021 0.23187759 0.13770280
0.21596103 0.23291663 0.13908956
0.23278725 0.23452607 0.14119322
0.25218784 0.23689622 0.14420271
0.27350200 0.24024164 0.14829506
0.29619536 0.24478646 0.15361244
0.31987352 0.25074239 0.16024495
0.34425784 0.25828320 0.16822539
0.36915491 0.26752257 0.17753631
0.39443080 0.27850206 0.18812469
0.41999232 0.29119286 0.19991820
0.44577400 0.30550929 0.21283850
0.47172925 0.32132852 0.22681013
0.49782456 0.33851032 0.24176535
0.52403541 0.35691292 0.25764599
0.55034369 0.37640346 0.27440355
0.57673576 0.39686360 0.29199842
0.60320126 0.41819145 0.31039869
0.62973219 0.44030135 0.32957889
0.65632228 0.46312233 0.34951887
0.68296654 0.48659614 0.37020280
0.70966096 0.51067524 0.39161832
0.73640225 0.53532089 0.41375587
0.76318769 0.56050150 0.43660813
0.79001499 0.58619123 0.46016958
0.81688221 0.61236886 0.48443615
0.84378765 0.63901686 0.50940491
0.87072984 0.66612067 0.53507387
0.89770750 0.69366805 0.56144182
0.20463128 0.25824309 0.15176695
0.20521708 0.25827166 0.15180820
0.20732162 0.25837654 0.15195943
0.21170222 0.25860623 0.15228975
0.21903616 0.25902710 0.15289176
0.22969894 0.25972697 0.15388386
0.24365590 0.26081907 0.15541054
0.26053292 0.26244488 0.15763806
0.27979215 0.26477440 0.16074395
0.30089030 0.26800212 0.16490049
0.32336363 0.27233702 0.17025528
0.34685086 0.27798611 0.17691413
0.37108404 0.28513330 0.18493198
0.39586933 0.29391787 0.19431408
0.42106783 0.30441845 0.20502557
0.44658018 0.31664713 0.21700523
0.47233498 0.33055489 0.23017874
0.49828059 0.34604571 0.24446917
0.52437929 0.36299427 0.25980374
0.55060329 0.38126295 0.27611741
0.57693188 0.40071494 0.29335427
0.60334947 0.42122291 0.31146752
0.62984416 0.44267355 0.33041870
0.65640683 0.46496917 0.35017665
0.68303031 0.48802734 0.37071636
0.70970898 0.51177955 0.39201798
0.73643835 0.53616941 0.41406581
0.76321476 0.56115074 0.43684761
0.79003524 0.58668587 0.46035389
0.81689729 0.61274402 0.48457739
0.84379885 0.63930006 0.50951264
0.87073813 0.66633337 0.53515564
0.89771359 0.69382693 0.56150354
0.22715163 0.28570303 0.16813499
0.22756115 0.28572260 0.16816454
0.22904375 0.28579444 0.16827293
0.23218538 0.28595194 0.16851011
0.23760418 0.28624098 0.16894386
0.24580657 0.28672298 0.16966282
0.25704814 0.28747841 0.17077907
0.27127534 0.28861046 0.17242866
0.28818046 0.29024774 0.17476839
0.30732251 0.29254538 0.17796771
0.32824144 0.29568276 0.18219528
0.35052765 0.29985647 0.18760216
0.37384812 0.30526780 0.19430552
0.39794596 0.31210513 0.20237747
0.42262882 0.32052411 0.21184224
0.44775487 0.33063013 0.22268167
0.47322011 0.34246781 0.23484609
0.49894836 0.35602029 0.24826683
0.52488360 0.37121785 0.26286735
0.55098445 0.38795257 0.27857148
0.57722008 0.40609473 0.29530855
0.60356739 0.42550749 0.31301598
0.63000889 0.44605781 0.33164017
0.65653124 0.46762338 0.35113626
0.68312418 0.49009605 0.37146733
0.70977969 0.51338290 0.39260342
0.73649151 0.53740563 0.41452046
0.76325463 0.56209915 0.43719927
0.79006505 0.58740991 0.46062475
0.81691952 0.61329404 0.48478508
0.84381536 0.63971576 0.50967114
0.87075033 0.66664586 0.53527597
0.89772258 0.69406052 0.56159439
0.25002233 0.31309451 0.18517122
0.25031370 0.31310818 0.18519272
0.25137365 0.31315840 0.18527164
0.25364540 0.31326853 0.18544450
0.25764300 0.31347086 0.18576130
0.26387322 0.31380883 0.18628833
0.27272994 0.31433998 0.18711125
0.28439864 0.31513921 0.18833753
0.29882175 0.31630205 0.19009709
0.31574068 0.31794748 0.19253999
0.33478346 0.32021941 0.19582989
0.35555146 0.32328554 0.20013286
0.37767750 0.32733253 0.20560261
0.40085247 0.33255607 0.21236499
0.42483007 0.33914628 0.22050588
0.44942050 0.34726966 0.23006557
0.47448024 0.35705132 0.24104089
0.49990188 0.36856178 0.25339347
0.52560532 0.38181168 0.26706106
0.55153081 0.39675573 0.28196875
0.57763370 0.41330387 0.29803819
0.60388043 0.43133641 0.31519404
0.63024567 0.45071906 0.33336774
0.65671019 0.47131556 0.35249926
0.68325923 0.49299655 0.37253750
0.70988146 0.51564492 0.39343984
0.73656803 0.53915817 0.41517127
0.76331203 0.56344876 0.43770342
0.79010798 0.58844325 0.46101351
0.81695152 0.61408079 0.48508345
0.84383912 0.64031138 0.50989898
0.87076791 0.66709421 0.53544904
0.89773551 0.69439599 0.56172511
0.27321564 0.34042420 0.20284016
0.27342588 0.34043391 0.20285600
0.27419303 0.34046957 0.20291416
0.27584951 0.34054779 0.20304166
0.27880402 0.34069159 0.20327563
0.28350511 0.34093206 0.20366578
0.29037710 0.34131065 0.20427724
0.29973799 0.34188182 0.20519345
0.31173041 0.34271608 0.20651846
0.32629889 0.34390306 0.20837775
0.34322215 0.34555429 0.21091653
0.36217941 0.34780501 0.21429439
0.38281884 0.35081387 0.21867570
0.40480707 0.35475948 0.22421650
0.42785521 0.35983267 0.23104978
0.45172670 0.36622399 0.23927282
0.47623473 0.37410747 0.24893966
0.50123499 0.38362323 0.26006056
0.52661745 0.39486259 0.27260789
0.55229879 0.40785961 0.28652603
0.57821609 0.42259101 0.30174239
0.60432177 0.43898411 0.31817730
0.63057984 0.45693000 0.33575149
0.65696291 0.47629853 0.35439093
0.68345008 0.49695196 0.37402952
0.71002532 0.51875544 0.39461009
0.73667624 0.54158408 0.41608434
0.76339322 0.56532663 0.43841222
0.79016872 0.58988688 0.46156097
0.81699681 0.61518336 0.48550413
0.84387276 0.64114814 0.51022055
0.87079279 0.66772524 0.53569348
0.89775382 0.69486882 0.56190983
0.29670864 0.36769753 0.22111199
0.29686205 0.36770451 0.22112378
0.29742298 0.36773015 0.22116707
0.29864018 0.36778642 0.22126200
0.30083127 0.36788989 0.22143637
0.30436909 0.36806305 0.22172759
0.30964908 0.36833596 0.22218513
0.31703441 0.36874844 0.22287327
0.32679054 0.36935248 0.22387380
0.33903297 0.37021505 0.22528827
0.35371080 0.37142114 0.22723894
0.37063182 0.37307643 0.22986756
0.38951445 0.37530939 0.23333097
0.41004340 0.37827154 0.23779268
0.43191264 0.38213510 0.24341101
0.45485037 0.38708680 0.25032516
0.47862884 0.39331718 0.25864219
0.50306430 0.40100587 0.26842815
0.52801218 0.41030476 0.27970537
0.55336045 0.42132224 0.29245620
0.57902311 0.43411233 0.30663157
0.60493445 0.44867136 0.32216158
0.63104435 0.46494290 0.33896573
0.65731456 0.48282891 0.35696132
0.68371585 0.50220415 0.37606925
0.71022578 0.52293047 0.39621761
0.73682709 0.54486863 0.41734328
0.76350644 0.56788686 0.43939235
0.79025344 0.59186588 0.46231970
0.81705999 0.61670130 0.48608817
0.84391969 0.64230397 0.51066757
0.87082750 0.66859912 0.53603363
0.89777937 0.69552492 0.56216709
0.32048200 0.39491901 0.23996122
0.32059497 0.39492408 0.23997006
0.32100858 0.39494271 0.24000253
0.32190914 0.39498360 0.24007376
0.32354056 0.39505880 0.24020467
0.32620217 0.39518471 0.24042354
0.33023542 0.39538332 0.24076799
0.33599326 0.39568385 0.24128737
0.34379300 0.39612471 0.24204534
0.35386291 0.39675586 0.24312252
0.36630086 0.39764145 0.24461864
0.38106139 0.39886273 0.24665367
0.39797549 0.40052076 0.24936704
0.41679232 0.40273866 0.25291384
0.43722570 0.40566234 0.25745744
0.45899199 0.40945900 0.26315863
0.48183389 0.41431208 0.27016224
0.50553141 0.42041209 0.27858407
0.52990379 0.42794314 0.28850083
0.55480648 0.43706676 0.29994573
0.58012587 0.44790566 0.31291040
0.60577370 0.46053101 0.32735202
0.63168182 0.47495657 0.34320343
0.65779784 0.49114079 0.36038357
0.68408148 0.50899603 0.37880659
0.71050178 0.52840218 0.39838860
0.73703493 0.54922124 0.41905202
0.76366250 0.57131028 0.44072789
0.79037026 0.59453126 0.46335671
0.81714712 0.61875742 0.48688832
0.84398443 0.64387661 0.51128112
0.87087539 0.66979229 0.53650115
0.89781463 0.69642315 0.56252105
0.34451918 0.42209245 0.25936570
0.34460298 0.42209616 0.25937237
0.34491009 0.42210981 0.25939688
0.34558033 0.42213976 0.25945065
0.34679990 0.42219487 0.25954953
0.34880430 0.42228717 0.25971495
0.35187557 0.42243284 0.25997560
0.35632841 0.42265343 0.26036931
0.36248184 0.42297743 0.26094540
0.37061840 0.42344208 0.26176712
0.38093951 0.42409565 0.26291425
0.39353142 0.42499999 0.26448529
0.40835432 0.42623333 0.26659870
0.42525804 0.42789307 0.26939240
0.44401636 0.43009809 0.27302063
0.46436671 0.43298992 0.27764730
0.48604392 0.43673183 0.28343588
0.50880298 0.44150484 0.29053661
0.53243071 0.44749962 0.29907325
0.55674910 0.45490419 0.30913221
0.58161375 0.46388833 0.32075665
0.60690978 0.47458703 0.33394672
0.63254693 0.48708645 0.34866546
0.65845494 0.50141578 0.36484832
0.68457934 0.51754695 0.38241373
0.71087803 0.53540198 0.40127281
0.73731847 0.55486565 0.42133698
0.76387555 0.57580027 0.44252306
0.79052982 0.59805952 0.46475631
0.81726618 0.62149950 0.48797165
0.84407292 0.64598633 0.51211386
0.87094086 0.67140040 0.53713691
0.89786284 0.69763811 0.56300309
0.36880579 0.44922110 0.27930599
0.36886833 0.44922384 0.27931105
0.36909767 0.44923391 0.27932964
0.36959899 0.44925600 0.27937044
0.37051406 0.44929666 0.27944548
0.37202595 0.44936477 0.27957108
0.37436139 0.44947229 0.27976915
0.37778681 0.44963522 0.28006872
0.38259430 0.44987473 0.28050786
0.38907579 0.45021863 0.28113590
0.39748721 0.45070318 0.28201587
0.40801028 0.45137526 0.28322704
0.42072360 0.45229483 0.28486711
0.43559292 0.45353770 0.28705365
0.45248364 0.45519832 0.28992383
0.47118962 0.45739225 0.29363175
0.49146763 0.46025763 0.29834246
0.51306789 0.46395481 0.30422244
0.53575582 0.46866312 0.31142725
0.55932409 0.47457377 0.32008818
0.58359716 0.48187846 0.33030062
0.60843083 0.49075435 0.34211685
0.63370907 0.50134727 0.35554491
0.65933992 0.51375663 0.37055321
0.68525117 0.52802537 0.38707955
0.71138649 0.54413751 0.40504171
0.73770210 0.56202378 0.42434776
0.76416405 0.58157333 0.44490437
0.79074602 0.60264861 0.46662279
0.81742760 0.62509992 0.48942246
0.84419293 0.64877765 0.51323273
0.87102969 0.67354098 0.53799328
0.89792825 0.69926310 0.56365368
0.39332926 0.47630780 0.29976485
0.39337616 0.47630983 0.29976870
0.39354821 0.47631730 0.29978286
0.39392474 0.47633369 0.29981393
0.39461358 0.47636385 0.29987110
0.39575600 0.47641437 0.29996682
0.39753119 0.47649417 0.30011786
0.40015741 0.47661512 0.30034649
0.40388719 0.47679303 0.30068209
0.40899376 0.47704871 0.30116296
0.41574731 0.47740941 0.30183853
0.42438321 0.47791056 0.30277176
0.43506867 0.47859785 0.30404165
0.44787732 0.47952969 0.30574552
0.46278023 0.48077996 0.30800055
0.47965592 0.48244079 0.31094377
0.49831483 0.48462514 0.31472982
0.51852976 0.48746860 0.31952544
0.54006382 0.49112945 0.32550049
0.56269122 0.49578606 0.33281591
0.58620966 0.50163064 0.34161026
0.61044571 0.50885858 0.35198739
0.63525529 0.51765389 0.36400810
0.66052137 0.52817227 0.37768766
0.68615040 0.54052503 0.39299937
0.71206842 0.55476740 0.40988297
0.73821740 0.57089420 0.42825534
0.76455202 0.58884377 0.44802129
0.79103703 0.60850892 0.46908264
0.81764500 0.62975175 0.49134494
0.84435465 0.65241898 0.51472176
0.87114943 0.67635520 0.53913680
0.89801646 0.70141273 0.56452469
0.41807843 0.50335502 0.32072683
0.41811373 0.50335654 0.32072978
0.41824328 0.50336210 0.32074059
0.41852705 0.50337431 0.32076433
0.41904701 0.50339678 0.32080801
0.41991172 0.50343442 0.32088117
0.42126121 0.50349389 0.32099665
0.42327049 0.50358406 0.32117157
0.42614987 0.50371675 0.32142858
0.43013976 0.50390756 0.32179735
0.43549764 0.50417697 0.32231643
0.44247624 0.50455175 0.32303540
0.45129503 0.50506661 0.32401729
0.46211041 0.50576627 0.32534106
0.47499302 0.50670790 0.32710401
0.48991901 0.50796378 0.32942335
0.50677804 0.50962423 0.33243654
0.52539447 0.51180029 0.33629932
0.54555447 0.51462570 0.34118067
0.56703194 0.51825740 0.34725425
0.58960853 0.52287353 0.35468654
0.61308615 0.52866778 0.36362326
0.63729310 0.53583944 0.37417639
0.66208534 0.54457911 0.38641473
0.68734485 0.55505170 0.40036021
0.71297662 0.56737939 0.41599048
0.73890506 0.58162849 0.43324674
0.76507057 0.59780332 0.45204459
0.79142644 0.61584876 0.47228525
0.81793619 0.63566032 0.49386544
0.84457141 0.65709908 0.51668486
0.87131000 0.68000771 0.54065104
0.89813480 0.70422479 0.56568203
0.44304335 0.53036495 0.34217804
0.44307000 0.53036608 0.34218029
0.44316783 0.53037024 0.34218857
0.44338225 0.53037937 0.34220675
0.44377560 0.53039617 0.34224020
0.44443107 0.53042432 0.34229623
0.44545729 0.53046879 0.34238471
0.44699253 0.53053623 0.34251879
0.44920759 0.53063551 0.34271592
0.45230550 0.53077833 0.34299906
0.45651620 0.53098013 0.34339819
0.46208405 0.53126109 0.34395210
0.46924781 0.53164755 0.34471059
0.47821455 0.53217361 0.34573686
0.48913278 0.53288319 0.34711008
0.50207151 0.53383242 0.34892777
0.51701175 0.53509237 0.35130762
0.53385281 0.53675197 0.35438798
0.55243078 0.53892085 0.35832625
0.57254309 0.54173155 0.36329418
0.59397270 0.54534038 0.36946964
0.61650743 0.54992588 0.37702493
0.63995271 0.55568380 0.38611296
0.66413818 0.56281759 0.39685360
0.68891966 0.57152447 0.40932325
0.71417817 0.58197812 0.42355000
0.73981727 0.59431083 0.43951523
0.76575987 0.60859890 0.45716110
0.79194489 0.62485501 0.47640139
0.81832433 0.64302935 0.49713330
0.84486060 0.66301909 0.51924813
0.87152439 0.68468340 0.54263942
0.89829289 0.70786028 0.56720855
0.46821506 0.55733953 0.36410583
0.46823522 0.55734038 0.36410756
0.46830926 0.55734350 0.36411391
0.46847160 0.55735034 0.36412785
0.46876968 0.55736293 0.36415350
0.46926711 0.55738404 0.36419648
0.47004774 0.55741738 0.36426436
0.47121973 0.55746795 0.36436727
0.47291936 0.55754242 0.36451865
0.47531332 0.55764958 0.36473623
0.47859811 0.55780106 0.36504326
0.48299464 0.55801211 0.36546999
0.48873645 0.55830266 0.36605549
0.49605107 0.55869866 0.36684982
0.50513603 0.55923369 0.36791650
0.51613411 0.55995102 0.36933503
0.52911378 0.56090595 0.37120346
0.54406074 0.56216862 0.37364030
0.56088272 0.56382695 0.37678527
0.57942581 0.56598964 0.38079792
0.59949695 0.56878859 0.38585332
0.62088667 0.57238010 0.39213401
0.64338792 0.57694379 0.39981843
0.66680890 0.58267802 0.40906679
0.69098020 0.58979085 0.42000677
0.71575737 0.59848623 0.43272206
0.74102038 0.60894640 0.44724637
0.76667142 0.62131316 0.46356428
0.79263194 0.63567195 0.48161821
0.81883952 0.65204262 0.50131952
0.84524492 0.67037944 0.52256088
0.87180957 0.69058003 0.54522768
0.89850331 0.71250062 0.56920702
0.49358548 0.58428051 0.38649868
0.49360076 0.58428115 0.38650001
0.49365688 0.58428349 0.38650488
0.49377996 0.58428863 0.38651559
0.49400609 0.58429809 0.38653528
0.49438389 0.58431394 0.38656828
0.49497781 0.58433899 0.38662040
0.49587184 0.58437699 0.38669944
0.49717338 0.58443294 0.38681576
0.49901657 0.58451348 0.38698304
0.50156422 0.58462738 0.38721927
0.50500700 0.58478614 0.38754794
0.50955812 0.58500485 0.38799958
0.51544222 0.58530320 0.38861356
0.52287788 0.58570681 0.38944025
0.53205535 0.58624883 0.39054355
0.54311343 0.58697198 0.39200351
0.55612094 0.58793093 0.39391893
0.57106806 0.58919512 0.39640950
0.58786999 0.59085180 0.39961671
0.60638144 0.59300918 0.40370279
0.62641736 0.59579903 0.40884660
0.64777457 0.59937826 0.41523591
0.67025018 0.60392817 0.42305567
0.69365452 0.60965037 0.43247363
0.71781876 0.61675800 0.44362524
0.74259792 0.62546203 0.45660122
0.76787087 0.63595322 0.47144046
0.79353844 0.64838248 0.48813005
0.81952069 0.66284353 0.50661200
0.84575388 0.67936230 0.52679452
0.87218769 0.69789582 0.54856509
0.89878259 0.71834083 0.57180265
0.51914724 0.61118947 0.40934602
0.51915883 0.61118995 0.40934704
0.51920140 0.61119171 0.40935078
0.51929480 0.61119557 0.40935900
0.51946647 0.61120269 0.40937413
0.51975352 0.61121461 0.40939947
0.52020535 0.61123345 0.40943951
0.52088685 0.61126203 0.40950024
0.52188188 0.61130413 0.40958963
0.52329680 0.61136474 0.40971824
0.52526355 0.61145046 0.40989996
0.52794135 0.61157000 0.41015301
0.53151574 0.61173476 0.41050111
0.53619342 0.61195967 0.41097505
0.54219172 0.61226421 0.41161449
0.54972218 0.61267369 0.41247020
0.55896964 0.61322090 0.41360654
0.57007034 0.61394813 0.41510424
0.58309413 0.61490957 0.41706312
0.59803560 0.61617421 0.41960434
0.61481664 0.61782892 0.42287158
0.63329939 0.61998178 0.42703023
0.65330556 0.62276495 0.43226353
0.67463717 0.62633650 0.43876495
0.69709457 0.63088008 0.44672646
0.72048964 0.63660117 0.45632361
0.74465369 0.64371858 0.46769971
0.76944103 0.65245068 0.48095229
0.79472932 0.66299684 0.49612495
0.82041800 0.67551677 0.51320662
0.84642576 0.69011175 0.53213809
0.87268766 0.70681266 0.55282358
0.89915232 0.72557789 0.57514462
0.54489361 0.63806782 0.43263810
0.54490241 0.63806818 0.43263889
0.54493472 0.63806950 0.43264176
0.54500561 0.63807241 0.43264807
0.54513596 0.63807777 0.43265968
0.54535404 0.63808674 0.43267915
0.54569766 0.63810092 0.43270990
0.54621673 0.63812244 0.43275655
0.54697624 0.63815413 0.43282523
0.54805963 0.63819977 0.43292407
0.54957209 0.63826433 0.43306379
0.55164339 0.63835437 0.43325847
0.55442945 0.63847853 0.43352651
0.55811131 0.63864811 0.43389185
0.56289020 0.63887787 0.43438553
0.56897756 0.63918710 0.43504753
0.57657949 0.63960085 0.43592903
0.58587693 0.64015162 0.43709497
0.59700479 0.64088136 0.43862690
0.61003454 0.64184392 0.44062586
0.62496513 0.64310802 0.44321480
0.64172449 0.64476044 0.44654000
0.66018124 0.64690952 0.45077048
0.68016277 0.64968825 0.45609445
0.70147529 0.65325643 0.46271166
0.72392161 0.65780070 0.47082159
0.74731452 0.66353110 0.48060797
