src/ffmpeg_scripts/luts/sRGB-rec2020_-3p00.cube
TITLE "sRGB-rec2020_-3p00"
LUT_3D_SIZE 33
# PQ (EOTF Only)/sRGB -> PQ (EOTF Only)/Rec2020, CineEI Shift -3.00, Black Level 0.00% IRE, Input 100% -> Output 109% - Created with LUTCalc v4.01 by Ben Turley October 2020
0.06256172 0.06256172 0.06256172
0.06977832 0.06461564 0.06344238
0.07888846 0.06754878 0.06474326
0.08930825 0.07124126 0.06645619
0.10081025 0.07564422 0.06858288
0.11326351 0.08073438 0.07113302
0.12658022 0.08649995 0.07412005
0.14069628 0.09293545 0.07755951
0.15556232 0.10003922 0.08146832
0.17113881 0.10781214 0.08586434
0.18739318 0.11625685 0.09076622
0.20429805 0.12537723 0.09619320
0.22182996 0.13517813 0.10216506
0.23996853 0.14566513 0.10870206
0.25869585 0.15684437 0.11582487
0.27799603 0.16872244 0.12355460
0.29785482 0.18130630 0.13191272
0.31825941 0.19460322 0.14092112
0.33919814 0.20862072 0.15060201
0.36066037 0.22336653 0.16097802
0.38263635 0.23884857 0.17207211
0.40511709 0.25507489 0.18390759
0.42809427 0.27205371 0.19650817
0.45156016 0.28979335 0.20989788
0.47550757 0.30830222 0.22410113
0.49992976 0.32758885 0.23914268
0.52482043 0.34766184 0.25504768
0.55017365 0.36852985 0.27184161
0.57598384 0.39020163 0.28955034
0.60224574 0.41268599 0.30820010
0.62895436 0.43599177 0.32781750
0.65610498 0.46012790 0.34842951
0.68369311 0.48510333 0.37006350
0.06760380 0.07144885 0.06492721
0.07164078 0.07180286 0.06517423
0.07979242 0.07300531 0.06596036
0.08982656 0.07525874 0.06731720
0.10113556 0.07858379 0.06920697
0.11347934 0.08289944 0.07159648
0.12672886 0.08811225 0.07447113
0.14080141 0.09414990 0.07782961
0.15563817 0.10096346 0.08167860
0.17119436 0.10852171 0.08602958
0.18743436 0.11680557 0.09089700
0.20432887 0.12580408 0.09629728
0.22185319 0.13551177 0.10224824
0.23998615 0.14592688 0.10876874
0.25870928 0.15705031 0.11587845
0.27800629 0.16888481 0.12359771
0.29786270 0.18143450 0.13194745
0.31826547 0.19470454 0.14094909
0.33920280 0.20870082 0.15062455
0.36066396 0.22342984 0.16099617
0.38263912 0.23889858 0.17208670
0.40511922 0.25511436 0.18391931
0.42809591 0.27208482 0.19651756
0.45156143 0.28981781 0.20990539
0.47550854 0.30832142 0.22410712
0.49993050 0.32760388 0.23914745
0.52482100 0.34767357 0.25505146
0.55017408 0.36853898 0.27184460
0.57598417 0.39020871 0.28955269
0.60224599 0.41269145 0.30820194
0.62895455 0.43599597 0.32781893
0.65610512 0.46013111 0.34843062
0.68369322 0.48510577 0.37006436
0.07425799 0.08234319 0.06827358
0.07654245 0.08250028 0.06839949
0.08273522 0.08306555 0.06884319
0.09163203 0.08424724 0.06973227
0.10229883 0.08624410 0.07115160
0.11426036 0.08919753 0.07313383
0.12726999 0.09316988 0.07567979
0.14118542 0.09815689 0.07878063
0.15591575 0.10411716 0.08242950
0.17139794 0.11099793 0.08662495
0.18758538 0.11874978 0.09137097
0.20444192 0.12733229 0.09667596
0.22193845 0.13671485 0.10255168
0.24005083 0.14687552 0.10901246
0.25875857 0.15779937 0.11607454
0.27804400 0.16947693 0.12375566
0.29789163 0.18190292 0.13207475
0.31828770 0.19507523 0.14105172
0.33921992 0.20899417 0.15070725
0.36067715 0.22366189 0.16106277
0.38264928 0.23908199 0.17214027
0.40512705 0.25525916 0.18396234
0.42810194 0.27219895 0.19655206
0.45156606 0.28990761 0.20993298
0.47551210 0.30839192 0.22412913
0.49993323 0.32765907 0.23916496
0.52482308 0.34771665 0.25506534
0.55017567 0.36857249 0.27185557
0.57598538 0.39023468 0.28956132
0.60224690 0.41271150 0.30820870
0.62895524 0.43601137 0.32782420
0.65610563 0.46014289 0.34843471
0.68369360 0.48511472 0.37006751
0.08210659 0.09456824 0.07244818
0.08350198 0.09465552 0.07252522
0.08788251 0.09497353 0.07280343
0.09515985 0.09565756 0.07338989
0.10469643 0.09686964 0.07439486
0.11591374 0.09878069 0.07591011
0.12843203 0.10154554 0.07799563
0.14201675 0.10527873 0.08068048
0.15651960 0.11004213 0.08397319
0.17184212 0.11584880 0.08787311
0.18791552 0.12267756 0.09237806
0.20468940 0.13048956 0.09748807
0.22212525 0.13924105 0.10320668
0.24019261 0.14889098 0.10954095
0.25886668 0.15940444 0.11650114
0.27812673 0.17075366 0.12410010
0.29795510 0.18291754 0.13235285
0.31833650 0.19588088 0.14127618
0.33925749 0.20963331 0.15088831
0.36070610 0.22416841 0.16120867
0.38267159 0.23948290 0.17225769
0.40514424 0.25557600 0.18405668
0.42811518 0.27244891 0.19662771
0.45157624 0.29010439 0.20999351
0.47551992 0.30854646 0.22417744
0.49993922 0.32778011 0.23920339
0.52482766 0.34781116 0.25509582
0.55017917 0.36864603 0.27187964
0.57598803 0.39029169 0.28958026
0.60224891 0.41275550 0.30822354
0.62895675 0.43604519 0.32783577
0.65610677 0.46016873 0.34844368
0.68369445 0.48513438 0.37007443
0.09098018 0.10786814 0.07738786
0.09188775 0.10792194 0.07743917
0.09494698 0.10811874 0.07762608
0.10057946 0.10854646 0.07802801
0.10865638 0.10931868 0.07873998
0.11876291 0.11057186 0.07986255
0.13048452 0.11245714 0.08148849
0.14350683 0.11512556 0.08369060
0.15761170 0.11870943 0.08651653
0.17265003 0.12330629 0.08999140
0.18851823 0.12897111 0.09412500
0.20514230 0.13571886 0.09891941
0.22246767 0.14353436 0.10437449
0.24045283 0.15238440 0.11049115
0.25906524 0.16222828 0.11727282
0.27827875 0.17302509 0.12472593
0.29807179 0.18473786 0.13285979
0.31842625 0.19733541 0.14168633
0.33932659 0.21079270 0.15121974
0.36075935 0.22509050 0.16147611
0.38271264 0.24021469 0.17247315
0.40517588 0.25615552 0.18422993
0.42813954 0.27290679 0.19676672
0.45159498 0.29046528 0.21010478
0.47553430 0.30883013 0.22426625
0.49995025 0.32800244 0.23927408
0.52483609 0.34798484 0.25515188
0.55018559 0.36878123 0.27192394
0.57599292 0.39039652 0.28961512
0.60225261 0.41283644 0.30825085
0.62895954 0.43610739 0.32785706
0.65610886 0.46021630 0.34846019
0.68369601 0.48517054 0.37008716
0.10078087 0.12209689 0.08306010
0.10139809 0.12213211 0.08309600
0.10355505 0.12226119 0.08322726
0.10779347 0.12254301 0.08351209
0.11434046 0.12305618 0.08402495
0.12307755 0.12390067 0.08485379
0.13370370 0.12519741 0.08609389
0.14589691 0.12708396 0.08783815
0.15938881 0.12970501 0.09016678
0.17397703 0.13319868 0.09314008
0.18951431 0.13768158 0.09679696
0.20589390 0.14323718 0.10115830
0.22303755 0.14991111 0.10623283
0.24088675 0.15771406 0.11202293
0.25939683 0.16662997 0.11852898
0.27853287 0.17662605 0.12575210
0.29826700 0.18766176 0.13369554
0.31857645 0.19969544 0.14236527
0.33944230 0.21268843 0.15177005
0.36084854 0.22660712 0.16192118
0.38278140 0.24142375 0.17283232
0.40522887 0.25711626 0.18451912
0.42818035 0.27366786 0.19699899
0.45162637 0.29106632 0.21029083
0.47555841 0.30930330 0.22441485
0.49996873 0.32837372 0.23939238
0.52485022 0.34827514 0.25524574
0.55019636 0.36900737 0.27199813
0.57600110 0.39057196 0.28967352
0.60225881 0.41297195 0.30829660
0.62896421 0.43621156 0.32789274
0.65611237 0.46029596 0.34848786
0.68369863 0.48523113 0.37010850
0.11144307 0.13715708 0.08944624
0.11187645 0.13718107 0.08947218
0.11342067 0.13726910 0.08956717
0.11657865 0.13746173 0.08977426
0.12173093 0.13781402 0.09015040
0.12901329 0.13839800 0.09076675
0.13832522 0.13930481 0.09170738
0.14943266 0.14064519 0.09306467
0.16207214 0.14254710 0.09493193
0.17600867 0.14514945 0.09739444
0.19105373 0.14859181 0.10052190
0.20706302 0.15300154 0.10436453
0.22392796 0.15848140 0.10895367
0.24156686 0.16510112 0.11430567
0.25991769 0.17289518 0.12042706
0.27893269 0.18186656 0.12731929
0.29857447 0.19199453 0.13498238
0.31881324 0.20324351 0.14341720
0.33962482 0.21557108 0.15262671
0.36098930 0.22893387 0.16261652
0.38288996 0.24329145 0.17339499
0.40531256 0.25860829 0.18497310
0.42824481 0.27485465 0.19736419
0.45167596 0.29200652 0.21058372
0.47559650 0.31004526 0.22464900
0.49999792 0.32895697 0.23957893
0.52487255 0.34873184 0.25539382
0.55021338 0.36936350 0.27211521
0.57601404 0.39084848 0.28976571
0.60226860 0.41318568 0.30836886
0.62897160 0.43637594 0.32794909
0.65611791 0.46042172 0.34853157
0.68370277 0.48532679 0.37014221
0.12291909 0.15297793 0.09653520
0.12323063 0.15299475 0.09655435
0.12435306 0.15305647 0.09662459
0.12670555 0.15319171 0.09677812
0.13069213 0.15343963 0.09705832
0.13659326 0.15385229 0.09752122
0.14450011 0.15449720 0.09823626
0.15432811 0.15545944 0.09928538
0.16588651 0.15684271 0.10075965
0.17895164 0.15876810 0.10275320
0.19331354 0.16136984 0.10535544
0.20879536 0.16478746 0.10864354
0.22525607 0.16915486 0.11267728
0.24258605 0.17458833 0.11749762
0.26070086 0.18117642 0.12312874
0.27953532 0.18897421 0.12958219
0.29903873 0.19800333 0.13686167
0.31917122 0.20825685 0.14496709
0.33990103 0.21970704 0.15389759
0.36120246 0.23231367 0.16365355
0.38305444 0.24603114 0.17423758
0.40543941 0.26081386 0.18565505
0.42834255 0.27661960 0.19791409
0.45175117 0.29341131 0.21102555
0.47565428 0.31115788 0.22500271
0.50004221 0.32983406 0.23986104
0.52490641 0.34942009 0.25561795
0.55023921 0.36990110 0.27229254
0.57603366 0.39126643 0.28990539
0.60228346 0.41350902 0.30847838
0.62898280 0.43662481 0.32803452
0.65612632 0.46061223 0.34859786
0.68370905 0.48547178 0.37019334
0.13517235 0.16950507 0.10432052
0.13540031 0.16951710 0.10433491
0.13622713 0.16956129 0.10438767
0.13798689 0.16965817 0.10450319
0.14104670 0.16983603 0.10471463
0.14573648 0.17013279 0.10506566
0.15227541 0.17059834 0.10561201
0.16073096 0.17129698 0.10642236
0.17103147 0.17230955 0.10757776
0.18301611 0.17373470 0.10916899
0.19648970 0.17568858 0.11129145
0.21126146 0.17830187 0.11403831
0.22716427 0.18171369 0.11749318
0.24406022 0.18606235 0.12172419
0.26183914 0.19147417 0.12678110
0.28041427 0.19805262 0.13269582
0.29971760 0.20587045 0.13948545
0.31969569 0.21496658 0.14715663
0.34030625 0.22534830 0.15570991
0.36151551 0.23699730 0.16514335
0.38329618 0.24987753 0.17545505
0.40562595 0.26394312 0.18664482
0.42848634 0.27914479 0.19871498
0.45186186 0.29543457 0.21167076
0.47573933 0.31276867 0.22552030
0.50010742 0.33110900 0.24027451
0.52495629 0.35042368 0.25594684
0.55027724 0.37068691 0.27255300
0.57606257 0.39187849 0.29011071
0.60230535 0.41398323 0.30863945
0.62899931 0.43699020 0.32816022
0.65613871 0.46089217 0.34869542
0.68371830 0.48568497 0.37026861
0.14817372 0.18669507 0.11279887
0.14834284 0.18670382 0.11280980
0.14895877 0.18673596 0.11284992
0.15028269 0.18680646 0.11293784
0.15262495 0.18693599 0.11309906
0.15630696 0.18715244 0.11336754
0.16160656 0.18749281 0.11378743
0.16870371 0.18800546 0.11441467
0.17765251 0.18875234 0.11531786
0.18839163 0.18981123 0.11657800
0.20078189 0.19127721 0.11828633
0.21464934 0.19326286 0.12054000
0.22981814 0.19589630 0.12343586
0.24612919 0.19931637 0.12706336
0.26344744 0.20366476 0.13149819
0.28166231 0.20907568 0.13679834
0.30068507 0.21566487 0.14300320
0.32044513 0.22352023 0.15013562
0.34088646 0.23269651 0.15820569
0.36196441 0.24321488 0.16721516
0.38364322 0.25506711 0.17716143
0.40589397 0.26822268 0.18804065
0.42869307 0.28263674 0.19984991
0.45202106 0.29825755 0.21258853
0.47586170 0.31503223 0.22625870
0.50020128 0.33291073 0.24086571
0.52502808 0.35184822 0.25641793
0.55033200 0.37180618 0.27292658
0.57610420 0.39275262 0.29040551
0.60233687 0.41466186 0.30887089
0.62902308 0.43751394 0.32834096
0.65615655 0.46129392 0.34883576
0.68373162 0.48599120 0.37037692
0.16189939 0.20451226 0.12196901
0.16202621 0.20451870 0.12197740
0.16248933 0.20454237 0.12200820
0.16349126 0.20459430 0.12207571
0.16528481 0.20468977 0.12219967
0.16815569 0.20484945 0.12240650
0.17238966 0.20510096 0.12273100
0.17822746 0.20548063 0.12321805
0.18582294 0.20603569 0.12392411
0.19522234 0.20682643 0.12491825
0.20637268 0.20792844 0.12628202
0.21915108 0.20943424 0.12810777
0.23339981 0.21145391 0.13049481
0.24895485 0.21411386 0.13354374
0.26566370 0.21755301 0.13734958
0.28339371 0.22191598 0.14199512
0.30203398 0.22734363 0.14754608
0.32149398 0.23396210 0.15404916
0.34170074 0.24187261 0.16153302
0.36259574 0.25114428 0.17001150
0.38413205 0.26181155 0.17948791
0.40627195 0.27387642 0.18995931
0.42898488 0.28731454 0.20142013
0.45224595 0.30208308 0.21386485
0.47603465 0.31812865 0.22728972
0.50033397 0.33539410 0.24169380
0.52512962 0.35382354 0.25707939
0.55040946 0.37336555 0.27345212
0.57616309 0.39397498 0.29082083
0.60238147 0.41561360 0.30919732
0.62905671 0.43825010 0.32859609
0.65618180 0.46185958 0.34903399
0.68375048 0.48642294 0.37053000
0.17632944 0.22292664 0.13183130
0.17642535 0.22293143 0.13183778
0.17677625 0.22294903 0.13186159
0.17753866 0.22298766 0.13191380
0.17891451 0.22305871 0.13200974
0.18114521 0.22317761 0.13217003
0.18449543 0.22336507 0.13242205
0.18922334 0.22364851 0.13280153
0.19554279 0.22406383 0.13335419
0.20358968 0.22465744 0.13413735
0.21340562 0.22548845 0.13522093
0.22494446 0.22663090 0.13668757
0.23809596 0.22817557 0.13863119
0.25271505 0.23023088 0.14115370
0.26864713 0.23292226 0.14435963
0.28574510 0.23638914 0.14834949
0.30387824 0.24077898 0.15321288
0.32293528 0.24623857 0.15902299
0.34282399 0.25290328 0.16583363
0.36346913 0.26088625 0.17367929
0.38480980 0.27026975 0.18257772
0.40679686 0.28110073 0.19253402
0.42939063 0.29339132 0.20354513
0.45255893 0.30712361 0.21560387
0.47627553 0.32225728 0.22870213
0.50051889 0.33873786 0.24283306
0.52527117 0.35650438 0.25799245
0.55051748 0.37549534 0.27417945
0.57624523 0.39565287 0.29139679
0.60244370 0.41692516 0.30965073
0.62910365 0.43926768 0.32895089
0.65621704 0.46264334 0.34930993
0.68377680 0.48702224 0.37074322
0.19144695 0.24191257 0.14238723
0.19151999 0.24191617 0.14239227
0.19178750 0.24192936 0.14241078
0.19237048 0.24195832 0.14245138
0.19342839 0.24201160 0.14252602
0.19515932 0.24210080 0.14265085
0.19779403 0.24224154 0.14284740
0.20157967 0.24245455 0.14314399
0.20675306 0.24276716 0.14357735
0.21350829 0.24321497 0.14419422
0.22196866 0.24384384 0.14505298
0.23217310 0.24471210 0.14622476
0.24408121 0.24589273 0.14779370
0.25759271 0.24747540 0.14985579
0.27257258 0.24956756 0.15251588
0.28887381 0.25229434 0.15588270
0.30635362 0.25579609 0.16006230
0.32488279 0.26022325 0.16515100
0.34434953 0.26572823 0.17122928
0.36465996 0.27245485 0.17835793
0.38573661 0.28052716 0.18657727
0.40751630 0.29003965 0.19590902
0.42994770 0.30105107 0.20636021
0.45298919 0.31358329 0.21792774
0.47660699 0.32762492 0.23060288
0.50077353 0.34313832 0.24437488
0.52546622 0.36006820 0.25923369
0.55066639 0.37835000 0.27517169
0.57635851 0.39791673 0.29218467
0.60252953 0.41870407 0.31027229
0.62916840 0.44065357 0.32943808
0.65626566 0.46371423 0.34968930
0.68381311 0.48784314 0.37103667
0.20723735 0.26144780 0.15363922
0.20729327 0.26145051 0.15364315
0.20749824 0.26146047 0.15365760
0.20794583 0.26148232 0.15368931
0.20876126 0.26152252 0.15374762
0.21010416 0.26158985 0.15384520
0.21216838 0.26169612 0.15399901
0.21517516 0.26185710 0.15423146
0.21935736 0.26209359 0.15457187
0.22493522 0.26243290 0.15505799
0.23208813 0.26291043 0.15573773
0.24093047 0.26357174 0.15667075
0.25149979 0.26447462 0.15792968
0.26376055 0.26569149 0.15960054
0.27762053 0.26731136 0.16178179
0.29295278 0.26944134 0.16458163
0.30961636 0.27220680 0.16811327
0.32747191 0.27574954 0.17248845
0.34639125 0.28022319 0.17781025
0.36626194 0.28578567 0.18416637
0.38698836 0.29258888 0.19162454
0.40849091 0.30076710 0.20023085
0.43070409 0.31042627 0.21001103
0.45357444 0.32163632 0.22097406
0.47705846 0.33442847 0.23311682
0.50112073 0.34879759 0.24642896
0.52573236 0.36470871 0.26089699
0.55086970 0.38210577 0.27650751
0.57651324 0.40092058 0.29324927
0.60264681 0.42108067 0.31111456
0.62925691 0.44251520 0.33009974
0.65633212 0.46515890 0.35020544
0.68386277 0.48895428 0.37143643
0.22368793 0.28151279 0.16559036
0.22373092 0.28151485 0.16559344
0.22388860 0.28152240 0.16560476
0.22423342 0.28153896 0.16562960
0.22486335 0.28156945 0.16567531
0.22590562 0.28162051 0.16575182
0.22751929 0.28170115 0.16587250
0.22989406 0.28182335 0.16605509
0.23324294 0.28200302 0.16632290
0.23778720 0.28226107 0.16670624
0.24373427 0.28262481 0.16724398
0.25125254 0.28312961 0.16798530
0.26045011 0.28382084 0.16899134
0.27136398 0.28475609 0.17033651
0.28396285 0.28600746 0.17210903
0.29816110 0.28766383 0.17441023
0.31383831 0.28983243 0.17735206
0.33085837 0.29263944 0.18105253
0.34908455 0.29622854 0.18562934
0.36838929 0.30075692 0.19119241
0.38865926 0.30638810 0.19783673
0.40979707 0.31328188 0.20563695
0.43172092 0.32158238 0.21464490
0.45436307 0.33140643 0.22489031
0.47766792 0.34283462 0.23638404
0.50159008 0.35590701 0.24912288
0.52609253 0.37062443 0.26309473
0.55114505 0.38695434 0.27828318
0.57672292 0.40483968 0.29467124
0.60280582 0.42420847 0.31224384
0.62937694 0.44498257 0.33098951
0.65642230 0.46708442 0.35090112
0.68393014 0.49044181 0.37197622
0.24078752 0.30209021 0.17824433
0.24082068 0.30209178 0.17824675
0.24094235 0.30209752 0.17825564
0.24120870 0.30211013 0.17827515
0.24169627 0.30213334 0.17831105
0.24250571 0.30217222 0.17837118
0.24376551 0.30223363 0.17846606
0.24563382 0.30232674 0.17860973
0.24829648 0.30246369 0.17882070
0.25195960 0.30266056 0.17912317
0.25683515 0.30293836 0.17954847
0.26312065 0.30332449 0.18013665
0.27097635 0.30385433 0.18093828
0.28050595 0.30457326 0.18201616
0.29174658 0.30553882 0.18344673
0.30467069 0.30682318 0.18532075
0.31919811 0.30851540 0.18774280
0.33521370 0.31072334 0.19082894
0.35258519 0.31357445 0.19470239
0.37117778 0.31721480 0.19948711
0.39086406 0.32180551 0.20530008
0.41152960 0.32751598 0.21224368
0.43307514 0.33451388 0.22039952
0.45541665 0.34295300 0.22982519
0.47848410 0.35296071 0.24055431
0.50221979 0.36462776 0.25259952
0.52657643 0.37800263 0.26595737
0.55151541 0.39309161 0.28061376
0.57700520 0.40986418 0.29654912
0.60302002 0.42826188 0.31374258
0.62953872 0.44820862 0.33217499
0.65654387 0.46962019 0.35183084
0.68402101 0.49241206 0.37269934
0.25852620 0.32316455 0.19160526
0.25855184 0.32316574 0.19160716
0.25864594 0.32317013 0.19161416
0.25885211 0.32317976 0.19162951
0.25923005 0.32319748 0.19165776
0.25985903 0.32322717 0.19170508
0.26084178 0.32327408 0.19177978
0.26230758 0.32334522 0.19189296
0.26441349 0.32344990 0.19205930
0.26734200 0.32360045 0.19229807
0.27129351 0.32381308 0.19263437
0.27647264 0.32410894 0.19310056
0.28306933 0.32451555 0.19373796
0.29123787 0.32506841 0.19459864
0.30107908 0.32581300 0.19574722
0.31263069 0.32680705 0.19726241
0.32586849 0.32812302 0.19923784
0.34071691 0.32985053 0.20178169
0.35706508 0.33209846 0.20501460
0.37478368 0.33499602 0.20906537
0.39373918 0.33869218 0.21406457
0.41380396 0.34335244 0.22013656
0.43486222 0.34915239 0.22739130
0.45681268 0.35626778 0.23591745
0.47956901 0.36486204 0.24577832
0.50305888 0.37507285 0.25701136
0.52722245 0.38700077 0.26963081
0.55201056 0.40070219 0.28363268
0.57738300 0.41618835 0.29900060
0.60330695 0.43343013 0.31571148
0.62975557 0.45236713 0.33374025
0.65670691 0.47291855 0.35306333
0.68414291 0.49499369 0.37366094
0.27689511 0.34472182 0.20567765
0.27691497 0.34472273 0.20567915
0.27698788 0.34472609 0.20568466
0.27714769 0.34473346 0.20569675
0.27744096 0.34474702 0.20571900
0.27792992 0.34476975 0.20575628
0.27869608 0.34480566 0.20581515
0.27984374 0.34486013 0.20590437
0.28150266 0.34494030 0.20603558
0.28382887 0.34505565 0.20622410
0.28700200 0.34521866 0.20648995
0.29121786 0.34544567 0.20685913
0.29667536 0.34575801 0.20736508
0.30355881 0.34618332 0.20805043
0.31201825 0.34675732 0.20896886
0.32215278 0.34752570 0.21018699
0.33400115 0.34854657 0.21178606
0.34754222 0.34989290 0.21386285
0.36270428 0.35165520 0.21652956
0.37937988 0.35394375 0.21991180
0.39744192 0.35689002 0.22414443
0.41675757 0.36064634 0.22936505
0.43719853 0.36538312 0.23570576
0.45864740 0.37128258 0.24328435
0.48100072 0.37852886 0.25219665
0.50416976 0.38729513 0.26251173
0.52807986 0.39772932 0.27427069
0.55266900 0.40994149 0.28748915
0.57788614 0.42399545 0.30216223
0.60368949 0.43990673 0.31827088
0.63004493 0.45764690 0.33578807
0.65692461 0.47715284 0.35468411
0.68430577 0.49833835 0.37493065
0.29588629 0.36674934 0.22046632
0.29590169 0.36675004 0.22046750
0.29595824 0.36675261 0.22047184
0.29608223 0.36675826 0.22048137
0.29630995 0.36676866 0.22049890
0.29669012 0.36678609 0.22052828
0.29728708 0.36681362 0.22057469
0.29818416 0.36685538 0.22064505
0.29948686 0.36691687 0.22074856
0.30132529 0.36700538 0.22089738
0.30385454 0.36713049 0.22110744
0.30725193 0.36730483 0.22139952
0.31170968 0.36754490 0.22180052
0.31742243 0.36787218 0.22234501
0.32457039 0.36831454 0.22307697
0.33330084 0.36890791 0.22405183
0.34371211 0.36969837 0.22533838
0.35584431 0.37074449 0.22702058
0.36967913 0.37212003 0.22919873
0.38514816 0.37391667 0.23198942
0.40214669 0.37624650 0.23552369
0.42054911 0.37924367 0.23994296
0.44022274 0.38306443 0.24539236
0.46103825 0.38788462 0.25201213
0.48287631 0.39389363 0.25992821
0.50563112 0.40128442 0.26924379
0.52921143 0.41024014 0.28003367
0.55354017 0.42091901 0.29234247
0.57855313 0.43344032 0.30618681
0.60419738 0.44787480 0.32156053
0.63042954 0.46424152 0.33844138
0.65721423 0.48251186 0.35679788
0.68452257 0.50261904 0.37659525
0.31549256 0.38923554 0.23597635
0.31550451 0.38923607 0.23597728
0.31554839 0.38923805 0.23598070
0.31564463 0.38924238 0.23598820
0.31582148 0.38925036 0.23600202
0.31611703 0.38926373 0.23602518
0.31658184 0.38928486 0.23606175
0.31728200 0.38931692 0.23611722
0.31830231 0.38936412 0.23619886
0.31974928 0.38943207 0.23631628
0.32175321 0.38952817 0.23648215
0.32446847 0.38966213 0.23671299
0.32807059 0.38984671 0.23703034
0.33274914 0.39009855 0.23746202
0.33869567 0.39043933 0.23804372
0.34608769 0.39089715 0.23882091
0.35507089 0.39150825 0.23985082
0.36574365 0.39231915 0.24120459
0.37814776 0.39338907 0.24296919
0.39226760 0.39479277 0.24524872
0.40803756 0.39662337 0.24816458
0.42535504 0.39899514 0.25185375
0.44409534 0.40204539 0.25646473
0.46412541 0.40593485 0.26215072
0.48531444 0.41084540 0.26906060
0.50754093 0.41697418 0.27732885
0.53069648 0.42452351 0.28706621
0.55468722 0.43368691 0.29835322
0.57943358 0.44463296 0.31123778
0.60486913 0.45749001 0.32573714
0.63093902 0.47233512 0.34184327
0.65759832 0.48919008 0.35953014
0.68481034 0.50802501 0.37876120
0.33570738 0.41216979 0.25221303
0.33571665 0.41217020 0.25221377
0.33575070 0.41217171 0.25221646
0.33582539 0.41217504 0.25222237
0.33596271 0.41218117 0.25223326
0.33619236 0.41219143 0.25225150
0.33655396 0.41220766 0.25228031
0.33709964 0.41223227 0.25232401
0.33789693 0.41226851 0.25238835
0.33903183 0.41232070 0.25248093
0.34061165 0.41239452 0.25261176
0.34276692 0.41249747 0.25279398
0.34565146 0.41263937 0.25304474
0.34943957 0.41283312 0.25338629
0.35431895 0.41309550 0.25384739
0.36047918 0.41344839 0.25446493
0.36809620 0.41392015 0.25528587
0.37731517 0.41454740 0.25636939
0.38823524 0.41537720 0.25778916
0.40090019 0.41646956 0.25963538
0.41529697 0.41790042 0.26201632
0.43136237 0.41976465 0.26505862
0.44899535 0.42217907 0.26890572
0.46807157 0.42528464 0.27371379
0.48845708 0.42924713 0.27964472
0.51001920 0.43425513 0.28685658
0.53263392 0.44051423 0.29549283
0.55619005 0.44823674 0.30567200
0.58059095 0.45762702 0.31748033
0.60575443 0.46886421 0.33096874
0.63161180 0.48208550 0.34615459
0.65810629 0.49737371 0.36302737
0.68519139 0.51475232 0.38155650
0.35652480 0.43554230 0.26918187
0.35653199 0.43554262 0.26918245
0.35655840 0.43554378 0.26918457
0.35661634 0.43554634 0.26918922
0.35672290 0.43555104 0.26919779
0.35690119 0.43555892 0.26921214
0.35718219 0.43557137 0.26923482
0.35760681 0.43559027 0.26926922
0.35822845 0.43561810 0.26931987
0.35911585 0.43565817 0.26939277
0.36035602 0.43571487 0.26949583
0.36205693 0.43579395 0.26963946
0.36434934 0.43590300 0.26983726
0.36738679 0.43605196 0.27010695
0.37134280 0.43625381 0.27047154
0.37640399 0.43652553 0.27096072
0.38275893 0.43688919 0.27161261
0.39058301 0.43737344 0.27247574
0.40002177 0.43801534 0.27361137
0.41117584 0.43886256 0.27509584
0.42409123 0.43997605 0.27702288
0.43875740 0.44143313 0.27950527
0.45511324 0.44333071 0.28267535
0.47305876 0.44578854 0.28668359
0.49246944 0.44895174 0.29169449
0.51320994 0.45299174 0.29787930
0.53514529 0.45810455 0.30540593
