src/ffmpeg_scripts/luts/sRGB-rec2020_-0p33.cube
TITLE "sRGB-rec2020_-0p33"
LUT_3D_SIZE 33
# PQ (EOTF Only)/sRGB -> PQ (EOTF Only)/Rec2020, CineEI Shift -0.33, Black Level 0.00% IRE, Input 100% -> Output 109% - Created with LUTCalc v4.01 by Ben Turley October 2020
0.06256172 0.06256172 0.06256172
0.08161131 0.06848282 0.06516949
0.10208394 0.07615027 0.06883231
0.12335039 0.08507307 0.07337196
0.14520368 0.09505531 0.07871430
0.16753219 0.10598372 0.08481981
0.19026440 0.11778222 0.09166462
0.21334998 0.13039528 0.09923347
0.23675131 0.14378012 0.10751639
0.26043902 0.15790254 0.11650690
0.28438950 0.17273442 0.12620100
0.30858325 0.18825212 0.13659647
0.33300388 0.20443545 0.14769241
0.35763739 0.22126690 0.15948900
0.38247166 0.23873113 0.17198721
0.40749608 0.25681453 0.18518866
0.43270128 0.27550498 0.19909553
0.45807890 0.29479157 0.21371041
0.48362146 0.31466440 0.22903626
0.50932217 0.33511449 0.24507638
0.53517489 0.35613361 0.26183429
0.56117402 0.37771421 0.27931376
0.58731440 0.39984932 0.29751875
0.61359129 0.42253249 0.31645337
0.64000031 0.44575772 0.33612190
0.66653740 0.46951943 0.35652873
0.69319879 0.49381241 0.37767838
0.71998095 0.51863178 0.39957545
0.74688057 0.54397296 0.42222464
0.77389457 0.56983165 0.44563074
0.80102004 0.59620377 0.46979859
0.82825423 0.62308550 0.49473310
0.85559458 0.65047322 0.52043925
0.07628821 0.08555764 0.06933296
0.08600427 0.08638042 0.06999968
0.10400197 0.08914344 0.07208370
0.12436680 0.09420357 0.07556776
0.14580274 0.10143376 0.08023502
0.16790925 0.11047768 0.08590131
0.19051251 0.12099188 0.09245119
0.21351854 0.13272023 0.09981587
0.23686859 0.14548593 0.10795374
0.26052215 0.15916796 0.11683901
0.28444928 0.17368189 0.12645543
0.30862674 0.18896701 0.13679275
0.33303582 0.20497827 0.14784468
0.35766102 0.22168119 0.15960764
0.38248926 0.23904862 0.17207995
0.40750925 0.25705864 0.18526134
0.43271117 0.27569313 0.19915258
0.45808636 0.29493684 0.21375524
0.48362709 0.31477670 0.22907152
0.50932643 0.33520135 0.24510411
0.53517812 0.35620081 0.26185609
0.56117646 0.37776618 0.27933088
0.58731625 0.39988947 0.29753218
0.61359269 0.42256347 0.31646389
0.64000137 0.44578159 0.33613012
0.66653821 0.46953778 0.35653514
0.69319940 0.49382649 0.37768336
0.71998140 0.51864255 0.39957930
0.74688091 0.54398117 0.42222762
0.77389482 0.56983787 0.44563303
0.80102023 0.59620848 0.46980034
0.82825437 0.62308905 0.49473443
0.85559468 0.65047587 0.52044026
0.09197407 0.10933085 0.07795345
0.09702559 0.10965526 0.07826377
0.11013965 0.11081914 0.07935089
0.12788164 0.11323541 0.08150091
0.14793728 0.11726957 0.08486330
0.16927109 0.12313283 0.08943602
0.19141480 0.13084535 0.09513371
0.21413384 0.14028191 0.10185406
0.23729767 0.15125084 0.10950914
0.26082668 0.16355540 0.11803235
0.28466847 0.17702406 0.12737583
0.30878630 0.19151857 0.13750602
0.33315305 0.20693148 0.14839971
0.35774780 0.22318041 0.16004099
0.38255388 0.24020221 0.17241921
0.40755762 0.25794814 0.18552749
0.43274751 0.27638015 0.19936168
0.45811375 0.29546812 0.21391968
0.48364777 0.31518786 0.22920088
0.50934208 0.33551966 0.24520586
0.53518997 0.35644720 0.26193609
0.56118544 0.37795681 0.27939373
0.58732305 0.40003682 0.29758148
0.61359784 0.42267721 0.31650249
0.64000527 0.44586923 0.33616029
0.66654115 0.46960517 0.35655866
0.69320162 0.49387817 0.37770164
0.71998307 0.51868207 0.39959347
0.74688216 0.54401129 0.42223855
0.77389576 0.56986075 0.44564143
0.80102092 0.59622577 0.46980677
0.82825489 0.62310206 0.49473933
0.85559506 0.65048562 0.52044398
0.10884147 0.13351740 0.08786915
0.11171415 0.13368350 0.08804595
0.12053669 0.13428793 0.08868283
0.13464159 0.13558452 0.09001743
0.15230076 0.13787030 0.09228061
0.17214104 0.14144486 0.09564060
0.19334731 0.14655637 0.10017307
0.21546378 0.15335343 0.10587077
0.23823014 0.16186707 0.11267704
0.26149070 0.17202863 0.12051806
0.28514744 0.18370811 0.12932273
0.30913548 0.19675243 0.13903091
0.33340983 0.21101194 0.14959510
0.35793800 0.22635407 0.16097921
0.38269560 0.24266768 0.17315647
0.40766371 0.25986248 0.18610742
0.43282724 0.27786626 0.19981819
0.45817384 0.29662165 0.21427917
0.48369317 0.31608307 0.22948398
0.50937643 0.33621412 0.24542874
0.53521599 0.35698560 0.26211143
0.56120516 0.37837383 0.27953152
0.58733799 0.40035944 0.29768960
0.61360915 0.42292640 0.31658719
0.64001382 0.44606135 0.33622649
0.66654761 0.46975295 0.35661027
0.69320649 0.49399155 0.37774176
0.71998673 0.51876879 0.39962456
0.74688491 0.54407739 0.42226255
0.77389781 0.56991094 0.44565988
0.80102245 0.59626373 0.46982089
0.82825602 0.62313062 0.49475009
0.85559590 0.65050700 0.52045212
0.12661716 0.15800255 0.09886249
0.12837633 0.15809859 0.09897346
0.13423752 0.15844978 0.09937716
0.14477813 0.15921204 0.10024267
0.15940772 0.16058486 0.10176731
0.17704656 0.16280358 0.10415012
0.19674410 0.16612076 0.10755837
0.21784040 0.17077508 0.11210001
0.23991338 0.17695494 0.11781542
0.26269700 0.18476992 0.12468935
0.28602115 0.19424150 0.13267274
0.30977415 0.20531495 0.14170299
0.33388038 0.21788424 0.15171759
0.35828698 0.23181875 0.16266103
0.38295584 0.24698434 0.17448722
0.40785866 0.26325634 0.18715948
0.43297381 0.28052567 0.20064941
0.45828436 0.29870038 0.21493553
0.48377669 0.31770472 0.23000192
0.50943963 0.33747707 0.24583710
0.53526387 0.35796762 0.26243305
0.56124144 0.37913616 0.27978448
0.58736548 0.40095018 0.29788824
0.61362997 0.42338328 0.31674286
0.64002957 0.44641391 0.33634821
0.66655951 0.47002434 0.35670520
0.69321545 0.49419987 0.37781557
0.71999348 0.51892820 0.39968176
0.74688997 0.54419895 0.42230672
0.77390159 0.57000327 0.44569384
0.80102527 0.59633355 0.46984689
0.82825811 0.62318318 0.49476989
0.85559744 0.65054636 0.52046712
0.14514954 0.18272550 0.11080797
0.14628548 0.18278515 0.11088171
0.15022943 0.18300373 0.11115114
0.15786919 0.18348060 0.11173486
0.16941053 0.18434780 0.11278260
0.18438387 0.18577172 0.11446714
0.20203047 0.18795069 0.11696815
0.22163377 0.19110479 0.12044873
0.24264371 0.19545651 0.12503215
0.26467420 0.20120441 0.13078817
0.28746308 0.20849630 0.13773365
0.31083305 0.21741100 0.14584457
0.33466298 0.22795454 0.15507246
0.35886865 0.24007093 0.16535892
0.38339028 0.25366158 0.17664566
0.40818446 0.26860609 0.18887999
0.43321896 0.28477931 0.20201713
0.45846930 0.30206266 0.21602048
0.48391649 0.32035020 0.23086099
0.50954547 0.33955082 0.24651617
0.53534406 0.35958806 0.26296891
0.56130222 0.38039882 0.28020656
0.58741154 0.40193143 0.29822003
0.61366485 0.42414382 0.31700311
0.64005596 0.44700179 0.33655183
0.66657944 0.47047744 0.35686407
0.69323048 0.49454801 0.37793915
0.72000478 0.51919479 0.39977755
0.74689844 0.54440235 0.42238069
0.77390793 0.57015783 0.44575073
0.80102998 0.59645048 0.46989044
0.82826161 0.62327122 0.49480306
0.85560002 0.65061229 0.52049225
0.16433953 0.20764782 0.12362133
0.16510162 0.20768666 0.12367221
0.16780678 0.20782915 0.12385855
0.17329030 0.20814080 0.12426440
0.18210526 0.20871036 0.12500015
0.19431141 0.20965330 0.12620205
0.20953586 0.21111457 0.12802748
0.22720440 0.21326805 0.13064343
0.24674634 0.21631071 0.13420892
0.26769151 0.22044991 0.13885543
0.28968670 0.22588397 0.14467193
0.31247770 0.23277946 0.15169953
0.33588451 0.24125090 0.15993650
0.35977970 0.25134932 0.16934997
0.38407238 0.26306265 0.17988923
0.40869687 0.27632684 0.19149693
0.43360500 0.29104275 0.20411674
0.45876081 0.30709348 0.21769771
0.48413701 0.32435862 0.23219612
0.50971249 0.34272385 0.24757578
0.53547065 0.36208633 0.26380761
0.56139820 0.38235686 0.28086871
0.58748429 0.40345990 0.29874146
0.61371996 0.42533257 0.31741263
0.64009765 0.44792307 0.33687257
0.66661094 0.47118893 0.35711452
0.69325423 0.49509553 0.37813407
0.72002264 0.51961455 0.39992872
0.74691183 0.54472289 0.42249747
0.77391793 0.57040157 0.44584056
0.80103743 0.59663497 0.46995922
0.82826713 0.62341017 0.49485546
0.85560409 0.65071638 0.52053195
0.18411627 0.23274273 0.13724106
0.18464225 0.23276889 0.13727713
0.18653293 0.23286491 0.13740935
0.19047362 0.23307522 0.13769820
0.19708654 0.23346061 0.13822479
0.20673438 0.23410159 0.13909301
0.21941965 0.23510209 0.14043008
0.23483991 0.23659218 0.14238309
0.25253807 0.23872857 0.14511044
0.27204164 0.24169126 0.14876787
0.29294030 0.24567487 0.15349189
0.31490923 0.25087403 0.15938486
0.33770368 0.25746445 0.16650652
0.36114349 0.26558333 0.17487420
0.38509720 0.27531435 0.18447028
0.40946878 0.28668154 0.19525336
0.43418765 0.29965325 0.20716941
0.45920140 0.31415406 0.22016073
0.48447064 0.33008027 0.23417191
0.50996537 0.34731503 0.24915319
0.53566243 0.36574031 0.26506183
0.56154365 0.38524499 0.28186235
0.58759458 0.40572929 0.29952601
0.61380352 0.42710659 0.31803007
0.64016089 0.44930334 0.33735690
0.66665871 0.47225814 0.35749315
0.69329025 0.49592023 0.37842902
0.72004973 0.52024795 0.40015762
0.74693215 0.54520724 0.42267440
0.77393312 0.57077025 0.44597672
0.80104874 0.59691426 0.47006350
0.82827552 0.62362066 0.49493492
0.85561028 0.65087414 0.52059217
0.20442604 0.25799038 0.15161975
0.20479699 0.25800845 0.15164582
0.20614044 0.25807478 0.15174148
0.20898964 0.25822019 0.15195081
0.21391164 0.25848707 0.15233370
0.22137986 0.25893215 0.15296856
0.23164893 0.25962986 0.15395471
0.24469874 0.26067568 0.15541309
0.26027840 0.26218885 0.15748373
0.27801049 0.26431351 0.16031908
0.29749235 0.26721690 0.16407259
0.31835958 0.27108326 0.16888431
0.34031153 0.27610267 0.17486655
0.36311294 0.28245524 0.18209383
0.38658500 0.29029298 0.19059969
0.41059374 0.29972355 0.20038069
0.43503917 0.31080002 0.21140523
0.45984662 0.32351945 0.22362400
0.48495996 0.33782989 0.23697951
0.51033668 0.35364310 0.25141328
0.53594426 0.37084919 0.26687047
0.56175755 0.38932988 0.28330238
0.58775683 0.40896861 0.30066739
0.61392649 0.42965714 0.31893099
0.64025397 0.45129903 0.33806520
0.66672905 0.47381086 0.35804785
0.69334329 0.49712195 0.37886171
0.72008963 0.52117333 0.40049376
0.74696208 0.54591628 0.42293441
0.77395549 0.57131080 0.44617693
0.80106540 0.59732423 0.47021692
0.82828787 0.62392990 0.49505187
0.85561939 0.65110607 0.52068081
0.22522642 0.28337542 0.16671943
0.22549248 0.28338814 0.16673857
0.22646055 0.28343485 0.16680881
0.22853653 0.28353730 0.16696268
0.23219338 0.28372551 0.16724471
0.23790192 0.28403993 0.16771397
0.24603621 0.28453413 0.16844693
0.25678638 0.28527787 0.16953968
0.27012432 0.28636027 0.17110871
0.28583770 0.28789243 0.17328918
0.30360617 0.29000902 0.17622945
0.32307877 0.29286747 0.18008157
0.34392708 0.29664372 0.18498847
0.36587085 0.30152347 0.19107044
0.38868381 0.30768888 0.19841406
0.41218926 0.31530209 0.20706680
0.43625168 0.32448874 0.21703816
0.46076807 0.33532535 0.22830624
0.48566028 0.34783377 0.24082717
0.51086896 0.36198403 0.25454472
0.53634876 0.37770397 0.26939833
0.56206481 0.39489253 0.28532891
0.58799007 0.41343351 0.30228228
0.61410335 0.43320709 0.32021098
0.64038790 0.45409830 0.33907479
0.66683029 0.47600212 0.35884046
0.69341966 0.49882598 0.37948117
0.72014708 0.52249039 0.40097570
0.74700517 0.54692833 0.42330763
0.77398771 0.57208407 0.44646456
0.80108939 0.59791169 0.47043747
0.82830565 0.62437361 0.49522007
0.85563252 0.65143919 0.52080835
0.24648293 0.30888556 0.18250887
0.24667632 0.30889465 0.18252308
0.24738208 0.30892805 0.18257526
0.24890656 0.30900131 0.18268963
0.25162752 0.30913600 0.18289956
0.25596188 0.30936124 0.18324966
0.26230844 0.30971587 0.18379845
0.27097344 0.31025097 0.18462103
0.28210679 0.31103267 0.18581119
0.29567886 0.31214513 0.18748236
0.31150693 0.31369323 0.18976631
0.32931315 0.31580433 0.19280875
0.34878603 0.31862830 0.19676108
0.36962588 0.32233445 0.20176896
0.39156961 0.32710469 0.20795938
0.41439919 0.33312215 0.21542920
0.43794031 0.34055630 0.22423805
0.46205656 0.34954672 0.23440716
0.48664254 0.36018902 0.24592397
0.51161721 0.37252641 0.25875028
0.53691835 0.38654896 0.27283175
0.56249803 0.40220017 0.28810648
0.58831924 0.41938866 0.30451167
0.61435314 0.43800173 0.32198812
0.64057716 0.45791784 0.34048274
0.66697341 0.47901662 0.35994966
0.69352764 0.50118547 0.38035038
0.72022834 0.52432339 0.40165335
0.74706614 0.54834246 0.42383324
0.77403329 0.57316789 0.44687014
0.80112334 0.59873706 0.47074875
0.82833083 0.62499816 0.49545765
0.85565109 0.65190872 0.52098860
0.26816682 0.33451073 0.19896174
0.26830890 0.33451731 0.19897239
0.26882843 0.33454147 0.19901151
0.26995608 0.33459450 0.19909730
0.27198691 0.33469203 0.19925490
0.27526854 0.33485523 0.19951812
0.28017199 0.33511248 0.19993174
0.28704213 0.33550131 0.20055394
0.29613776 0.33607078 0.20145891
0.30758278 0.33688412 0.20273886
0.32134908 0.33802163 0.20450511
0.33727716 0.33958330 0.20688726
0.35512186 0.34169085 0.21002941
0.37460255 0.34448821 0.21408303
0.39544277 0.34813954 0.21919654
0.41739394 0.35282362 0.22550294
0.44024536 0.35872422 0.23310814
0.46382513 0.36601644 0.24208254
0.48799637 0.37485108 0.25245809
0.51265174 0.38533965 0.26423102
0.53770770 0.39754380 0.27736883
0.56309947 0.41147160 0.29181938
0.58877683 0.42708135 0.30751983
0.61470074 0.44429148 0.32440412
0.64084072 0.46299348 0.34240827
0.66717283 0.48306511 0.36147374
0.69367817 0.50438150 0.38154909
0.72034166 0.52682326 0.40259055
0.74715118 0.55028149 0.42456178
0.77409689 0.57466029 0.44743326
0.80117071 0.59987729 0.47118151
0.82836596 0.62586315 0.49578826
0.85567702 0.65256028 0.52123962
0.29025374 0.36024250 0.21605553
0.29035902 0.36024731 0.21606358
0.29074453 0.36026497 0.21609312
0.29158402 0.36030373 0.21615794
0.29310531 0.36037502 0.21627707
0.29558859 0.36049439 0.21647626
0.29935477 0.36068269 0.21678976
0.30473786 0.36096762 0.21726254
0.31204197 0.36138564 0.21795266
0.32149199 0.36198416 0.21893373
0.33319458 0.36282409 0.22029695
0.34712450 0.36398266 0.22215234
0.36314095 0.36555601 0.22462817
0.38102445 0.36766147 0.22786784
0.40051902 0.37043838 0.23202354
0.42136721 0.37404687 0.23724659
0.44333267 0.37866340 0.24367567
0.46621113 0.38447233 0.25142487
0.48983298 0.39165351 0.26057439
0.51406109 0.40036710 0.27116599
0.53878647 0.41073816 0.28320417
0.56392342 0.42284442 0.29666192
0.58940486 0.43671008 0.31148938
0.61517846 0.45230715 0.32762302
0.64120333 0.46956347 0.34499369
0.66744742 0.48837499 0.36353284
0.69388558 0.50861922 0.38317656
0.72049786 0.53016741 0.40386788
0.74726844 0.55289389 0.42555769
0.77418460 0.57668229 0.44820482
0.80123606 0.60142899 0.47177553
0.82841443 0.62704432 0.49624270
0.85571279 0.65345238 0.52158503
0.31272269 0.38607373 0.23377070
0.31280126 0.38607727 0.23377681
0.31308919 0.38609028 0.23379925
0.31371764 0.38611883 0.23384850
0.31486143 0.38617136 0.23393906
0.31674199 0.38625933 0.23409058
0.31962523 0.38639818 0.23432934
0.32380909 0.38660846 0.23469002
0.32959784 0.38691733 0.23521785
0.33726450 0.38736031 0.23597091
0.34700930 0.38798347 0.23702252
0.35892725 0.38884585 0.23846335
0.37299665 0.39002223 0.24040271
0.38909196 0.39160574 0.24296830
0.40701435 0.39371026 0.24630356
0.42652782 0.39647162 0.25056196
0.44739058 0.40004695 0.25589801
0.46937663 0.40461111 0.26245590
0.49228725 0.41034927 0.27035737
0.51595490 0.41744555 0.27969168
0.54024225 0.42606830 0.29050971
0.56503893 0.43635445 0.30282365
0.59025724 0.44839590 0.31661171
0.61582806 0.46223133 0.33182622
0.64169710 0.47784526 0.34840297
0.66782175 0.49517433 0.36626983
0.69416854 0.51411876 0.38535369
0.72071111 0.53455595 0.40558530
0.74742860 0.55635349 0.42690209
0.77430445 0.57937973 0.44924963
0.80132537 0.60351111 0.47258186
0.82848069 0.62863653 0.49686071
0.85576171 0.65465921 0.52205544
0.33555538 0.41199823 0.25209004
0.33561434 0.41200086 0.25209471
0.33583055 0.41201050 0.25211184
0.33630321 0.41203167 0.25214943
0.33716611 0.41207062 0.25221858
0.33859217 0.41213587 0.25233434
0.34079597 0.41223888 0.25251688
0.34403032 0.41239499 0.25279297
0.34857371 0.41262446 0.25319775
0.35470649 0.41295397 0.25377674
0.36267779 0.41341829 0.25458817
0.37266963 0.41406237 0.25570534
0.38476917 0.41494375 0.25721875
0.39895848 0.41613524 0.25923754
0.41512474 0.41772763 0.26188944
0.43308597 0.41983215 0.26531857
0.45262257 0.42258199 0.26968023
0.47350576 0.42613216 0.27513245
0.49551823 0.43065660 0.28182491
0.51846602 0.43634169 0.28988673
0.54218335 0.44337562 0.29941568
0.56653271 0.45193423 0.31047118
0.59140242 0.46216510 0.32307261
0.61670301 0.47417284 0.33720302
0.64236346 0.48800917 0.35281675
0.66832765 0.50366994 0.36984876
0.69455140 0.52109978 0.38822387
0.72099988 0.54020270 0.40786434
0.74764563 0.56085580 0.42869549
0.77446693 0.58292302 0.45064914
0.80144650 0.60626678 0.47366541
0.82857058 0.63075644 0.49769329
0.85582808 0.65627358 0.52269038
0.35873567 0.43801065 0.27099833
0.35878011 0.43801260 0.27100191
0.35894317 0.43801979 0.27101503
0.35930003 0.43803557 0.27104383
0.35995296 0.43806460 0.27109682
0.36103604 0.43811323 0.27118554
0.36271951 0.43819005 0.27132554
0.36521117 0.43830649 0.27153748
0.36875215 0.43847776 0.27184860
0.37360454 0.43872391 0.27229445
0.38002952 0.43907118 0.27292091
0.38825768 0.43955370 0.27378649
0.39845752 0.44021551 0.27496468
0.41071102 0.44111295 0.27654615
0.42500403 0.44231728 0.27864028
0.44123452 0.44391746 0.28137541
0.45923448 0.44602274 0.28489689
0.47879786 0.44876445 0.28936237
0.49970674 0.45229621 0.29493376
0.52175109 0.45679174 0.30176637
0.54474094 0.46243903 0.30999655
0.56851194 0.46943045 0.31973024
0.59292635 0.47794891 0.33103491
0.61787123 0.48815178 0.34393667
0.64325545 0.50015531 0.35842304
0.66900619 0.51402300 0.37444999
0.69506568 0.52976088 0.39195144
0.72138823 0.54732063 0.41084891
0.74793776 0.56660941 0.43105992
0.77468577 0.58750355 0.45250417
0.80160974 0.60986307 0.47510774
0.82869176 0.63354435 0.49880520
0.85591758 0.65840967 0.52354055
0.38224921 0.46410624 0.29048192
0.38228283 0.46410770 0.29048466
0.38240622 0.46411308 0.29049474
0.38267650 0.46412489 0.29051687
0.38317179 0.46414661 0.29055758
0.38399558 0.46418302 0.29062577
0.38528149 0.46424052 0.29073340
0.38719672 0.46432772 0.29089645
0.38994261 0.46445603 0.29113602
0.39375004 0.46464055 0.29147980
0.39886743 0.46490110 0.29196376
0.40554050 0.46526356 0.29263419
0.41398547 0.46576154 0.29354997
0.42436081 0.46643833 0.29478500
0.43674516 0.46734928 0.29643038
0.45112821 0.46856448 0.29859617
0.46741715 0.47017152 0.30141173
0.48545567 0.47227822 0.30502421
0.50504904 0.47501468 0.30959411
0.52598840 0.47853385 0.31528763
0.54806977 0.48300988 0.32226590
0.57110648 0.48863285 0.33067251
0.59493525 0.49559951 0.34062135
0.61941795 0.50409972 0.35218759
0.64444043 0.51430012 0.36540364
0.66990997 0.52632768 0.38026101
0.69575205 0.54025667 0.39671693
0.72190731 0.55610222 0.41470389
0.74832868 0.57382205 0.43413981
0.77497890 0.59332559 0.45493714
0.80182853 0.61448774 0.47700979
0.82885427 0.63716414 0.50027788
0.85603765 0.66120482 0.52467035
0.40608315 0.49028081 0.31052851
0.40610866 0.49028191 0.31053062
0.40620228 0.49028594 0.31053838
0.40640747 0.49029481 0.31055541
0.40678392 0.49031112 0.31058675
0.40741129 0.49033846 0.31063925
0.40839366 0.49038165 0.31072215
0.40986365 0.49044715 0.31084779
0.41198528 0.49054356 0.31103252
0.41495398 0.49068227 0.31129786
0.41899170 0.49087825 0.31167192
0.42433550 0.49115114 0.31219110
0.43121872 0.49152651 0.31290214
0.43984642 0.49203751 0.31386443
0.45036968 0.49272683 0.31515239
0.46286524 0.49364908 0.31685787
0.47732657 0.49487343 0.31909189
0.49366890 0.49648651 0.32198535
0.51174582 0.49859520 0.32568764
0.53137208 0.50132894 0.33036264
0.55234635 0.50484066 0.33618125
0.57446967 0.50930552 0.34331074
0.59755793 0.51491629 0.35190202
0.62144861 0.52187441 0.36207685
0.64600303 0.53037670 0.37391780
0.67110581 0.54059881 0.38746320
0.69666262 0.55267780 0.40270807
0.72259736 0.56669779 0.41961038
0.74884917 0.58268195 0.43810073
0.77536965 0.60059297 0.45809302
0.80212045 0.62034155 0.47949424
0.82907125 0.64180031 0.50221220
0.85619806 0.66481983 0.52616085
0.43022588 0.51653060 0.33112694
0.43024526 0.51653143 0.33112856
0.43031643 0.51653447 0.33113454
0.43047249 0.51654114 0.33114767
0.43075904 0.51655342 0.33117183
0.43123728 0.51657400 0.33121231
0.43198786 0.51660651 0.33127623
0.43311493 0.51665583 0.33137315
0.43474982 0.51672844 0.33151572
0.43705342 0.51683294 0.33172065
0.44021577 0.51698065 0.33200984
0.44445119 0.51718646 0.33241181
0.44998735 0.51746981 0.33296340
0.45704768 0.51785602 0.33371184
0.46582868 0.51837785 0.33471710
0.47647610 0.51907755 0.33605433
0.48906588 0.52000913 0.33781631
0.50359523 0.52124111 0.34011540
0.51998646 0.52285950 0.34308440
0.53810163 0.52497068 0.34687547
0.55776344 0.52770394 0.35165634
0.57877679 0.53121280 0.35760308
0.60094677 0.53567408 0.36488948
0.62409125 0.54128375 0.37367397
0.64804804 0.54824839 0.38408614
0.67267776 0.55677201 0.39621579
0.69786370 0.56703910 0.41010674
0.72350999 0.57919639 0.42575705
0.74953896 0.59333705 0.44312486
0.77588831 0.60949130 0.46213828
0.80250840 0.62762563 0.48270662
0.82935987 0.64765084 0.50473096
0.85641157 0.66943628 0.52811266
0.45466685 0.54285225 0.35226703
0.45468160 0.54285287 0.35226828
0.45473578 0.54285516 0.35227290
0.45485461 0.54286019 0.35228302
0.45507293 0.54286945 0.35230166
0.45543771 0.54288497 0.35233289
0.45601119 0.54290949 0.35238222
0.45687458 0.54294668 0.35245702
0.45813174 0.54300146 0.35256710
0.45991253 0.54308030 0.35272541
0.46237482 0.54319180 0.35294899
0.46570388 0.54334722 0.35326009
0.47010753 0.54356133 0.35368761
0.47580573 0.54385343 0.35426885
0.48301410 0.54424859 0.35505159
0.49192263 0.54477929 0.35609645
0.50267341 0.54548741 0.35747944
0.51534246 0.54642654 0.35929453
0.52993074 0.54766480 0.36165570
0.54636686 0.54928783 0.36469807
0.56452014 0.55140195 0.36857701
0.58421998 0.55413680 0.37346464
0.60527640 0.55764700 0.37954270
0.62749765 0.56211168 0.38699192
0.65070295 0.56773061 0.39597851
0.67473011 0.57471604 0.40664002
0.69943883 0.58327948 0.41907326
0.72471100 0.59361432 0.43332722
0.75044916 0.60587659 0.44940241
0.77657412 0.62016788 0.46725650
0.80302220 0.63652439 0.48681440
0.82974259 0.65491521 0.50798021
0.85669496 0.67524997 0.53064852
0.47939643 0.56924268 0.37393945
0.47940767 0.56924315 0.37394042
0.47944894 0.56924488 0.37394398
0.47953948 0.56924867 0.37395179
0.47970591 0.56925566 0.37396617
0.47998420 0.56926738 0.37399027
0.48042228 0.56928589 0.37402834
0.48108310 0.56931398 0.37408608
0.48204805 0.56935534 0.37417107
0.48342046 0.56941489 0.37429336
0.48532863 0.56949912 0.37446615
0.48792761 0.56961658 0.37470677
0.49139848 0.56977847 0.37503781
0.49594357 0.56999948 0.37548855
0.50177662 0.57029873 0.37609675
0.50910712 0.57070113 0.37691077
0.51812031 0.57123891 0.37799197
0.52895600 0.57195368 0.37941737
0.54169100 0.57289875 0.38128231
0.55633003 0.57414203 0.38370273
0.57280740 0.57576912 0.38681642
0.59099870 0.57788659 0.39078246
0.61073895 0.58062491 0.39577786
0.63184227 0.58414038 0.40199062
0.65411929 0.58861501 0.40960886
0.67739002 0.59425307 0.41880695
0.70149189 0.60127305 0.42973051
0.72628343 0.60989439 0.44248329
0.75164502 0.62031954 0.45711904
0.77747762 0.63271366 0.47364013
0.80370050 0.64718607 0.49200299
0.83024864 0.66377795 0.51212857
0.85707014 0.68245964 0.53391494
0.50440581 0.59569911 0.39613560
0.50441437 0.59569947 0.39613635
0.50444582 0.59570078 0.39613909
0.50451481 0.59570364 0.39614512
0.50464169 0.59570892 0.39615621
0.50485396 0.59571777 0.39617480
0.50518843 0.59573176 0.39620417
0.50569371 0.59575298 0.39624872
0.50643313 0.59578423 0.39631432
0.50748800 0.59582922 0.39640873
0.50896093 0.59589288 0.39654218
0.51097864 0.59598168 0.39672814
0.51369360 0.59610411 0.39698417
0.51728321 0.59627133 0.39733317
0.52194527 0.59649791 0.39780481
0.52788853 0.59680286 0.39843733
0.53531785 0.59721091 0.39927968
0.54441515 0.59775412 0.40039406
0.55531911 0.59847390 0.40185862
0.56810801 0.59942343 0.40377029
0.58279034 0.60067060 0.40624723
0.59930561 0.60230119 0.40943031
0.61753489 0.60442240 0.41348278
0.63731785 0.60716597 0.41858714
0.65847184 0.61069041 0.42493819
0.68080910 0.61518129 0.43273202
0.70414990 0.62084803 0.44215159
