src/ffmpeg_scripts/luts/sRGB-rec2020_-1p67.cube
TITLE "sRGB-rec2020_-1p67"
LUT_3D_SIZE 33
# PQ (EOTF Only)/sRGB -> PQ (EOTF Only)/Rec2020, CineEI Shift -1.67, Black Level 0.00% IRE, Input 100% -> Output 109% - Created with LUTCalc v4.01 by Ben Turley October 2020
0.06256172 0.06256172 0.06256172
0.07442507 0.06607157 0.06408040
0.08832419 0.07087954 0.06628527
0.10349188 0.07671366 0.06911113
0.11965138 0.08346093 0.07253357
0.13664749 0.09105747 0.07654525
0.15437797 0.09946167 0.08114647
0.17276924 0.10864423 0.08634174
0.19176523 0.11858347 0.09213806
0.21132148 0.12926282 0.09854412
0.23140166 0.14066929 0.10556976
0.25197543 0.15279257 0.11322564
0.27301695 0.16562434 0.12152309
0.29450391 0.17915783 0.13047391
0.31641679 0.19338753 0.14009028
0.33873834 0.20830895 0.15038472
0.36145319 0.22391840 0.16137003
0.38454751 0.24021290 0.17305921
0.40800882 0.25719004 0.18546549
0.43182574 0.27484789 0.19860225
0.45598786 0.29318497 0.21248305
0.48048561 0.31220015 0.22712159
0.50531018 0.33189261 0.24253169
0.53045338 0.35226181 0.25872730
0.55590760 0.37330747 0.27572249
0.58166575 0.39502951 0.29353144
0.60772118 0.41742805 0.31216842
0.63406768 0.44050337 0.33164783
0.66069937 0.46425592 0.35198413
0.68761075 0.48868628 0.37319190
0.71479660 0.51379515 0.39528582
0.74225198 0.53958335 0.41828063
0.76997221 0.56605180 0.44219119
0.07096801 0.07703630 0.06659245
0.07733416 0.07758536 0.06700339
0.08966554 0.07944011 0.06830053
0.10423166 0.08287750 0.07050661
0.12010136 0.08787083 0.07352363
0.13693824 0.09423563 0.07726545
0.15457365 0.10178011 0.08168142
0.17290484 0.11035699 0.08674569
0.19186127 0.11986335 0.09244705
0.21139065 0.13022865 0.09878286
0.23145215 0.14140414 0.10575568
0.25201267 0.15335546 0.11337134
0.27304465 0.16605788 0.12163781
0.29452465 0.17949322 0.13056456
0.31643240 0.19364790 0.14016211
0.33875015 0.20851161 0.15044176
0.36146215 0.22407646 0.16141537
0.38455433 0.24033633 0.17309529
0.40801402 0.25728649 0.18549420
0.43182970 0.27492329 0.19862509
0.45599088 0.29324389 0.21250121
0.48048793 0.31224616 0.22713600
0.50531195 0.33192850 0.24254312
0.53045473 0.35228977 0.25873634
0.55590863 0.37332920 0.27572963
0.58166653 0.39504636 0.29353705
0.60772177 0.41744108 0.31217283
0.63406812 0.44051342 0.33165127
0.66069971 0.46426364 0.35198681
0.68761101 0.48869218 0.37319399
0.71479679 0.51379965 0.39528743
0.74225212 0.53958676 0.41828187
0.76997231 0.56605437 0.44219213
0.08135679 0.09342180 0.07204070
0.08481560 0.09365182 0.07224151
0.09399556 0.09447831 0.07294724
0.10679927 0.09620018 0.07435258
0.12170757 0.09909258 0.07657416
0.13798935 0.10333370 0.07963747
0.15528564 0.10897532 0.08351470
0.17339998 0.11596780 0.08816382
0.19221270 0.12420959 0.09354820
0.21164410 0.13358818 0.09964188
0.23163727 0.14400199 0.10642889
0.25214928 0.15536757 0.11390109
0.27314630 0.16761956 0.12205612
0.29460079 0.18070787 0.13089581
0.31648974 0.19459444 0.14042498
0.33879352 0.20925039 0.15065069
0.36149506 0.22465376 0.16158161
0.38457937 0.24078781 0.17322761
0.40803310 0.25763970 0.18559953
0.43184427 0.27519960 0.19870891
0.45600201 0.29345995 0.21256785
0.48049642 0.31241495 0.22718892
0.50531843 0.33206021 0.24258507
0.53045967 0.35239237 0.25876953
0.55591240 0.37340897 0.27575583
0.58166939 0.39510823 0.29355768
0.60772395 0.41748894 0.31218902
0.63406977 0.44055032 0.33166393
0.66070095 0.46429199 0.35199668
0.68761194 0.48871388 0.37320164
0.71479749 0.51381617 0.39529333
0.74225264 0.53959929 0.41828641
0.76997270 0.56606382 0.44219560
0.09307509 0.11094562 0.07858267
0.09511516 0.11106836 0.07870143
0.10145052 0.11151524 0.07912978
0.11177690 0.11247519 0.08003017
0.12500451 0.11417184 0.08156531
0.14020944 0.11683599 0.08386262
0.15681256 0.12066796 0.08699372
0.17447105 0.12580254 0.09097798
0.19297679 0.13229343 0.09580155
0.21219691 0.14012236 0.10143704
0.23204190 0.14922352 0.10785613
0.25244827 0.15950950 0.11503542
0.27336897 0.17089025 0.12295807
0.29476769 0.18328372 0.13161353
0.31661549 0.19661998 0.14099654
0.33888865 0.21084180 0.15110612
0.36156727 0.22590337 0.16194462
0.38463432 0.24176854 0.17351697
0.40807499 0.25840898 0.18583010
0.43187624 0.27580258 0.19889251
0.45602643 0.29393213 0.21271390
0.48051507 0.31278426 0.22730494
0.50533267 0.33234861 0.24267708
0.53047054 0.35261719 0.25884235
0.55592067 0.37358384 0.27581332
0.58167569 0.39524392 0.29360294
0.60772873 0.41759391 0.31222454
0.63407339 0.44063127 0.33169172
0.66070368 0.46435419 0.35201832
0.68761399 0.48876149 0.37321843
0.71479903 0.51385245 0.39530630
0.74225379 0.53962680 0.41829637
0.76997355 0.56608457 0.44220321
0.10587390 0.12933909 0.08608472
0.10716180 0.12941236 0.08616157
0.11147795 0.12968033 0.08644134
0.11933194 0.13026232 0.08704208
0.13041180 0.13131176 0.08810332
0.14401951 0.13301132 0.08976939
0.15950289 0.13556017 0.09216771
0.17638790 0.13915195 0.09539007
0.19435738 0.14394817 0.09948558
0.21320179 0.15005613 0.10446668
0.23278027 0.15751998 0.11032195
0.25299530 0.16632690 0.11702888
0.27377708 0.17642329 0.12456285
0.29507394 0.18773344 0.13290200
0.31684642 0.20017477 0.14202931
0.33906347 0.21366800 0.15193297
0.36170002 0.22814235 0.16260598
0.38473537 0.24353748 0.17404549
0.40815205 0.25980345 0.18625205
0.43193506 0.27689969 0.19922898
0.45607136 0.29479368 0.21298185
0.48054939 0.31345953 0.22751798
0.50535888 0.33287681 0.24284612
0.53049053 0.35302943 0.25897620
0.55593590 0.37390480 0.27591903
0.58168727 0.39549312 0.29368619
0.60773752 0.41778682 0.31228990
0.63408004 0.44078010 0.33174284
0.66070870 0.46446859 0.35205816
0.68761777 0.48884906 0.37324934
0.71480185 0.51391919 0.39533017
0.74225590 0.53967740 0.41831470
0.76997512 0.56612274 0.44221722
0.11961073 0.14845377 0.09447036
0.12046424 0.14850048 0.09452279
0.12343724 0.14867166 0.09471441
0.12923738 0.14904523 0.09512991
0.13809706 0.14972503 0.09587688
0.14975332 0.15084246 0.09708100
0.16370587 0.15255534 0.09887573
0.17945483 0.15504094 0.10138687
0.19660027 0.15848213 0.10471659
0.21485053 0.16304783 0.10893325
0.23399967 0.16887254 0.11407026
0.25390267 0.17604130 0.12013281
0.27445605 0.18458505 0.12710792
0.29558453 0.19448669 0.13497396
0.31723200 0.20569415 0.14370741
0.33935566 0.21813536 0.15328693
0.36192208 0.23173090 0.16369524
0.38490449 0.24640303 0.17491973
0.40828105 0.26208086 0.18695226
0.43203357 0.27870262 0.19978872
0.45614662 0.29621619 0.21342840
0.48060689 0.31457850 0.22787350
0.50540279 0.33375446 0.24312853
0.53052403 0.35371583 0.25919998
0.55596143 0.37444005 0.27609587
0.58170669 0.39590921 0.29382553
0.60775225 0.41810921 0.31239932
0.63409120 0.44102901 0.33182846
0.66071712 0.46466001 0.35212488
0.68762410 0.48899566 0.37330112
0.71480660 0.51403094 0.39537016
0.74225943 0.53976217 0.41834543
0.76997774 0.56618669 0.44224069
0.13419035 0.16819294 0.10368896
0.13477609 0.16822404 0.10372599
0.13685921 0.16833814 0.10386159
0.14110034 0.16858774 0.10415708
0.14796827 0.16904406 0.10469325
0.15757532 0.16980001 0.10557052
0.16970583 0.17097265 0.10690612
0.18397492 0.17270333 0.10882676
0.19997850 0.17515373 0.11145680
0.21737056 0.17849671 0.11490476
0.23588213 0.18290178 0.11925224
0.25531299 0.18851757 0.12454917
0.27551636 0.19545558 0.13081592
0.29638450 0.20378004 0.13805028
0.31783751 0.21350654 0.14623603
0.33981530 0.22460896 0.15535048
0.36227180 0.23703132 0.16536987
0.38517107 0.25070055 0.17627271
0.40848454 0.26553753 0.18804138
0.43218903 0.28146482 0.20066265
0.45626543 0.29841141 0.21412764
0.48069769 0.31631494 0.22843141
0.50547214 0.33512227 0.24357246
0.53057696 0.35478912 0.25955219
0.55600176 0.37527910 0.27637448
0.58173737 0.39656274 0.29404521
0.60777554 0.41861632 0.31257193
0.63410882 0.44142096 0.33196358
0.66073042 0.46496171 0.35223023
0.68763410 0.48922686 0.37338288
0.71481409 0.51420728 0.39543332
0.74226502 0.53989598 0.41839396
0.76998188 0.56628766 0.44227778
0.14954348 0.18848758 0.11370423
0.14995598 0.18850894 0.11373103
0.15144044 0.18858734 0.11382926
0.15454297 0.18875908 0.11404391
0.15977456 0.18907386 0.11443546
0.16746185 0.18959760 0.11508167
0.17766362 0.19041558 0.11607834
0.19020117 0.19163494 0.11753742
0.20476373 0.19338543 0.11958137
0.22101215 0.19581738 0.12233376
0.23864089 0.19909530 0.12590759
0.25740034 0.20338696 0.13039434
0.27709661 0.20884861 0.13585717
0.29758264 0.21560932 0.14232990
0.31874761 0.22375827 0.14982109
0.34050788 0.23333861 0.15832119
0.36279973 0.24434903 0.16780997
0.38557404 0.25675177 0.17826281
0.40879243 0.27048394 0.18965507
0.43242442 0.28546908 0.20196480
0.45644543 0.30162666 0.21517400
0.48083531 0.31887889 0.22926905
0.50557729 0.33715472 0.24424064
0.53065721 0.35639174 0.26008336
0.55606293 0.37653673 0.27679527
0.58178390 0.39754515 0.29437736
0.60781086 0.41938034 0.31283314
0.63413556 0.44201251 0.33216819
0.66075060 0.46541765 0.35238983
0.68764928 0.48957661 0.37350681
0.71482545 0.51447425 0.39552907
0.74227349 0.54009868 0.41846756
0.76998817 0.56644069 0.44233402
0.16561682 0.20928549 0.12448878
0.16591307 0.20930050 0.12450852
0.16698678 0.20935561 0.12458094
0.16926790 0.20947643 0.12473944
0.17322115 0.20969821 0.12502947
0.17924926 0.21006816 0.12551065
0.18759489 0.21064832 0.12625883
0.19829125 0.21151842 0.12736690
0.21118782 0.21277839 0.12894347
0.22602470 0.21454960 0.13110846
0.24250923 0.21697385 0.13398530
0.26036690 0.22020903 0.13769067
0.27936445 0.22442057 0.14232396
0.29931421 0.22976909 0.14795932
0.32006959 0.23639581 0.15464241
0.34151762 0.24440892 0.16239213
0.36357149 0.25387436 0.17120607
0.38616429 0.26481328 0.18106753
0.40924408 0.27720630 0.19195210
0.43277009 0.29100262 0.20383295
0.45670997 0.30613110 0.21668436
0.48103767 0.32251075 0.23048387
0.50573198 0.34005909 0.24521324
0.53077532 0.35869783 0.26085871
0.55615297 0.37835622 0.27741083
0.58185242 0.39897247 0.29486408
0.60786287 0.42049401 0.31321640
0.63417494 0.44287695 0.33246870
0.66078032 0.46608521 0.35262441
0.68767163 0.49008947 0.37368906
0.71484220 0.51486616 0.39566996
0.74228598 0.54039650 0.41857588
0.76999744 0.56666568 0.44241683
0.18236777 0.23054552 0.13602116
0.18258381 0.23055625 0.13603590
0.18337025 0.23059568 0.13609001
0.18505866 0.23068215 0.13620855
0.18803914 0.23084103 0.13642588
0.19270778 0.23110648 0.13678764
0.19939307 0.23152381 0.13735306
0.20828558 0.23215210 0.13819683
0.21940591 0.23306696 0.13941010
0.23262520 0.23436296 0.14109947
0.24772030 0.23615520 0.14338354
0.26443307 0.23857909 0.14638623
0.28251338 0.24178731 0.15022762
0.30174163 0.24594314 0.15501384
0.32193591 0.25120995 0.16082851
0.34295052 0.25773784 0.16772784
0.36467086 0.26564986 0.17574046
0.38700748 0.27503092 0.18487123
0.40989061 0.28592206 0.19510756
0.43326569 0.29832147 0.20642601
0.45708969 0.31219108 0.21879821
0.48132841 0.32746667 0.23219522
0.50595436 0.34406859 0.24659039
0.53094519 0.36191133 0.26196093
0.55628253 0.38091061 0.27828859
0.58195103 0.40098811 0.29555977
0.60793775 0.42207396 0.31376522
0.63423164 0.44410773 0.33289964
0.66082312 0.46703832 0.35296116
0.68770382 0.49082327 0.37395091
0.71486631 0.51542783 0.39587250
0.74230397 0.54082387 0.41873169
0.77001078 0.56698886 0.44253598
0.19976131 0.25223426 0.14828417
0.19992076 0.25224205 0.14829529
0.20050284 0.25227065 0.14833614
0.20176112 0.25233338 0.14842569
0.20401018 0.25244872 0.14859007
0.20760129 0.25264162 0.14886429
0.21287802 0.25294537 0.14929433
0.22011703 0.25340382 0.14993933
0.22947519 0.25407378 0.15087346
0.24096693 0.25502770 0.15218689
0.25448038 0.25635612 0.15398527
0.26981993 0.25816942 0.15638676
0.28675390 0.26059817 0.15951636
0.30505157 0.26379108 0.16349750
0.32450478 0.26790973 0.16844243
0.34493674 0.27311951 0.17444320
0.36620277 0.27957745 0.18156560
0.38818700 0.28741867 0.18984737
0.41079770 0.29674402 0.19930057
0.43396253 0.30761214 0.20991697
0.45762448 0.32003756 0.22167463
0.48173837 0.33399490 0.23454410
0.50626823 0.34942759 0.24849359
0.53118513 0.36625851 0.26349245
0.55646561 0.38440026 0.27951343
0.58209043 0.40376354 0.29653377
0.60804364 0.42426314 0.31453556
0.63431184 0.44582153 0.33350571
0.66088368 0.46837059 0.35343550
0.68774937 0.49185206 0.37432018
0.71490044 0.51621712 0.39615840
0.74232942 0.54142549 0.41895177
0.77002967 0.56744442 0.44270436
0.21776798 0.27432394 0.16126369
0.21788679 0.27432965 0.16127215
0.21832135 0.27435062 0.16130325
0.21926505 0.27439663 0.16137144
0.22096628 0.27448126 0.16149671
0.22371979 0.27462289 0.16170599
0.22784438 0.27484615 0.16203494
0.23364358 0.27518367 0.16253000
0.24135706 0.27567810 0.16325052
0.25111916 0.27638452 0.16427055
0.26294157 0.27737296 0.16567996
0.27672599 0.27873087 0.16758418
0.29229810 0.28056510 0.17010170
0.30944698 0.28300258 0.17335909
0.32795752 0.28618912 0.17748329
0.34763113 0.29028510 0.18259231
0.36829550 0.29545773 0.18878597
0.38980690 0.30186986 0.19613894
0.41204841 0.30966673 0.20469752
0.43492625 0.31896298 0.21448079
0.45836575 0.32983285 0.22548498
0.48230760 0.34230589 0.23768987
0.50670460 0.35636894 0.25106530
0.53151904 0.37197331 0.26557681
0.55672059 0.38904503 0.28118991
0.58228470 0.40749555 0.29787289
0.60819126 0.42723123 0.31559841
0.63442369 0.44816044 0.33434420
0.66096814 0.47019831 0.35409314
0.68781292 0.49326922 0.37483298
0.71494806 0.51730782 0.39655592
0.74236493 0.54225891 0.41925807
0.77005603 0.56807669 0.44293889
0.23636256 0.29679100 0.17494799
0.23645178 0.29679522 0.17495448
0.23677851 0.29681074 0.17497830
0.23749027 0.29684478 0.17503055
0.23878095 0.29690742 0.17512661
0.24089020 0.29701229 0.17528722
0.24409477 0.29717772 0.17554007
0.24868682 0.29742809 0.17592150
0.25493922 0.29779546 0.17647853
0.26306475 0.29832158 0.17727092
0.27318231 0.29906015 0.17837298
0.28530273 0.30007937 0.17987480
0.29933885 0.30146437 0.18188215
0.31513317 0.30331931 0.18451452
0.33249129 0.30576851 0.18790054
0.35121088 0.30895571 0.19217086
0.37110127 0.31304074 0.19744912
0.39199396 0.31819265 0.20384254
0.41374605 0.32457951 0.21143412
0.43623966 0.33235546 0.22027834
0.45937912 0.34164728 0.23040099
0.48308760 0.35254322 0.24180278
0.50730361 0.36508662 0.25446533
0.53197801 0.37927584 0.26835786
0.55707143 0.39506995 0.28344338
0.58255220 0.41239829 0.29968360
0.60839465 0.43117159 0.31704231
0.63457786 0.45129221 0.33548751
0.66108460 0.47266245 0.35499242
0.68790057 0.49519026 0.37553577
0.71501375 0.51879267 0.39710166
0.74241394 0.54339728 0.41967914
0.77009241 0.56894255 0.44326162
0.25552318 0.31961521 0.18932720
0.25559059 0.31961835 0.18933219
0.25583766 0.31962991 0.18935053
0.25637707 0.31965528 0.18939078
0.25735928 0.31970196 0.18946478
0.25897545 0.31978015 0.18958860
0.26145644 0.31990355 0.18978375
0.26506322 0.32009045 0.19007861
0.27006633 0.32036499 0.19051026
0.27671499 0.32075882 0.19112638
0.28520216 0.32131296 0.19198732
0.29563597 0.32208007 0.19316797
0.30802758 0.32312694 0.19475904
0.32229904 0.32453696 0.19686720
0.33830644 0.32641237 0.19961344
0.35586877 0.32887564 0.20312893
0.37479411 0.33206927 0.20754830
0.39489842 0.33615305 0.21300088
0.41601630 0.34129816 0.21960105
0.43800550 0.34767759 0.22743982
0.46074718 0.35545363 0.23657949
0.48414391 0.36476406 0.24705234
0.50811675 0.37570985 0.25886343
0.53260220 0.38834703 0.27199619
0.55754923 0.40268473 0.28641924
0.58291689 0.41868932 0.30209305
0.60867216 0.43629342 0.31897546
0.63478834 0.45540705 0.33702570
0.66124368 0.47592874 0.35620695
0.68802033 0.49775480 0.37648778
0.71510353 0.52078611 0.39784266
0.74248093 0.54493238 0.42025188
0.77014214 0.57011421 0.44370122
0.27523060 0.34277892 0.20439290
0.27528179 0.34278128 0.20439676
0.27546950 0.34278994 0.20441094
0.27587994 0.34280895 0.20444205
0.27662950 0.34284394 0.20449928
0.27786894 0.34290256 0.20459509
0.27978604 0.34299510 0.20474619
0.28260338 0.34313535 0.20497477
0.28656840 0.34334152 0.20530996
0.29193413 0.34363762 0.20578957
0.29893149 0.34405491 0.20646203
0.30773866 0.34463389 0.20738845
0.31845626 0.34542644 0.20864456
0.33109649 0.34649827 0.21032206
0.34558922 0.34793155 0.21252899
0.36180162 0.34982718 0.21538829
0.37956365 0.35230647 0.21903414
0.39869195 0.35551132 0.22360550
0.41900790 0.35960212 0.22923748
0.44034863 0.36475249 0.23605159
0.46257228 0.37114033 0.24414666
0.48555897 0.37893562 0.25359252
0.50920955 0.38828639 0.26442775
0.53344310 0.39930534 0.27666157
0.55819413 0.41206024 0.29027909
0.58340982 0.42657015 0.30524822
0.60904767 0.44280824 0.32152677
0.63507339 0.46071001 0.33906857
0.66145926 0.48018460 0.35782809
0.68818271 0.50112657 0.37776356
0.71522530 0.52342620 0.39883874
0.74257182 0.54697727 0.42102364
0.77020962 0.57168211 0.44429468
0.29546778 0.36626661 0.22013788
0.29550679 0.36626838 0.22014088
0.29564994 0.36627490 0.22015187
0.29596327 0.36628922 0.22017600
0.29653667 0.36631556 0.22022039
0.29748821 0.36635971 0.22029472
0.29896818 0.36642942 0.22041202
0.30116072 0.36653510 0.22058961
0.30428090 0.36669055 0.22085035
0.30856475 0.36691398 0.22122409
0.31425117 0.36722924 0.22174941
0.32155684 0.36766735 0.22247557
0.33064894 0.36826838 0.22346460
0.34162291 0.36908364 0.22479329
0.35449244 0.37017811 0.22655466
0.36919410 0.37163310 0.22885850
0.38560431 0.37354871 0.23183022
0.40356203 0.37604564 0.23560741
0.42289094 0.37926586 0.24033371
0.44341680 0.38337090 0.24615030
0.46497870 0.38853723 0.25318583
0.48743486 0.39494782 0.26154687
0.51066432 0.40278017 0.27131063
0.53456618 0.41219202 0.28252174
0.55905757 0.42330713 0.29519337
0.58407107 0.43620415 0.30931209
0.60955214 0.45091131 0.32484491
0.63545677 0.46740786 0.34174673
0.66174944 0.48563164 0.35996713
0.68840142 0.50549051 0.37945561
0.71538940 0.52687473 0.40016522
0.74269435 0.54966829 0.42205469
0.77030063 0.57375770 0.44508947
0.31621943 0.39006447 0.23655593
0.31624926 0.39006581 0.23655826
0.31635873 0.39007074 0.23656680
0.31659854 0.39008156 0.23658555
0.31703807 0.39010147 0.23662006
0.31776933 0.39013483 0.23667785
0.31891132 0.39018752 0.23676908
0.32061337 0.39026743 0.23690729
0.32305607 0.39038502 0.23711039
0.32644784 0.39055412 0.23740189
0.33101514 0.39079292 0.23781234
0.33698556 0.39112517 0.23838112
0.34456476 0.39158171 0.23915842
0.35391171 0.39220231 0.24020732
0.36511844 0.39303787 0.24160588
0.37820043 0.39415292 0.24344875
0.39310013 0.39562826 0.24584785
0.40970171 0.39756360 0.24893147
0.42785156 0.40007962 0.25284108
0.44737913 0.40331886 0.25772542
0.46811364 0.40744460 0.26373197
0.48989561 0.41263661 0.27099676
0.51258302 0.41908319 0.27963407
0.53605368 0.42696942 0.28972839
0.56020494 0.43646248 0.30133019
0.58495199 0.44769663 0.31445635
0.61022550 0.46076074 0.32909461
0.63596926 0.47569139 0.34521072
0.66213779 0.49247317 0.36275638
0.68869438 0.51104555 0.38167658
0.71560936 0.53131443 0.40191554
0.74285867 0.55316528 0.42342085
0.77042272 0.57647544 0.44614604
0.33747180 0.41416016 0.25364165
0.33749465 0.41416118 0.25364346
0.33757855 0.41416491 0.25365011
0.33776245 0.41417311 0.25366471
0.33809987 0.41418819 0.25369157
0.33866231 0.41421348 0.25373656
0.33954330 0.41425342 0.25380761
0.34086225 0.41431399 0.25391530
0.34276728 0.41440316 0.25407365
0.34543564 0.41453144 0.25430112
0.34906996 0.41471272 0.25462186
0.35388886 0.41496514 0.25506713
0.36011086 0.41531239 0.25567716
0.36793317 0.41578519 0.25650310
0.37750875 0.41642311 0.25760923
0.38892757 0.41727683 0.25907509
0.40220716 0.41841061 0.26099722
0.41729518 0.41990507 0.26349006
0.43408231 0.42185994 0.26668520
0.45242118 0.42439631 0.27072843
0.47214582 0.42765790 0.27577403
0.49308817 0.43181025 0.28197619
0.51508959 0.43703694 0.28947849
0.53800756 0.44353204 0.29840307
0.56171849 0.45148831 0.30884163
0.58611790 0.46108235 0.32085030
0.61111900 0.47245855 0.33444936
0.63665064 0.48571538 0.34962735
0.66265491 0.50089706 0.36634836
0.68908494 0.51799259 0.38456042
0.71590286 0.53694222 0.40420355
0.74307807 0.55764911 0.42521630
0.77058583 0.57999322 0.44754050
0.35921237 0.43854253 0.27139035
0.35922991 0.43854330 0.27139176
0.35929431 0.43854613 0.27139694
0.35943552 0.43855236 0.27140831
0.35969482 0.43856381 0.27142924
0.36012766 0.43858301 0.27146430
0.36080715 0.43861334 0.27151968
0.36182784 0.43865935 0.27160363
0.36330921 0.43872709 0.27172715
0.36539807 0.43882458 0.27190471
0.36826862 0.43896240 0.27215531
0.37211861 0.43915444 0.27250369
0.37716019 0.43941884 0.27298186
0.38360482 0.43977926 0.27363090
0.39164327 0.44026633 0.27450302
0.40142431 0.44091954 0.27566382
0.41303686 0.44178945 0.27719450
0.42650075 0.44294028 0.27919379
0.44176828 0.44445276 0.28177896
0.45873576 0.44642696 0.28508533
0.47726088 0.44898487 0.28926352
0.49718139 0.45227188 0.29447381
0.51833116 0.45645637 0.30087751
0.54055190 0.46172630 0.30862611
0.56370025 0.46828194 0.31784974
0.58765104 0.47632410 0.32864731
0.61229787 0.48603882 0.34108045
0.63755198 0.49758042 0.35517248
0.66334034 0.51105649 0.37091231
0.68960341 0.52651806 0.38826183
0.71629294 0.54395766 0.40716487
0.74336994 0.56331525 0.42755596
0.77080295 0.58449025 0.44936756
0.38142974 0.46320146 0.28979791
0.38144321 0.46320204 0.28979901
0.38149269 0.46320420 0.28980305
0.38160120 0.46320893 0.28981191
0.38180060 0.46321764 0.28982822
0.38213377 0.46323224 0.28985555
0.38265767 0.46325530 0.28989873
0.38344662 0.46329030 0.28996420
0.38459582 0.46334182 0.29006055
0.38622460 0.46341600 0.29019913
0.38847843 0.46352090 0.29039485
0.39152884 0.46366712 0.29066723
0.39556950 0.46386858 0.29104160
0.40080740 0.46414343 0.29155071
0.40744849 0.46451530 0.29223653
0.41567889 0.46501481 0.29315239
0.42564457 0.46568141 0.29436534
0.43743433 0.46656572 0.29595843
0.45107046 0.46773208 0.29803283
0.46650952 0.46926155 0.30070901
0.48365261 0.47125493 0.30412646
0.50236162 0.47383551 0.30844111
0.52247713 0.47715085 0.31381974
0.54383428 0.48137276 0.32043130
0.56627463 0.48669419 0.32843556
0.58965365 0.49332217 0.33797088
0.61384440 0.50146597 0.34914344
0.63873843 0.51132127 0.36202015
0.66424494 0.52305226 0.37662702
0.69028905 0.53677514 0.39295276
0.71680959 0.55254699 0.41095644
0.74375697 0.57036280 0.43057706
0.77109114 0.59016108 0.45174303
0.40411344 0.48812772 0.30886076
0.40412379 0.48812817 0.30886162
0.40416182 0.48812981 0.30886476
0.40424523 0.48813341 0.30887167
0.40439858 0.48814004 0.30888438
0.40465501 0.48815115 0.30890568
0.40505872 0.48816870 0.30893933
0.40566782 0.48819534 0.30899037
0.40655751 0.48823456 0.30906551
0.40782338 0.48829103 0.30917361
0.40958442 0.48837091 0.30932638
0.41198487 0.48848230 0.30953913
0.41519394 0.48863584 0.30983186
0.41940196 0.48884546 0.31023051
0.42481189 0.48912931 0.31076856
0.43162560 0.48951103 0.31148891
0.44002594 0.49002126 0.31244609
0.45015734 0.49069952 0.31370869
0.46210925 0.49159656 0.31536182
0.47590658 0.49277702 0.31750935
0.49150983 0.49432255 0.32027529
0.50882425 0.49633498 0.32380376
0.52771513 0.49893931 0.32825651
0.54802512 0.50228580 0.33380742
0.56958998 0.50655028 0.34063359
0.59225065 0.51193135 0.34890355
0.61586107 0.51864342 0.35876420
0.64029231 0.52690477 0.37032902
0.66543374 0.53692105 0.38367004
0.69119248 0.54886626 0.39881549
0.71749176 0.56286481 0.41575326
0.74426880 0.57897903 0.43443885
0.77147269 0.59720515 0.45480566
0.42725382 0.51331287 0.32857574
0.42726177 0.51331321 0.32857641
0.42729099 0.51331446 0.32857886
0.42735511 0.51331720 0.32858424
0.42747300 0.51332225 0.32859414
0.42767026 0.51333071 0.32861073
0.42798111 0.51334407 0.32863694
0.42845077 0.51336434 0.32867670
0.42913820 0.51339421 0.32873525
0.43011920 0.51343721 0.32881951
0.43148955 0.51349804 0.32893863
0.43336782 0.51358290 0.32910461
0.43589713 0.51369990 0.32933318
0.43924471 0.51385971 0.32964478
0.44359826 0.51407627 0.33006594
0.44915770 0.51436775 0.33063090
0.45612201 0.51475782 0.33138351
0.46467207 0.51527717 0.33237956
0.47495179 0.51596544 0.33368933
0.48705193 0.51687363 0.33540014
0.50100025 0.51806687 0.33761884
0.51676093 0.51962758 0.34047336
0.53424280 0.52165896 0.34411288
0.55331385 0.52428812 0.34870556
0.57381813 0.52766855 0.35443298
0.59559140 0.53198073 0.36148103
0.61847348 0.53742958 0.37002751
