src/ffmpeg_scripts/luts/sRGB-rec2020_0p33.cube
TITLE "sRGB-rec2020_0p33"
LUT_3D_SIZE 5
# PQ (EOTF Only)/sRGB -> PQ (EOTF Only)/Rec2020, CineEI Shift 0.33, Black Level 0.00% IRE, Input 100% -> Output 109% - Created with LUTCalc v4.01 by Ben Turley October 2020
0.06256172 0.06256172 0.06256172
0.26261845 0.15922968 0.11736414
0.47078962 0.30462386 0.22126004
0.68286837 0.48435020 0.36940670
0.89769812 0.69342315 0.56134681
0.22715163 0.28570303 0.16813499
0.28818046 0.29024774 0.17476839
0.47322011 0.34246781 0.23484609
0.68312418 0.49009605 0.37146733
0.89772258 0.69406052 0.56159439
0.41807843 0.50335502 0.32072683
0.42614987 0.50371675 0.32142858
0.50677804 0.50962423 0.33243654
0.68734485 0.55505170 0.40036021
0.89813480 0.70422479 0.56568203
0.62318095 0.71853170 0.50509573
0.62409425 0.71856848 0.50518007
0.63832613 0.71918781 0.50659360
0.72223113 0.72530029 0.51993831
0.90224447 0.77154773 0.59967174
0.83880426 0.91886608 0.71600615
0.83889473 0.91886608 0.71601512
0.84040989 0.91886608 0.71616647
0.85460040 0.91886608 0.71770126
0.91886608 0.91886608 0.73196152
0.14362497 0.10942692 0.28406131
0.26654044 0.16476570 0.28518903
0.47111305 0.30522198 0.30206123
0.68290206 0.48442344 0.38834903
0.89770134 0.69343105 0.56383611
0.23361075 0.28646958 0.28992609
0.29096941 0.29096941 0.29096941
0.47353504 0.34283972 0.30672556
0.68315777 0.49016485 0.39000225
0.89772579 0.69406837 0.56407722
0.41866002 0.50341460 0.35218811
0.42668080 0.50377610 0.35266439
0.50699672 0.50967991 0.36032364
0.68737698 0.55508592 0.41400997
0.89813800 0.70423184 0.56806057
0.62324428 0.71853774 0.50959457
0.62415697 0.71857452 0.50967490
0.63838010 0.71919382 0.51102191
0.72225330 0.72530591 0.52378562
0.90224752 0.77155116 0.60133679
0.83881050 0.91886608 0.71649473
0.83890097 0.91886608 0.71650365
0.84041602 0.91886608 0.71665421
0.85460564 0.91886608 0.71818111
0.91886608 0.91886608 0.73237372
0.27520410 0.20349922 0.50107933
0.31293107 0.21756234 0.50116741
0.47641138 0.31468793 0.50264317
0.68346948 0.48565224 0.51652756
0.89775568 0.69356447 0.59822862
0.29730036 0.29836423 0.50155129
0.32719343 0.30222685 0.50163893
0.47869840 0.34888089 0.50310723
0.68372366 0.49131961 0.51692716
0.89778012 0.69420089 0.59839609
0.42794843 0.50441557 0.50918200
0.43520265 0.50477318 0.50926269
0.51061567 0.51061567 0.51061567
0.68791817 0.55566219 0.52343165
0.89819208 0.70435080 0.60118194
0.62430810 0.71863990 0.56417329
0.62521063 0.71867664 0.56421808
0.63928739 0.71929527 0.56497171
0.72262704 0.72540096 0.57235464
0.90229911 0.77160899 0.62577579
0.83891603 0.91886608 0.72438709
0.83900639 0.91886608 0.72439528
0.84051968 0.91886608 0.72453370
0.85469413 0.91886608 0.72593836
0.91886608 0.91886608 0.73907708
0.44535110 0.34284912 0.71606720
0.45136408 0.34507477 0.71607616
0.51804635 0.37573199 0.71622741
0.68908720 0.49736241 0.71776122
0.89830984 0.69491892 0.73201300
0.44855702 0.36845377 0.71611530
0.45436613 0.37009405 0.71612425
0.51950869 0.39387755 0.71627543
0.68932670 0.50237080 0.71780845
0.89833413 0.69554628 0.73205357
0.49042433 0.51407970 0.71692427
0.49413512 0.51440193 0.71693315
0.54127246 0.51968414 0.71708303
0.69328410 0.56136400 0.71860302
0.89874349 0.70555947 0.73273639
0.63455655 0.71967885 0.72482382
0.63536683 0.71971519 0.72483198
0.64810274 0.72032702 0.72496975
0.72636793 0.72636793 0.72636793
0.90282521 0.77219872 0.73945043
0.83998869 0.91886608 0.78075601
0.84007798 0.91886608 0.78076048
0.84157351 0.91886608 0.78083599
0.85559462 0.91886608 0.78160505
0.91886608 0.91886608 0.78904527
0.65001380 0.52882153 0.91886608
0.65070237 0.52909659 0.91886608
0.66163760 0.53362580 0.91886608
0.73250213 0.57053252 0.91886608
0.90372731 0.70762713 0.91886608
0.65037581 0.53241724 0.91886608
0.65106175 0.53268191 0.91886608
0.66195780 0.53704436 0.91886608
0.73265302 0.57285269 0.91886608
0.90375013 0.70817542 0.91886608
0.65629209 0.57854537 0.91886608
0.65693658 0.57870735 0.91886608
0.66721040 0.58140306 0.91886608
0.73516649 0.60529817 0.91886608
0.90413487 0.71698649 0.91886608
0.70192852 0.72958974 0.91886608
0.70232632 0.72962243 0.91886608
0.70880544 0.73017300 0.91886608
0.75760974 0.73562773 0.91886608
0.90797672 0.77796300 0.91886608
0.85017750 0.91886608 0.91886608
0.85025722 0.91886608 0.91886608
0.85159358 0.91886608 0.91886608
0.86422844 0.91886608 0.91886608
0.91886608 0.91886608 0.91886608
