src/ffmpeg_scripts/luts/sRGB-rec2020_-1p00.cube
TITLE "sRGB-rec2020_-1p00"
LUT_3D_SIZE 33
# PQ (EOTF Only)/sRGB -> PQ (EOTF Only)/Rec2020, CineEI Shift -1.00, Black Level 0.00% IRE, Input 100% -> Output 109% - Created with LUTCalc v4.01 by Ben Turley October 2020
0.06256172 0.06256172 0.06256172
0.07764216 0.06712929 0.06455356
0.09458732 0.07322340 0.06740346
0.11263274 0.08046923 0.07099804
0.13151467 0.08871342 0.07529129
0.15108788 0.09786761 0.08026178
0.17125797 0.10787284 0.08589912
0.19195771 0.11868643 0.09219897
0.21313633 0.13027579 0.09916065
0.23475388 0.14261515 0.10678591
0.25677795 0.15568354 0.11507819
0.27918161 0.16946355 0.12404213
0.30194209 0.18394047 0.13368327
0.32503982 0.19910174 0.14400786
0.34845774 0.21493646 0.15502268
0.37218089 0.23143514 0.16673496
0.39619594 0.24858943 0.17915227
0.42049099 0.26639191 0.19228247
0.44505530 0.28483600 0.20613366
0.46987914 0.30391579 0.22071417
0.49495364 0.32362597 0.23603247
0.52027066 0.34396175 0.25209721
0.54582274 0.36491880 0.26891714
0.57160294 0.38649317 0.28650115
0.59760488 0.40868128 0.30485822
0.62382257 0.43147987 0.32399742
0.65025047 0.45488594 0.34392791
0.67688335 0.47889675 0.36465891
0.70371636 0.50350981 0.38619973
0.73074488 0.52872281 0.40855971
0.75796459 0.55453364 0.43174828
0.78537140 0.58094036 0.45577490
0.81296146 0.60794117 0.48064908
0.07333432 0.08086638 0.06779693
0.08123275 0.08154152 0.06832216
0.09619888 0.08381551 0.06997226
0.11350404 0.08800521 0.07275543
0.13203635 0.09404184 0.07652352
0.15142054 0.10166481 0.08114826
0.17147933 0.11061382 0.08655078
0.19210958 0.12069153 0.09268628
0.21324293 0.13176043 0.09953001
0.23483004 0.14372593 0.10706885
0.25683311 0.15652188 0.11529674
0.27922202 0.17010085 0.12421205
0.30197196 0.18442781 0.13381607
0.32506205 0.19947618 0.14411206
0.34847439 0.21522525 0.15510469
0.37219341 0.23165853 0.16679964
0.39620539 0.24876261 0.17920336
0.42049814 0.26652638 0.19232287
0.44506072 0.28494051 0.20616562
0.46988326 0.30399705 0.22073945
0.49495677 0.32368914 0.23605245
0.52027305 0.34401084 0.25211298
0.54582455 0.36495690 0.26892958
0.57160432 0.38652271 0.28651094
0.59760592 0.40870414 0.30486590
0.62382336 0.43149752 0.32400344
0.65025107 0.45489953 0.34393261
0.67688381 0.47890719 0.36466257
0.70371670 0.50351780 0.38620257
0.73074513 0.52872890 0.40856191
0.75796478 0.55453826 0.43174997
0.78537155 0.58094384 0.45577619
0.81296156 0.60794379 0.48065006
0.08615541 0.10069411 0.07467635
0.09035475 0.10096859 0.07492703
0.10137858 0.10195405 0.07580662
0.11652259 0.10400352 0.07755232
0.13389683 0.10743577 0.08029740
0.15262262 0.11244635 0.08405690
0.17228456 0.11907430 0.08877864
0.19266405 0.12723638 0.09439440
0.21363298 0.13678991 0.10084495
0.23510906 0.14758337 0.10808617
0.25703541 0.15948232 0.11608767
0.27937027 0.17237719 0.12482970
0.30208156 0.18618231 0.13430022
0.32514365 0.20083171 0.14449273
0.34853549 0.21627483 0.15540473
0.37223937 0.23247271 0.16703656
0.39624010 0.24939508 0.17939066
0.42052442 0.26701819 0.19247105
0.44508066 0.28532315 0.20628287
0.46989841 0.30429480 0.22083221
0.49496829 0.32392077 0.23612579
0.52028181 0.34419091 0.25217090
0.54583121 0.36509673 0.26897524
0.57160939 0.38663113 0.28654688
0.59760977 0.40878805 0.30489413
0.62382628 0.43156231 0.32402555
0.65025327 0.45494943 0.34394988
0.67688547 0.47894550 0.36467601
0.70371795 0.50354711 0.38621299
0.73074607 0.52875124 0.40856995
0.75796548 0.55455521 0.43175615
0.78537207 0.58095665 0.45578092
0.81296195 0.60795342 0.48065366
0.10028024 0.12137982 0.08276549
0.10271262 0.12152329 0.08291105
0.11022463 0.12204551 0.08343572
0.12235117 0.12316651 0.08453691
0.13770783 0.12514526 0.08640939
0.15515871 0.12824601 0.08920054
0.17401030 0.13269293 0.09298533
0.19386298 0.13862875 0.09777240
0.21448082 0.14609786 0.10352948
0.23571756 0.15505931 0.11020870
0.25747750 0.16541766 0.11776262
0.27969471 0.17705472 0.12615119
0.30232164 0.18985219 0.13534353
0.32532251 0.20370374 0.14531722
0.34866949 0.21851942 0.15605693
0.37234021 0.23422571 0.16755287
0.39631624 0.25076363 0.17979962
0.42058208 0.26808627 0.19279503
0.44512442 0.28615641 0.20653951
0.46993166 0.30494450 0.22103538
0.49499358 0.32442695 0.23628650
0.52030105 0.34458485 0.25229787
0.54584584 0.36540290 0.26907541
0.57162050 0.38686868 0.28662574
0.59761821 0.40897199 0.30495607
0.62383267 0.43170440 0.32407407
0.65025811 0.45505889 0.34398778
0.67688912 0.47902956 0.36470551
0.70372069 0.50361144 0.38623587
0.73074812 0.52880028 0.40858762
0.75796701 0.55459243 0.43176973
0.78537321 0.58098476 0.45579130
0.81296279 0.60797454 0.48066156
0.11543567 0.14270290 0.09188874
0.11694810 0.14278719 0.09198152
0.12200194 0.14309541 0.09231916
0.13114420 0.14376463 0.09304362
0.14393647 0.14497062 0.09432162
0.15950226 0.14692169 0.09632350
0.17704727 0.14984320 0.09919610
0.19600704 0.15395118 0.10303987
0.21601200 0.15942104 0.10790115
0.23682332 0.16636229 0.11378069
0.25828409 0.17480933 0.12065053
0.28028823 0.18473014 0.12847022
0.30276161 0.19604661 0.13719791
0.32565071 0.20865698 0.14679627
0.34891557 0.22245394 0.15723477
0.37252551 0.23733619 0.16848989
0.39645624 0.25321417 0.18054448
0.42068813 0.27001186 0.19338669
0.44520491 0.28766634 0.20700909
0.46999284 0.30612633 0.22140770
0.49504011 0.32535037 0.23658134
0.52033644 0.34530507 0.25253100
0.54587277 0.36596358 0.26925941
0.57164097 0.38730425 0.28677067
0.59763374 0.40930958 0.30506996
0.62384444 0.43196536 0.32416332
0.65026701 0.45526003 0.34405750
0.67689583 0.47918409 0.36475979
0.70372574 0.50372974 0.38627796
0.73075191 0.52889047 0.40862013
0.75796984 0.55466090 0.43179472
0.78537531 0.58103649 0.45581042
0.81296435 0.60801341 0.48067610
0.13146753 0.16454391 0.10194458
0.13245689 0.16459694 0.10200705
0.13589748 0.16479127 0.10223536
0.14258589 0.16521531 0.10273019
0.15274576 0.16598670 0.10361907
0.16601879 0.16725398 0.10505010
0.18178262 0.16919489 0.10717888
0.19943332 0.17200786 0.11014944
0.21849759 0.17589554 0.11407479
0.23863665 0.18104195 0.11902502
0.25961570 0.18758895 0.12502688
0.28127248 0.19561951 0.13207279
0.30349349 0.20515339 0.14013388
0.32619781 0.21615537 0.14917177
0.34932641 0.22855132 0.15914688
0.37283519 0.24224597 0.17002326
0.39669039 0.25713771 0.18177066
0.42086561 0.27312878 0.19436502
0.44533967 0.29013091 0.20778814
0.47009528 0.30806765 0.22202693
0.49511804 0.32687456 0.23707263
0.52039575 0.34649826 0.25292002
0.54591787 0.36689505 0.26956680
0.57167525 0.38802940 0.28701298
0.59765977 0.40987251 0.30526048
0.62386417 0.43240107 0.32431268
0.65028193 0.45559618 0.34417422
0.67690709 0.47944253 0.36485069
0.70373421 0.50392768 0.38634848
0.73075826 0.52904146 0.40867460
0.75797458 0.55477555 0.43183660
0.78537883 0.58112312 0.45584245
0.81296696 0.60807852 0.48070047
0.14827378 0.18682613 0.11286493
0.14894506 0.18686104 0.11290854
0.15133013 0.18698913 0.11306826
0.15617535 0.18726931 0.11341623
0.16399259 0.18778144 0.11404733
0.17487181 0.18862958 0.11507909
0.18852393 0.18994457 0.11664801
0.20447383 0.19188389 0.11890027
0.22223685 0.19462681 0.12197723
0.24140603 0.19836348 0.12599905
0.26167026 0.20327811 0.13105177
0.28280173 0.20952879 0.13718211
0.30463612 0.21722934 0.14440093
0.32705485 0.22643833 0.15269228
0.34997152 0.23715858 0.16202417
0.37332229 0.24934600 0.17235787
0.39705915 0.26292385 0.18365438
0.42114535 0.27779778 0.19587826
0.44555222 0.29386838 0.20899939
0.47025695 0.31103995 0.22299347
0.49524108 0.32922554 0.23784174
0.52048939 0.34834920 0.25353040
0.54598912 0.36834635 0.27004992
0.57172941 0.38916305 0.28739433
0.59770089 0.41075483 0.30556061
0.62389534 0.43308531 0.32454816
0.65030550 0.45612487 0.34435835
0.67692488 0.47984948 0.36499415
0.70374759 0.50423965 0.38645979
0.73076829 0.52927958 0.40876060
0.75798207 0.55495646 0.43190274
0.78538440 0.58125987 0.45589305
0.81297107 0.60818133 0.48073896
0.16578072 0.20949546 0.12460022
0.16624869 0.20951920 0.12463145
0.16793180 0.20960635 0.12474597
0.17144463 0.20979725 0.12499617
0.17735369 0.21014710 0.12545242
0.18600519 0.21072909 0.12620504
0.19743285 0.21163777 0.12736497
0.21139962 0.21299171 0.12906113
0.22752443 0.21493413 0.13143348
0.24540326 0.21763025 0.13462146
0.26467883 0.22125978 0.13874993
0.28506385 0.22600420 0.14391640
0.30633841 0.23202995 0.15018329
0.32833812 0.23947080 0.15757743
0.35094095 0.24841396 0.16609568
0.37405617 0.25889388 0.17571389
0.39761576 0.27089490 0.18639613
0.42156818 0.28436114 0.19810223
0.44587381 0.29920983 0.21079294
0.47050173 0.31534465 0.22443295
0.49542747 0.33266646 0.23899228
0.52063131 0.35108077 0.25444659
0.54609713 0.37050198 0.27077697
0.57181154 0.39085532 0.28796935
0.59776326 0.41207702 0.30601386
0.62394262 0.43411374 0.32490418
0.65034127 0.45692132 0.34463699
0.67695186 0.48046359 0.36521137
0.70376789 0.50471106 0.38662845
0.73078351 0.52963978 0.40889096
0.75799343 0.55523033 0.43200301
0.78539285 0.58146702 0.45596979
0.81297733 0.60833714 0.48079735
0.18393202 0.23251138 0.13711237
0.18426505 0.23252792 0.13713516
0.18547158 0.23258864 0.13721879
0.18803261 0.23272176 0.13740181
0.19246381 0.23296611 0.13773664
0.19920382 0.23337365 0.13829198
0.20850290 0.23401264 0.13915504
0.22036996 0.23497071 0.14043231
0.23460672 0.23635747 0.14224770
0.25089648 0.23830577 0.14473707
0.26889269 0.24097024 0.14803871
0.28827626 0.24452217 0.15228113
0.30878004 0.24913962 0.15757066
0.33019200 0.25499339 0.16398243
0.35234872 0.26223067 0.17155712
0.37512590 0.27096005 0.18030365
0.39842934 0.28124177 0.19020623
0.42218746 0.29308562 0.20123294
0.44634551 0.30645654 0.21334376
0.47086118 0.32128547 0.22649675
0.49570139 0.33748217 0.24065219
0.52084001 0.35494708 0.25577484
0.54625603 0.37358063 0.27183498
0.57193241 0.39328934 0.28880854
0.59785507 0.41398931 0.30667681
0.62401223 0.43560756 0.32542582
0.65039394 0.45808206 0.34504577
0.67699160 0.48136091 0.36553039
0.70379779 0.50540124 0.38687632
0.73080592 0.53016793 0.40908266
0.75801017 0.55563237 0.43215054
0.78540530 0.58177138 0.45608271
0.81298653 0.60856622 0.48088330
0.20268288 0.25584223 0.15037103
0.20292370 0.25585396 0.15038791
0.20380016 0.25589706 0.15044984
0.20568075 0.25599158 0.15058554
0.20899691 0.25616524 0.15083428
0.21418236 0.25645536 0.15124825
0.22158924 0.25691142 0.15189505
0.23140938 0.25759790 0.15285980
0.24364083 0.25859721 0.15424603
0.25811472 0.26001230 0.15617435
0.27456060 0.26196818 0.15877801
0.29267463 0.26461146 0.16219494
0.31216765 0.26810670 0.16655679
0.33278944 0.27262874 0.17197721
0.35433536 0.27835077 0.17854199
0.37664350 0.28542946 0.18630391
0.39958804 0.29398977 0.19528308
0.42307199 0.30411303 0.20547206
0.44702069 0.31583131 0.21684362
0.47137648 0.32912924 0.22935878
0.49609456 0.34395208 0.24297375
0.52113982 0.36021740 0.25764501
0.54648447 0.37782732 0.27333246
0.57210625 0.39667906 0.29000117
0.59798716 0.41667276 0.30762193
0.62411242 0.43771640 0.32617129
0.65046975 0.45972837 0.34563107
0.67704883 0.48263824 0.36598781
0.70384084 0.50638648 0.38723212
0.73083820 0.53092352 0.40935807
0.75803428 0.55620851 0.43236263
0.78542322 0.58220811 0.45624515
0.81299980 0.60889524 0.48100698
0.22199662 0.27946249 0.16435133
0.22217299 0.27947094 0.16436396
0.22281676 0.27950197 0.16441034
0.22420784 0.27957005 0.16451202
0.22669247 0.27969520 0.16469865
0.23065498 0.27990450 0.16500994
0.23646710 0.28023406 0.16549801
0.24442122 0.28073139 0.16622981
0.25467202 0.28145805 0.16728912
0.26721330 0.28249243 0.16877756
0.28189899 0.28393238 0.17081365
0.29849324 0.28589695 0.17352922
0.31672485 0.28852656 0.17706246
0.33632856 0.29198056 0.18154812
0.35706837 0.29643102 0.18710620
0.37874631 0.30205267 0.19383180
0.40120217 0.30900928 0.20178845
0.42430910 0.31743877 0.21100658
0.44796782 0.32743996 0.22148690
0.47210095 0.33906433 0.23320711
0.49664824 0.35231461 0.24612984
0.52156256 0.36715019 0.26021004
0.54680686 0.38349726 0.27540086
0.57235178 0.40126088 0.29165765
0.59817384 0.42033644 0.30894038
0.62425406 0.44061881 0.32721475
0.65057697 0.46200870 0.34645248
0.67712976 0.48441640 0.36663106
0.70390175 0.50776342 0.38773326
0.73088388 0.53198271 0.40974644
0.75806840 0.55701804 0.43266198
0.78544859 0.58282285 0.45647457
0.81301857 0.60935903 0.48118176
0.24184252 0.30335109 0.17903244
0.24197301 0.30335725 0.17904198
0.24245020 0.30337985 0.17907702
0.24348622 0.30342944 0.17915386
0.24535293 0.30352066 0.17929501
0.24837180 0.30367330 0.17953080
0.25288816 0.30391392 0.17990136
0.25922690 0.30427764 0.18045892
0.26763818 0.30481039 0.18127012
0.27825223 0.30557142 0.18241799
0.29106191 0.30663602 0.18400301
0.30593924 0.30809807 0.18614257
0.32267500 0.31007205 0.18896796
0.34102359 0.31269366 0.19261826
0.36073905 0.31611820 0.19723136
0.38159734 0.32051565 0.20293317
0.40340635 0.32606195 0.20982713
0.42600759 0.33292661 0.21798653
0.44927348 0.34125819 0.22745135
0.47310274 0.35117033 0.23823010
0.49741563 0.36273147 0.25030548
0.52214950 0.37596083 0.26364202
0.54725507 0.39083124 0.27819376
0.57269346 0.40727767 0.29391083
0.59843381 0.42520883 0.31074423
0.62445143 0.44451910 0.32864893
0.65072643 0.46509890 0.34758552
0.67724263 0.48684230 0.36752084
0.70398671 0.50965191 0.38842796
0.73094760 0.53344146 0.41028572
0.75811600 0.55813655 0.43307817
0.78548399 0.58367436 0.45679386
0.81304477 0.61000267 0.48142519
0.26219440 0.32749029 0.19439664
0.26229173 0.32749481 0.19440390
0.26264812 0.32751143 0.19443055
0.26342436 0.32754789 0.19448901
0.26483150 0.32761498 0.19459647
0.26712972 0.32772730 0.19477614
0.27061827 0.32790448 0.19505896
0.27561079 0.32817262 0.19548554
0.28239650 0.32856602 0.19610837
0.29119513 0.32912936 0.19699405
0.30212038 0.32992005 0.19822529
0.31516592 0.33101094 0.19990209
0.33021838 0.33249285 0.20214145
0.34708959 0.33447674 0.20507484
0.36555436 0.33709473 0.20884279
0.38538250 0.34049911 0.21358655
0.40636002 0.34485841 0.21943766
0.42829990 0.35034984 0.22650735
0.45104521 0.35714786 0.23487790
0.47446775 0.36541017 0.24459822
0.49846453 0.37526325 0.25568424
0.52295365 0.38679053 0.26812355
0.54787026 0.40002617 0.28188267
0.57316308 0.41495556 0.29691492
0.59879149 0.43152221 0.31316757
0.62472319 0.44963867 0.33058737
0.65093237 0.46919879 0.34912430
0.67739821 0.49008898 0.36873380
0.70410386 0.51219708 0.38937776
0.73103549 0.53541837 0.41102471
0.75818167 0.55965897 0.43364951
0.78553284 0.58483728 0.45723277
0.81308092 0.61088400 0.48176016
0.28302958 0.35186490 0.21042863
0.28310265 0.35186825 0.21043418
0.28337047 0.35188056 0.21045456
0.28395509 0.35190757 0.21049928
0.28501936 0.35195728 0.21058151
0.28676986 0.35204053 0.21071909
0.28945535 0.35217192 0.21093590
0.29335577 0.35237092 0.21126347
0.29875916 0.35266322 0.21174292
0.30592739 0.35308249 0.21242711
0.31505785 0.35367235 0.21338285
0.32625293 0.35448878 0.21469291
0.33950802 0.35560271 0.21645730
0.35472181 0.35710260 0.21879324
0.37172306 0.35909675 0.22183304
0.39030316 0.36171461 0.22571919
0.41024485 0.36510635 0.23059655
0.43134257 0.36943973 0.23660228
0.45341364 0.37489341 0.24385500
0.47630246 0.38164648 0.25244548
0.49988028 0.38986480 0.26243103
0.52404253 0.39968625 0.27383463
0.54870530 0.41120773 0.28664856
0.57380171 0.42447692 0.30084127
0.59927859 0.43949082 0.31636539
0.62509368 0.45620097 0.33316535
0.65121334 0.47452361 0.35118362
0.67761062 0.49435214 0.37036518
0.70426388 0.51556919 0.39066021
0.73115559 0.53805655 0.41202557
0.75827143 0.56170231 0.43442514
0.78559961 0.58640517 0.45782971
0.81313035 0.61207643 0.48221638
0.30432821 0.37646178 0.22711505
0.30438337 0.37646428 0.22711931
0.30458563 0.37647345 0.22713496
0.30502785 0.37649359 0.22716931
0.30583530 0.37653064 0.22723249
0.30717010 0.37659271 0.22733826
0.30923376 0.37669071 0.22750507
0.31226443 0.37683922 0.22775738
0.31652560 0.37705753 0.22812734
0.32228465 0.37737104 0.22865660
0.32978232 0.37781284 0.22939851
0.33919945 0.37842575 0.23042029
0.35063063 0.37926460 0.23180507
0.36407350 0.38039883 0.23365332
0.37943688 0.38191511 0.23608302
0.39656337 0.38391977 0.23922785
0.41525792 0.38654036 0.24323275
0.43531401 0.38992572 0.24824655
0.45653308 0.39424346 0.25441206
0.47873608 0.39967406 0.26185515
0.50176847 0.40640113 0.27067472
0.52550092 0.41459811 0.28093609
0.54982735 0.42441332 0.29266888
0.57466197 0.43595587 0.30586985
0.59993598 0.44928582 0.32050920
0.62559443 0.46441077 0.33653872
0.65159351 0.48128958 0.35389992
0.67789826 0.49984181 0.37253091
0.70448072 0.51996020 0.39237149
0.73131841 0.54152353 0.41336650
0.75839316 0.56440755 0.43546762
0.78569020 0.58849321 0.45863399
0.81319742 0.61367183 0.48283223
0.32607272 0.40126942 0.24444410
0.32611453 0.40127129 0.24444739
0.32626790 0.40127816 0.24445945
0.32660360 0.40129324 0.24448592
0.32721786 0.40132099 0.24453463
0.32823700 0.40136749 0.24461619
0.32982159 0.40144093 0.24474489
0.33216800 0.40155226 0.24493973
0.33550481 0.40171602 0.24522577
0.34008165 0.40195137 0.24563573
0.34614925 0.40228343 0.24621185
0.35393193 0.40274485 0.24700805
0.36359823 0.40337780 0.24809214
0.37523743 0.40423621 0.24954792
0.38884971 0.40538839 0.25147666
0.40435251 0.40691969 0.25399758
0.42159994 0.40893503 0.25724623
0.44040813 0.41156077 0.26137051
0.46057947 0.41494507 0.26652353
0.48192120 0.41925603 0.27285399
0.50425721 0.42467637 0.28049492
0.52743374 0.43139431 0.28955319
0.55132076 0.43959062 0.30010177
0.57581073 0.44942338 0.31217664
0.60081606 0.46101299 0.32577868
0.62626610 0.47443085 0.34087959
0.65210421 0.48969420 0.35743011
0.67828510 0.50676844 0.37536858
0.70477259 0.52557581 0.39462853
0.73153771 0.54600799 0.41514442
0.75855721 0.56793956 0.43685556
0.78581233 0.59124009 0.45970829
0.81328786 0.61578330 0.48365692
0.34824742 0.42627762 0.26240534
0.34827921 0.42627902 0.26240788
0.34839588 0.42628419 0.26241719
0.34865143 0.42629553 0.26243765
0.34911979 0.42631640 0.26247528
0.34989889 0.42635137 0.26253832
0.35111531 0.42640661 0.26263784
0.35292765 0.42649037 0.26278858
0.35552732 0.42661363 0.26301010
0.35913445 0.42679089 0.26332798
0.36398711 0.42704119 0.26377555
0.37032261 0.42738943 0.26439566
0.37835257 0.42786789 0.26524290
0.38823631 0.42851822 0.26638584
0.40005969 0.42939369 0.26790914
0.41382560 0.43056177 0.26991530
0.42945892 0.43210688 0.27252512
0.44682342 0.43413305 0.27587656
0.46574455 0.43676600 0.28012091
0.48603203 0.44015389 0.28541601
0.50749788 0.44446588 0.29191664
0.52996829 0.44988741 0.29976315
0.55328993 0.45661157 0.30907021
0.57733197 0.46482639 0.31991826
0.60198539 0.47469928 0.33234931
0.62716082 0.48636131 0.34636802
0.65278585 0.49989430 0.36194724
0.67880221 0.51532421 0.37903630
0.70516320 0.53262208 0.39757006
0.73183146 0.55171206 0.41747715
0.75877709 0.57248409 0.43868643
0.78597611 0.59480810 0.46113145
0.81340920 0.61854711 0.48475304
0.37083819 0.45147730 0.28098937
0.37086243 0.45147836 0.28099134
0.37095138 0.45148226 0.28099855
0.37114636 0.45149081 0.28101438
0.37150408 0.45150655 0.28104351
0.37210030 0.45153293 0.28109232
0.37303405 0.45157460 0.28116938
0.37443162 0.45163780 0.28128618
0.37644946 0.45173083 0.28145791
0.37927434 0.45186468 0.28170460
0.38311910 0.45205380 0.28205240
0.38821218 0.45231715 0.28253518
0.39478015 0.45267940 0.28319649
0.40302480 0.45317258 0.28409166
0.41309871 0.45383794 0.28529014
0.42508567 0.45472825 0.28687775
0.43899142 0.45591041 0.28895844
0.45474738 0.45746826 0.29165507
0.47222548 0.45950538 0.29510841
0.49125894 0.46214738 0.29947363
0.51166355 0.46554299 0.30491374
0.53325512 0.46986303 0.31158996
0.55586156 0.47529620 0.31965007
0.57932965 0.48204080 0.32921661
0.60352760 0.49029222 0.34037729
0.62834483 0.50022707 0.35317987
0.65369023 0.51198651 0.36763242
0.67948966 0.52566210 0.38370849
0.70568328 0.54128759 0.40135554
0.73222305 0.55883869 0.42050454
0.75907047 0.57824050 0.44107880
0.78619478 0.59938041 0.46300126
0.81357130 0.62212301 0.48619940
0.39383225 0.47686031 0.30018777
0.39385076 0.47686111 0.30018929
0.39391870 0.47686406 0.30019488
0.39406768 0.47687052 0.30020714
0.39434126 0.47688242 0.30022972
0.39479787 0.47690236 0.30026754
0.39551460 0.47693387 0.30032728
0.39659103 0.47698166 0.30041785
0.39815287 0.47705202 0.30055108
0.40035435 0.47715329 0.30074261
0.40337805 0.47729644 0.30101289
0.40743055 0.47749589 0.30138861
0.41273237 0.47777050 0.30190425
0.41950157 0.47814481 0.30260402
0.42793241 0.47865061 0.30354411
0.43817266 0.47932887 0.30479500
0.45030513 0.48023203 0.30644383
0.46433852 0.48142664 0.30859635
0.48021006 0.48299626 0.31137783
0.49779863 0.48504444 0.31493232
0.51694396 0.48769715 0.31941935
0.53746676 0.49110424 0.32500756
0.55918582 0.49543879 0.33186499
0.58193018 0.50089332 0.34014717
0.60554639 0.50767181 0.34998455
0.62990149 0.51597724 0.36147201
0.65488331 0.52599538 0.37466278
0.68039896 0.53787720 0.38956791
0.70637260 0.55172330 0.40616116
0.73274285 0.56757435 0.42438757
0.75946039 0.58540967 0.44417363
0.78648567 0.60515424 0.46543689
0.81378708 0.62669186 0.48809391
0.41721794 0.50241927 0.31999287
0.41723209 0.50241988 0.31999405
0.41728405 0.50242211 0.31999838
0.41739800 0.50242700 0.32000789
0.41760738 0.50243601 0.32002540
0.41795722 0.50245111 0.32005473
0.41850728 0.50247497 0.32010106
0.41933550 0.50251116 0.32017131
0.42054168 0.50256445 0.32027470
0.42225073 0.50264117 0.32042341
0.42461471 0.50274966 0.32063342
0.42781249 0.50290089 0.32092566
0.43204535 0.50310924 0.32132729
0.43752737 0.50339348 0.32187341
0.44446994 0.50377804 0.32260897
0.45306170 0.50429454 0.32359104
0.46344717 0.50498377 0.32489130
0.47570907 0.50589797 0.32659842
0.48985915 0.50710354 0.32882020
0.50583987 0.50868408 0.33168471
0.52353610 0.51074341 0.33533971
0.54279299 0.51340835 0.33994963
0.56343518 0.51683042 0.34568921
0.58528365 0.52118555 0.35273382
0.60816806 0.52667066 0.36124702
0.63193434 0.53349596 0.37136734
0.65644819 0.54187241 0.38319680
0.68159571 0.55199506 0.39679381
0.70728224 0.56402444 0.41217193
0.73343022 0.57806966 0.42930452
0.75997681 0.59417739 0.44813355
0.78687140 0.61232941 0.46858038
0.81407346 0.63244934 0.49055620
0.44098460 0.52814748 0.34039772
0.44099543 0.52814794 0.34039864
0.44103518 0.52814963 0.34040200
0.44112238 0.52815334 0.34040937
0.44128268 0.52816017 0.34042294
0.44155073 0.52817162 0.34044569
0.44197271 0.52818970 0.34048162
0.44260931 0.52821713 0.34053611
0.44353902 0.52825753 0.34061633
0.44486157 0.52831570 0.34073175
0.44670094 0.52839798 0.34089485
0.44920716 0.52851272 0.34112198
0.45255584 0.52867087 0.34143447
0.45694386 0.52888676 0.34185999
0.46258015 0.52917911 0.34243423
0.46967099 0.52957225 0.34320292
0.47840098 0.53009768 0.34422412
0.48891267 0.53079610 0.34557078
0.50128949 0.53171967 0.34733333
0.51554631 0.53293485 0.34962191
0.53163039 0.53452550 0.35256773
0.54943176 0.53659609 0.35632274
0.56880004 0.53927471 0.36105676
0.58956294 0.54271507 0.36695124
0.61154293 0.54709657 0.37418935
0.63456974 0.55262119 0.38294312
0.65848834 0.55950596 0.39335937
0.68316284 0.56797033 0.40554724
0.70847751 0.57821886 0.41957003
0.73433585 0.59042152 0.43544329
0.76065861 0.60469541 0.45313927
0.78738147 0.62109224 0.47259611
0.81445263 0.63959502 0.49372926
0.46512242 0.55403883 0.36139597
0.46513070 0.55403918 0.36139668
0.46516111 0.55404046 0.36139928
0.46522784 0.55404327 0.36140500
0.46535055 0.55404845 0.36141551
0.46555586 0.55405713 0.36143314
0.46587937 0.55407084 0.36146099
0.46636813 0.55409164 0.36150324
0.46708345 0.55412228 0.36156544
0.46810409 0.55416640 0.36165497
0.46952950 0.55422882 0.36178152
0.47148267 0.55431588 0.36195787
0.47411179 0.55443592 0.36220068
0.47758965 0.55459988 0.36253169
0.48210953 0.55482206 0.36297905
0.48787633 0.55512109 0.36357907
0.49509257 0.55552124 0.36437827
0.50394015 0.55605397 0.36543576
0.51456078 0.55675991 0.36682593
0.52703924 0.55769132 0.36864112
0.54139367 0.55891484 0.37099409
0.55757574 0.56051486 0.37401958
0.57547998 0.56259681 0.37787421
0.59495965 0.56529050 0.38273374
0.61584476 0.56875235 0.38878692
0.63795858 0.57316586 0.39622530
0.66113037 0.57873878 0.40522987
