src/ffmpeg_scripts/luts/sRGB-rec2020_-0p33.cube
TITLE "sRGB-rec2020_-0p33"
LUT_3D_SIZE 9
# PQ (EOTF Only)/sRGB -> PQ (EOTF Only)/Rec2020, CineEI Shift -0.33, Black Level 0.00% IRE, Input 100% -> Output 109% - Created with LUTCalc v4.01 by Ben Turley October 2020
0.06256172 0.06256172 0.06256172
0.14520368 0.09505531 0.07871430
0.23675131 0.14378012 0.10751639
0.33300388 0.20443545 0.14769241
0.43270128 0.27550498 0.19909553
0.53517489 0.35613361 0.26183429
0.64000031 0.44575772 0.33612190
0.74688057 0.54397296 0.42222464
0.85559458 0.65047322 0.52043925
0.12661716 0.15800255 0.09886249
0.15940772 0.16058486 0.10176731
0.23991338 0.17695494 0.11781542
0.33388038 0.21788424 0.15171759
0.43297381 0.28052567 0.20064941
0.53526387 0.35796762 0.26243305
0.64002957 0.44641391 0.33634821
0.74688997 0.54419895 0.42230672
0.85559744 0.65054636 0.52046712
0.20442604 0.25799038 0.15161975
0.21391164 0.25848707 0.15233370
0.26027840 0.26218885 0.15748373
0.34031153 0.27610267 0.17486655
0.43503917 0.31080002 0.21140523
0.53594426 0.37084919 0.26687047
0.64025397 0.45129903 0.33806520
0.74696208 0.54591628 0.42293441
0.85561939 0.65110607 0.52068081
0.29025374 0.36024250 0.21605553
0.29310531 0.36037502 0.21627707
0.31204197 0.36138564 0.21795266
0.36314095 0.36555601 0.22462817
0.44333267 0.37866340 0.24367567
0.53878647 0.41073816 0.28320417
0.64120333 0.46956347 0.34499369
0.74726844 0.55289389 0.42555769
0.85571279 0.65345238 0.52158503
0.38224921 0.46410624 0.29048192
0.38317179 0.46414661 0.29055758
0.38994261 0.46445603 0.29113602
0.41398547 0.46576154 0.29354997
0.46741715 0.47017152 0.30141173
0.54806977 0.48300988 0.32226590
0.64444043 0.51430012 0.36540364
0.74832868 0.57382205 0.43413981
0.85603765 0.66120482 0.52467035
0.47939643 0.56924268 0.37393945
0.47970591 0.56925566 0.37396617
0.48204805 0.56935534 0.37417107
0.49139848 0.56977847 0.37503781
0.51812031 0.57123891 0.37799197
0.57280740 0.57576912 0.38681642
0.65411929 0.58861501 0.40960886
0.75164502 0.62031954 0.45711904
0.85707014 0.68245964 0.53391494
0.58103428 0.67544004 0.46578971
0.58113829 0.67544426 0.46579911
0.58193314 0.67547667 0.46587128
0.58524375 0.67561450 0.46617787
0.59595383 0.67609344 0.46723870
0.62383169 0.67761109 0.47055500
0.67912480 0.68218298 0.48016337
0.76126642 0.69523578 0.50506787
0.86020838 0.72839360 0.55793490
0.68669086 0.78255201 0.56556985
0.68672487 0.78255335 0.56557305
0.68698565 0.78256365 0.56559765
0.68808774 0.78260748 0.56570230
0.69183213 0.78276015 0.56606620
0.70291020 0.78324735 0.56722222
0.73083106 0.78474701 0.57073097
0.78624042 0.78929877 0.58095900
0.86939106 0.80274957 0.60822922
0.79600883 0.89047078 0.67292542
0.79601935 0.89047119 0.67292645
0.79610010 0.89047429 0.67293434
0.79644306 0.89048752 0.67296795
0.79762875 0.89053361 0.67308502
0.80132582 0.89068106 0.67345897
0.81195688 0.89113828 0.67461312
0.83898133 0.89255726 0.67814468
0.89405934 0.89703244 0.68882410
0.08865149 0.07594125 0.15707472
0.14734018 0.09740942 0.15771177
0.23717587 0.14436893 0.16234475
0.33311971 0.20462102 0.17837807
0.43273717 0.27556917 0.21329833
0.53518660 0.35615652 0.26770443
0.64000416 0.44576585 0.33839575
0.74688181 0.54397576 0.42305626
0.85559495 0.65047412 0.52072241
0.12990132 0.15843668 0.16040143
0.16099677 0.16099677 0.16099677
0.24031844 0.17725509 0.16534518
0.33399496 0.21803349 0.18060259
0.43300960 0.28058562 0.21453151
0.53527557 0.35799003 0.26825618
0.64003342 0.44642199 0.33861580
0.74689120 0.54420174 0.42313757
0.85559781 0.65054726 0.52075019
0.20513049 0.25807230 0.18054729
0.21451561 0.25856841 0.18095214
0.26058023 0.26226605 0.18396527
0.34041737 0.27616633 0.19524199
0.43507414 0.31084026 0.22327194
0.53595587 0.37086840 0.27235795
0.64025781 0.45130668 0.34028593
0.74696331 0.54591902 0.42375941
0.85561977 0.65110697 0.52096323
0.29045410 0.36026431 0.22715188
0.29329825 0.36039679 0.22733811
0.31219282 0.36140715 0.22875064
0.36322121 0.36557648 0.23444442
0.44336454 0.37868092 0.25119295
0.53879774 0.41075024 0.28762895
0.64120713 0.46956972 0.34703575
0.74726967 0.55289643 0.42635868
0.85571317 0.65345325 0.52186472
0.38231322 0.46411288 0.29450847
0.38323511 0.46415325 0.29458020
0.39000112 0.46446265 0.29512877
0.41402983 0.46576806 0.29742067
0.46744155 0.47017773 0.30491264
0.54807998 0.48301527 0.32496135
0.64444411 0.51430396 0.36700430
0.74832990 0.57382409 0.43486731
0.85603803 0.66120563 0.52494094
0.47941783 0.56924481 0.37538719
0.47972724 0.56925780 0.37541346
0.48206884 0.56935747 0.37561489
0.49141725 0.56978059 0.37646705
0.51813437 0.57124100 0.37937270
0.57281523 0.57577112 0.38806251
0.65412261 0.58861675 0.41056816
0.75164620 0.62032078 0.45768269
0.85707051 0.68246029 0.53416001
0.58104147 0.67544073 0.46630206
0.58114547 0.67544495 0.46631141
0.58194025 0.67547736 0.46638317
0.58525062 0.67561519 0.46668804
0.59595996 0.67609413 0.46774296
0.62383626 0.67761177 0.47104125
0.67912735 0.68218363 0.48060115
0.76126748 0.69523635 0.50540200
0.86020874 0.72839400 0.55812459
0.68669321 0.78255223 0.56574475
0.68672722 0.78255357 0.56574795
0.68698799 0.78256387 0.56577250
0.68809005 0.78260770 0.56587695
0.69183435 0.78276037 0.56624018
0.70291217 0.78324757 0.56739408
0.73083253 0.78474723 0.57089654
0.78624123 0.78929898 0.58110755
0.86939139 0.80274975 0.60834053
0.79600955 0.89047085 0.67298159
0.79602008 0.89047125 0.67298262
0.79610083 0.89047436 0.67299051
0.79644378 0.89048759 0.67302410
0.79762946 0.89053368 0.67314110
0.80132650 0.89068113 0.67351482
0.81195749 0.89113835 0.67466830
0.83898179 0.89255733 0.67819783
0.89405958 0.89703250 0.68887156
0.13014084 0.10077539 0.25647508
0.16111590 0.11084472 0.25659580
0.24034924 0.14864913 0.25751589
0.33400370 0.20602722 0.26130353
0.43301233 0.27606013 0.27312744
0.53527646 0.35633224 0.30174690
0.64003371 0.44582832 0.35401841
0.74689130 0.54399722 0.42919412
0.85559784 0.65048107 0.52286844
0.14897100 0.16164772 0.25712084
0.17176643 0.16405073 0.25724045
0.24335032 0.17950586 0.25815219
0.33486945 0.21916795 0.26190676
0.43328391 0.28104430 0.27363950
0.53536534 0.35816191 0.30209657
0.64006297 0.44648400 0.35420030
0.74690069 0.54422315 0.42926999
0.85560070 0.65055420 0.52289558
0.21028341 0.25869815 0.26189153
0.21896890 0.25918989 0.26200334
0.26285604 0.26285604 0.26285604
0.34122554 0.27665332 0.26637600
0.43534217 0.31114853 0.27745611
0.53604499 0.37101580 0.30472988
0.64028729 0.45136541 0.35558379
0.74697280 0.54594004 0.42985036
0.85562265 0.65111387 0.52310377
0.29197513 0.36043156 0.27925513
0.29476362 0.36056378 0.27934309
0.31334154 0.36157213 0.28001506
0.36383494 0.36573344 0.28280912
0.44360886 0.37881533 0.29180371
0.53888419 0.41084294 0.31503464
0.64123631 0.46961772 0.36122811
0.74727912 0.55291594 0.43227940
0.85571605 0.65345998 0.52398485
0.38280316 0.46416385 0.31991875
0.38371979 0.46420420 0.31997043
0.39044909 0.46451342 0.32036608
0.41436975 0.46581811 0.32202860
0.46762872 0.47022541 0.32756663
0.54815827 0.48305670 0.34309967
0.64447231 0.51433347 0.37837588
0.74833924 0.57383971 0.44026421
0.85604090 0.66121183 0.52699290
0.47958198 0.56926121 0.38575104
0.47989083 0.56927420 0.38577430
0.48222830 0.56937385 0.38595267
0.49156128 0.56979690 0.38670788
0.51824227 0.57125706 0.38928986
0.57287541 0.57578642 0.39707269
0.65414806 0.58863010 0.41760397
0.75165521 0.62033033 0.46189757
0.85707335 0.68246523 0.53602075
0.58109661 0.67544606 0.47014280
0.58120055 0.67545028 0.47015176
0.58199488 0.67548269 0.47022056
0.58530336 0.67562051 0.47051285
0.59600705 0.67609942 0.47152457
0.62387132 0.67761698 0.47469099
0.67914689 0.68218859 0.48389467
0.76127561 0.69524067 0.50792819
0.86021148 0.72839703 0.55956850
0.68671124 0.78255392 0.56707701
0.68674525 0.78255526 0.56708017
0.68700596 0.78256556 0.56710437
0.68810782 0.78260940 0.56720736
0.69185143 0.78276206 0.56756550
0.70292735 0.78324925 0.56870335
0.73084380 0.78474888 0.57215830
0.78624743 0.78930055 0.58224050
0.86939386 0.80275111 0.60919092
0.79601513 0.89047136 0.67341182
0.79602565 0.89047176 0.67341285
0.79610640 0.89047487 0.67342070
0.79644933 0.89048810 0.67345414
0.79763494 0.89053419 0.67357061
0.80133176 0.89068164 0.67394264
0.81196218 0.89113886 0.67509093
0.83898526 0.89255783 0.67860498
0.89406145 0.89703298 0.68923522
0.18373230 0.13642652 0.35831923
0.19678090 0.14050132 0.35835142
0.25240951 0.16345107 0.35859819
0.33766208 0.21167460 0.35964057
0.43417423 0.27811412 0.36317588
0.53565800 0.35707612 0.37358767
0.64015943 0.44609373 0.39964345
0.74693168 0.54408854 0.45142311
0.85561013 0.65051061 0.53148791
0.19095053 0.17340496 0.35849193
0.20261012 0.17532628 0.35852406
0.25493582 0.18817210 0.35877032
0.33848973 0.22378280 0.35981056
0.43444229 0.28296570 0.36333882
0.53574652 0.35888965 0.37373165
0.64018864 0.44674748 0.39974967
0.74694107 0.54431425 0.45148228
0.85561299 0.65058372 0.53151266
0.22842560 0.26130198 0.35980625
0.23507665 0.26177601 0.35983787
0.27180719 0.26531434 0.36008028
0.34457893 0.27869100 0.36110439
0.43647427 0.31244736 0.36457951
0.53642342 0.37164037 0.37482909
0.64041267 0.45161499 0.40056104
0.74701315 0.54602948 0.45193532
0.85563495 0.65114321 0.53170248
0.29812833 0.36113981 0.36518047
0.30070372 0.36127092 0.36521012
0.31805152 0.36227080 0.36543745
0.36639834 0.36639834 0.36639834
0.44464153 0.37938512 0.36966479
0.53925131 0.41123647 0.37934809
0.64136044 0.46982178 0.40393260
0.74731934 0.55299898 0.45383880
0.85572833 0.65348861 0.53250623
0.38485788 0.46438052 0.38161489
0.38575286 0.46442077 0.38163930
0.39233039 0.46472926 0.38182651
0.41580219 0.46603087 0.38261891
0.46842122 0.47042811 0.38532526
0.54849082 0.48323285 0.39345836
0.64459226 0.51445898 0.41476106
0.74837900 0.57390618 0.46017744
0.85605314 0.66123820 0.53525538
0.48027747 0.56933099 0.41967720
0.48058399 0.56934397 0.41969294
0.48290404 0.56944355 0.41981371
0.49217189 0.56986628 0.42032595
0.51870018 0.57132538 0.42208883
0.57313114 0.57585153 0.42750878
0.65425636 0.58868693 0.44252509
0.75169359 0.62037096 0.47792783
0.85708544 0.68248629 0.54355175
0.58133100 0.67546875 0.48489294
0.58143468 0.67547297 0.48490057
0.58222705 0.67550537 0.48495911
0.58552754 0.67564315 0.48520791
0.59620722 0.67612195 0.48607004
0.62402043 0.67763915 0.48877771
0.67923001 0.68220971 0.49672597
0.76131021 0.69525906 0.51797212
0.86022316 0.72840995 0.56547839
0.68678796 0.78256113 0.57254638
0.68682194 0.78256247 0.57254935
0.68708244 0.78257277 0.57257219
0.68818341 0.78261660 0.57266937
0.69192408 0.78276925 0.57300735
0.70299194 0.78325641 0.57408166
0.73089176 0.78475592 0.57734810
0.78627383 0.78930725 0.58691669
0.86940439 0.80275690 0.61272777
0.79603887 0.89047353 0.67522167
0.79604939 0.89047394 0.67522268
0.79613011 0.89047705 0.67523038
0.79647296 0.89049027 0.67526318
0.79765827 0.89053636 0.67537744
0.80135416 0.89068381 0.67574243
0.81198211 0.89114102 0.67686916
0.83900006 0.89255995 0.68031880
0.89406941 0.89703500 0.69076779
0.24831249 0.18310018 0.46190610
0.25332728 0.18471170 0.46191591
0.28322340 0.19575609 0.46199124
0.34926469 0.22813163 0.46231121
0.43811035 0.28485790 0.46341793
0.53697611 0.35961858 0.46687400
0.64059639 0.44701293 0.47685736
0.74707234 0.54440621 0.50255736
0.85565298 0.65061354 0.55651934
0.25098968 0.20152091 0.46195878
0.25582114 0.20269582 0.46196859
0.28488053 0.21102806 0.46204388
0.34998321 0.23770490 0.46236366
0.43836686 0.28930092 0.46346975
0.53706339 0.36137812 0.46692388
0.64062547 0.44766005 0.47690206
0.74708172 0.54463115 0.50259115
0.85565584 0.65068657 0.55653828
0.26871485 0.26970039 0.46236233
0.27250684 0.27012211 0.46237209
0.29651386 0.27328105 0.46244704
0.35530127 0.28538473 0.46276540
0.44031235 0.31681388 0.46386663
0.53773084 0.37378234 0.46730598
0.64084847 0.45247972 0.47724459
0.74715368 0.54634064 0.50285024
0.85567778 0.65124546 0.55668360
0.31639004 0.36356299 0.46406037
0.31843241 0.36369034 0.46406995
0.33257557 0.36466186 0.46414351
0.37476915 0.36867603 0.46445598
0.44815146 0.38134225 0.46553700
0.54052004 0.41259474 0.46891482
0.64179190 0.47052962 0.47868852
0.74745942 0.55328787 0.50394511
0.85577112 0.65358835 0.55729971
0.39165856 0.46513185 0.46974347
0.39248567 0.46517177 0.46975247
0.39858555 0.46547772 0.46982157
0.42062108 0.46676872 0.47011514
0.47113126 0.47113126 0.47113126
0.54964104 0.48384432 0.47431114
0.64500927 0.51489523 0.48355127
0.74851750 0.57413754 0.50766378
0.85609577 0.66133009 0.55941656
0.48266161 0.56957386 0.48587260
0.48296025 0.56958680 0.48588015
0.48522161 0.56968613 0.48593807
0.49426947 0.57010778 0.48618423
0.52027916 0.57156316 0.48703727
0.57401728 0.57607817 0.48971697
0.65463294 0.58888475 0.49758786
0.75182724 0.62051248 0.51865785
0.85712759 0.68255968 0.56589162
0.58214362 0.67554779 0.52319755
0.58224641 0.67555201 0.52320258
0.58303201 0.67558438 0.52324127
0.58630494 0.67572205 0.52340575
0.59690176 0.67620045 0.52397691
0.62453845 0.67771640 0.52578280
0.67951924 0.68228331 0.53118793
0.76143072 0.69532314 0.54635972
0.86026385 0.72845497 0.58358836
0.68705495 0.78258626 0.58945820
0.68708883 0.78258761 0.58946068
0.68734860 0.78259790 0.58947977
0.68844648 0.78264172 0.58956100
0.69217692 0.78279433 0.58984363
0.70321676 0.78328135 0.59074309
0.73105878 0.78478047 0.59348821
0.78636582 0.78933061 0.60161557
0.86944109 0.80277707 0.62411636
0.79612158 0.89048112 0.68127293
0.79613209 0.89048152 0.68127387
0.79621274 0.89048463 0.68128110
0.79655528 0.89049785 0.68131187
0.79773953 0.89054394 0.68141904
0.80143222 0.89069137 0.68176143
0.81205159 0.89114854 0.68281891
0.83905162 0.89256736 0.68606126
0.89409715 0.89704203 0.69592375
0.32328785 0.24118817 0.56687111
0.32516171 0.24182119 0.56687427
0.33825224 0.24649461 0.56689853
0.37822660 0.26346728 0.56700174
0.44966301 0.30310232 0.56736066
0.54107642 0.36727549 0.56850098
0.64198234 0.44989494 0.57196323
0.74752138 0.54541634 0.58206524
0.85579007 0.65094242 0.60905920
0.32427682 0.24916500 0.56688808
0.32612780 0.24972848 0.56689124
0.33907392 0.25390884 0.56691549
0.37873546 0.26935761 0.56701868
0.44988854 0.30661848 0.56737754
0.54115995 0.36888264 0.56851765
0.64201100 0.45052172 0.57197930
0.74753071 0.54563888 0.58207968
0.85579292 0.65101519 0.60907005
0.33148788 0.29149691 0.56701825
0.33318105 0.29181108 0.56702141
0.34512118 0.29418092 0.56704563
0.38254462 0.30351669 0.56714867
0.45160171 0.32936555 0.56750704
0.54179889 0.38029866 0.56864559
0.64223075 0.45519446 0.57210263
0.74760233 0.54733023 0.58219048
0.85581483 0.65157215 0.60915332
0.35654890 0.37088270 0.56757039
0.35779840 0.37099943 0.56757353
0.36681536 0.37189042 0.56759761
0.39709488 0.37558157 0.56770006
0.45855088 0.38732391 0.56805633
0.54447106 0.41680820 0.56918830
0.64316057 0.47276012 0.57262582
0.74790660 0.55420713 0.58266068
0.85590802 0.65390706 0.60950696
0.41041083 0.46749699 0.56947035
0.41107784 0.46753588 0.56947343
0.41603715 0.46783398 0.56949703
0.43449242 0.46909216 0.56959742
0.47930466 0.47334725 0.56994660
0.55323242 0.48577554 0.57105619
0.64633249 0.51627868 0.57442738
0.74895963 0.57487467 0.58428184
0.85623218 0.66162378 0.61072959
0.48990439 0.57034745 0.57530907
0.49018039 0.57036028 0.57531196
0.49227261 0.57045879 0.57533414
0.50068252 0.57087701 0.57542851
0.52516263 0.57232063 0.57575675
0.57680032 0.57680032 0.57680032
0.65582893 0.58951551 0.57997542
0.75225396 0.62096427 0.58929369
0.85726242 0.68279430 0.61454198
0.58469987 0.67580049 0.59145897
0.58479991 0.67580470 0.59146141
0.58556461 0.67583698 0.59148010
0.58875230 0.67597429 0.59155962
0.59909229 0.67645141 0.59183634
0.62617857 0.67796337 0.59271710
0.68043956 0.68251862 0.59540623
0.76181560 0.69552807 0.60337694
0.86039403 0.72859901 0.62550749
0.68790490 0.78266671 0.62931624
0.68793848 0.78266805 0.62931787
0.68819592 0.78267834 0.62933040
0.68928403 0.78272212 0.62938369
0.69298210 0.78287459 0.62956925
0.70393315 0.78336119 0.63016108
0.73159165 0.78485902 0.63197922
0.78665980 0.78940537 0.63746594
0.86955851 0.80284163 0.65342920
0.79638597 0.89050539 0.69839073
0.79639645 0.89050580 0.69839151
0.79647687 0.89050890 0.69839754
0.79681842 0.89052213 0.69842320
0.79799930 0.89056820 0.69851258
0.80168173 0.89071559 0.69879824
0.81227374 0.89117263 0.69968160
0.83921656 0.89259106 0.70240001
0.89418592 0.89706456 0.71075799
0.40829200 0.31115734 0.67298619
0.40897532 0.31140059 0.67298722
0.41405165 0.31324359 0.67299511
0.43288439 0.32063798 0.67302870
0.47832929 0.34208983 0.67314569
0.55279416 0.38743709 0.67351940
0.64616929 0.45831434 0.67467282
0.74890488 0.54849147 0.67820218
0.85621526 0.65195847 0.68887545
0.40865129 0.31433405 0.67299171
0.40933182 0.31456763 0.67299274
0.41438811 0.31633838 0.67300063
0.43315637 0.32346057 0.67303421
0.47849375 0.34426059 0.67315120
0.55286787 0.38870709 0.67352489
0.64619670 0.45888544 0.67467824
0.74891408 0.54870682 0.67820741
0.85621810 0.65203047 0.68888011
0.41136206 0.33522353 0.67303407
0.41202190 0.33540324 0.67303510
0.41692958 0.33677001 0.67304299
0.43521754 0.34234350 0.67307656
0.47974685 0.35925530 0.67319349
0.55343197 0.39788039 0.67356701
0.64640696 0.46315459 0.67471985
0.74898464 0.55034417 0.67824749
0.85623990 0.65258149 0.68891591
0.42204723 0.39029515 0.67321420
0.42263181 0.39038810 0.67321522
0.42699623 0.39109845 0.67322310
0.44349524 0.39405844 0.67325660
0.48489717 0.40365038 0.67337332
0.55579610 0.42876105 0.67374612
0.64729681 0.47937070 0.67489679
0.74928443 0.55701113 0.67841794
0.85633266 0.65489191 0.68906814
0.45161578 0.47448577 0.67383948
0.45203582 0.47452180 0.67384050
0.45519751 0.47479791 0.67384832
0.46754167 0.47596407 0.67388161
0.50088234 0.47991695 0.67399755
0.56360155 0.49153705 0.67436790
0.65033516 0.52045603 0.67551106
0.75032208 0.57713206 0.67900979
0.85665528 0.66253180 0.68959696
0.50936602 0.57271461 0.67581452
0.50958960 0.57272713 0.67581552
0.51128864 0.57282320 0.67582318
0.51819208 0.57323106 0.67585577
0.53890198 0.57463931 0.67596932
0.58496881 0.57901258 0.67633203
0.65945638 0.59145161 0.67745179
0.75356932 0.62235639 0.68088057
0.85768068 0.68352062 0.69127078
0.59223764 0.67658248 0.68170814
0.59233001 0.67658665 0.68170908
0.59303629 0.67661866 0.68171628
0.59598514 0.67675484 0.68174690
0.60560040 0.67722804 0.68185357
0.63110724 0.67872770 0.68219440
0.68324706 0.68324706 0.68324706
0.76300307 0.69616289 0.68647497
0.86079788 0.72904576 0.69629642
0.69050158 0.78291656 0.69811572
0.69053425 0.78291790 0.69811650
0.69078470 0.78292816 0.69812255
0.69184348 0.78297182 0.69814828
0.69544428 0.78312388 0.69823792
0.70612791 0.78360917 0.69852442
0.73323052 0.78510300 0.69941034
0.78756855 0.78963760 0.70213648
0.86992289 0.80304223 0.71051692
0.79720378 0.89058089 0.73762271
0.79721416 0.89058130 0.73762323
0.79729387 0.89058440 0.73762719
0.79763239 0.89059761 0.73764407
0.79880289 0.89064365 0.73770291
0.80245376 0.89079091 0.73789107
0.81296150 0.89124756 0.73847413
0.83972783 0.89266479 0.74027987
0.89446157 0.89713461 0.74593852
0.50308141 0.39351277 0.78009364
0.50332068 0.39360231 0.78009396
0.50513766 0.39428673 0.78009647
0.51249645 0.39714106 0.78010716
0.53437017 0.40641531 0.78014439
0.58221991 0.43084727 0.78026353
0.65821610 0.48056687 0.78063326
0.75311599 0.55753128 0.78178355
0.85753609 0.65507671 0.78543909
0.50320706 0.39469674 0.78009539
0.50344602 0.39478506 0.78009572
0.50526055 0.39546020 0.78009823
0.51260996 0.39827665 0.78010891
0.53445992 0.40743659 0.78014614
0.58227382 0.43162218 0.78026528
0.65824024 0.48101434 0.78063501
0.75312478 0.55772687 0.78178527
0.85753888 0.65514638 0.78544074
0.50416630 0.40328517 0.78010887
0.50440279 0.40336515 0.78010919
0.50619882 0.40397686 0.78011170
0.51347697 0.40653387 0.78012238
0.53514617 0.41490467 0.78015961
0.58268683 0.43735777 0.78027873
0.65842537 0.48437938 0.78064840
0.75319222 0.55921532 0.78179850
0.85756037 0.65567959 0.78545346
0.50814191 0.43259779 0.78016621
0.50836846 0.43265512 0.78016653
0.51008984 0.43309407 0.78016904
0.51707977 0.43493883 0.78017972
0.53801240 0.44108717 0.78021692
0.58442502 0.45834483 0.78033597
0.65920945 0.49746586 0.78070541
0.75347877 0.56530033 0.78185480
0.85765176 0.65791640 0.78550757
0.52080300 0.49347494 0.78036583
0.52100068 0.49350422 0.78036616
0.52250477 0.49372873 0.78036866
0.52864885 0.49467840 0.78037931
0.54736907 0.49791464 0.78041644
0.59024596 0.50757517 0.78053523
0.66189317 0.53246137 0.78090387
0.75447090 0.58388165 0.78205081
0.85796965 0.66532487 0.78569596
0.55261106 0.57977626 0.78100223
0.55275174 0.57978787 0.78100256
0.55382497 0.57987701 0.78100504
0.55826113 0.58025551 0.78101562
0.57226938 0.58156330 0.78105249
0.60678725 0.58563346 0.78117046
0.67000821 0.59727955 0.78153658
0.75757873 0.62659502 0.78267571
0.85898015 0.68576342 0.78629668
0.61260216 0.67899429 0.78295476
0.61267663 0.67899836 0.78295508
0.61324650 0.67902956 0.78295751
0.61563475 0.67916231 0.78296787
0.62351863 0.67962362 0.78300396
0.64508670 0.68108597 0.78311947
0.69154780 0.68549630 0.78347793
0.76663231 0.69812695 0.78459345
0.86205300 0.73043350 0.78814116
0.69821158 0.78369598 0.78882407
0.69824168 0.78369730 0.78882437
0.69847247 0.78370748 0.78882665
0.69944866 0.78375077 0.78883637
0.70277482 0.78390155 0.78887024
0.71269781 0.78438277 0.78897861
0.73819260 0.78586420 0.78931500
0.79036231 0.79036231 0.79036231
0.87105629 0.80366867 0.79369803
0.79972281 0.89081731 0.80571669
0.79973292 0.89081772 0.80571694
0.79981046 0.89082081 0.80571884
0.80013983 0.89083398 0.80572692
0.80127890 0.89087990 0.80575509
0.80483414 0.89102677 0.80584523
0.81508586 0.89148219 0.80612514
0.84131307 0.89289566 0.80699768
0.89532066 0.89735398 0.80978737
0.60748745 0.48878212 0.88807716
0.60756606 0.48881293 0.88807726
0.60816749 0.48904918 0.88807802
0.61068577 0.49004816 0.88808124
0.61897512 0.49344832 0.88809248
0.64148730 0.50356253 0.88812847
0.68936330 0.52940751 0.88824036
0.76565999 0.58212812 0.88859041
0.86171365 0.66458794 0.88972272
0.60752872 0.48919132 0.88807769
0.60760729 0.48922199 0.88807779
0.60820845 0.48945720 0.88807855
0.61072567 0.49045178 0.88808177
0.61901166 0.49383732 0.88809301
0.64151611 0.50391120 0.88812900
0.68938066 0.52967157 0.88824089
0.76566766 0.58227877 0.88859094
0.86171632 0.66465094 0.88972324
0.60784497 0.49227417 0.88808176
0.60792328 0.49230383 0.88808186
0.60852244 0.49253129 0.88808261
0.61103142 0.49349333 0.88808584
0.61929180 0.49677074 0.88809708
0.64173701 0.50654553 0.88813307
0.68951381 0.53167465 0.88824495
0.76572658 0.58342755 0.88859498
0.86173682 0.66513327 0.88972723
0.60917952 0.50435261 0.88809907
0.60925674 0.50437864 0.88809917
0.60984754 0.50457821 0.88809993
0.61232205 0.50542299 0.88810315
0.62047517 0.50830919 0.88811439
0.64267167 0.51698996 0.88815037
0.69007852 0.53975118 0.88826223
0.76597697 0.58816712 0.88861219
0.86182403 0.66715943 0.88974422
0.61369012 0.53724041 0.88815940
0.61376374 0.53725868 0.88815950
0.61432712 0.53739884 0.88816025
0.61668857 0.53799317 0.88816348
0.62448861 0.54003609 0.88817471
0.64585975 0.54629355 0.88821066
0.69202120 0.56345655 0.88832244
0.76684465 0.60304594 0.88867217
0.86212741 0.67390143 0.88980343
0.62683842 0.59970833 0.88835232
0.62690248 0.59971774 0.88835242
0.62739300 0.59978991 0.88835317
0.62945309 0.60009653 0.88835639
0.63630337 0.60115779 0.88836759
0.65540146 0.60447840 0.88840347
0.69798592 0.61412214 0.88851500
0.76956987 0.63923369 0.88886397
0.86309209 0.69272946 0.88999277
0.65892228 0.68645890 0.88894990
0.65896792 0.68646266 0.88894999
0.65931766 0.68649149 0.88895074
0.66079218 0.68661414 0.88895394
0.66575992 0.68704049 0.88896507
0.68011032 0.68839301 0.88900070
0.71444166 0.69248140 0.88911148
0.77756946 0.70426301 0.88945808
0.86602849 0.73482241 0.89057932
0.71970416 0.78619360 0.89079848
0.71972811 0.78619489 0.89079857
0.71991175 0.78620479 0.89079931
0.72068952 0.78624692 0.89080243
0.72335163 0.78639367 0.89081333
0.73140076 0.78686207 0.89084822
0.75275741 0.78830441 0.89095669
0.79892640 0.79268742 0.89129609
0.87465589 0.80568282 0.89239421
0.80748892 0.89158413 0.89657112
0.80749821 0.89158453 0.89657121
0.80756944 0.89158760 0.89657190
0.80787204 0.89160066 0.89657483
0.80891921 0.89164617 0.89658503
0.81219408 0.89179176 0.89661769
0.82168975 0.89224324 0.89671925
0.84629817 0.89364457 0.89703706
0.89806582 0.89806582 0.89806582
