src/ffmpeg_scripts/luts/sRGB-rec2020_-3p00.cube
TITLE "sRGB-rec2020_-3p00"
LUT_3D_SIZE 9
# PQ (EOTF Only)/sRGB -> PQ (EOTF Only)/Rec2020, CineEI Shift -3.00, Black Level 0.00% IRE, Input 100% -> Output 109% - Created with LUTCalc v4.01 by Ben Turley October 2020
0.06256172 0.06256172 0.06256172
0.10081025 0.07564422 0.06858288
0.15556232 0.10003922 0.08146832
0.22182996 0.13517813 0.10216506
0.29785482 0.18130630 0.13191272
0.38263635 0.23884857 0.17207211
0.47550757 0.30830222 0.22410113
0.57598384 0.39020163 0.28955034
0.68369311 0.48510333 0.37006350
0.09098018 0.10786814 0.07738786
0.10865638 0.10931868 0.07873998
0.15761170 0.11870943 0.08651653
0.22246767 0.14353436 0.10437449
0.29807179 0.18473786 0.13285979
0.38271264 0.24021469 0.17247315
0.47553430 0.30883013 0.22426625
0.57599292 0.39039652 0.28961512
0.68369601 0.48517054 0.37008716
0.13517235 0.16950507 0.10432052
0.14104670 0.16983603 0.10471463
0.17103147 0.17230955 0.10757776
0.22716427 0.18171369 0.11749318
0.29971760 0.20587045 0.13948545
0.38329618 0.24987753 0.17545505
0.47573933 0.31276867 0.22552030
0.57606257 0.39187849 0.29011071
0.68371830 0.48568497 0.37026861
0.19144695 0.24191257 0.14238723
0.19342839 0.24201160 0.14252602
0.20675306 0.24276716 0.14357735
0.24408121 0.24589273 0.14779370
0.30635362 0.25579609 0.16006230
0.38573661 0.28052716 0.18657727
0.47660699 0.32762492 0.23060288
0.57635851 0.39791673 0.29218467
0.68381311 0.48784314 0.37103667
0.25852620 0.32316455 0.19160526
0.25923005 0.32319748 0.19165776
0.26441349 0.32344990 0.19205930
0.28306933 0.32451555 0.19373796
0.32586849 0.32812302 0.19923784
0.39373918 0.33869218 0.21406457
0.47956901 0.36486204 0.24577832
0.57738300 0.41618835 0.29900060
0.68414291 0.49499369 0.37366094
0.33570738 0.41216979 0.25221303
0.33596271 0.41218117 0.25223326
0.33789693 0.41226851 0.25238835
0.34565146 0.41263937 0.25304474
0.36809620 0.41392015 0.25528587
0.41529697 0.41790042 0.26201632
0.48845708 0.42924713 0.27964472
0.58059095 0.45762702 0.31748033
0.68519139 0.51475232 0.38155650
0.42254037 0.50820203 0.32453856
0.42263218 0.50820596 0.32454624
0.42333398 0.50823615 0.32460518
0.42626073 0.50836453 0.32485562
0.43576915 0.50881072 0.32572259
0.46080326 0.51022533 0.32843728
0.51163741 0.51449370 0.33634024
0.58992694 0.52673651 0.35708090
0.68838110 0.55820868 0.40229587
0.51871239 0.61073359 0.40895501
0.51874426 0.61073491 0.40895781
0.51898861 0.61074503 0.40897932
0.52002168 0.61078810 0.40907081
0.52353602 0.61093808 0.40938903
0.53397356 0.61141681 0.41040040
0.56054302 0.61289107 0.41347456
0.61436020 0.61737202 0.42247392
0.69773903 0.63066867 0.44674213
0.62399491 0.71935897 0.50586147
0.62400531 0.71935938 0.50586243
0.62408514 0.71936258 0.50586977
0.62442420 0.71937621 0.50590103
0.62559686 0.71942369 0.50600993
0.62925735 0.71957560 0.50635782
0.63981765 0.72004669 0.50743200
0.66689000 0.72150931 0.51072296
0.72305851 0.72612772 0.52071226
0.07278971 0.06746553 0.10734909
0.10197279 0.07671847 0.10770535
0.15583694 0.10035778 0.11031218
0.22191421 0.13529215 0.11954121
0.29788340 0.18135003 0.14066408
0.38264639 0.23886562 0.17601739
0.47551109 0.30830877 0.22576197
0.57598504 0.39020404 0.29020695
0.68369349 0.48510416 0.37030394
0.09267852 0.10811140 0.10921536
0.10955086 0.10955086 0.10955086
0.15787491 0.11888466 0.11201511
0.22255108 0.14362814 0.12084616
0.29810029 0.18477896 0.14143381
0.38272267 0.24023140 0.17638976
0.47553782 0.30883663 0.22592290
0.57599411 0.39039893 0.29027117
0.68369640 0.48517137 0.37032753
0.13560538 0.16955964 0.12081365
0.14142388 0.16989025 0.12105174
0.17123318 0.17236126 0.12282972
0.22724182 0.18175710 0.12957531
0.29974548 0.20589902 0.14693351
0.38330614 0.24989203 0.17916626
0.47574284 0.31277485 0.22714551
0.57606376 0.39188086 0.29076248
0.68371868 0.48568579 0.37050846
0.19158596 0.24192887 0.14939919
0.19356269 0.24202786 0.14951791
0.20686035 0.24278325 0.15041948
0.24414135 0.24590810 0.15407317
0.30637921 0.25580940 0.16499791
0.38574630 0.28053661 0.18962900
0.47661047 0.32763004 0.23210764
0.57635970 0.39791893 0.29281882
0.68381349 0.48784394 0.37127435
0.25857501 0.32316996 0.19440582
0.25927838 0.32320289 0.19445583
0.26445842 0.32345529 0.19483843
0.28310411 0.32452088 0.19643956
0.32588845 0.32812811 0.20170297
0.39374800 0.33869665 0.21600560
0.47957237 0.36486529 0.24698107
0.57738418 0.41619014 0.29958055
0.68414329 0.49499443 0.37389135
0.33572503 0.41217166 0.25330948
0.33598031 0.41218304 0.25332939
0.33791411 0.41227038 0.25348206
0.34566709 0.41264124 0.25412826
0.36810812 0.41392199 0.25633542
0.41530385 0.41790217 0.26297103
0.48846013 0.42924868 0.28039427
0.58059208 0.45762814 0.31793775
0.68519176 0.51475292 0.38176648
0.42254671 0.50820268 0.32495707
0.42263851 0.50820661 0.32496471
0.42334027 0.50823680 0.32502335
0.42626681 0.50836518 0.32527247
0.43577461 0.50881136 0.32613494
0.46080740 0.51022597 0.32883588
0.51163978 0.51449430 0.33670164
0.58992797 0.52673704 0.35736164
0.68838147 0.55820906 0.40246092
0.51871459 0.61073381 0.40910793
0.51874646 0.61073513 0.40911072
0.51899081 0.61074525 0.40913219
0.52002385 0.61078831 0.40922353
0.52353811 0.61093830 0.40954119
0.53397542 0.61141702 0.41055081
0.56054443 0.61289128 0.41361979
0.61436100 0.61737222 0.42260504
0.69773936 0.63066885 0.44684199
0.62399563 0.71935903 0.50591372
0.62400603 0.71935945 0.50591468
0.62408585 0.71936265 0.50592202
0.62442492 0.71937628 0.50595326
0.62559756 0.71942376 0.50606210
0.62925803 0.71957567 0.50640980
0.63981825 0.72004676 0.50748338
0.66689045 0.72150937 0.51077254
0.72305876 0.72612779 0.52075678
0.09280305 0.07827621 0.16849673
0.10961805 0.08307800 0.16857698
0.15789493 0.10268818 0.16918910
0.22255744 0.13615737 0.17171688
0.29810246 0.18168468 0.17968875
0.38272344 0.23899641 0.19947342
0.47553809 0.30835901 0.23727599
0.57599420 0.39022255 0.29506696
0.68369642 0.48511054 0.37212763
0.10286446 0.10991822 0.16892619
0.11569736 0.11127903 0.16900578
0.15984986 0.12020207 0.16961286
0.22318797 0.14434164 0.17212063
0.29831873 0.18509355 0.18003672
0.38279965 0.24035956 0.19971929
0.47556481 0.30888653 0.23741109
0.57600328 0.39041740 0.29512718
0.68369933 0.48517774 0.37215072
0.13878875 0.16997674 0.17211043
0.14421635 0.17030472 0.17218530
0.17275665 0.17275665 0.17275665
0.22783425 0.18208929 0.17512192
0.29995928 0.20611800 0.18263733
0.38338259 0.25000328 0.20157403
0.47576977 0.31282229 0.23843949
0.57607292 0.39189901 0.29558801
0.68372161 0.48569213 0.37232778
0.19264227 0.24205384 0.18386746
0.19458373 0.24215266 0.18392767
0.20767793 0.24290666 0.18438790
0.24460134 0.24602598 0.18630560
0.30657536 0.25591158 0.19252313
0.38582060 0.28060908 0.20888483
0.47663714 0.32766936 0.24264934
0.57636882 0.39793586 0.29751905
0.68381642 0.48785013 0.37307741
0.25894874 0.32321154 0.21237889
0.25964841 0.32324445 0.21241595
0.26480249 0.32349672 0.21269983
0.28337062 0.32456176 0.21389395
0.32604151 0.32816718 0.21788696
0.39381570 0.33873091 0.22920995
0.47959820 0.36489024 0.25557756
0.57739321 0.41620386 0.30389333
0.68414621 0.49500016 0.37564000
0.33586046 0.41218603 0.26120091
0.33611531 0.41219741 0.26121870
0.33804592 0.41228474 0.26135517
0.34578694 0.41265553 0.26193321
0.36819959 0.41393607 0.26391241
0.41535670 0.41791563 0.26990565
0.48848357 0.42926052 0.28591023
0.58060081 0.45763676 0.32136450
0.68519465 0.51475755 0.38336179
0.42259539 0.50820764 0.32809949
0.42268714 0.50821158 0.32810684
0.42338851 0.50824176 0.32816321
0.42631348 0.50837013 0.32840273
0.43581655 0.50881629 0.32923222
0.46083914 0.51023082 0.33183232
0.51165801 0.51449894 0.33942424
0.58993587 0.52674111 0.35948635
0.68838426 0.55821196 0.40371798
0.51873148 0.61073548 0.41027332
0.51876335 0.61073679 0.41027608
0.51900765 0.61074691 0.41029726
0.52004051 0.61078998 0.41038739
0.52355415 0.61093996 0.41070086
0.53398977 0.61141868 0.41169726
0.56055523 0.61289291 0.41472703
0.61436710 0.61737377 0.42360546
0.69774188 0.63067019 0.44760514
0.62400114 0.71935956 0.50631396
0.62401154 0.71935998 0.50631491
0.62409136 0.71936318 0.50632222
0.62443041 0.71937680 0.50635333
0.62560298 0.71942429 0.50646170
0.62926324 0.71957619 0.50680790
0.63982292 0.72004729 0.50787690
0.66689396 0.72150989 0.51115236
0.72306069 0.72612828 0.52109793
0.12269187 0.09610314 0.24047688
0.13050682 0.09827443 0.24050089
0.16580151 0.11093875 0.24068496
0.22522567 0.13965293 0.24146296
0.29902802 0.18308694 0.24410738
0.38305064 0.23955033 0.25194684
0.47565294 0.30857251 0.27189427
0.57603321 0.39030131 0.31286889
0.68370890 0.48513769 0.37947895
0.12699144 0.11664507 0.24060569
0.13405850 0.11776048 0.24062965
0.16747455 0.12532948 0.24081337
0.22583071 0.14725731 0.24158990
0.29924169 0.18641326 0.24422947
0.38312656 0.24090242 0.25205578
0.47567963 0.30909859 0.27197654
0.57604228 0.39049597 0.31291669
0.68371181 0.48520487 0.37950012
0.15021184 0.17171584 0.24158669
0.15448078 0.17203309 0.24161031
0.17879261 0.17440739 0.24179138
0.23029763 0.18348142 0.24255682
0.30086277 0.20704143 0.24515976
0.38370728 0.25047484 0.25288663
0.47588433 0.31302392 0.27260515
0.57611190 0.39197624 0.31328275
0.68373409 0.48571911 0.37966249
0.19693479 0.24258331 0.24561077
0.19874049 0.24268135 0.24563303
0.21104091 0.24342953 0.24580370
0.24652553 0.24652553 0.24652553
0.30740487 0.25634487 0.24898418
0.38613617 0.28091682 0.25631670
0.47675063 0.32783650 0.27522199
0.57640768 0.39800787 0.31482218
0.68382889 0.48787648 0.38035023
0.26051791 0.32338829 0.25804260
0.26120230 0.32342113 0.25806121
0.26624892 0.32367284 0.25820391
0.28449457 0.32473553 0.25880818
0.32668982 0.32833329 0.26087525
0.39410328 0.33887662 0.26711731
0.47970807 0.36499637 0.28367753
0.57743164 0.41626228 0.31996470
0.68415863 0.49502454 0.38270536
0.33643442 0.41224718 0.28754178
0.33668747 0.41225855 0.28755418
0.33860465 0.41234582 0.28764930
0.34629520 0.41271635 0.28805289
0.36858785 0.41399601 0.28944315
0.41558132 0.41797292 0.29373008
0.48858329 0.42931090 0.30570553
0.58063796 0.45767347 0.33449651
0.68520693 0.51477724 0.38983845
0.42280230 0.50822877 0.34025074
0.42289384 0.50823270 0.34025706
0.42359357 0.50826288 0.34030555
0.42651189 0.50839123 0.34051164
0.43599485 0.50883729 0.34122607
0.46097413 0.51025150 0.34347275
0.51173559 0.51451868 0.35009289
0.58996952 0.52675841 0.36797058
0.68839613 0.55822433 0.40887504
0.51880337 0.61074256 0.41506775
0.51883521 0.61074388 0.41507037
0.51907932 0.61075400 0.41509042
0.52011139 0.61079706 0.41517575
0.52362241 0.61094703 0.41547259
0.53405079 0.61142571 0.41641650
0.56060119 0.61289983 0.41929033
0.61439308 0.61738037 0.42774193
0.69775263 0.63067593 0.45078325
0.62402461 0.71936180 0.50799866
0.62403501 0.71936222 0.50799959
0.62411481 0.71936542 0.50800677
0.62445377 0.71937904 0.50803732
0.62562606 0.71942653 0.50814373
0.62928544 0.71957843 0.50848371
0.63984277 0.72004951 0.50953363
0.66690887 0.72151208 0.51275203
0.72306890 0.72613036 0.52253638
0.16310057 0.12231817 0.32137145
0.16640864 0.12327178 0.32137944
0.18659049 0.12988621 0.32144079
0.23375358 0.15002414 0.32170139
0.30216992 0.18771593 0.32260326
0.38418164 0.24144654 0.32542445
0.47605223 0.30931228 0.33361473
0.57616908 0.39057529 0.35497356
0.68375240 0.48523228 0.40106475
0.16486377 0.13339209 0.32141436
0.16806221 0.13411100 0.32142234
0.18773152 0.13925107 0.32148365
0.23428493 0.15617937 0.32174411
0.30237501 0.19078636 0.32264551
0.38425656 0.24276153 0.32546522
0.47607881 0.30983339 0.33365154
0.57617813 0.39076934 0.35500190
0.68375530 0.48529939 0.40108122
0.17669951 0.17736570 0.32174303
0.17926732 0.17765102 0.32175098
0.19580555 0.17979311 0.32181204
0.23822937 0.18807914 0.32207142
0.30393189 0.21015554 0.32296913
0.38482968 0.25209414 0.32577759
0.47628261 0.31372281 0.33393363
0.57624765 0.39224496 0.35521921
0.68377757 0.48581310 0.40120755
0.20985262 0.24439748 0.32312713
0.21131362 0.24449294 0.32313495
0.22151855 0.24522155 0.32319495
0.25284123 0.24823915 0.32344986
0.31022929 0.25783483 0.32433220
0.38722735 0.28197975 0.32709380
0.47714515 0.32841648 0.33512354
0.57654301 0.39825848 0.35613799
0.68387233 0.48796829 0.40174331
0.26573211 0.32400143 0.32777235
0.26636841 0.32403401 0.32777972
0.27107539 0.32428379 0.32783632
0.28828550 0.32533841 0.32807683
0.32890969 0.32890969 0.32890969
0.39509843 0.33938257 0.33152009
0.48009005 0.36536531 0.33914006
0.57756551 0.41646562 0.35926378
0.68420192 0.49510948 0.40358565
0.33840416 0.41246003 0.34106242
0.33865114 0.41247137 0.34106867
0.34052299 0.41255843 0.34111668
0.34804287 0.41292807 0.34132073
0.36992759 0.41420466 0.34202813
0.41635992 0.41817235 0.34425311
0.48893009 0.42948634 0.35081301
0.58076735 0.45780134 0.36855196
0.68524974 0.51484584 0.40923636
0.42351988 0.50830240 0.37240754
0.42361068 0.50830633 0.37241183
0.42430479 0.50833648 0.37244473
0.42720012 0.50846472 0.37258465
0.43661367 0.50891043 0.37307065
0.46144320 0.51032353 0.37460849
0.51200554 0.51458748 0.37922239
0.59008673 0.52681873 0.39226143
0.68843752 0.55826742 0.42479655
0.51905355 0.61076725 0.42999501
0.51908531 0.61076857 0.42999722
0.51932877 0.61077868 0.43001415
0.52035808 0.61082173 0.43008622
0.52385997 0.61097167 0.43033700
0.53426324 0.61145022 0.43113540
0.56076125 0.61292397 0.43357475
0.61448361 0.61740339 0.44082029
0.69779010 0.63069593 0.46106098
0.62410638 0.71936961 0.51364324
0.62411676 0.71937003 0.51364412
0.62419650 0.71937323 0.51365088
0.62453516 0.71938685 0.51367962
0.62570645 0.71943433 0.51377975
0.62936279 0.71958622 0.51409970
0.63991196 0.72005726 0.51508823
0.66696083 0.72151971 0.51812258
0.72309751 0.72613763 0.52738410
0.21479983 0.15844057 0.41009314
0.21615010 0.15885272 0.41009591
0.22565704 0.16190705 0.41011714
0.25546413 0.17316660 0.41020745
0.31144800 0.20042703 0.41052156
0.38770616 0.24718502 0.41151999
0.47731932 0.31163512 0.41455579
0.57660287 0.39144691 0.42345066
0.68389156 0.48553453 0.44748692
0.21551213 0.16366132 0.41010799
0.21684729 0.16403232 0.41011075
0.22625806 0.16679374 0.41013198
0.25585086 0.17713390 0.41022227
0.31162995 0.20290765 0.41053634
0.38777806 0.24839478 0.41153460
0.47734553 0.31214097 0.41456990
0.57661189 0.39163900 0.42346341
0.68389445 0.48560143 0.44749665
0.22072834 0.19230996 0.41022190
0.22195882 0.19252825 0.41022466
0.23069673 0.19417751 0.41024585
0.25875151 0.20071885 0.41033603
0.31301318 0.21918904 0.41064969
0.38832815 0.25704001 0.41164667
0.47754653 0.31591994 0.41467816
0.57668108 0.39309991 0.42356127
0.68391669 0.48611345 0.44757139
0.23915770 0.24990282 0.41070515
0.24008855 0.24999092 0.41070789
0.24683900 0.25066371 0.41072897
0.26992281 0.25345680 0.41081865
0.31864271 0.26240501 0.41113059
0.39063123 0.28528473 0.41212214
0.47839727 0.33024607 0.41513751
0.57697508 0.39905619 0.42397666
0.68401131 0.48826168 0.44788886
0.28027130 0.32593378 0.41236931
0.28079276 0.32596558 0.41237200
0.28467906 0.32620938 0.41239269
0.29928164 0.32723899 0.41248068
0.33563167 0.33072818 0.41278676
0.39821037 0.34098198 0.41375984
0.48130274 0.36653603 0.41672039
0.57799294 0.41711366 0.42540974
0.68434041 0.49538098 0.44898694
0.34440888 0.41313822 0.41749571
0.34463833 0.41314947 0.41749825
0.34637906 0.41323586 0.41751776
0.35340220 0.41360266 0.41760076
0.37408015 0.41486954 0.41788953
0.41880799 0.41880799 0.41880799
0.49003196 0.43004586 0.42160604
0.58118053 0.45820961 0.42984907
0.68538671 0.51506521 0.45241597
0.42577950 0.50853780 0.43177116
0.42586801 0.50854171 0.43177332
0.42654470 0.50857179 0.43178992
0.42936887 0.50869971 0.43186056
0.43856704 0.50914429 0.43210640
0.46292925 0.51055385 0.43288913
0.51286481 0.51480746 0.43528151
0.59046113 0.52701162 0.44239517
0.68856993 0.55840528 0.46232103
0.51985026 0.61084628 0.46577603
0.51988174 0.61084760 0.46577751
0.52012312 0.61085771 0.46578889
0.52114373 0.61090072 0.46583728
0.52461671 0.61105053 0.46600581
0.53494037 0.61152869 0.46654341
0.56127202 0.61300122 0.46819611
0.61477295 0.61747707 0.47319386
0.69791001 0.63075996 0.48782180
0.62436776 0.71939462 0.52970819
0.62437812 0.71939504 0.52970893
0.62445763 0.71939824 0.52971461
0.62479537 0.71941186 0.52973879
0.62596346 0.71945933 0.52982305
0.62961006 0.71961118 0.53009238
0.64013317 0.72008209 0.53092547
0.66712706 0.72154416 0.53349156
0.72318910 0.72616090 0.54140364
0.27861677 0.20612426 0.50591800
0.27915003 0.20629710 0.50591896
0.28312121 0.20760818 0.50592630
0.29800060 0.21289497 0.50595754
0.33482739 0.22846836 0.50606637
0.39783023 0.26249173 0.50641405
0.48115313 0.31845059 0.50748758
0.57794000 0.39410384 0.51077660
0.68432324 0.48646869 0.52076043
0.27889712 0.20838516 0.50592313
0.27942836 0.20855171 0.50592409
0.28338502 0.20981571 0.50593143
0.29821715 0.21492418 0.50596267
0.33496296 0.23006342 0.50607150
0.39789416 0.26346529 0.50641916
0.48117826 0.31891448 0.50749263
0.57794889 0.39429011 0.51078147
0.68432612 0.48653491 0.52076480
0.28101505 0.22344601 0.50596254
0.28153131 0.22357701 0.50596350
0.28538011 0.22457413 0.50597083
0.29985986 0.22865458 0.50600206
0.33599649 0.24117531 0.50611084
0.39838349 0.27052997 0.50645835
0.48137102 0.32238860 0.50753137
0.57801711 0.39570714 0.51081886
0.68434826 0.48704176 0.52079838
0.28941032 0.26468424 0.50613010
0.28987176 0.26475563 0.50613106
0.29332387 0.26530147 0.50613838
0.30648414 0.26757964 0.50616955
0.34025425 0.27500266 0.50627813
0.40043617 0.29472326 0.50662502
0.48218707 0.33568615 0.50769612
0.57830698 0.40149234 0.51097787
0.68444244 0.48916862 0.52094119
0.31302455 0.33166363 0.50671190
0.31336398 0.33169324 0.50671285
0.31592240 0.33192023 0.50672013
0.32597032 0.33287942 0.50675110
0.35356958 0.33613686 0.50685901
0.40723521 0.34576678 0.50720372
0.48497647 0.37007774 0.50826819
0.57931062 0.41910007 0.51153008
0.68477005 0.49622067 0.52143735
0.36069732 0.41521548 0.50855086
0.36088573 0.41522648 0.50855179
0.36231847 0.41531084 0.50855893
0.36815704 0.41566909 0.50858929
0.38583589 0.41690672 0.50869508
0.42601745 0.42075696 0.50903304
0.49337836 0.43176462 0.51007679
0.58245471 0.45946828 0.51327670
0.68581161 0.51574448 0.52300872
0.43246298 0.50926643 0.51404990
0.43254507 0.50927032 0.51405078
0.43317289 0.50930016 0.51405750
0.43579703 0.50942707 0.51408612
0.44438554 0.50986818 0.51418581
0.46740326 0.51126686 0.51450437
0.51548861 0.51548861 0.51548861
0.59161666 0.52760926 0.51851012
0.68898076 0.55883297 0.52773500
0.52228643 0.61109177 0.52944896
0.52231710 0.61109308 0.52944970
0.52255225 0.61110316 0.52945539
0.52354669 0.61114606 0.52947965
0.52693275 0.61129548 0.52956414
0.53701641 0.61177241 0.52983422
0.56284374 0.61324118 0.53066960
0.61566760 0.61770595 0.53324264
0.69828212 0.63095889 0.54117496
0.62517648 0.71947240 0.56706224
0.62518676 0.71947282 0.56706274
0.62526559 0.71947602 0.56706655
0.62560046 0.71948962 0.56708279
0.62675871 0.71953705 0.56713935
0.63037537 0.71968878 0.56732029
0.64081821 0.72015930 0.56788105
0.66764242 0.72162017 0.56961875
0.72347352 0.72623326 0.57507417
0.35541314 0.26715922 0.60831988
0.35561391 0.26722819 0.60832020
0.35713953 0.26775559 0.60832266
0.36333798 0.26995849 0.60833315
0.38194656 0.27715380 0.60836969
0.42358727 0.29638008 0.60848660
0.49223342 0.33667333 0.60884947
0.58201548 0.40194472 0.60997880
0.68566471 0.48933885 0.61357177
0.35551857 0.26807169 0.60832160
0.35571908 0.26813979 0.60832192
0.35724279 0.26866058 0.60832439
0.36343384 0.27083643 0.60833487
0.38202347 0.27794965 0.60837141
0.42363490 0.29699621 0.60848832
0.49225570 0.33704285 0.60885118
0.58202399 0.40211487 0.60998049
0.68566755 0.48940303 0.61357340
0.35632369 0.27471890 0.60833483
0.35652226 0.27478103 0.60833515
0.35803143 0.27525640 0.60833761
0.36416627 0.27724615 0.60834809
0.38261173 0.28379018 0.60838462
0.42399977 0.30156843 0.60850152
0.49242655 0.33982547 0.60886433
0.58208933 0.40341041 0.60999348
0.68568937 0.48989433 0.61358591
0.35966627 0.29777245 0.60839109
0.35985703 0.29781808 0.60839141
0.36130740 0.29816755 0.60839387
0.36721445 0.29963758 0.60840435
0.38507151 0.30455260 0.60844086
0.42553638 0.31847536 0.60855769
0.49315034 0.35071104 0.60892028
0.58236696 0.40871939 0.61004877
0.68578223 0.49195689 0.61363913
0.37037237 0.34738057 0.60858700
0.37054026 0.34740497 0.60858731
0.37181841 0.34759209 0.60858977
0.37705293 0.34838389 0.60860022
0.39313347 0.35108614 0.60863666
0.43069408 0.35918921 0.60875325
0.49563006 0.38031184 0.60911509
0.58332852 0.42505585 0.61024127
0.68610522 0.49880614 0.61382447
0.39767145 0.42143037 0.60921165
0.39779344 0.42144061 0.60921197
0.39872450 0.42151923 0.60921441
0.40257975 0.42185313 0.60922479
0.41482455 0.42300739 0.60926099
0.44544903 0.42660564 0.60937681
0.50315012 0.43695037 0.60973628
0.58634353 0.46330679 0.61085513
0.68713221 0.51784363 0.61441557
0.45067026 0.51151561 0.61112930
0.45073724 0.51151940 0.61112961
0.45124991 0.51154853 0.61113200
0.45340025 0.51167240 0.61114218
0.46051988 0.51210298 0.61117764
0.48016100 0.51346858 0.61129114
0.52326892 0.51759349 0.61164342
0.59515236 0.52945954 0.61274006
0.69025799 0.56016209 0.61623152
0.52953931 0.61185773 0.61690426
0.52956768 0.61185903 0.61690456
0.52978524 0.61186903 0.61690681
0.53070575 0.61191159 0.61691638
0.53384564 0.61205980 0.61694975
0.54324480 0.61253290 0.61705653
0.56761026 0.61399000 0.61738801
0.61842037 0.61842037 0.61842037
0.69943995 0.63158022 0.62171182
0.62766944 0.71971597 0.63361282
0.62767945 0.71971639 0.63361307
0.62775623 0.71971958 0.63361495
0.62808242 0.71973315 0.63362297
0.62921086 0.71978045 0.63365094
0.63273668 0.71993179 0.63374045
0.64293549 0.72040110 0.63401842
0.66924106 0.72185823 0.63488512
0.72436014 0.72645989 0.63765844
0.44607681 0.34347641 0.71689439
0.44614730 0.34350200 0.71689449
0.44668675 0.34369824 0.71689527
0.44894757 0.34452840 0.71689859
0.45641287 0.34735840 0.71691015
0.47686662 0.35581686 0.71694719
0.52121811 0.37770077 0.71706234
0.59420450 0.42350620 0.71742264
0.68991259 0.49812360 0.71858846
0.44611381 0.34381632 0.71689493
0.44618428 0.34384181 0.71689503
0.44672350 0.34403724 0.71689581
0.44898341 0.34486398 0.71689913
0.45644586 0.34768260 0.71691070
0.47689296 0.35610952 0.71694774
0.52123439 0.37792633 0.71706289
0.59421198 0.42363926 0.71742319
0.68991530 0.49818194 0.71858900
0.44639744 0.34638036 0.71689912
0.44646768 0.34640506 0.71689922
0.44700521 0.34659446 0.71690000
0.44925814 0.34739590 0.71690332
0.45669878 0.35013029 0.71691488
0.47709496 0.35832297 0.71695192
0.52135932 0.37963869 0.71706706
0.59426940 0.42465439 0.71742735
0.68993617 0.49862865 0.71859311
0.44759492 0.35648013 0.71691693
0.44766423 0.35650198 0.71691703
0.44819467 0.35666958 0.71691781
0.45041834 0.35737928 0.71692113
0.45776762 0.35980712 0.71693270
0.47794989 0.36713838 0.71696973
0.52188930 0.38656598 0.71708485
0.59451346 0.42885002 0.71744507
0.69002493 0.50050646 0.71861061
0.45164911 0.38440854 0.71697902
0.45171537 0.38442423 0.71697912
0.45222252 0.38454457 0.71697990
0.45435005 0.38505500 0.71698322
0.46139806 0.38681102 0.71699477
0.48086939 0.39220428 0.71703178
0.52371366 0.40710860 0.71714682
0.59535941 0.44209909 0.71750680
0.69033373 0.50676956 0.71867158
0.46352750 0.43911685 0.71717757
0.46358560 0.43912524 0.71717768
0.46403048 0.43918967 0.71717845
0.46590031 0.43946342 0.71718176
0.47213361 0.44041125 0.71719329
0.48963805 0.44338083 0.71723022
0.52932662 0.45203797 0.71734502
0.59801867 0.47480735 0.71770424
0.69131589 0.52437924 0.71886659
0.49288522 0.51849507 0.71779271
0.49292736 0.51849859 0.71779281
0.49325026 0.51852560 0.71779358
0.49461232 0.51864051 0.71779687
0.49920920 0.51904000 0.71780833
0.51255736 0.52030795 0.71784501
0.54490150 0.52414610 0.71795906
0.60584444 0.53525224 0.71831594
0.69430803 0.56437162 0.71947078
0.54990986 0.61431412 0.71969657
0.54993268 0.61431539 0.71969667
0.55010770 0.61432514 0.71969742
0.55084911 0.61436660 0.71970064
0.55338897 0.61451102 0.71971187
0.56108904 0.61497204 0.71974782
0.58166813 0.61639232 0.71985958
0.62688096 0.62071408 0.72020931
0.70312082 0.63357919 0.72134119
0.63537323 0.72050616 0.72565124
0.63538245 0.72050657 0.72565134
0.63545323 0.72050973 0.72565205
0.63575397 0.72052319 0.72565507
0.63679500 0.72057010 0.72566560
0.64005384 0.72072016 0.72569934
0.64953026 0.72118555 0.72580423
0.67427551 0.72263063 0.72613249
0.72719539 0.72719539 0.72719539
