src/ffmpeg_scripts/luts/sRGB-rec2020_0-Native.cube
TITLE "sRGB-rec2020_0-Native"
LUT_3D_SIZE 9
# PQ (EOTF Only)/sRGB -> PQ (EOTF Only)/Rec2020, CineEI Shift 0.00, Black Level 0.00% IRE, Input 100% -> Output 109% - Created with LUTCalc v4.01 by Ben Turley October 2020
0.06256172 0.06256172 0.06256172
0.15277466 0.09868295 0.08071362
0.24940415 0.15125409 0.11224389
0.34930475 0.21551770 0.15543130
0.45155958 0.28979290 0.20989754
0.55568840 0.37312444 0.27557357
0.66138923 0.46487683 0.35251952
0.76845239 0.56458950 0.44086220
0.87672275 0.67190983 0.54076716
0.13286253 0.16641546 0.10283704
0.16790991 0.16916139 0.10599985
0.25270919 0.18652425 0.12338346
0.35020857 0.22964531 0.15972368
0.45183772 0.29500786 0.21153362
0.55577844 0.37501047 0.27619698
0.66141863 0.46554573 0.35275281
0.76846177 0.56481805 0.44094604
0.87672559 0.67198328 0.54079539
0.21550780 0.27157004 0.15961940
0.22547610 0.27208749 0.16038022
0.27395336 0.27594273 0.16586352
0.35683729 0.29041392 0.18431329
0.45394533 0.32637656 0.22284397
0.55646700 0.38824679 0.28081527
0.66164413 0.47052416 0.35452252
0.76853379 0.56655480 0.44158725
0.87674740 0.67254535 0.54101189
0.30510172 0.37734936 0.22772649
0.30805792 0.37748559 0.22795899
0.32766071 0.37852444 0.22971709
0.38032851 0.38281009 0.23671582
0.46240452 0.39626728 0.25663926
0.55934296 0.42912162 0.29778846
0.66259807 0.48911880 0.36166014
0.76883975 0.57360907 0.44426660
0.87684017 0.67490132 0.54192796
0.39994555 0.48356595 0.30533831
0.40089169 0.48360704 0.30541676
0.40783273 0.48392195 0.30601650
0.43244206 0.48525052 0.30851879
0.48693518 0.48973734 0.31666259
0.56873233 0.50278998 0.33822435
0.66585040 0.53454579 0.38265354
0.76989856 0.59474621 0.45302762
0.87716284 0.68268331 0.54505324
0.49911763 0.59012376 0.39141942
0.49943220 0.59013687 0.39144685
0.50181258 0.59023750 0.39165717
0.51131117 0.59066467 0.39254680
0.53841750 0.59213895 0.39557838
0.59372214 0.59671115 0.40462855
0.67557092 0.60966838 0.42796664
0.77321005 0.64160020 0.47645255
0.87818831 0.70400061 0.55441321
0.60202332 0.69696334 0.48527919
0.60212824 0.69696757 0.48528876
0.60293001 0.69700007 0.48536220
0.60626900 0.69713827 0.48567418
0.61706576 0.69761851 0.48675361
0.64513348 0.69914017 0.49012742
0.70065774 0.70372331 0.49989716
0.78281405 0.71680151 0.52518434
0.88130496 0.74998020 0.57870328
0.70824108 0.80404394 0.58641532
0.70827516 0.80404527 0.58641856
0.70853647 0.80405554 0.58644340
0.70964078 0.80409924 0.58654907
0.71339219 0.80425142 0.58691654
0.72448628 0.80473707 0.58808383
0.75241677 0.80623187 0.59162621
0.80772032 0.81076818 0.60194738
0.89042179 0.82416721 0.62943103
0.81745355 0.91133571 0.69444169
0.81746403 0.91133611 0.69444272
0.81754447 0.91133920 0.69445064
0.81788610 0.91135231 0.69448434
0.81906717 0.91139802 0.69460175
0.82274936 0.91154424 0.69497676
0.83333386 0.91199764 0.69613415
0.86021500 0.91340469 0.69967513
0.91489404 0.91784166 0.71037859
0.09167067 0.07763527 0.16542834
0.15505543 0.10125277 0.16610613
0.24984801 0.15188311 0.17103165
0.34942420 0.21571289 0.18803026
0.45159621 0.28985959 0.22483215
0.55570024 0.37314800 0.28168288
0.66139310 0.46488513 0.35486317
0.76845362 0.56459233 0.44171172
0.87672313 0.67191074 0.54105404
0.13639073 0.16687724 0.16896641
0.16959922 0.16959922 0.16959922
0.25313243 0.18684193 0.17421817
0.35032672 0.22980189 0.19038327
0.45187424 0.29507010 0.22612685
0.55579028 0.37503352 0.28225683
0.66142250 0.46555396 0.35508995
0.76846301 0.56482088 0.44179477
0.87672597 0.67198418 0.54108218
0.21624875 0.27165538 0.19032479
0.22611017 0.27217222 0.19075290
0.27426769 0.27602310 0.19393781
0.35694634 0.29048006 0.20583781
0.45398101 0.32641817 0.23529463
0.55647875 0.38826652 0.28652214
0.66164798 0.47053195 0.35681090
0.76853503 0.56655757 0.44242995
0.87674777 0.67254625 0.54129802
0.30530947 0.37737178 0.23935947
0.30825790 0.37750797 0.23955450
0.32781667 0.37854655 0.24103358
0.38041099 0.38283111 0.24699182
0.46243701 0.39628526 0.26448439
0.55935436 0.42913397 0.30237959
0.66260189 0.48912516 0.36376276
0.76884098 0.57361164 0.44508458
0.87684055 0.67490220 0.54221130
0.40001120 0.48357271 0.30951214
0.40095663 0.48361380 0.30958647
0.40789269 0.48392868 0.31015492
0.43248742 0.48525716 0.31252942
0.48696001 0.48974366 0.32028634
0.56874265 0.50279546 0.34100712
0.66585409 0.53454968 0.38429795
0.76989978 0.59474827 0.45376997
0.87716321 0.68268412 0.54532729
0.49913938 0.59012592 0.39290539
0.49945388 0.59013903 0.39293235
0.50183371 0.59023965 0.39313908
0.51133023 0.59066681 0.39401362
0.53843175 0.59214106 0.39699498
0.59373005 0.59671316 0.40590584
0.67557425 0.60967014 0.42894776
0.77321122 0.64160145 0.47702654
0.87818868 0.70400126 0.55466126
0.60203057 0.69696404 0.48580055
0.60213548 0.69696827 0.48581006
0.60293719 0.69700076 0.48588309
0.60627593 0.69713897 0.48619331
0.61707194 0.69761920 0.48726668
0.64513807 0.69914085 0.49062203
0.70066029 0.70372396 0.50034210
0.78281511 0.71680208 0.52552326
0.88130531 0.74998059 0.57889493
0.70824343 0.80404416 0.58659194
0.70827752 0.80404549 0.58659517
0.70853882 0.80405576 0.58661996
0.70964310 0.80409946 0.58672543
0.71339442 0.80425164 0.58709222
0.72448825 0.80473728 0.58825736
0.75241824 0.80623209 0.59179335
0.80772113 0.81076838 0.60209723
0.89042211 0.82416738 0.62954311
0.81745427 0.91133578 0.69449802
0.81746475 0.91133618 0.69449905
0.81754519 0.91133926 0.69450697
0.81788682 0.91135238 0.69454065
0.81906788 0.91139809 0.69465799
0.82275004 0.91154431 0.69503277
0.83333447 0.91199770 0.69618948
0.86021545 0.91340475 0.69972842
0.91489428 0.91784172 0.71042614
0.13664788 0.10492045 0.26999116
0.16972583 0.11585001 0.27011695
0.25316461 0.15645201 0.27107568
0.35033572 0.21719180 0.27502091
0.45187703 0.29036972 0.28732203
0.55579118 0.37332872 0.31700959
0.66142280 0.46494880 0.37094876
0.76846310 0.56461403 0.44797968
0.87672600 0.67191771 0.54322808
0.15679534 0.17029102 0.27066406
0.18102909 0.17284375 0.27078869
0.25629950 0.18922334 0.27173862
0.35122835 0.23099188 0.27564903
0.45215419 0.29554634 0.28785426
0.55588113 0.37521025 0.31737159
0.66145219 0.46561717 0.37113587
0.76847248 0.56484253 0.44805713
0.87672884 0.67199115 0.54325557
0.22166547 0.27230738 0.27563317
0.23078311 0.27281962 0.27574958
0.27663734 0.27663734 0.27663734
0.35777897 0.29098601 0.28030081
0.45425450 0.32673693 0.29181997
0.55656894 0.38841786 0.32009720
0.66167760 0.47059179 0.37255895
0.76854450 0.56657883 0.44864961
0.87675064 0.67255317 0.54346646
0.30688641 0.37754371 0.29368851
0.30977654 0.37767963 0.29377986
0.32900421 0.37871612 0.29447767
0.38104168 0.38299237 0.29737842
0.46268612 0.39642315 0.30670870
0.55944183 0.42922877 0.33075422
0.66263121 0.48917399 0.37836252
0.76885042 0.57363137 0.45112901
0.87684341 0.67490895 0.54435892
0.40051366 0.48362459 0.33580041
0.40145365 0.48366565 0.33585378
0.40835175 0.48398036 0.33626243
0.43283493 0.48530809 0.33797932
0.48715044 0.48979216 0.34369592
0.56882181 0.50283756 0.35970952
0.66588242 0.53457959 0.39597229
0.76990911 0.59476403 0.45927549
0.87716607 0.68269034 0.54740539
0.49930623 0.59014247 0.40353635
0.49962015 0.59015558 0.40356019
0.50199576 0.59025619 0.40374307
0.51147648 0.59068328 0.40451727
0.53854108 0.59215727 0.40716377
0.59379078 0.59672861 0.41513690
0.67559981 0.60968360 0.43614085
0.77322022 0.64161106 0.48131785
0.87819150 0.70400622 0.55654441
0.60208619 0.69696938 0.48970813
0.60219104 0.69697361 0.48971725
0.60299228 0.69700611 0.48978723
0.60632911 0.69714430 0.49008455
0.61711939 0.69762451 0.49111363
0.64517334 0.69914607 0.49433383
0.70067988 0.70372893 0.50368903
0.78282322 0.71680640 0.52808540
0.88130803 0.74998362 0.58035372
0.70826150 0.80404585 0.58793721
0.70829558 0.80404718 0.58794040
0.70855683 0.80405745 0.58796484
0.70966090 0.80410115 0.58806882
0.71341152 0.80425332 0.58843044
0.72450345 0.80473896 0.58957926
0.75242950 0.80623374 0.59306698
0.80772731 0.81076995 0.60324004
0.89042457 0.82416874 0.63039935
0.81745983 0.91133629 0.69492948
0.81747031 0.91133669 0.69493051
0.81755074 0.91133977 0.69493838
0.81789235 0.91135288 0.69497191
0.81907334 0.91139859 0.69508871
0.82275528 0.91154481 0.69546179
0.83333913 0.91199820 0.69661327
0.86021891 0.91340525 0.70013661
0.91489613 0.91784219 0.71079050
0.19369163 0.14338789 0.37537201
0.20745946 0.14774916 0.37540511
0.26575310 0.17220688 0.37565884
0.35410705 0.22312691 0.37673055
0.45306274 0.29250347 0.38036440
0.55617731 0.37409373 0.39105832
0.66154912 0.46521935 0.41776915
0.76850344 0.56470639 0.47065058
0.87673821 0.67194738 0.55195652
0.20131272 0.18276523 0.37554959
0.21359727 0.18480011 0.37558262
0.26838692 0.19838072 0.37583582
0.35496003 0.23583000 0.37690531
0.45333628 0.29754094 0.38053185
0.55626689 0.37595852 0.39120611
0.66157848 0.46588574 0.41787790
0.76851281 0.56493467 0.47071086
0.87674105 0.67202080 0.55198157
0.24069326 0.27501930 0.37690088
0.24765304 0.27551288 0.37693339
0.28594958 0.27919607 0.37718260
0.36123302 0.29310263 0.37823534
0.45540955 0.32807983 0.38180676
0.55695189 0.38905916 0.39233258
0.66180359 0.47084608 0.41870853
0.76858479 0.56666928 0.47117244
0.87676285 0.67258265 0.55217373
0.31326244 0.37827175 0.38242424
0.31592953 0.37840651 0.38245470
0.33387159 0.37943423 0.38268827
0.38367546 0.38367546 0.38367546
0.46373895 0.39700772 0.38703054
0.55981327 0.42963122 0.39696973
0.66275593 0.48938157 0.42215940
0.76889059 0.57371529 0.47311159
0.87685561 0.67493770 0.55298734
0.40262062 0.48384510 0.39929497
0.40353821 0.48388606 0.39932001
0.41027939 0.48420001 0.39951202
0.43429925 0.48552459 0.40032470
0.48795674 0.48999835 0.40309982
0.56915804 0.50301656 0.41143498
0.66600293 0.53470682 0.43323497
0.76994882 0.59483112 0.47956672
0.87717822 0.68271681 0.55576985
0.50001313 0.59021292 0.43825951
0.50032467 0.59022602 0.43827559
0.50268244 0.59032655 0.43839899
0.51209651 0.59075332 0.43892238
0.53900509 0.59222623 0.44072345
0.59404889 0.59679431 0.44625897
0.67570853 0.60974089 0.46158109
0.77325854 0.64165194 0.49762477
0.87820351 0.70402732 0.56416348
0.60232263 0.69699213 0.50470331
0.60242722 0.69699636 0.50471106
0.60322647 0.69702885 0.50477054
0.60655518 0.69716701 0.50502331
0.61732110 0.69764710 0.50589918
0.64532333 0.69916830 0.50864960
0.70076321 0.70375010 0.51671987
0.78285774 0.71682482 0.53826732
0.88131963 0.74999654 0.58632296
0.70833838 0.80405303 0.59345868
0.70837243 0.80405437 0.59346169
0.70863347 0.80406464 0.59348474
0.70973664 0.80410833 0.59358282
0.71348430 0.80426049 0.59392395
0.72456811 0.80474609 0.59500821
0.75247744 0.80624075 0.59830443
0.80775363 0.81077663 0.60795599
0.89043502 0.82417450 0.63396004
0.81748347 0.91133844 0.69674438
0.81749395 0.91133884 0.69674538
0.81757436 0.91134193 0.69675311
0.81791588 0.91135504 0.69678600
0.81909657 0.91140075 0.69690057
0.82277759 0.91154696 0.69726656
0.83335898 0.91200034 0.69839630
0.86023361 0.91340735 0.70185469
0.91490403 0.91784419 0.71232594
0.26147945 0.19302363 0.48132653
0.26671005 0.19472644 0.48133652
0.29780841 0.20637961 0.48141320
0.36605722 0.24038545 0.48173890
0.45707861 0.29950470 0.48286540
0.55751117 0.37670794 0.48638252
0.66198821 0.46615630 0.49653651
0.76864391 0.56502767 0.52263752
0.87678077 0.67205074 0.57727297
0.26427239 0.21245098 0.48138016
0.26930966 0.21368746 0.48139015
0.29952817 0.22244777 0.48146678
0.36679674 0.25040104 0.48179229
0.45734026 0.30411368 0.48291814
0.55759949 0.37851670 0.48643328
0.66201743 0.46681587 0.49658196
0.76865328 0.56525517 0.52267181
0.87678360 0.67212408 0.57729211
0.28273392 0.28375893 0.48179094
0.28667692 0.28419749 0.48180088
0.31159002 0.28748170 0.48187717
0.37226836 0.30005135 0.48220123
0.45932459 0.33259286 0.48332209
0.55827487 0.39125815 0.48682206
0.66224150 0.47172708 0.49693019
0.76872515 0.56698393 0.52293467
0.87680540 0.67268532 0.57743894
0.33215491 0.38076221 0.48351927
0.33426508 0.38089309 0.48352902
0.34886306 0.38189138 0.48360389
0.39227106 0.38601508 0.48392190
0.46731671 0.39901533 0.48502203
0.56109682 0.43102014 0.48845891
0.66318946 0.49010161 0.49839805
0.76903048 0.57400728 0.52404540
0.87689811 0.67503784 0.57806149
0.40959105 0.48460973 0.48930190
0.41043848 0.48465036 0.48931106
0.41668602 0.48496170 0.48938135
0.43922393 0.48627540 0.48967999
0.49071359 0.49071359 0.49071359
0.57032092 0.50363788 0.49394758
0.66642185 0.53514900 0.50334011
0.77008712 0.59506461 0.52781725
0.87722056 0.68280903 0.58020022
0.50243608 0.59045811 0.50569860
0.50273956 0.59047117 0.50570627
0.50503724 0.59057144 0.50576511
0.51422621 0.59099711 0.50601518
0.54060496 0.59246625 0.50688175
0.59494325 0.59702301 0.50960355
0.67608661 0.60994034 0.51759469
0.77339198 0.64179432 0.53896220
0.87824537 0.70410088 0.58674025
0.60314232 0.69707139 0.54356145
0.60324600 0.69707562 0.54356655
0.60403838 0.69710808 0.54360573
0.60733912 0.69724612 0.54377234
0.61802099 0.69772581 0.54435087
0.64584440 0.69924575 0.54617992
0.70105316 0.70382387 0.55165284
0.78297801 0.71688901 0.56700322
0.88136003 0.75004155 0.60459952
0.70860591 0.80407809 0.61051848
0.70863987 0.80407942 0.61052099
0.70890016 0.80408969 0.61054023
0.71000023 0.80413337 0.61062212
0.71373758 0.80428549 0.61090706
0.72479318 0.80477096 0.61181382
0.75264439 0.80626521 0.61458087
0.80784531 0.81079990 0.62277020
0.89047145 0.82419458 0.64541982
0.81756587 0.91134596 0.70281112
0.81757634 0.91134636 0.70281206
0.81765668 0.91134944 0.70281931
0.81799789 0.91136256 0.70285014
0.81917751 0.91140826 0.70295757
0.82285532 0.91155446 0.70330077
0.83342813 0.91200781 0.70436071
0.86028487 0.91341470 0.70761017
0.91493153 0.91785116 0.71749055
0.33927952 0.25404111 0.58772931
0.34121393 0.25470239 0.58773250
0.35471528 0.25958228 0.58775699
0.39581913 0.27727365 0.58786121
0.46885713 0.31841271 0.58822361
0.56165967 0.38457653 0.58937495
0.66338081 0.46909347 0.59287008
0.76909236 0.56604923 0.60306326
0.87691692 0.67238100 0.63026673
0.34030050 0.26236895 0.58774644
0.34221107 0.26295681 0.58774963
0.35556205 0.26731637 0.58777412
0.39634122 0.28340244 0.58787831
0.46908694 0.32205143 0.58824066
0.56174417 0.38622728 0.58939178
0.66340960 0.46973214 0.59288631
0.76910168 0.56627427 0.60307782
0.87691976 0.67245408 0.63027766
0.34774128 0.30639064 0.58787788
0.34948745 0.30671634 0.58788106
0.36179142 0.30917269 0.58790552
0.40024851 0.31884160 0.58800957
0.47083254 0.34555202 0.58837141
0.56239050 0.39794487 0.58952095
0.66363040 0.47449247 0.59301079
0.76917320 0.56798458 0.60318958
0.87694152 0.67301337 0.63036149
0.37355154 0.38828119 0.58843538
0.37483648 0.38840105 0.58843855
0.38410387 0.38931589 0.58846286
0.41515963 0.39310489 0.58856630
0.47791061 0.40514876 0.58892601
0.56509326 0.43532753 0.59006886
0.66456460 0.49237027 0.59353886
0.76947706 0.57493634 0.60366385
0.87703409 0.67535783 0.63071756
0.42878685 0.48701641 0.59035361
0.42946900 0.48705598 0.59035672
0.43453942 0.48735928 0.59038054
0.45338743 0.48863933 0.59048190
0.49902434 0.49296738 0.59083440
0.57395123 0.50560000 0.59195451
0.66775105 0.53655117 0.59535712
0.77052864 0.59580852 0.60529892
0.87735605 0.68310376 0.63194850
0.50979388 0.59123906 0.59624690
0.51007419 0.59125201 0.59624982
0.51219878 0.59135146 0.59627220
0.52073525 0.59177363 0.59636743
0.54555182 0.59323083 0.59669867
0.59775171 0.59775171 0.59775171
0.67728732 0.61057627 0.60095516
0.77381803 0.64224887 0.61035263
0.87837929 0.70433604 0.63578614
0.60572050 0.69732477 0.61253547
0.60582140 0.69732899 0.61253792
0.60659257 0.69736136 0.61255676
0.60980680 0.69749904 0.61263693
0.62022815 0.69797744 0.61291586
0.64749404 0.69949336 0.61380365
0.70197575 0.70405973 0.61651391
0.78336209 0.71709426 0.62454442
0.88148931 0.75018554 0.64681907
0.70945759 0.80415828 0.65064944
0.70949123 0.80415961 0.65065108
0.70974918 0.80416987 0.65066368
0.71083940 0.80421351 0.65071727
0.71454414 0.80436550 0.65090386
0.72551035 0.80485054 0.65149894
0.75317701 0.80634351 0.65332698
0.80813829 0.81087440 0.65884229
0.89058800 0.82425888 0.67487805
0.81782923 0.91137004 0.71996112
0.81783967 0.91137044 0.71996191
0.81791978 0.91137352 0.71996794
0.81826001 0.91138663 0.71999363
0.81943626 0.91143232 0.72008314
0.82310380 0.91157848 0.72036920
0.83364924 0.91203170 0.72125374
0.86044882 0.91343820 0.72397550
0.91501955 0.91787349 0.73234118
0.42661968 0.32674605 0.69450263
0.42731864 0.32699757 0.69450367
0.43250972 0.32890297 0.69451158
0.45174646 0.33654324 0.69454526
0.49803288 0.35866933 0.69466259
0.57350827 0.40526478 0.69503736
0.66758712 0.47766975 0.69619401
0.77047396 0.56915870 0.69973278
0.87733925 0.67340129 0.71043004
0.42698720 0.33003013 0.69450817
0.42768328 0.33027155 0.69450920
0.43285370 0.33210153 0.69451711
0.45202402 0.33945784 0.69455079
0.49820006 0.36090519 0.69466812
0.57358278 0.40656650 0.69504286
0.66761466 0.47825126 0.69619945
0.77048314 0.56937643 0.69973802
0.87734207 0.67347359 0.71043471
0.42975965 0.35159340 0.69455065
0.43043439 0.35177867 0.69455168
0.43545159 0.35318760 0.69455959
0.45412733 0.35893064 0.69459326
0.49947380 0.37633446 0.69471053
0.57415292 0.41596399 0.69508511
0.66782586 0.48259737 0.69624118
0.77055361 0.57103175 0.69977821
0.87736372 0.67402688 0.71047057
0.44068095 0.40819400 0.69473129
0.44127813 0.40828924 0.69473232
0.44573561 0.40901714 0.69474022
0.46257028 0.41204969 0.69477382
0.50470761 0.42187059 0.69489086
0.57654213 0.44753754 0.69526472
0.66871967 0.49909147 0.69641860
0.77085297 0.57776990 0.69994910
0.87745585 0.67634662 0.71062310
0.47084689 0.49412516 0.69535835
0.47127483 0.49416179 0.69535937
0.47449557 0.49444256 0.69536721
0.48706187 0.49562830 0.69540059
0.52093800 0.49964669 0.69551686
0.58442754 0.51145188 0.69588825
0.67177119 0.54078415 0.69703456
0.77188911 0.59808644 0.70054244
0.87777628 0.68401498 0.71115293
0.52954347 0.59362849 0.69733884
0.52977018 0.59364112 0.69733984
0.53149290 0.59373809 0.69734752
0.53849022 0.59414974 0.69738020
0.55945983 0.59557100 0.69749406
0.60599173 0.59998379 0.69785774
0.68092852 0.61252805 0.69898045
0.77513126 0.64364940 0.70241782
0.87879469 0.70506401 0.71282984
0.61332038 0.69810885 0.70324736
0.61341348 0.69811303 0.70324830
0.61412537 0.69814514 0.70325551
0.61709731 0.69828167 0.70328620
0.62678381 0.69875612 0.70339313
0.65245028 0.70025964 0.70373475
0.70478983 0.70478983 0.70478983
0.78454704 0.71773005 0.70802474
0.88189035 0.75063215 0.71786378
0.71205924 0.80440734 0.71968572
0.71209197 0.80440867 0.71968651
0.71234288 0.80441890 0.71969257
0.71340356 0.80446242 0.71971833
0.71701034 0.80461400 0.71980810
0.72770733 0.80509773 0.72009500
0.75481504 0.80658669 0.72098212
0.80904395 0.81110582 0.72371167
0.89094968 0.82445864 0.73209995
0.81864386 0.91144491 0.75920424
0.81865421 0.91144531 0.75920476
0.81873360 0.91144839 0.75920872
0.81907080 0.91146148 0.75922559
0.82023666 0.91150714 0.75928438
0.82387263 0.91165317 0.75947239
0.83433379 0.91210600 0.76005496
0.86095704 0.91351131 0.76185908
0.91529284 0.91794294 0.76751154
0.52316919 0.41149072 0.80159320
0.52341194 0.41158243 0.80159352
0.52525512 0.41228354 0.80159602
0.53271740 0.41520691 0.80160668
0.55487396 0.42469980 0.80164380
0.60321926 0.44966726 0.80176257
0.67968363 0.50030726 0.80213117
0.77467867 0.57829546 0.80327790
0.87865109 0.67653215 0.80692167
0.52329667 0.41270352 0.80159495
0.52353909 0.41279398 0.80159527
0.52537978 0.41348549 0.80159777
0.53283247 0.41636974 0.80160842
0.55496479 0.42574462 0.80164555
0.60327365 0.45045823 0.80176432
0.67970786 0.50076205 0.80213291
0.77468745 0.57849309 0.80327962
0.87865386 0.67660209 0.80692332
0.52426979 0.42149683 0.80160838
0.52450968 0.42157868 0.80160871
0.52633147 0.42220470 0.80161121
0.53371140 0.42482110 0.80162186
0.55565933 0.43338178 0.80165897
0.60369023 0.45631088 0.80177773
0.67989368 0.50418152 0.80214627
0.77475478 0.57999692 0.80329281
0.87867520 0.67713739 0.80693599
0.52830214 0.45145396 0.80166555
0.52853189 0.45151247 0.80166587
0.53027742 0.45196045 0.80166837
0.53736304 0.45384295 0.80167901
0.55855976 0.46011478 0.80171611
0.60544332 0.47770080 0.80183479
0.68068068 0.51747086 0.80220310
0.77504086 0.58614315 0.80334893
0.87876597 0.67938280 0.80698992
0.54113568 0.51341955 0.80186456
0.54133596 0.51344928 0.80186489
0.54285969 0.51367722 0.80186738
0.54908219 0.51464136 0.80187800
0.56802385 0.51792634 0.80191501
0.61131266 0.52772739 0.80203344
0.68337411 0.55294193 0.80240095
0.77603133 0.60489532 0.80354432
0.87908169 0.68681758 0.80717768
0.57332321 0.60075424 0.80249901
0.57346539 0.60076596 0.80249933
0.57455011 0.60085588 0.80250181
0.57903289 0.60123771 0.80251235
0.59317910 0.60255695 0.80254911
0.62797902 0.60666200 0.80266672
0.69151584 0.61840167 0.80303170
0.77913360 0.64791287 0.80416725
0.88008523 0.70731170 0.80777640
0.63383359 0.70052690 0.80444541
0.63390855 0.70053098 0.80444573
0.63448219 0.70056226 0.80444815
0.63688598 0.70069534 0.80445848
0.64481856 0.70115780 0.80449446
0.66649963 0.70262371 0.80460959
0.71310736 0.70704402 0.80496691
0.78816812 0.71969698 0.80607881
0.88313667 0.75201938 0.80961460
0.71978172 0.80518425 0.81029514
0.71981186 0.80518558 0.81029544
0.72004298 0.80519572 0.81029771
0.72102049 0.80523887 0.81030740
0.72435074 0.80538916 0.81034115
0.73428222 0.80586882 0.81044914
0.75977367 0.80734536 0.81078435
0.81182796 0.81182796 0.81182796
0.89207466 0.82508243 0.81515151
0.82115289 0.91167935 0.82712168
0.82116295 0.91167975 0.82712193
0.82124018 0.91168282 0.82712382
0.82156822 0.91169588 0.82713187
0.82270264 0.91174141 0.82715991
0.82624294 0.91188705 0.82724966
0.83644807 0.91233866 0.82752836
0.86253272 0.91374022 0.82839708
0.91614459 0.91816042 0.83117430
0.62868412 0.50865407 0.90896194
0.62876327 0.50868537 0.90896203
0.62936887 0.50892532 0.90896279
0.63190438 0.50993990 0.90896598
0.64024748 0.51339253 0.90897713
0.66288340 0.52365729 0.90901282
0.71091883 0.54985033 0.90912379
0.78719805 0.60312669 0.90947095
0.88279970 0.68607818 0.91059388
0.62872567 0.50906968 0.90896246
0.62880479 0.50910084 0.90896256
0.62941013 0.50933972 0.90896331
0.63194454 0.51034979 0.90896651
0.64028425 0.51378747 0.90897766
0.66291235 0.52401100 0.90901335
0.71093622 0.55011768 0.90912431
0.78720571 0.60327864 0.90947148
0.88280235 0.68614139 0.91059440
0.62904412 0.51220036 0.90896650
0.62912297 0.51223048 0.90896659
0.62972628 0.51246144 0.90896735
0.63225236 0.51343823 0.90897054
0.64056613 0.51676532 0.90898169
0.66313431 0.52668313 0.90901738
0.71106962 0.55214556 0.90912834
0.78726449 0.60443732 0.90947549
0.88282271 0.68662534 0.91059836
0.63038788 0.52445879 0.90898367
0.63046562 0.52448518 0.90898376
0.63106046 0.52468763 0.90898451
0.63355162 0.52554455 0.90898771
0.64175678 0.52847178 0.90899886
0.66407340 0.53727202 0.90903454
0.71163539 0.56031899 0.90914548
0.78751431 0.60921680 0.90949256
0.88290931 0.68865814 0.91061521
0.63492873 0.55777862 0.90904350
0.63500283 0.55779710 0.90904359
0.63556989 0.55793893 0.90904434
0.63794655 0.55854030 0.90904754
0.64579426 0.56060723 0.90905868
0.66727619 0.56693631 0.90909434
0.71358159 0.58428110 0.90920519
0.78837996 0.62421102 0.90955204
0.88321055 0.69542048 0.91067392
0.64815766 0.62084882 0.90923483
0.64822209 0.62085829 0.90923492
0.64871540 0.62093100 0.90923567
0.65078705 0.62123992 0.90923886
0.65767382 0.62230905 0.90924997
0.67685818 0.62565381 0.90928555
0.71955574 0.63536357 0.90939617
0.79109857 0.66061885 0.90974225
0.88416841 0.71429108 0.91086169
0.68039245 0.70800864 0.90982747
0.68043826 0.70801241 0.90982756
0.68078929 0.70804130 0.90982831
0.68226918 0.70816421 0.90983147
0.68725406 0.70859143 0.90984251
0.70164570 0.70994666 0.90987785
0.73602700 0.71404259 0.90998771
0.79907653 0.72584056 0.91033144
0.88708378 0.75640597 0.91144334
0.74129124 0.80767366 0.91166067
0.74131519 0.80767495 0.91166077
0.74149887 0.80768481 0.91166150
0.74227676 0.80772681 0.91166460
0.74493901 0.80787306 0.91167540
0.75298622 0.80833988 0.91171000
0.77432068 0.80977728 0.91181756
0.82035967 0.81414464 0.91215412
0.89564711 0.82708796 0.91324301
0.82888616 0.91243975 0.91738432
0.82889540 0.91244014 0.91738441
0.82896631 0.91244318 0.91738509
0.82926757 0.91245613 0.91738799
0.83031007 0.91250126 0.91739810
0.83356995 0.91264563 0.91743049
0.84301921 0.91309331 0.91753117
0.86748698 0.91448279 0.91784623
0.91886608 0.91886608 0.91886608
